assets/lut/others vibrant alien.cube
# Created by: G'MIC (https://gmic.eu)
TITLE "vibrant_alien"
# LUT size
LUT_3D_SIZE 7
# Data domain
DOMAIN_MIN 0.0 0.0 0.0
DOMAIN_MAX 1.0 1.0 1.0
# LUT data points
0.025299446657299995 0.0088277328759431839 0.012706711888313293
0.12627622485160828 0.0086736641824245453 0.012888500466942787
0.28066766262054443 0.01132552232593298 0.013395421206951141
0.48085519671440125 0.007976531982421875 0.012534796260297298
0.69959139823913574 0.0098771192133426666 0.010285575874149799
0.86363911628723145 0.010858259163796902 0.010336079634726048
0.96957826614379883 0.0067346161231398582 0.01152140274643898
0.026061607524752617 0.097124092280864716 0.013245451264083385
0.12586778402328491 0.093098767101764679 0.010406180284917355
0.28225433826446533 0.10611220449209213 0.012211623601615429
0.48260807991027832 0.098533228039741516 0.0088311592116951942
0.70413714647293091 0.10618945956230164 0.0098896399140357971
0.8688843846321106 0.094306290149688721 0.010578155517578125
0.96787267923355103 0.096643455326557159 0.0089000780135393143
0.023892242461442947 0.4313291609287262 0.014129878021776676
0.12681351602077484 0.42086613178253174 0.010478613898158073
0.27430522441864014 0.43190854787826538 0.01244035642594099
0.4824104905128479 0.4230102002620697 0.0091540021821856499
0.7002837061882019 0.42011627554893494 0.011058553121984005
0.87130296230316162 0.42685282230377197 0.008645704947412014
0.96766060590744019 0.43745630979537964 0.013662180863320827
0.026078512892127037 0.7129594087600708 0.012555021792650223
0.12584015727043152 0.70875793695449829 0.0097145382314920425
0.27774280309677124 0.70487022399902344 0.010415813885629177
0.48043829202651978 0.70440888404846191 0.008725394494831562
0.69427210092544556 0.70486080646514893 0.0096678640693426132
0.8650214672088623 0.70735907554626465 0.011370101943612099
0.96951276063919067 0.71358126401901245 0.011661425232887268
0.023588726297020912 0.81437909603118896 0.015294377692043781
0.12589670717716217 0.8105894923210144 0.016784263774752617
0.27608957886695862 0.81318879127502441 0.011933165602385998
0.48423826694488525 0.8055155873298645 0.011229691095650196
0.69275718927383423 0.80667215585708618 0.012996942736208439
0.86298412084579468 0.80038642883300781 0.015861930325627327
0.96207231283187866 0.80245286226272583 0.011316427029669285
0.027464309707283974 0.82352942228317261 0.0098901037126779556
0.12846653163433075 0.82351934909820557 0.014278157614171505
0.27695807814598083 0.82506769895553589 0.01192652340978384
0.47628083825111389 0.82498079538345337 0.011354872956871986
0.69467037916183472 0.82639783620834351 0.013540484942495823
0.86711984872817993 0.82193672657012939 0.014457657933235168
0.96509158611297607 0.82362043857574463 0.015895513817667961
0.020565751940011978 0.81960785388946533 0.013543925248086452
0.12653939425945282 0.81960785388946533 0.014889107085764408
0.27496469020843506 0.81960785388946533 0.011629186570644379
0.47343337535858154 0.82327622175216675 0.0098806191235780716
0.69697046279907227 0.82114511728286743 0.010088512673974037
0.8676307201385498 0.81960785388946533 0.015020377933979034
0.97185146808624268 0.82352942228317261 0.014550721272826195
0.024973116815090179 0.0090605048462748528 0.07475695013999939
0.12669935822486877 0.0058817993849515915 0.078623302280902863
0.27666053175926208 0.012862635776400566 0.0832047238945961
0.47849437594413757 0.0077696256339550018 0.077581934630870819
0.69819897413253784 0.0075266221538186073 0.077110216021537781
0.86595368385314941 0.0065650041215121746 0.076375626027584076
0.96770429611206055 0.006494858767837286 0.080164708197116852
0.026192639023065567 0.101992167532444 0.078631140291690826
0.1266341358423233 0.098002821207046509 0.076168403029441833
0.27934673428535461 0.096533440053462982 0.076428674161434174
0.47875943779945374 0.095411188900470734 0.077139712870121002
0.6977502703666687 0.1021515354514122 0.076891429722309113
0.86887937784194946 0.095012500882148743 0.073608756065368652
0.96947526931762695 0.10229960083961487 0.080491639673709869
0.023903686553239822 0.42871028184890747 0.079468734562397003
0.12775973975658417 0.42117965221405029 0.074578814208507538
0.27844482660293579 0.41941314935684204 0.076387040317058563
0.47802212834358215 0.4258715808391571 0.079339466989040375
0.70063364505767822 0.42220619320869446 0.073103390634059906
0.86947172880172729 0.42890983819961548 0.076132453978061676
0.97005432844161987 0.42161732912063599 0.084903672337532043
0.028491750359535217 0.7024160623550415 0.081282414495944977
0.12672987580299377 0.70578348636627197 0.08062763512134552
0.27853143215179443 0.71348649263381958 0.070773027837276459
0.48305144906044006 0.71058470010757446 0.071107573807239532
0.70435023307800293 0.70916330814361572 0.076502330601215363
0.86948865652084351 0.70773017406463623 0.072014480829238892
0.96974438428878784 0.71142017841339111 0.074626743793487549
0.02344830147922039 0.8121953010559082 0.079513609409332275
0.12756058573722839 0.80810081958770752 0.079659707844257355
0.27997863292694092 0.80950427055358887 0.0782041996717453
0.4852747917175293 0.80829346179962158 0.077611573040485382
0.69610923528671265 0.80747890472412109 0.072396524250507355
0.86798053979873657 0.81106144189834595 0.076391048729419708
0.9686589241027832 0.80821907520294189 0.074299484491348267
0.025604188442230225 0.82374995946884155 0.074547998607158661
0.12671060860157013 0.82220613956451416 0.082192815840244293
0.27788400650024414 0.82385170459747314 0.076454788446426392
0.47882369160652161 0.82489120960235596 0.073651298880577087
0.69726353883743286 0.82466059923171997 0.071817003190517426
0.86746227741241455 0.824565589427948 0.07953750342130661
0.97043502330780029 0.82312679290771484 0.073403000831604004
0.021285710856318474 0.82211118936538696 0.072882905602455139
0.12542808055877686 0.82091242074966431 0.077174089848995209
0.2805371880531311 0.82337796688079834 0.080287113785743713
0.48144629597663879 0.8230474591255188 0.075595945119857788
0.70242851972579956 0.82138514518737793 0.083046615123748779
0.8679625391960144 0.82169651985168457 0.084690451622009277
0.97204256057739258 0.8234068751335144 0.077467344701290131
0.027450412511825562 0.0045684962533414364 0.26002335548400879
0.12694638967514038 0.010499796830117702 0.26261699199676514
0.27411559224128723 0.0099200382828712463 0.25739166140556335
0.48073521256446838 0.010609092190861702 0.26991444826126099
0.69932234287261963 0.0085946777835488319 0.27024376392364502
0.86855792999267578 0.0058588963001966476 0.2674560546875
0.96817493438720703 0.012022953480482101 0.26557716727256775
0.02320963516831398 0.092053674161434174 0.26384824514389038
0.12341266870498657 0.094437770545482635 0.25774702429771423
0.27465209364891052 0.09593510627746582 0.25863534212112427
0.47957947850227356 0.10318411886692047 0.26622217893600464
0.69589275121688843 0.10400336980819702 0.2610267698764801
0.86685663461685181 0.093032851815223694 0.25762173533439636
0.97211384773254395 0.098506912589073181 0.25937604904174805
0.025826023891568184 0.41403770446777344 0.27042889595031738
0.124294713139534 0.41751265525817871 0.26131543517112732
0.27801045775413513 0.42785599827766418 0.26413938403129578
0.48097684979438782 0.42508438229560852 0.27023863792419434
0.70190584659576416 0.41979783773422241 0.26144284009933472
0.86716365814208984 0.42714950442314148 0.2600226104259491
0.972251296043396 0.42277085781097412 0.26115325093269348
0.023779312148690224 0.70482510328292847 0.26715987920761108
0.12527965009212494 0.70655250549316406 0.26526841521263123
0.27931267023086548 0.70749145746231079 0.25983878970146179
0.48555389046669006 0.70788252353668213 0.26732140779495239
0.69892513751983643 0.70219129323959351 0.26419541239738464
0.86718440055847168 0.71378403902053833 0.25782403349876404
0.96869951486587524 0.71208333969116211 0.25800973176956177
0.022589275613427162 0.80911374092102051 0.26668065786361694
0.12748944759368896 0.80470067262649536 0.2692183256149292
0.27916499972343445 0.80904865264892578 0.26696330308914185
0.48381474614143372 0.80837571620941162 0.26599609851837158
0.69934463500976562 0.80800825357437134 0.25704652070999146
0.87009322643280029 0.81088423728942871 0.25668466091156006
0.96621519327163696 0.80766379833221436 0.26247692108154297
0.024790162220597267 0.82395201921463013 0.26652362942695618
0.12790383398532867 0.82352942228317261 0.26513522863388062
0.2795642614364624 0.82353562116622925 0.27028492093086243
0.48049059510231018 0.82329833507537842 0.26018908619880676
0.69721245765686035 0.82352942228317261 0.25528514385223389
0.86362695693969727 0.82352942228317261 0.25606700778007507
0.97019690275192261 0.82316380739212036 0.26171773672103882
0.024604214355349541 0.81960785388946533 0.25929850339889526
0.12930496037006378 0.82352942228317261 0.25744670629501343
0.27914747595787048 0.82352942228317261 0.26410850882530212
0.47641342878341675 0.82352942228317261 0.25905278325080872
0.70256072282791138 0.82352942228317261 0.2620689868927002
0.86876100301742554 0.82352942228317261 0.26909941434860229
0.96921831369400024 0.82288026809692383 0.26939675211906433
0.025653598830103874 0.0073207630775868893 0.53929537534713745
0.12458400428295135 0.0092123439535498619 0.53033876419067383
0.27963787317276001 0.0085558276623487473 0.51983892917633057
0.47806847095489502 0.010266157798469067 0.52718847990036011
0.69423359632492065 0.007086136844009161 0.53000766038894653
0.8662712574005127 0.0084161646664142609 0.52590775489807129
0.9689868688583374 0.011499726213514805 0.5318758487701416
0.023360712453722954 0.092553094029426575 0.52725350856781006
0.12392118573188782 0.1011684313416481 0.52884292602539062
0.27533060312271118 0.095665380358695984 0.52717435359954834
0.47987082600593567 0.10036119818687439 0.53150010108947754
0.69947969913482666 0.10019649565219879 0.52771937847137451
0.87010592222213745 0.094947248697280884 0.52687257528305054
0.96480798721313477 0.094485640525817871 0.52400726079940796
0.025943292304873466 0.42304793000221252 0.52575588226318359
0.12365172058343887 0.40390130877494812 0.52493292093276978
0.28038716316223145 0.42624810338020325 0.52516597509384155
0.4818548858165741 0.42569833993911743 0.53202933073043823
0.69879376888275146 0.41496288776397705 0.52361375093460083
0.8674924373626709 0.41845926642417908 0.52685767412185669
0.97074657678604126 0.4177226722240448 0.53028911352157593
0.022680364549160004 0.71293693780899048 0.53425866365432739
0.12309698760509491 0.71042937040328979 0.52451074123382568
0.27887263894081116 0.69277632236480713 0.52844226360321045
0.47931003570556641 0.70293682813644409 0.53338640928268433
0.70207113027572632 0.70908218622207642 0.52300822734832764
0.86472207307815552 0.71061646938323975 0.51581144332885742
0.96559250354766846 0.71164089441299438 0.52413904666900635
0.024905186146497726 0.81003862619400024 0.52724564075469971
0.12716944515705109 0.8075263500213623 0.52200669050216675
0.2763843834400177 0.80940169095993042 0.52861988544464111
0.47882041335105896 0.80600005388259888 0.52799522876739502
0.69720852375030518 0.80771076679229736 0.51548826694488525
0.87024778127670288 0.81095665693283081 0.51936531066894531
0.96786737442016602 0.8106275200843811 0.52271181344985962
0.024261130020022392 0.82287579774856567 0.52467948198318481
0.12884122133255005 0.82345408201217651 0.52612578868865967
0.27822694182395935 0.82336264848709106 0.51947861909866333
0.47344356775283813 0.82552218437194824 0.52330738306045532
0.69727778434753418 0.82175183296203613 0.52875930070877075
0.86440449953079224 0.82088923454284668 0.5183073878288269
0.96794307231903076 0.82352942228317261 0.52153152227401733
0.022922785952687263 0.82127386331558228 0.52151143550872803
0.12710249423980713 0.82191884517669678 0.52223032712936401
0.2778879702091217 0.81960785388946533 0.51963049173355103
0.47330504655838013 0.82352942228317261 0.5208544135093689
0.70080244541168213 0.82237899303436279 0.53375113010406494
0.86836928129196167 0.82052409648895264 0.53537088632583618
0.97323036193847656 0.81960785388946533 0.52895724773406982
0.035537704825401306 0.0073171877302229404 0.77748680114746094
0.12843865156173706 0.0098479920998215675 0.77808761596679688
0.2741636335849762 0.0099418787285685539 0.77909451723098755
0.48034954071044922 0.010632069781422615 0.7750057578086853
0.70409256219863892 0.0073956805281341076 0.77890568971633911
0.87113845348358154 0.0061270021833479404 0.78122824430465698
0.96980971097946167 0.011883051134645939 0.79018795490264893
0.02327595092356205 0.10003902763128281 0.78213948011398315
0.12603878974914551 0.099768169224262238 0.78145676851272583
0.27634310722351074 0.099632188677787781 0.77372419834136963
0.48087063431739807 0.10491835325956345 0.77927142381668091
0.69849246740341187 0.099795624613761902 0.77866017818450928
0.87137556076049805 0.095391124486923218 0.7804064154624939
0.9695466160774231 0.10341053456068039 0.77793413400650024
0.027216009795665741 0.43205878138542175 0.78266400098800659
0.12802788615226746 0.42044782638549805 0.77690720558166504
0.27774706482887268 0.42656692862510681 0.77637749910354614
0.47973465919494629 0.42522796988487244 0.77932602167129517
0.69828695058822632 0.42870208621025085 0.78014999628067017
0.86751902103424072 0.43095824122428894 0.77950191497802734
0.97330313920974731 0.42749890685081482 0.78213721513748169
0.026565806940197945 0.71523916721343994 0.77944779396057129
0.1257527768611908 0.70509093999862671 0.77145791053771973
0.27746707201004028 0.70515310764312744 0.77918201684951782
0.48129865527153015 0.70849394798278809 0.77833980321884155
0.70138794183731079 0.71192550659179688 0.77348768711090088
0.86973774433135986 0.71253573894500732 0.77505874633789062
0.96995675563812256 0.71123158931732178 0.77252703905105591
0.027193047106266022 0.806618332862854 0.77649581432342529
0.12763634324073792 0.80688822269439697 0.77964890003204346
0.28029295802116394 0.80850112438201904 0.77856588363647461
0.48043182492256165 0.80806034803390503 0.78170651197433472
0.69898951053619385 0.80900919437408447 0.777446448802948
0.86830079555511475 0.8118128776550293 0.77696627378463745
0.96961671113967896 0.81080090999603271 0.78118163347244263
0.024991981685161591 0.82391446828842163 0.78312432765960693
0.12680082023143768 0.82068955898284912 0.7833520770072937
0.27666386961936951 0.82352942228317261 0.77461904287338257
0.47656112909317017 0.82357704639434814 0.77727437019348145
0.69667661190032959 0.82353657484054565 0.78044146299362183
0.86537402868270874 0.82352942228317261 0.77440285682678223
0.96739482879638672 0.82352942228317261 0.77609407901763916
0.0255279541015625 0.82013404369354248 0.76648181676864624
0.1275833398103714 0.81960785388946533 0.78184151649475098
0.2767709493637085 0.81961357593536377 0.77785605192184448
0.48370063304901123 0.82352942228317261 0.78187251091003418
0.70111936330795288 0.82296741008758545 0.78348934650421143
0.86837494373321533 0.81968718767166138 0.78177464008331299
0.96758937835693359 0.81992214918136597 0.77896809577941895
0.028957696631550789 0.007436700165271759 0.93153142929077148
0.12936197221279144 0.011642112396657467 0.93293160200119019
0.27575817704200745 0.01060022134333849 0.93580120801925659
0.47742488980293274 0.010806050151586533 0.93385928869247437
0.70168209075927734 0.0067429337650537491 0.93620759248733521
0.86920899152755737 0.0085811689496040344 0.93904983997344971
0.96783274412155151 0.014158660545945168 0.93029940128326416
0.024698713794350624 0.095896311104297638 0.93381685018539429
0.12772072851657867 0.097054257988929749 0.93845659494400024
0.27584859728813171 0.098274528980255127 0.92962348461151123
0.48289817571640015 0.10194272547960281 0.93048548698425293
0.70376920700073242 0.094883009791374207 0.93248867988586426
0.86554515361785889 0.10197806358337402 0.93764740228652954
0.97069507837295532 0.097979523241519928 0.93720436096191406
0.024695571511983871 0.41684845089912415 0.93172800540924072
0.12493546307086945 0.41681006550788879 0.93444371223449707
0.2793654203414917 0.41199040412902832 0.93463432788848877
0.48290485143661499 0.42854964733123779 0.92658871412277222
0.70510011911392212 0.41574311256408691 0.93609857559204102
0.86588889360427856 0.43097680807113647 0.9323609471321106
0.96927255392074585 0.42714625597000122 0.93514984846115112
0.022997194901108742 0.71053266525268555 0.93234384059906006
0.12476751208305359 0.71058183908462524 0.93137425184249878
0.27872911095619202 0.70995700359344482 0.93381386995315552
0.48132997751235962 0.70970910787582397 0.93344461917877197
0.70239925384521484 0.70481854677200317 0.9287647008895874
0.8688662052154541 0.70769715309143066 0.93468093872070312
0.97000968456268311 0.71208387613296509 0.93678116798400879
0.028947388753294945 0.80240494012832642 0.93323558568954468
0.12657232582569122 0.80734783411026001 0.92960035800933838
0.28419148921966553 0.80427956581115723 0.93061113357543945
0.48325887322425842 0.80583840608596802 0.93104451894760132
0.70214039087295532 0.80935454368591309 0.93211323022842407
0.86995011568069458 0.8078579306602478 0.93572676181793213
0.97043168544769287 0.80970078706741333 0.93740701675415039
0.02806721068918705 0.82352942228317261 0.93537694215774536
0.12617942690849304 0.8236238956451416 0.92734074592590332
0.27880600094795227 0.82352942228317261 0.933646559715271
0.48355394601821899 0.82352942228317261 0.93364697694778442
0.70427775382995605 0.82239687442779541 0.93052774667739868
0.86629515886306763 0.82115834951400757 0.93414568901062012
0.97348082065582275 0.82352942228317261 0.93827527761459351
0.023375283926725388 0.81997674703598022 0.93309009075164795
0.12789724767208099 0.82106733322143555 0.93173098564147949
0.28114938735961914 0.82352942228317261 0.93553429841995239
0.48481351137161255 0.82352942228317261 0.93312162160873413
0.70403105020523071 0.82180678844451904 0.93588119745254517
0.86585694551467896 0.82022106647491455 0.93782144784927368
0.96496272087097168 0.82080328464508057 0.93595641851425171
0.026871774345636368 0.010190043598413467 0.99115204811096191
0.12745265662670135 0.0088579216971993446 0.98838698863983154
0.27927520871162415 0.010027462616562843 0.98983454704284668
0.48493042588233948 0.0056334999389946461 0.98779237270355225
0.7062796950340271 0.0080725876614451408 0.98962950706481934
0.86421281099319458 0.014541386626660824 0.99171155691146851
0.97234237194061279 0.0071667241863906384 0.99096804857254028
0.022214896976947784 0.095295518636703491 0.99185115098953247
0.12675800919532776 0.10199496895074844 0.99126213788986206
0.27583974599838257 0.094492927193641663 0.98940372467041016
0.48358374834060669 0.10082872956991196 0.98757469654083252
0.70177561044692993 0.10113134980201721 0.9835817813873291
0.8703342080116272 0.099020533263683319 0.99199151992797852
0.96868926286697388 0.096002332866191864 0.99116861820220947
0.025374842807650566 0.42185136675834656 0.99037730693817139
0.12182440608739853 0.42197111248970032 0.98699218034744263
0.28186669945716858 0.42576497793197632 0.98930102586746216
0.48147624731063843 0.42741262912750244 0.9898679256439209
0.70258516073226929 0.41900429129600525 0.98342657089233398
0.86886215209960938 0.43305304646492004 0.98495805263519287
0.96908164024353027 0.41898724436759949 0.98891216516494751
0.022083431482315063 0.70812022686004639 0.98990011215209961
0.12378504127264023 0.70892417430877686 0.98743098974227905
0.27920490503311157 0.70956426858901978 0.98458468914031982
0.48629534244537354 0.70304781198501587 0.9860684871673584
0.70225608348846436 0.71008551120758057 0.98150783777236938
0.86841034889221191 0.70827668905258179 0.98668307065963745
0.97198492288589478 0.7087409496307373 0.98958295583724976
0.027054460719227791 0.80525869131088257 0.98687088489532471
0.12685170769691467 0.81035012006759644 0.99034303426742554
0.28258544206619263 0.80416399240493774 0.98637813329696655
0.48343548178672791 0.80431967973709106 0.98472732305526733
0.69785052537918091 0.80601006746292114 0.98442095518112183
0.86685442924499512 0.80767172574996948 0.98794925212860107
0.97142428159713745 0.81177800893783569 0.99103701114654541
0.024101480841636658 0.8242870569229126 0.98658543825149536
0.12577581405639648 0.82352942228317261 0.98546111583709717
0.27484956383705139 0.82380253076553345 0.99093323945999146
0.4844500720500946 0.82331335544586182 0.98889333009719849
0.70184653997421265 0.81961095333099365 0.98864686489105225
0.86944031715393066 0.82440143823623657 0.98882311582565308
0.97140097618103027 0.82352942228317261 0.99367165565490723
0.024917302653193474 0.81960785388946533 0.98805969953536987
0.12574028968811035 0.82352942228317261 0.98222213983535767
0.27679234743118286 0.81982415914535522 0.98782366514205933
0.48700639605522156 0.82330536842346191 0.99021828174591064
0.70431053638458252 0.8234710693359375 0.99217575788497925
0.87088018655776978 0.82352942228317261 0.99262106418609619
0.97151833772659302 0.82352942228317261 0.9915584921836853
