assets/lut/others extreme.cube
# Created by: G'MIC (https://gmic.eu)
TITLE "extreme"
# LUT size
LUT_3D_SIZE 7
# Data domain
DOMAIN_MIN 0.0 0.0 0.0
DOMAIN_MAX 1.0 1.0 1.0
# LUT data points
0.0039215688593685627 0.0085753193125128746 0.055003896355628967
0.052688419818878174 0.006082586944103241 0.063099458813667297
0.25930294394493103 0.0031873516272753477 0.065947093069553375
0.49455699324607849 0.0061572357080876827 0.053506635129451752
0.63950645923614502 0.0073111141100525856 0.096700899302959442
0.79432910680770874 0.009901413694024086 0.084458552300930023
0.94401603937149048 0.0054116044193506241 0.064749985933303833
0.0018338521476835012 0.0648484006524086 0.065286643803119659
0.041151951998472214 0.050018925219774246 0.060714781284332275
0.24560950696468353 0.055493060499429703 0.05840732529759407
0.49920365214347839 0.051508720964193344 0.05961965024471283
0.63938850164413452 0.057159751653671265 0.05792153999209404
0.80062878131866455 0.057296916842460632 0.084342703223228455
0.95042288303375244 0.050521250814199448 0.062716752290725708
0.00052436377154663205 0.25986021757125854 0.062334038317203522
0.039641078561544418 0.23063516616821289 0.058244265615940094
0.25298476219177246 0.22766779363155365 0.056383498013019562
0.50083523988723755 0.22636404633522034 0.078421890735626221
0.65135288238525391 0.23004887998104095 0.063412591814994812
0.80546027421951294 0.2426946759223938 0.071260206401348114
0.94032806158065796 0.22079747915267944 0.05787721648812294
0.0019427879014983773 0.48752734065055847 0.058517277240753174
0.049876779317855835 0.49246591329574585 0.079032957553863525
0.26155033707618713 0.48411482572555542 0.05617191269993782
0.49465298652648926 0.48878094553947449 0.061715546995401382
0.64504289627075195 0.48512446880340576 0.065993338823318481
0.80008292198181152 0.48750072717666626 0.066576279699802399
0.9478258490562439 0.48041513562202454 0.070473797619342804
0.0035793529823422432 0.64837014675140381 0.071820415556430817
0.045111741870641708 0.6447608470916748 0.065712317824363708
0.27518472075462341 0.64668017625808716 0.056662451475858688
0.49370744824409485 0.64910781383514404 0.059018723666667938
0.64074712991714478 0.64755183458328247 0.076335325837135315
0.79906105995178223 0.65411752462387085 0.075321584939956665
0.95065963268280029 0.65812122821807861 0.064495459198951721
0.0038242563605308533 0.80284088850021362 0.058360949158668518
0.042736653238534927 0.79616636037826538 0.064271308481693268
0.25184464454650879 0.79620879888534546 0.066862471401691437
0.49755385518074036 0.81092697381973267 0.056252200156450272
0.64141947031021118 0.80634826421737671 0.06040293350815773
0.80054783821105957 0.80680555105209351 0.076018251478672028
0.95115655660629272 0.81086903810501099 0.067219078540802002
0.0029054379556328058 0.94853430986404419 0.079572446644306183
0.042269222438335419 0.93493503332138062 0.052708256989717484
0.24974419176578522 0.94097042083740234 0.069340631365776062
0.49219986796379089 0.94639354944229126 0.061294198036193848
0.64590984582901001 0.95503777265548706 0.068967081606388092
0.80558162927627563 0.9495970606803894 0.072369232773780823
0.93939554691314697 0.94066756963729858 0.059598121792078018
0.0074127647094428539 0.0085438145324587822 0.33750563859939575
0.044862531125545502 0.0055651944130659103 0.33334076404571533
0.25209009647369385 0.0056853950954973698 0.31929567456245422
0.48255893588066101 0.0046510286629199982 0.3445301353931427
0.63525485992431641 0.0060392045415937901 0.34187686443328857
0.8022117018699646 0.0097011346369981766 0.35915631055831909
0.95162904262542725 0.0065856482833623886 0.32374784350395203
0.0043332269415259361 0.081887878477573395 0.33203679323196411
0.050115875899791718 0.066643118858337402 0.34995844960212708
0.25967156887054443 0.05609619989991188 0.36230072379112244
0.48367848992347717 0.061062831431627274 0.33650663495063782
0.63450998067855835 0.059432040899991989 0.31195691227912903
0.80159503221511841 0.0595894455909729 0.36375153064727783
0.95230114459991455 0.055585481226444244 0.33815035223960876
0.0035832275170832872 0.26522484421730042 0.34788021445274353
0.059326261281967163 0.23981702327728271 0.34549716114997864
0.25605946779251099 0.23534917831420898 0.3515925407409668
0.48871031403541565 0.25243672728538513 0.33385613560676575
0.65238350629806519 0.23272903263568878 0.33752137422561646
0.80295372009277344 0.2387954443693161 0.32875367999076843
0.95112866163253784 0.24398794770240784 0.34002169966697693
0.0021584604401141405 0.49371466040611267 0.36576169729232788
0.048164784908294678 0.48344078660011292 0.34561648964881897
0.26803582906723022 0.48655474185943604 0.34322229027748108
0.48362976312637329 0.48619818687438965 0.32642620801925659
0.64996898174285889 0.47103327512741089 0.34117227792739868
0.80073738098144531 0.48428362607955933 0.34745863080024719
0.94952833652496338 0.47478079795837402 0.33135998249053955
0.002179314149543643 0.64671427011489868 0.34654751420021057
0.04816252738237381 0.64823132753372192 0.35358008742332458
0.2544647753238678 0.64999616146087646 0.32253512740135193
0.4780886173248291 0.64539206027984619 0.3152427077293396
0.65023183822631836 0.64379847049713135 0.35773429274559021
0.80478811264038086 0.64386117458343506 0.35225069522857666
0.93896663188934326 0.65481805801391602 0.33626654744148254
0.0037884730845689774 0.80297589302062988 0.34687170386314392
0.047082550823688507 0.80313903093338013 0.33355113863945007
0.24295607209205627 0.79915136098861694 0.3399471640586853
0.48558077216148376 0.80394339561462402 0.34691870212554932
0.64552277326583862 0.80965179204940796 0.34652090072631836
0.79992592334747314 0.80177730321884155 0.35820659995079041
0.94360446929931641 0.80911028385162354 0.33016055822372437
0.0046603335067629814 0.94885754585266113 0.35346388816833496
0.044009804725646973 0.95282375812530518 0.34696495532989502
0.23272642493247986 0.94737035036087036 0.34964576363563538
0.48438584804534912 0.94252020120620728 0.35223323106765747
0.63741862773895264 0.94874292612075806 0.34547871351242065
0.79917705059051514 0.94127637147903442 0.33585670590400696
0.95127159357070923 0.94767975807189941 0.3215349018573761
0.0017457850044593215 0.0075644999742507935 0.43182390928268433
0.05152752622961998 0.0046450146473944187 0.43606618046760559
0.24791604280471802 0.0031094120349735022 0.45003870129585266
0.48433616757392883 0.00274683628231287 0.43279355764389038
0.64438003301620483 0.0040062847547233105 0.44399461150169373
0.79764264822006226 0.0052116094157099724 0.45253399014472961
0.94959455728530884 0.0065411883406341076 0.45005929470062256
0.0019099067430943251 0.059700910001993179 0.4207974374294281
0.044213566929101944 0.045466627925634384 0.43979457020759583
0.24410997331142426 0.046301104128360748 0.44909965991973877
0.49504154920578003 0.050569258630275726 0.44200128316879272
0.64438921213150024 0.050556901842355728 0.42190605401992798
0.80348306894302368 0.055265448987483978 0.44315832853317261
0.95394861698150635 0.052098367363214493 0.45127812027931213
0.003510837908834219 0.24649496376514435 0.43153262138366699
0.043160278350114822 0.2367163747549057 0.46112564206123352
0.24362444877624512 0.24405813217163086 0.4460541307926178
0.48416393995285034 0.23831912875175476 0.44222694635391235
0.649810791015625 0.24225069582462311 0.45047178864479065
0.80597376823425293 0.22911034524440765 0.44314393401145935
0.95043265819549561 0.23005387187004089 0.42431336641311646
0.0012834586668759584 0.48016992211341858 0.43276733160018921
0.040497049689292908 0.48405718803405762 0.43093135952949524
0.24894565343856812 0.48170861601829529 0.43754491209983826
0.48927727341651917 0.4912283718585968 0.4584662914276123
0.65207242965698242 0.47529590129852295 0.40489012002944946
0.80390208959579468 0.48453459143638611 0.41947796940803528
0.94747275114059448 0.48750346899032593 0.42614296078681946
0.00075682095484808087 0.64854699373245239 0.4240952730178833
0.042743414640426636 0.64422142505645752 0.45164567232131958
0.25537306070327759 0.64801222085952759 0.4349161684513092
0.49126395583152771 0.64526194334030151 0.4294644296169281
0.6421007513999939 0.64284944534301758 0.44711410999298096
0.80047017335891724 0.64996331930160522 0.45044362545013428
0.9503178596496582 0.65322232246398926 0.42367225885391235
0.0021584604401141405 0.81026530265808105 0.44677746295928955
0.047858264297246933 0.80169588327407837 0.44449487328529358
0.25179892778396606 0.80451118946075439 0.4191800057888031
0.49201568961143494 0.80818694829940796 0.43887791037559509
0.64483416080474854 0.80233520269393921 0.41335290670394897
0.80373972654342651 0.80772930383682251 0.44081512093544006
0.95497840642929077 0.80847835540771484 0.44525530934333801
0.0052992277778685093 0.95872801542282104 0.46180188655853271
0.038741361349821091 0.95252829790115356 0.43646952509880066
0.24710166454315186 0.94181710481643677 0.43878436088562012
0.49516385793685913 0.9496045708656311 0.45057249069213867
0.65062159299850464 0.9509316086769104 0.45573580265045166
0.80284726619720459 0.94435244798660278 0.45453542470932007
0.95843756198883057 0.95059561729431152 0.45582526922225952
0.0026459188666194677 0.0017926533473655581 0.10313034057617188
0.0352286696434021 0.0026959436945617199 0.11168044060468674
0.24718299508094788 0.0028773290105164051 0.13537633419036865
0.49261406064033508 0.0026396806351840496 0.10834215581417084
0.64457601308822632 0.0011803869856521487 0.11948920041322708
0.80507403612136841 0.0030573976691812277 0.13034528493881226
0.94789034128189087 0.0025108486879616976 0.12523815035820007
0.00033165427157655358 0.048006050288677216 0.12717995047569275
0.034961670637130737 0.046410400420427322 0.13653473556041718
0.24256967008113861 0.047315903007984161 0.12825225293636322
0.49238565564155579 0.046553097665309906 0.13160306215286255
0.64192771911621094 0.048201259225606918 0.14583756029605865
0.80685502290725708 0.050845727324485779 0.14396952092647552
0.94406402111053467 0.049454901367425919 0.11812290549278259
0.00010465733794262633 0.22466142475605011 0.1436619758605957
0.03425559401512146 0.24222856760025024 0.12649562954902649
0.24466317892074585 0.23374015092849731 0.13544368743896484
0.49320492148399353 0.23170797526836395 0.14397332072257996
0.6422235369682312 0.23473769426345825 0.12783621251583099
0.80777108669281006 0.23543375730514526 0.14468570053577423
0.94851589202880859 0.23804730176925659 0.14884951710700989
0.00077317183604463935 0.48501947522163391 0.16023215651512146
0.034024450927972794 0.48261871933937073 0.10584095865488052
0.24317044019699097 0.48713579773902893 0.11879623681306839
0.49001109600067139 0.48378652334213257 0.13648302853107452
0.64848178625106812 0.49318134784698486 0.11932028830051422
0.80009740591049194 0.48711821436882019 0.11035886406898499
0.95207828283309937 0.48226940631866455 0.12812952697277069
0.00045101688010618091 0.6521230936050415 0.10596510767936707
0.034453298896551132 0.64801347255706787 0.11028647422790527
0.24399837851524353 0.65072822570800781 0.12689632177352905
0.48903807997703552 0.64878886938095093 0.14721299707889557
0.64619165658950806 0.64568227529525757 0.12781985104084015
0.80689263343811035 0.65065842866897583 0.1140253096818924
0.95270729064941406 0.65102636814117432 0.107674740254879
8.3115519373677671e-05 0.80748528242111206 0.12368090450763702
0.035952191799879074 0.8096955418586731 0.12542438507080078
0.24199493229389191 0.8083420991897583 0.11784704029560089
0.4900050163269043 0.80672943592071533 0.1279783695936203
0.6437075138092041 0.81359654664993286 0.13691297173500061
0.79994326829910278 0.81180489063262939 0.10972584784030914
0.94102239608764648 0.80402398109436035 0.12079575657844543
0.00042735080933198333 0.95530766248703003 0.11310826987028122
0.037193868309259415 0.95095056295394897 0.14977091550827026
0.23954281210899353 0.95427399873733521 0.14101311564445496
0.48569190502166748 0.95483052730560303 0.12989011406898499
0.64725154638290405 0.94884467124938965 0.14465129375457764
0.80061691999435425 0.9542006254196167 0.1326015442609787
0.94964599609375 0.95380514860153198 0.12519742548465729
0.0025936949532479048 0.003572740824893117 0.90711885690689087
0.041663825511932373 0.0041424771770834923 0.91567647457122803
0.2435050755739212 0.0033533882815390825 0.91911542415618896
0.50162607431411743 0.0031738730613142252 0.91650629043579102
0.64841020107269287 0.0032440784852951765 0.90428173542022705
0.80575317144393921 0.0043448205105960369 0.92380106449127197
0.94785022735595703 0.0020953160710632801 0.9346587061882019
0.00052164116641506553 0.049526304006576538 0.91379767656326294
0.042328495532274246 0.051207821816205978 0.90868312120437622
0.25321865081787109 0.050419960170984268 0.91772699356079102
0.49166840314865112 0.047090061008930206 0.91260117292404175
0.65343129634857178 0.047633826732635498 0.91215610504150391
0.80533373355865479 0.049699567258358002 0.90948212146759033
0.95426368713378906 0.047515075653791428 0.91436654329299927
0 0.23579899966716766 0.90788775682449341
0.038961730897426605 0.23068177700042725 0.89890402555465698
0.25512769818305969 0.23483207821846008 0.91271692514419556
0.4963793158531189 0.23708294332027435 0.91698247194290161
0.64496654272079468 0.23474092781543732 0.92411017417907715
0.80555266141891479 0.23531638085842133 0.91461747884750366
0.94772404432296753 0.22305348515510559 0.92397469282150269
0.0018194610020145774 0.48352420330047607 0.9207528829574585
0.037592973560094833 0.48524755239486694 0.90824562311172485
0.24781239032745361 0.48582392930984497 0.90591263771057129
0.4923366904258728 0.4884040355682373 0.90612339973449707
0.64665377140045166 0.48653319478034973 0.91071188449859619
0.80023258924484253 0.48130810260772705 0.91160917282104492
0.95306724309921265 0.4876818060874939 0.91710400581359863
0.0013489816337823868 0.64973986148834229 0.91594308614730835
0.040189765393733978 0.65202951431274414 0.90196466445922852
0.24414141476154327 0.65066730976104736 0.91380566358566284
0.4965442419052124 0.65420812368392944 0.91550672054290771
0.64471322298049927 0.65214604139328003 0.90970158576965332
0.80294007062911987 0.64885175228118896 0.93000155687332153
0.95627385377883911 0.65141665935516357 0.9283139705657959
6.247127748792991e-05 0.81218075752258301 0.91241145133972168
0.045623689889907837 0.80646848678588867 0.9043235182762146
0.246652752161026 0.8021208643913269 0.91775554418563843
0.49549651145935059 0.80411344766616821 0.89280581474304199
0.64750552177429199 0.80346083641052246 0.90320563316345215
0.8051077127456665 0.80692750215530396 0.89326870441436768
0.95482385158538818 0.80096995830535889 0.89843732118606567
0.00016264074656646699 0.9563668966293335 0.94144624471664429
0.04266439750790596 0.95425218343734741 0.91201329231262207
0.25397598743438721 0.94613850116729736 0.90964001417160034
0.48541438579559326 0.94579178094863892 0.90881073474884033
0.64190959930419922 0.9523923397064209 0.91937071084976196
0.80867558717727661 0.9413989782333374 0.92896026372909546
0.95175963640213013 0.95665079355239868 0.92563790082931519
0.002965141786262393 0.0073234857991337776 0.83157932758331299
0.046665430068969727 0.0047243153676390648 0.80397593975067139
0.2492855042219162 0.0052097546868026257 0.80810773372650146
0.49855303764343262 0.0032306446228176355 0.79403871297836304
0.65454566478729248 0.0022302067372947931 0.80744582414627075
0.80461519956588745 0.0040981816127896309 0.80055749416351318
0.94804126024246216 0.0037609175778925419 0.80690175294876099
0.0068118376657366753 0.055524189025163651 0.81629550457000732
0.050193533301353455 0.054023068398237228 0.80819952487945557
0.24802000820636749 0.052213031798601151 0.7950969934463501
0.48699316382408142 0.049428034573793411 0.78692275285720825
0.64444220066070557 0.054882243275642395 0.80648720264434814
0.80095559358596802 0.0655837282538414 0.80980223417282104
0.9449041485786438 0.060761172324419022 0.80155932903289795
0.0060028824955224991 0.21607299149036407 0.81126540899276733
0.04728342592716217 0.23788286745548248 0.80095213651657104
0.24987860023975372 0.23970375955104828 0.79937982559204102
0.49187231063842773 0.24497656524181366 0.78111082315444946
0.64624178409576416 0.22498326003551483 0.79067873954772949
0.81131130456924438 0.23520657420158386 0.78393876552581787
0.94475942850112915 0.2300669252872467 0.79647231101989746
0.0024794335477054119 0.47260236740112305 0.80491101741790771
0.041513718664646149 0.47668397426605225 0.80083304643630981
0.2470930814743042 0.48082154989242554 0.78657734394073486
0.49075254797935486 0.48624467849731445 0.8020092248916626
0.64762991666793823 0.48205822706222534 0.81260555982589722
0.80800867080688477 0.48376756906509399 0.79737412929534912
0.95629096031188965 0.47913914918899536 0.81692385673522949
0.00076813041232526302 0.64946025609970093 0.80368930101394653
0.03931262344121933 0.65782219171524048 0.80322068929672241
0.24656850099563599 0.63821852207183838 0.81926226615905762
0.50152254104614258 0.645488440990448 0.80270743370056152
0.64893126487731934 0.65124362707138062 0.79996949434280396
0.80048739910125732 0.64625686407089233 0.81654161214828491
0.94861972332000732 0.64634257555007935 0.78183180093765259
0.0022525263484567404 0.80061441659927368 0.79791164398193359
0.043951116502285004 0.8050658106803894 0.81282335519790649
0.2587893009185791 0.80161488056182861 0.8025205135345459
0.48875284194946289 0.80243515968322754 0.80281996726989746
0.64836722612380981 0.80404728651046753 0.7929806113243103
0.80303829908370972 0.80713218450546265 0.78372418880462646
0.94533932209014893 0.80264770984649658 0.80685937404632568
0.00052523147314786911 0.94973146915435791 0.79703176021575928
0.040293600410223007 0.95323967933654785 0.80089962482452393
0.25010350346565247 0.95400989055633545 0.80131810903549194
0.49059447646141052 0.94716727733612061 0.78823846578598022
0.638438880443573 0.95162922143936157 0.8065071702003479
0.7960585355758667 0.95334136486053467 0.78763496875762939
0.93731468915939331 0.93775153160095215 0.80307650566101074
0.00055326573783531785 0.0055710738524794579 0.86865633726119995
0.040299151092767715 0.0054353750310838223 0.86979645490646362
0.25315022468566895 0.0044182422570884228 0.88645440340042114
0.49427720904350281 0.0041864281520247459 0.87568122148513794
0.64573818445205688 0.0048567079938948154 0.87992233037948608
0.80049771070480347 0.0022166084963828325 0.87408125400543213
0.9532051682472229 0.0045448453165590763 0.89814621210098267
0.0020540275145322084 0.055392920970916748 0.88756489753723145
0.0485343337059021 0.053000878542661667 0.86051386594772339
0.25195002555847168 0.045438788831233978 0.86987191438674927
0.49851638078689575 0.056206319481134415 0.88083606958389282
0.64868009090423584 0.051290370523929596 0.87630844116210938
0.80376297235488892 0.049876824021339417 0.88815051317214966
0.95026105642318726 0.047114294022321701 0.8768775463104248
0.0025736640673130751 0.2337689995765686 0.87662690877914429
0.044805310666561127 0.22607038915157318 0.87251955270767212
0.24485020339488983 0.22838488221168518 0.86496347188949585
0.49580579996109009 0.23461915552616119 0.85292935371398926
0.65272742509841919 0.23437944054603577 0.8831024169921875
0.80493783950805664 0.23996017873287201 0.85241830348968506
0.94323492050170898 0.2269911915063858 0.88183224201202393
0.0012845058226957917 0.47824516892433167 0.87513500452041626
0.043782912194728851 0.48628503084182739 0.88450175523757935
0.25965851545333862 0.48831033706665039 0.86507833003997803
0.49718627333641052 0.4853578507900238 0.86438572406768799
0.64820903539657593 0.48352506756782532 0.86461794376373291
0.80075323581695557 0.48561796545982361 0.87371581792831421
0.95588654279708862 0.47823339700698853 0.88093936443328857
0.0024892769288271666 0.65431016683578491 0.86583864688873291
0.040840029716491699 0.64736282825469971 0.88159310817718506
0.25266268849372864 0.65083807706832886 0.89078211784362793
0.48128286004066467 0.65136855840682983 0.86856317520141602
0.64524292945861816 0.64722084999084473 0.86715525388717651
0.80124980211257935 0.64323538541793823 0.87682276964187622
0.94793117046356201 0.64460784196853638 0.87806993722915649
0.0037218430079519749 0.80927485227584839 0.86987358331680298
0.043589018285274506 0.80551606416702271 0.88059145212173462
0.25830405950546265 0.8027680516242981 0.86933034658432007
0.49451401829719543 0.80689013004302979 0.867500901222229
0.6400185227394104 0.80666172504425049 0.86851435899734497
0.80530780553817749 0.80542004108428955 0.86664915084838867
0.9500432014465332 0.80204343795776367 0.87905853986740112
0.0015622008359059691 0.94502383470535278 0.88186299800872803
0.043183047324419022 0.95104360580444336 0.85317313671112061
0.24874366819858551 0.95094406604766846 0.87395793199539185
0.4984702467918396 0.94703102111816406 0.88634473085403442
0.64222460985183716 0.95046812295913696 0.85631668567657471
0.80140042304992676 0.94689172506332397 0.87327241897583008
0.94603449106216431 0.94797182083129883 0.87614887952804565
