assets/lut/others pink fade.cube
# Created by: G'MIC (https://gmic.eu)
TITLE "pink_fade"
# LUT size
LUT_3D_SIZE 5
# Data domain
DOMAIN_MIN 0.0 0.0 0.0
DOMAIN_MAX 1.0 1.0 1.0
# LUT data points
0.19192266464233398 0.13771657645702362 0.18041233718395233
0.34552127122879028 0.15489552915096283 0.21375727653503418
0.58076339960098267 0.21481969952583313 0.28622749447822571
0.81475800275802612 0.33038881421089172 0.40850624442100525
0.97714614868164062 0.43289667367935181 0.52180606126785278
0.21027010679244995 0.24387173354625702 0.17935435473918915
0.35027974843978882 0.21802432835102081 0.189353346824646
0.57787501811981201 0.26382353901863098 0.26461887359619141
0.81464546918869019 0.3634854257106781 0.39621198177337646
0.9802977442741394 0.45445904135704041 0.51398998498916626
0.28008273243904114 0.48223733901977539 0.21379205584526062
0.43656834959983826 0.48400723934173584 0.20864132046699524
0.58944272994995117 0.3786710798740387 0.23962365090847015
0.81531333923339844 0.42018210887908936 0.35554710030555725
0.98422807455062866 0.50440973043441772 0.48274257779121399
0.38309788703918457 0.72067397832870483 0.30041611194610596
0.50661122798919678 0.71938276290893555 0.27675947546958923
0.74979174137115479 0.67772167921066284 0.27015608549118042
0.84209728240966797 0.53877997398376465 0.34037062525749207
0.98452532291412354 0.54470258951187134 0.44507682323455811
0.48202478885650635 0.87140679359436035 0.3673950731754303
0.59317529201507568 0.87042862176895142 0.34222882986068726
0.84520560503005981 0.87648701667785645 0.32842063903808594
0.97258675098419189 0.79021143913269043 0.36256116628646851
0.98759102821350098 0.63092076778411865 0.41954290866851807
0.20857177674770355 0.15095800161361694 0.3130461573600769
0.27981695532798767 0.14535816013813019 0.32428038120269775
0.56795179843902588 0.20092402398586273 0.42132759094238281
0.81625604629516602 0.30200269818305969 0.51718044281005859
0.98006635904312134 0.39388060569763184 0.61297190189361572
0.19865341484546661 0.244672030210495 0.26763981580734253
0.32628127932548523 0.24370874464511871 0.30553519725799561
0.56830441951751709 0.25549179315567017 0.37646961212158203
0.81974649429321289 0.34151563048362732 0.50094741582870483
0.97668755054473877 0.42149502038955688 0.60784387588500977
0.23817144334316254 0.47361096739768982 0.27475765347480774
0.40113076567649841 0.48576518893241882 0.2730279266834259
0.60208588838577271 0.41182705760002136 0.31288760900497437
0.81982707977294922 0.41296392679214478 0.41194289922714233
0.97815632820129395 0.48861238360404968 0.53229427337646484
0.36746695637702942 0.72090667486190796 0.34546482563018799
0.48966395854949951 0.72591876983642578 0.32835981249809265
0.7418060302734375 0.69006353616714478 0.32285633683204651
0.83924615383148193 0.54375839233398438 0.38425585627555847
0.98498386144638062 0.53251361846923828 0.48355525732040405
0.49858826398849487 0.86872518062591553 0.40099123120307922
0.57167482376098633 0.86759680509567261 0.3860173225402832
0.85531425476074219 0.87650710344314575 0.36407250165939331
0.97480785846710205 0.78702777624130249 0.40655297040939331
0.98681128025054932 0.6365048885345459 0.45097887516021729
0.25162708759307861 0.22546035051345825 0.54172801971435547
0.3023439347743988 0.20285244286060333 0.54325324296951294
0.41629493236541748 0.18569125235080719 0.55518990755081177
0.73132669925689697 0.23364877700805664 0.69843566417694092
0.97731930017471313 0.33229690790176392 0.82644641399383545
0.23485711216926575 0.32442161440849304 0.5319523811340332
0.30810099840164185 0.29312857985496521 0.5381244421005249
0.46006491780281067 0.25049370527267456 0.56117695569992065
0.76234155893325806 0.28187870979309082 0.70479458570480347
0.97591358423233032 0.36414894461631775 0.83502018451690674
0.22402308881282806 0.48824742436408997 0.3885626494884491
0.3084244430065155 0.50100648403167725 0.43613910675048828
0.56416255235671997 0.48260608315467834 0.52884745597839355
0.81573164463043213 0.46482527256011963 0.63030409812927246
0.97594618797302246 0.48100546002388 0.72562325000762939
0.31627476215362549 0.72456079721450806 0.39438706636428833
0.37326169013977051 0.72165912389755249 0.38942515850067139
0.65006333589553833 0.72466444969177246 0.46379128098487854
0.84883344173431396 0.62648904323577881 0.52771425247192383
0.98272275924682617 0.57184255123138428 0.59244745969772339
0.41181272268295288 0.86774188280105591 0.45160999894142151
0.47381868958473206 0.87345254421234131 0.44396615028381348
0.7206270694732666 0.86865687370300293 0.45621126890182495
0.9764256477355957 0.85722881555557251 0.50166666507720947
0.98608505725860596 0.68209260702133179 0.52878296375274658
0.34164640307426453 0.32739561796188354 0.77299970388412476
0.38694167137145996 0.31418409943580627 0.77556246519088745
0.42374667525291443 0.29163968563079834 0.77272993326187134
0.5495111346244812 0.27023112773895264 0.78966110944747925
0.84127819538116455 0.30836784839630127 0.92063969373703003
0.3227519690990448 0.41748130321502686 0.77363371849060059
0.37121960520744324 0.39815351366996765 0.77434843778610229
0.42788559198379517 0.33980968594551086 0.77637141942977905
0.56318205595016479 0.30781993269920349 0.79169696569442749
0.84029418230056763 0.32343503832817078 0.91807413101196289
0.27264168858528137 0.62743782997131348 0.70762556791305542
0.3311767578125 0.63092178106307983 0.72516387701034546
0.51935619115829468 0.55964529514312744 0.77163255214691162
0.66987544298171997 0.4609835147857666 0.80216556787490845
0.94489985704421997 0.45466673374176025 0.9238237738609314
0.29231429100036621 0.7382931113243103 0.52017885446548462
0.34492966532707214 0.7468106746673584 0.53311729431152344
0.51698952913284302 0.74404102563858032 0.63289844989776611
0.80143254995346069 0.71892017126083374 0.76379579305648804
0.98020166158676147 0.6645703911781311 0.85725641250610352
0.36668157577514648 0.86630755662918091 0.50666892528533936
0.41196218132972717 0.8708958625793457 0.49290120601654053
0.55225902795791626 0.86695832014083862 0.52897298336029053
0.87440550327301025 0.87537068128585815 0.68044459819793701
0.98607170581817627 0.78480410575866699 0.72641420364379883
0.43141844868659973 0.42861568927764893 0.93573641777038574
0.4673856794834137 0.41801890730857849 0.93538808822631836
0.50109404325485229 0.3903539776802063 0.93423765897750854
0.52843177318572998 0.37030962109565735 0.93109351396560669
0.64038562774658203 0.34172609448432922 0.93113833665847778
0.4079553484916687 0.50947779417037964 0.93149632215499878
0.44296762347221375 0.48793783783912659 0.92579764127731323
0.48935815691947937 0.43866774439811707 0.93164587020874023
0.52796828746795654 0.3994344174861908 0.92497378587722778
0.64056193828582764 0.37419337034225464 0.93501919507980347
0.34843093156814575 0.73797136545181274 0.93129295110702515
0.39142337441444397 0.72670811414718628 0.92473417520523071
0.50273644924163818 0.64323776960372925 0.9255363941192627
0.56592273712158203 0.52302533388137817 0.92349255084991455
0.70874768495559692 0.46318933367729187 0.93441557884216309
0.30109834671020508 0.85807245969772339 0.7972298264503479
0.35006797313690186 0.85595816373825073 0.8046269416809082
0.4870421290397644 0.86361426115036011 0.89712458848953247
0.7081449031829834 0.79100441932678223 0.92799502611160278
0.86006337404251099 0.66838955879211426 0.93723553419113159
0.34849122166633606 0.87627077102661133 0.60141164064407349
0.39051082730293274 0.87540215253829956 0.60660803318023682
0.48909357190132141 0.87437736988067627 0.68212378025054932
0.72486811876296997 0.87746292352676392 0.8037647008895874
0.96339517831802368 0.86595124006271362 0.93235713243484497
