assets/lut/others golden bright.cube
# Created by: G'MIC (https://gmic.eu)
TITLE "golden_bright"
# LUT size
LUT_3D_SIZE 7
# Data domain
DOMAIN_MIN 0.0 0.0 0.0
DOMAIN_MAX 1.0 1.0 1.0
# LUT data points
0.1623254120349884 0.1520640105009079 0.098425529897212982
0.35079073905944824 0.14335232973098755 0.10583151876926422
0.58297598361968994 0.14621202647686005 0.09140535444021225
0.79360455274581909 0.13739384710788727 0.083826757967472076
0.94593942165374756 0.13614936172962189 0.094255067408084869
0.96903896331787109 0.1522916853427887 0.077687598764896393
0.97671538591384888 0.12363424897193909 0.072476692497730255
0.15610921382904053 0.32648864388465881 0.10255985707044601
0.33668315410614014 0.31264421343803406 0.091524116694927216
0.56516623497009277 0.30957981944084167 0.084840528666973114
0.7758944034576416 0.30070963501930237 0.07705986499786377
0.94144135713577271 0.29920431971549988 0.084912121295928955
0.95576262474060059 0.28682386875152588 0.071842819452285767
0.97326898574829102 0.28696069121360779 0.079454623162746429
0.14725491404533386 0.51807838678359985 0.084496393799781799
0.31953138113021851 0.51495850086212158 0.078118495643138885
0.54202103614807129 0.50318038463592529 0.079972118139266968
0.75025427341461182 0.49881076812744141 0.072942085564136505
0.91522109508514404 0.48958668112754822 0.065310642123222351
0.96693825721740723 0.47738003730773926 0.070499926805496216
0.98089128732681274 0.47992834448814392 0.073708795011043549
0.14924465119838715 0.72356957197189331 0.08462873101234436
0.30654877424240112 0.71657001972198486 0.080747313797473907
0.53127467632293701 0.7075236439704895 0.070909105241298676
0.74178272485733032 0.70371192693710327 0.069571278989315033
0.90714681148529053 0.68617761135101318 0.065161295235157013
0.98081904649734497 0.68740183115005493 0.068370208144187927
0.9597625732421875 0.67104047536849976 0.067799858748912811
0.14632804691791534 0.88954275846481323 0.077611885964870453
0.29120171070098877 0.88770431280136108 0.073294259607791901
0.51206362247467041 0.87726718187332153 0.070614710450172424
0.73719465732574463 0.88059216737747192 0.066929623484611511
0.90762507915496826 0.86562067270278931 0.07015509158372879
0.98575186729431152 0.86630570888519287 0.068558603525161743
0.96020585298538208 0.84023994207382202 0.06024537980556488
0.14119555056095123 0.97505342960357666 0.065240047872066498
0.27567762136459351 0.9770740270614624 0.069132909178733826
0.49825811386108398 0.97375404834747314 0.062025722116231918
0.71917474269866943 0.97339308261871338 0.06312580406665802
0.88513022661209106 0.97582542896270752 0.067007876932621002
0.97715038061141968 0.97592097520828247 0.060500454157590866
0.97951483726501465 0.97093456983566284 0.061436865478754044
0.12500804662704468 0.96229362487792969 0.058094024658203125
0.26021051406860352 0.97168236970901489 0.059625901281833649
0.46969136595726013 0.96612471342086792 0.058168329298496246
0.69998013973236084 0.98244386911392212 0.062256261706352234
0.86664336919784546 0.96916472911834717 0.061248030513525009
0.96943384408950806 0.97734284400939941 0.060229223221540451
0.96702396869659424 0.966991126537323 0.062831804156303406
0.17556756734848022 0.14790052175521851 0.25699761509895325
0.36402603983879089 0.14687046408653259 0.2533251941204071
0.58780872821807861 0.14640907943248749 0.24597664177417755
0.79551547765731812 0.13994394242763519 0.24086160957813263
0.95897370576858521 0.14495739340782166 0.23657837510108948
0.98873913288116455 0.13749128580093384 0.22992020845413208
0.99537557363510132 0.12557567656040192 0.22669760882854462
0.16010811924934387 0.32467976212501526 0.2457868903875351
0.34842932224273682 0.31366461515426636 0.23968939483165741
0.57294213771820068 0.30827653408050537 0.23864197731018066
0.7826734185218811 0.30812087655067444 0.23160083591938019
0.93967539072036743 0.30096092820167542 0.22278206050395966
0.99055951833724976 0.29209831357002258 0.21737776696681976
0.99546939134597778 0.28563004732131958 0.21324388682842255
0.15268778800964355 0.53015154600143433 0.23887783288955688
0.31921389698982239 0.51773148775100708 0.2318282425403595
0.54899430274963379 0.5114331841468811 0.22014236450195312
0.77149564027786255 0.50873380899429321 0.21340008080005646
0.93167722225189209 0.50140029191970825 0.20886212587356567
0.98585987091064453 0.48470789194107056 0.20258209109306335
0.99582767486572266 0.47944474220275879 0.19972266256809235
0.14376772940158844 0.72758650779724121 0.22035303711891174
0.30357953906059265 0.71523350477218628 0.22030468285083771
0.53674250841140747 0.71770840883255005 0.20936621725559235
0.76058363914489746 0.713817298412323 0.20626941323280334
0.91828399896621704 0.70165425539016724 0.19541403651237488
0.98916459083557129 0.69497877359390259 0.19204100966453552
0.98990219831466675 0.6826978325843811 0.18566504120826721
0.14480619132518768 0.89455735683441162 0.20952518284320831
0.29174888134002686 0.88813811540603638 0.20989871025085449
0.52237844467163086 0.88916110992431641 0.2024058997631073
0.74327379465103149 0.87809205055236816 0.19326452910900116
0.91315585374832153 0.87175536155700684 0.18505007028579712
0.9951319694519043 0.87135165929794312 0.18044528365135193
0.98754602670669556 0.85626721382141113 0.17388714849948883
0.13145416975021362 0.98766303062438965 0.19689513742923737
0.27363142371177673 0.99106419086456299 0.19313190877437592
0.50286126136779785 0.98437589406967163 0.18680067360401154
0.72527104616165161 0.98603498935699463 0.17922413349151611
0.90476471185684204 0.98990720510482788 0.17437106370925903
0.99155813455581665 0.98096984624862671 0.16655755043029785
0.99695563316345215 0.98920214176177979 0.15925048291683197
0.12782329320907593 0.97890192270278931 0.18533313274383545
0.2623445987701416 0.99026250839233398 0.18328331410884857
0.47488221526145935 0.9818185567855835 0.17472213506698608
0.70789378881454468 0.99522095918655396 0.16857999563217163
0.89450842142105103 0.99681901931762695 0.16746148467063904
0.98808938264846802 0.99042010307312012 0.16010865569114685
0.99390953779220581 0.99385589361190796 0.15155379474163055
0.1696075052022934 0.15052665770053864 0.42625164985656738
0.35561886429786682 0.15192188322544098 0.4196968674659729
0.58917087316513062 0.14400313794612885 0.41312471032142639
0.79770475625991821 0.13958302140235901 0.40923669934272766
0.96092039346694946 0.14138008654117584 0.40654289722442627
0.99310940504074097 0.13424836099147797 0.39450207352638245
0.99977201223373413 0.12830935418605804 0.39287939667701721
0.15776152908802032 0.33035662770271301 0.41677010059356689
0.34263867139816284 0.31983664631843567 0.40900576114654541
0.56895416975021362 0.31014955043792725 0.40449979901313782
0.78301995992660522 0.30746167898178101 0.39785349369049072
0.94993388652801514 0.29839667677879333 0.3950350284576416
0.98802989721298218 0.28926834464073181 0.38538956642150879
0.99708324670791626 0.28141742944717407 0.378559410572052
0.14866279065608978 0.52774685621261597 0.40080597996711731
0.32108345627784729 0.52325880527496338 0.397359699010849
0.54558354616165161 0.51235485076904297 0.39380097389221191
0.77169793844223022 0.50781536102294922 0.38257190585136414
0.93119364976882935 0.49840116500854492 0.37940219044685364
0.98669928312301636 0.4883735179901123 0.36942288279533386
0.9921870231628418 0.48025405406951904 0.36229151487350464
0.14881150424480438 0.73004579544067383 0.39152383804321289
0.30336591601371765 0.71739828586578369 0.38315188884735107
0.534248948097229 0.71553319692611694 0.37783586978912354
0.75583326816558838 0.70489710569381714 0.37149041891098022
0.92261034250259399 0.7024272084236145 0.36701509356498718
0.99089854955673218 0.69412177801132202 0.35824871063232422
0.99172395467758179 0.68576979637145996 0.34888735413551331
0.13879850506782532 0.89813774824142456 0.37826472520828247
0.29426336288452148 0.8931155800819397 0.37063136696815491
0.51338803768157959 0.8867601752281189 0.3697478175163269
0.74470585584640503 0.87880271673202515 0.35980889201164246
0.91270965337753296 0.87593537569046021 0.35180884599685669
0.99617624282836914 0.86996549367904663 0.34317752718925476
0.99607843160629272 0.85927087068557739 0.33729031682014465
0.13141508400440216 0.9869610071182251 0.36543962359428406
0.27857911586761475 0.98540663719177246 0.3610844612121582
0.4988970160484314 0.99160027503967285 0.35635018348693848
0.72915858030319214 0.99494761228561401 0.34589782357215881
0.9033084511756897 0.9967542290687561 0.34248006343841553
0.99202638864517212 0.99178624153137207 0.33310163021087646
1 0.98491561412811279 0.32477882504463196
0.1272522360086441 0.99248391389846802 0.35391557216644287
0.26473212242126465 0.99039143323898315 0.34852522611618042
0.47408032417297363 0.99223059415817261 0.3385072648525238
0.69942969083786011 0.99623054265975952 0.33303576707839966
0.89616912603378296 1 0.33171626925468445
0.99588501453399658 1 0.32264670729637146
0.99978375434875488 1 0.31237655878067017
0.17891028523445129 0.14963549375534058 0.59265363216400146
0.35585466027259827 0.15333245694637299 0.58703428506851196
0.58228600025177002 0.14805792272090912 0.57992362976074219
0.80184531211853027 0.13668249547481537 0.5802498459815979
0.95694470405578613 0.13193894922733307 0.57310158014297485
0.99781256914138794 0.13063547015190125 0.56712359189987183
0.99779731035232544 0.12883226573467255 0.56726288795471191
0.15914250910282135 0.3215937614440918 0.58270406723022461
0.33804517984390259 0.31201976537704468 0.57415592670440674
0.56867802143096924 0.31566616892814636 0.56816971302032471
0.78889578580856323 0.3089413046836853 0.56846445798873901
0.94107645750045776 0.29546162486076355 0.55953282117843628
0.98678874969482422 0.28926599025726318 0.55065858364105225
0.99166280031204224 0.27882999181747437 0.54628944396972656
0.15424312651157379 0.52709901332855225 0.57177907228469849
0.32345503568649292 0.52174097299575806 0.56596881151199341
0.55313658714294434 0.51666593551635742 0.56259584426879883
0.77198189496994019 0.50655412673950195 0.55391162633895874
0.92920851707458496 0.49741098284721375 0.54766929149627686
0.98460471630096436 0.48825451731681824 0.53906786441802979
0.98841327428817749 0.47419822216033936 0.5311012864112854
0.14328618347644806 0.73099488019943237 0.55977797508239746
0.30686306953430176 0.72316956520080566 0.55490571260452271
0.52560365200042725 0.71341878175735474 0.55276203155517578
0.7538449764251709 0.70354217290878296 0.54448264837265015
0.92686182260513306 0.69723445177078247 0.53641164302825928
0.98828160762786865 0.68932682275772095 0.53060346841812134
0.98797839879989624 0.68002933263778687 0.52652549743652344
0.15138544142246246 0.89705157279968262 0.54590010643005371
0.29422172904014587 0.88225167989730835 0.53784424066543579
0.51492547988891602 0.87990951538085938 0.53643536567687988
0.73927599191665649 0.88116753101348877 0.52899247407913208
0.91683214902877808 0.87433964014053345 0.52305901050567627
0.99594151973724365 0.86256390810012817 0.51776134967803955
0.99449837207794189 0.84952342510223389 0.50928092002868652
0.14182454347610474 0.98806101083755493 0.53065282106399536
0.27655702829360962 0.99321240186691284 0.52595251798629761
0.49308955669403076 0.99406838417053223 0.52248269319534302
0.71641629934310913 0.98740702867507935 0.51625204086303711
0.9034496545791626 0.99511569738388062 0.51238369941711426
0.99571913480758667 0.98953139781951904 0.50269812345504761
0.99993950128555298 0.99037802219390869 0.49426406621932983
0.13300387561321259 0.99057859182357788 0.519683837890625
0.25718212127685547 0.99347275495529175 0.51167422533035278
0.4704822301864624 0.99607843160629272 0.50633358955383301
0.70292645692825317 0.99683684110641479 0.50027370452880859
0.89254605770111084 0.99906891584396362 0.49845784902572632
0.99191105365753174 1 0.48745211958885193
0.99609243869781494 1 0.48554688692092896
0.16150465607643127 0.15074966847896576 0.75951284170150757
0.35304534435272217 0.15152566134929657 0.75434976816177368
0.57352989912033081 0.14689110219478607 0.75136262178421021
0.7967262864112854 0.13637761771678925 0.74859362840652466
0.94294685125350952 0.14617457985877991 0.73471307754516602
0.99722778797149658 0.12879455089569092 0.73589736223220825
0.99717861413955688 0.13052783906459808 0.73278343677520752
0.15864208340644836 0.32251003384590149 0.74815547466278076
0.33545178174972534 0.31518834829330444 0.74786239862442017
0.55719661712646484 0.30559244751930237 0.73761945962905884
0.77901166677474976 0.30131787061691284 0.73828661441802979
0.94787114858627319 0.29566150903701782 0.72640478610992432
0.98948812484741211 0.28681886196136475 0.71447247266769409
0.99199748039245605 0.27940443158149719 0.71259760856628418
0.15354353189468384 0.52638471126556396 0.73911845684051514
0.31837362051010132 0.52109295129776001 0.73766738176345825
0.54564106464385986 0.51107984781265259 0.7296062707901001
0.76160204410552979 0.50347155332565308 0.72322350740432739
0.93686020374298096 0.49580496549606323 0.71661919355392456
0.99437463283538818 0.4865490198135376 0.70662581920623779
0.9950413703918457 0.47217729687690735 0.70128417015075684
0.1488620787858963 0.72078233957290649 0.72338366508483887
0.30298686027526855 0.71454113721847534 0.72213506698608398
0.53075718879699707 0.7137444019317627 0.72045224905014038
0.75329601764678955 0.70903956890106201 0.71073442697525024
0.91984206438064575 0.7007368803024292 0.70694029331207275
0.99300616979598999 0.68712717294692993 0.70288825035095215
0.99430102109909058 0.67052406072616577 0.69972735643386841
0.14365381002426147 0.895377516746521 0.71157371997833252
0.29061785340309143 0.88445484638214111 0.70514994859695435
0.51434588432312012 0.88029724359512329 0.70173376798629761
0.73523455858230591 0.87989479303359985 0.69753700494766235
0.90916228294372559 0.87521445751190186 0.69180405139923096
0.99669349193572998 0.86033004522323608 0.68806171417236328
0.99609088897705078 0.84139496088027954 0.68715602159500122
0.13982643187046051 0.98296940326690674 0.69564473628997803
0.27639445662498474 0.99274152517318726 0.69529104232788086
0.49156194925308228 0.99246925115585327 0.68872195482254028
0.71993142366409302 0.99538916349411011 0.68408936262130737
0.90176045894622803 0.98969238996505737 0.67911189794540405
0.99633973836898804 0.98544889688491821 0.67312926054000854
0.99631178379058838 0.98348081111907959 0.67168503999710083
0.13141630589962006 0.98474287986755371 0.67985576391220093
0.25501546263694763 0.99799823760986328 0.68574637174606323
0.47232070565223694 0.99207872152328491 0.67486566305160522
0.70044797658920288 0.99012047052383423 0.6646391749382019
0.88192105293273926 0.9958120584487915 0.6643906831741333
0.9944118857383728 0.99607843160629272 0.65607798099517822
0.99432384967803955 0.99627447128295898 0.66322803497314453
0.15929648280143738 0.14955304563045502 0.90839147567749023
0.3460458517074585 0.14468671381473541 0.90683794021606445
0.57928037643432617 0.14167506992816925 0.90556174516677856
0.79227966070175171 0.1413932740688324 0.90198147296905518
0.95112860202789307 0.13561718165874481 0.9031023383140564
0.98397994041442871 0.12926852703094482 0.88850432634353638
0.99943739175796509 0.12438718229532242 0.88994580507278442
0.15405005216598511 0.3200400173664093 0.90956312417984009
0.3304847776889801 0.31503504514694214 0.90642797946929932
0.56507450342178345 0.30744773149490356 0.90250879526138306
0.77650326490402222 0.29701519012451172 0.89810299873352051
0.94177061319351196 0.29316160082817078 0.88854211568832397
0.98002123832702637 0.28052529692649841 0.87323260307312012
0.9956742525100708 0.276376873254776 0.8716084361076355
0.15525633096694946 0.5190919041633606 0.88582921028137207
0.31491789221763611 0.51728701591491699 0.90067797899246216
0.54694777727127075 0.5075945258140564 0.88678264617919922
0.76213979721069336 0.50068360567092896 0.88116872310638428
0.93238991498947144 0.49203199148178101 0.87900567054748535
0.98926156759262085 0.48511001467704773 0.86985278129577637
0.99518883228302002 0.47524213790893555 0.86427563428878784
0.1505202054977417 0.71600341796875 0.88382750749588013
0.30000013113021851 0.71418482065200806 0.88070762157440186
0.53055518865585327 0.70989209413528442 0.87957406044006348
0.75196379423141479 0.70026487112045288 0.87300574779510498
0.91217821836471558 0.69360548257827759 0.86352741718292236
0.99278348684310913 0.68445467948913574 0.86009359359741211
0.996429443359375 0.66765862703323364 0.85682296752929688
0.13748769462108612 0.8933289647102356 0.87443238496780396
0.28124478459358215 0.88111019134521484 0.86504030227661133
0.50629258155822754 0.881122887134552 0.86692118644714355
0.72977292537689209 0.87542027235031128 0.8625255823135376
0.90627998113632202 0.86953675746917725 0.85632538795471191
0.99295896291732788 0.85919290781021118 0.8460317850112915
0.99607843160629272 0.84863734245300293 0.84812444448471069
0.13618245720863342 0.9872969388961792 0.86718231439590454
0.26839888095855713 0.98954898118972778 0.85551714897155762
0.49080497026443481 0.98745971918106079 0.85630184412002563
0.71203488111495972 0.98785483837127686 0.84678405523300171
0.89342617988586426 0.98945605754852295 0.84363704919815063
0.99515372514724731 0.99066340923309326 0.8401302695274353
0.99264293909072876 0.98166173696517944 0.83437210321426392
0.13091309368610382 0.98735815286636353 0.8510444164276123
0.26119044423103333 0.99564379453659058 0.84918296337127686
0.46863478422164917 0.99079197645187378 0.84047460556030273
0.6904558539390564 0.98909878730773926 0.83476287126541138
0.87674212455749512 0.99393129348754883 0.83220952749252319
0.99231845140457153 0.99771475791931152 0.82357257604598999
0.99215686321258545 0.99421882629394531 0.82191985845565796
0.15981860458850861 0.14490655064582825 0.89899182319641113
0.34185171127319336 0.14862456917762756 0.91071271896362305
0.55922025442123413 0.14624546468257904 0.90947872400283813
0.7677462100982666 0.13595153391361237 0.90845978260040283
0.94535183906555176 0.12756015360355377 0.92889070510864258
0.9840998649597168 0.12434133142232895 0.92730379104614258
0.98933213949203491 0.1330721378326416 0.92745459079742432
0.15874817967414856 0.31116291880607605 0.90953910350799561
0.32685708999633789 0.30378040671348572 0.90957975387573242
0.55253309011459351 0.30044913291931152 0.92418920993804932
0.75971812009811401 0.29428398609161377 0.91779029369354248
0.91401922702789307 0.28305253386497498 0.91593605279922485
0.97035712003707886 0.27509391307830811 0.9155159592628479
0.97781884670257568 0.26854380965232849 0.9174959659576416
0.14691811800003052 0.51780754327774048 0.93207275867462158
0.31747668981552124 0.50163710117340088 0.92032861709594727
0.53504073619842529 0.49503561854362488 0.92122119665145874
0.74007582664489746 0.48749080300331116 0.91247075796127319
0.91698354482650757 0.47898992896080017 0.92412227392196655
0.98068314790725708 0.47218352556228638 0.92361909151077271
0.96149563789367676 0.45785444974899292 0.90321028232574463
0.15399228036403656 0.71029651165008545 0.9344714879989624
0.29341882467269897 0.70279532670974731 0.92762655019760132
0.52223742008209229 0.70113837718963623 0.93045979738235474
0.7372393012046814 0.69554013013839722 0.93012601137161255
0.90522128343582153 0.68072116374969482 0.92481523752212524
0.98601526021957397 0.67601889371871948 0.92886567115783691
0.97918140888214111 0.6644359827041626 0.91562294960021973
0.15053905546665192 0.87574946880340576 0.93474364280700684
0.2845701277256012 0.87820839881896973 0.92789548635482788
0.4999382495880127 0.87590062618255615 0.9308280348777771
0.72076374292373657 0.87046736478805542 0.93333333730697632
0.89236044883728027 0.8582039475440979 0.92920738458633423
0.96073824167251587 0.85281431674957275 0.92455595731735229
0.9802173376083374 0.84204155206680298 0.92086488008499146
0.13540555536746979 0.97743827104568481 0.92529928684234619
0.26651275157928467 0.98014938831329346 0.92813068628311157
0.48732000589370728 0.97751098871231079 0.92616379261016846
0.71043413877487183 0.98072642087936401 0.92756044864654541
0.87656199932098389 0.97125977277755737 0.91711091995239258
0.97565871477127075 0.97583460807800293 0.90713012218475342
0.97317510843276978 0.96641117334365845 0.90990144014358521
0.13523684442043304 0.99528247117996216 0.93309062719345093
0.24550662934780121 0.97068363428115845 0.91106927394866943
0.45981517434120178 0.965964674949646 0.90686482191085815
0.68403404951095581 0.97707939147949219 0.9174574613571167
0.86213302612304688 0.97447574138641357 0.91222375631332397
0.96365129947662354 0.97008007764816284 0.90711128711700439
0.98252767324447632 0.98442089557647705 0.92294573783874512
