assets/lut/others smooth fade.cube
# Created by: G'MIC (https://gmic.eu)
TITLE "smooth_fade"
# LUT size
LUT_3D_SIZE 7
# Data domain
DOMAIN_MIN 0.0 0.0 0.0
DOMAIN_MAX 1.0 1.0 1.0
# LUT data points
0.19128066301345825 0.20611786842346191 0.26373583078384399
0.33764252066612244 0.19848030805587769 0.2544131875038147
0.50316137075424194 0.18954336643218994 0.24558508396148682
0.67325824499130249 0.17865599691867828 0.23681861162185669
0.82104754447937012 0.16868387162685394 0.22620736062526703
0.9238472580909729 0.15869763493537903 0.21762058138847351
0.99037545919418335 0.14592035114765167 0.20908863842487335
0.17113539576530457 0.34314584732055664 0.24831081926822662
0.31018233299255371 0.33367288112640381 0.23682884871959686
0.47859048843383789 0.32239869236946106 0.22720444202423096
0.64562743902206421 0.30746489763259888 0.2172544002532959
0.79788601398468018 0.29820543527603149 0.20666241645812988
0.91433227062225342 0.28911107778549194 0.19769087433815002
0.9915810227394104 0.27572381496429443 0.18968372046947479
0.15464907884597778 0.48876193165779114 0.22818282246589661
0.28781738877296448 0.47748842835426331 0.21862038969993591
0.45098680257797241 0.46546301245689392 0.20800578594207764
0.61967682838439941 0.45253419876098633 0.19710046052932739
0.77544760704040527 0.44092914462089539 0.18670271337032318
0.90425676107406616 0.42867875099182129 0.17754115164279938
0.99515259265899658 0.41501703858375549 0.16940750181674957
0.13363048434257507 0.63649976253509521 0.20740576088428497
0.26355117559432983 0.6243634819984436 0.19929194450378418
0.42313393950462341 0.61222326755523682 0.18869648873806
0.5940137505531311 0.60055619478225708 0.17725853621959686
0.75310999155044556 0.58861064910888672 0.16744163632392883
0.88764137029647827 0.57550877332687378 0.15925814211368561
0.99126130342483521 0.5618395209312439 0.14993663132190704
0.11491751670837402 0.77461737394332886 0.18949136137962341
0.24163039028644562 0.76360726356506348 0.17940357327461243
0.39697250723838806 0.75163918733596802 0.16892237961292267
0.56805920600891113 0.74045878648757935 0.15867860615253448
0.73046743869781494 0.73019510507583618 0.1493680328130722
0.86705529689788818 0.71960675716400146 0.14105968177318573
0.978965163230896 0.70679777860641479 0.13131113350391388
0.098733134567737579 0.88710522651672363 0.17084525525569916
0.22142447531223297 0.88470256328582764 0.15991885960102081
0.37111398577690125 0.8751869797706604 0.15009552240371704
0.54312592744827271 0.86445599794387817 0.14025251567363739
0.71019619703292847 0.85588395595550537 0.13125941157341003
0.84810894727706909 0.84748834371566772 0.12345383316278458
0.9624553918838501 0.83558827638626099 0.11417044699192047
0.084114193916320801 0.98282229900360107 0.15179444849491119
0.20317181944847107 0.98528796434402466 0.14209721982479095
0.34748402237892151 0.97949540615081787 0.13426285982131958
0.51708406209945679 0.96975821256637573 0.12297853827476501
0.68477010726928711 0.96259433031082153 0.11307654529809952
0.82772481441497803 0.95526242256164551 0.1061902791261673
0.94622278213500977 0.94335895776748657 0.095971442759037018
0.18771401047706604 0.20455409586429596 0.39489132165908813
0.33183345198631287 0.19603736698627472 0.38571116328239441
0.50075280666351318 0.18732514977455139 0.37555268406867981
0.66916263103485107 0.17464050650596619 0.36629348993301392
0.82088238000869751 0.16463395953178406 0.35781559348106384
0.93345600366592407 0.15633967518806458 0.35020622611045837
0.99741113185882568 0.14705666899681091 0.34153932332992554
0.16997352242469788 0.34085795283317566 0.3794744610786438
0.30841937661170959 0.33024284243583679 0.3696710467338562
0.47282618284225464 0.31786444783210754 0.35984978079795837
0.64398479461669922 0.30500179529190063 0.34919589757919312
0.79912978410720825 0.29497566819190979 0.33941853046417236
0.92139154672622681 0.28543102741241455 0.33026865124702454
0.99824428558349609 0.27486914396286011 0.32185506820678711
0.15115796029567719 0.48650851845741272 0.36066386103630066
0.28507781028747559 0.47440981864929199 0.35195347666740417
0.44614997506141663 0.46132844686508179 0.34196069836616516
0.61711966991424561 0.44924470782279968 0.33111703395843506
0.77496445178985596 0.43787845969200134 0.32016211748123169
0.90783655643463135 0.42539536952972412 0.30961373448371887
0.9985121488571167 0.41340768337249756 0.3008590042591095
0.13113638758659363 0.63574904203414917 0.34124061465263367
0.26151594519615173 0.62266272306442261 0.33344534039497375
0.42025271058082581 0.60921257734298706 0.32336017489433289
0.59246701002120972 0.59785109758377075 0.31264108419418335
0.75243973731994629 0.58609116077423096 0.30119132995605469
0.8886103630065918 0.57327181100845337 0.29074928164482117
0.99347376823425293 0.56028074026107788 0.28088104724884033
0.11478704959154129 0.77215826511383057 0.32246771454811096
0.23986458778381348 0.76129341125488281 0.31375157833099365
0.39459019899368286 0.74809318780899048 0.30423948168754578
0.56664693355560303 0.73661750555038452 0.29418432712554932
0.72844523191452026 0.72717589139938354 0.28359386324882507
0.86597901582717896 0.71727883815765381 0.27362418174743652
0.97914046049118042 0.7048792839050293 0.26267373561859131
0.098261721432209015 0.88608086109161377 0.30333667993545532
0.21794906258583069 0.88206851482391357 0.29381018877029419
0.36806026101112366 0.87108367681503296 0.284740149974823
0.54011797904968262 0.8594701886177063 0.2752840518951416
0.70470160245895386 0.85258173942565918 0.26433724164962769
0.84421455860137939 0.84508895874023438 0.25512516498565674
0.95911663770675659 0.83398723602294922 0.24587556719779968
0.08293645828962326 0.98308330774307251 0.28185445070266724
0.19910025596618652 0.98533695936203003 0.27357885241508484
0.34381118416786194 0.97895711660385132 0.2656826376914978
0.51236212253570557 0.96854561567306519 0.25596597790718079
0.67939108610153198 0.9617188572883606 0.24487471580505371
0.8233487606048584 0.9537474513053894 0.2367599755525589
0.94244682788848877 0.94247758388519287 0.22765979170799255
0.18285274505615234 0.202862948179245 0.52479952573776245
0.32780313491821289 0.19433353841304779 0.51463919878005981
0.49656897783279419 0.18438832461833954 0.50412607192993164
0.66541516780853271 0.17184184491634369 0.49519050121307373
0.81453812122344971 0.16100428998470306 0.48679652810096741
0.92764425277709961 0.1521184891462326 0.47874882817268372
0.99555504322052002 0.14407993853092194 0.46983280777931213
0.1658976674079895 0.3411194384098053 0.50599664449691772
0.30630356073379517 0.32847109436988831 0.49667227268218994
0.47041532397270203 0.31447967886924744 0.48706790804862976
0.64096200466156006 0.30096435546875 0.47725051641464233
0.79343986511230469 0.29040947556495667 0.46868687868118286
0.91630089282989502 0.27940288186073303 0.45890915393829346
0.99709951877593994 0.26902681589126587 0.44998523592948914
0.14715537428855896 0.48572251200675964 0.48673740029335022
0.28304126858711243 0.47197067737579346 0.47874706983566284
0.44337248802185059 0.45781210064888 0.47033846378326416
0.61295235157012939 0.44514480233192444 0.46115756034851074
0.76845884323120117 0.433083176612854 0.45004189014434814
0.90060293674468994 0.41996094584465027 0.43853563070297241
0.99650859832763672 0.40862390398979187 0.43006598949432373
0.12751884758472443 0.6333763599395752 0.46810811758041382
0.25907140970230103 0.61954271793365479 0.46128934621810913
0.4171786904335022 0.60542649030685425 0.4532475471496582
0.58843713998794556 0.59386181831359863 0.44391420483589172
0.74586105346679688 0.58157026767730713 0.431060791015625
0.880729079246521 0.56849712133407593 0.41937831044197083
0.9901878833770752 0.5559535026550293 0.41002184152603149
0.11166585236787796 0.77115106582641602 0.44886451959609985
0.23717449605464935 0.75760012865066528 0.44244533777236938
0.39075520634651184 0.7434578537940979 0.43454176187515259
0.56171774864196777 0.73194754123687744 0.42502415180206299
0.72188496589660645 0.7225152850151062 0.41364860534667969
0.85954231023788452 0.71259826421737671 0.40326386690139771
0.97626042366027832 0.70006704330444336 0.39030006527900696
0.096150897443294525 0.88612216711044312 0.43119841814041138
0.21538177132606506 0.87861162424087524 0.42221254110336304
0.36390247941017151 0.86649572849273682 0.41384768486022949
0.53347045183181763 0.85469353199005127 0.40475410223007202
0.69663429260253906 0.84719371795654297 0.3929445743560791
0.83799171447753906 0.83997189998626709 0.38256183266639709
0.95664495229721069 0.82968509197235107 0.37369233369827271
0.080315530300140381 0.98332369327545166 0.41102656722068787
0.19530537724494934 0.98465198278427124 0.40082442760467529
0.33948251605033875 0.97700279951095581 0.39274278283119202
0.50596445798873901 0.9651450514793396 0.38433763384819031
0.67247277498245239 0.95654940605163574 0.37317097187042236
0.81869089603424072 0.94794440269470215 0.36339667439460754
0.93823039531707764 0.93829452991485596 0.35587969422340393
0.1786857396364212 0.20108836889266968 0.65306633710861206
0.32636228203773499 0.19302912056446075 0.64342212677001953
0.49341529607772827 0.18209268152713776 0.63479793071746826
0.66046959161758423 0.16931068897247314 0.62589550018310547
0.80700224637985229 0.15779183804988861 0.61534696817398071
0.9178544282913208 0.14848816394805908 0.60673755407333374
0.98938190937042236 0.14057660102844238 0.59792202711105347
0.16271941363811493 0.33804643154144287 0.63286030292510986
0.30465561151504517 0.32593655586242676 0.62452459335327148
0.46843531727790833 0.31223815679550171 0.61657452583312988
0.63667720556259155 0.29779016971588135 0.6073334813117981
0.78813779354095459 0.28527155518531799 0.59696018695831299
0.91125303506851196 0.27469354867935181 0.58765178918838501
0.99592143297195435 0.26583623886108398 0.57962977886199951
0.14579585194587708 0.48177319765090942 0.61385965347290039
0.28186392784118652 0.46858701109886169 0.60594707727432251
0.44156190752983093 0.45471978187561035 0.59934121370315552
0.61050552129745483 0.4409421980381012 0.59054458141326904
0.76509326696395874 0.42788925766944885 0.57905888557434082
0.8958592414855957 0.41558158397674561 0.56876569986343384
0.99503892660140991 0.40572693943977356 0.56133806705474854
0.12673331797122955 0.62978345155715942 0.59694164991378784
0.25752496719360352 0.61605191230773926 0.58939003944396973
0.41437521576881409 0.60215777158737183 0.58222609758377075
0.58577018976211548 0.58985054492950439 0.57290089130401611
0.74208813905715942 0.57731026411056519 0.56071335077285767
0.874947190284729 0.56532090902328491 0.5503423810005188
0.98590177297592163 0.55373221635818481 0.54252451658248901
0.10957013070583344 0.76850515604019165 0.57769989967346191
0.23358629643917084 0.75395137071609497 0.57070696353912354
0.38607409596443176 0.74018222093582153 0.56274068355560303
0.55736875534057617 0.72899025678634644 0.55298233032226562
0.71747326850891113 0.71886575222015381 0.54174429178237915
0.85406315326690674 0.70946919918060303 0.53161066770553589
0.97023457288742065 0.6987183690071106 0.52202701568603516
0.094258867204189301 0.88509476184844971 0.559120774269104
0.21251071989536285 0.87367916107177734 0.55050027370452881
0.35947293043136597 0.86293590068817139 0.54110491275787354
0.52844691276550293 0.85242527723312378 0.53147643804550171
0.6927257776260376 0.84350764751434326 0.52109235525131226
0.83519285917282104 0.83614587783813477 0.5115966796875
0.9539681077003479 0.82848924398422241 0.50348412990570068
0.079112030565738678 0.98168307542800903 0.54065889120101929
0.19269172847270966 0.98108506202697754 0.53043836355209351
0.33581644296646118 0.97368806600570679 0.52012842893600464
0.50272780656814575 0.96299421787261963 0.5109066367149353
0.66973918676376343 0.95286458730697632 0.50149291753768921
0.81694322824478149 0.94384682178497314 0.49284675717353821
0.93712252378463745 0.93632966279983521 0.48563981056213379
0.1783728301525116 0.19813042879104614 0.78652918338775635
0.32452332973480225 0.18936027586460114 0.7786487340927124
0.49191838502883911 0.17848481237888336 0.77037560939788818
0.65919142961502075 0.16618047654628754 0.76043474674224854
0.80758696794509888 0.15518799424171448 0.74693828821182251
0.92780452966690063 0.14641644060611725 0.73706364631652832
0.99874031543731689 0.13884346187114716 0.72825366258621216
0.16118665039539337 0.33197233080863953 0.76874440908432007
0.30131968855857849 0.32085409760475159 0.75990712642669678
0.4657147228717804 0.30862101912498474 0.75282406806945801
0.63425397872924805 0.29464134573936462 0.74202442169189453
0.78701919317245483 0.28163355588912964 0.72848963737487793
0.91650849580764771 0.27231037616729736 0.71862351894378662
0.99934923648834229 0.26560026407241821 0.71128702163696289
0.14438778162002563 0.47547852993011475 0.75298041105270386
0.27961456775665283 0.46346554160118103 0.74445819854736328
0.43933379650115967 0.45062613487243652 0.73654663562774658
0.60873806476593018 0.43707907199859619 0.72462558746337891
0.76355898380279541 0.42353934049606323 0.71076363325119019
0.89546376466751099 0.41183000802993774 0.70001804828643799
0.99619084596633911 0.40389183163642883 0.69299310445785522
0.12586534023284912 0.62514716386795044 0.73500704765319824
0.25592872500419617 0.61211872100830078 0.72575843334197998
0.41248893737792969 0.59854543209075928 0.71637028455734253
0.58443683385848999 0.58635210990905762 0.70504492521286011
0.741047203540802 0.57336443662643433 0.69191807508468628
0.87412565946578979 0.56177449226379395 0.68085950613021851
0.98659169673919678 0.55211120843887329 0.672404944896698
0.10816898941993713 0.76406550407409668 0.71136695146560669
0.23227101564407349 0.7510216236114502 0.70240437984466553
0.3841845691204071 0.73800688982009888 0.69247967004776001
0.55549216270446777 0.72685718536376953 0.68257778882980347
0.7162247896194458 0.71590685844421387 0.67132103443145752
0.8532446026802063 0.70654064416885376 0.66071552038192749
0.96970021724700928 0.69731307029724121 0.65104180574417114
0.092959985136985779 0.88084685802459717 0.68785643577575684
0.21052515506744385 0.87109565734863281 0.68018096685409546
0.35729607939720154 0.86059480905532837 0.67052143812179565
0.52660930156707764 0.85120612382888794 0.66077488660812378
0.69188475608825684 0.84153920412063599 0.65068012475967407
0.83398568630218506 0.83343952894210815 0.64181429147720337
0.95242601633071899 0.82531100511550903 0.63373935222625732
0.075862079858779907 0.98353660106658936 0.66984277963638306
0.1901797354221344 0.97829550504684448 0.66157901287078857
0.33337566256523132 0.96874111890792847 0.65141159296035767
0.50157707929611206 0.96081078052520752 0.64063984155654907
0.66913378238677979 0.95123571157455444 0.63192611932754517
0.81512480974197388 0.94224655628204346 0.6251564621925354
0.93447959423065186 0.93420970439910889 0.61711990833282471
0.1772301197052002 0.19697991013526917 0.89770203828811646
0.31963029503822327 0.18692174553871155 0.89929163455963135
0.48941332101821899 0.17531795799732208 0.89635658264160156
0.6593816876411438 0.16390892863273621 0.8926088809967041
0.80666416883468628 0.15414676070213318 0.87867265939712524
0.92796236276626587 0.14610391855239868 0.8664165735244751
0.99963784217834473 0.13822153210639954 0.85741907358169556
0.15778161585330963 0.3292696475982666 0.88980388641357422
0.29579424858093262 0.31713119149208069 0.88064038753509521
0.46195447444915771 0.30510309338569641 0.88134133815765381
0.63194668292999268 0.29286152124404907 0.87298691272735596
0.78357815742492676 0.28076645731925964 0.85891664028167725
0.91409969329833984 0.27124178409576416 0.8487972617149353
0.99962174892425537 0.26401284337043762 0.84193432331085205
0.14048375189304352 0.47328746318817139 0.88247847557067871
0.27495202422142029 0.4596288800239563 0.87586265802383423
0.43548405170440674 0.44635301828384399 0.87201994657516479
0.60551780462265015 0.43380510807037354 0.85672193765640259
0.75997531414031982 0.42065697908401489 0.84121096134185791
0.89145576953887939 0.4080638587474823 0.83042252063751221
0.99596822261810303 0.39934468269348145 0.82357800006866455
0.12337051331996918 0.6234545111656189 0.86934924125671387
0.25153794884681702 0.60957139730453491 0.85900026559829712
0.40793266892433167 0.5951228141784668 0.84956985712051392
0.57893532514572144 0.58206093311309814 0.83619970083236694
0.73758751153945923 0.5693587064743042 0.82227915525436401
0.87290257215499878 0.55778878927230835 0.81127661466598511
0.9871140718460083 0.54820555448532104 0.80274242162704468
0.10646633058786392 0.76151329278945923 0.84627115726470947
0.22965951263904572 0.74951303005218506 0.83517885208129883
0.38164049386978149 0.7365989089012146 0.82340341806411743
0.55158787965774536 0.7243155837059021 0.81308019161224365
0.71406775712966919 0.71276354789733887 0.80156403779983521
0.85367834568023682 0.70347446203231812 0.79073488712310791
0.97005158662796021 0.69476544857025146 0.78179258108139038
0.090871773660182953 0.87986224889755249 0.82103580236434937
0.20784319937229156 0.87009751796722412 0.81373697519302368
0.35561972856521606 0.86041402816772461 0.80318146944046021
0.52502226829528809 0.85099923610687256 0.79246878623962402
0.69064736366271973 0.84007889032363892 0.78161346912384033
0.83361357450485229 0.83177995681762695 0.77149343490600586
0.95024776458740234 0.82365906238555908 0.76376420259475708
0.073891624808311462 0.98531067371368408 0.80206865072250366
0.18833816051483154 0.97702735662460327 0.79499119520187378
0.33147221803665161 0.96728378534317017 0.78407776355743408
0.49955293536186218 0.96072304248809814 0.77236676216125488
0.66659706830978394 0.95093691349029541 0.76314067840576172
0.81214416027069092 0.94131231307983398 0.75578343868255615
0.9334261417388916 0.93264436721801758 0.74633604288101196
0.17504404485225677 0.19476310908794403 0.94948089122772217
0.31465417146682739 0.18416512012481689 0.97651797533035278
0.48013368248939514 0.17222817242145538 0.9911615252494812
0.64570766687393188 0.16164009273052216 0.99541682004928589
0.78692328929901123 0.15278328955173492 0.99164032936096191
0.90005207061767578 0.14462766051292419 0.98579412698745728
0.98388767242431641 0.13591603934764862 0.97921431064605713
0.15514729917049408 0.32726666331291199 0.94332414865493774
0.2924673855304718 0.3149324357509613 0.95500922203063965
0.45545995235443115 0.30345377326011658 0.98057490587234497
0.62228751182556152 0.29255896806716919 0.98469871282577515
0.77060121297836304 0.28186237812042236 0.97975456714630127
0.89599418640136719 0.27161130309104919 0.97402536869049072
0.99376052618026733 0.26220828294754028 0.9676128625869751
0.13650822639465332 0.47079908847808838 0.96162009239196777
0.27101695537567139 0.45713818073272705 0.96780312061309814
0.43045821785926819 0.4440586268901825 0.98066467046737671
0.59932184219360352 0.43269318342208862 0.97391927242279053
0.7522011399269104 0.42065525054931641 0.96485811471939087
0.88373231887817383 0.40797251462936401 0.95835345983505249
0.99421650171279907 0.39543524384498596 0.95224303007125854
0.11944876611232758 0.61966681480407715 0.97415041923522949
0.24626751244068146 0.60646802186965942 0.96714872121810913
0.40267124772071838 0.59187698364257812 0.96542155742645264
0.57236546277999878 0.57871997356414795 0.95736342668533325
0.73148316144943237 0.56658154726028442 0.94804626703262329
0.86900144815444946 0.55521559715270996 0.93998545408248901
0.98560577630996704 0.54456335306167603 0.93187159299850464
0.1028221994638443 0.75690197944641113 0.96512925624847412
0.22737085819244385 0.74580162763595581 0.95689910650253296
0.38018167018890381 0.73382562398910522 0.94757658243179321
0.54665422439575195 0.72048300504684448 0.93863898515701294
0.70941358804702759 0.70886749029159546 0.92952227592468262
0.85140281915664673 0.69967746734619141 0.92082011699676514
0.9677625298500061 0.69061458110809326 0.91164672374725342
0.087052240967750549 0.87766319513320923 0.94713908433914185
0.20338933169841766 0.8662421703338623 0.9436643123626709
0.35372468829154968 0.85788655281066895 0.93173164129257202
0.52132964134216309 0.84746730327606201 0.92098993062973022
0.68689852952957153 0.83733773231506348 0.91160458326339722
0.8314710259437561 0.82921344041824341 0.90247362852096558
0.94685417413711548 0.81960511207580566 0.89295703172683716
0.072450615465641022 0.98138427734375 0.93136376142501831
0.18452335894107819 0.97538459300994873 0.9239119291305542
0.32838410139083862 0.96690064668655396 0.91251492500305176
0.49573603272438049 0.95874464511871338 0.90225344896316528
0.66186988353729248 0.9495120644569397 0.89355212450027466
0.80832064151763916 0.94051414728164673 0.88474780321121216
0.93117630481719971 0.92905598878860474 0.87291419506072998
