assets/lut/others mute shift.cube
# Created by: G'MIC (https://gmic.eu)
TITLE "mute_shift"
# LUT size
LUT_3D_SIZE 7
# Data domain
DOMAIN_MIN 0.0 0.0 0.0
DOMAIN_MAX 1.0 1.0 1.0
# LUT data points
0.044081129133701324 0.038784429430961609 0.065112203359603882
0.14719770848751068 0.095166988670825958 0.18176668882369995
0.24390490353107452 0.20628684759140015 0.34604060649871826
0.35575857758522034 0.33931148052215576 0.49505600333213806
0.4660734236240387 0.43542248010635376 0.64813929796218872
0.57987624406814575 0.55944591760635376 0.80699265003204346
0.67255163192749023 0.64765340089797974 0.95778465270996094
0.051651779562234879 0.18591701984405518 0.059010881930589676
0.20790973305702209 0.18060770630836487 0.15579158067703247
0.30601578950881958 0.2514835000038147 0.31625506281852722
0.4406701922416687 0.37144461274147034 0.49670052528381348
0.55989885330200195 0.47119975090026855 0.65527915954589844
0.65974909067153931 0.58297950029373169 0.80598890781402588
0.76776307821273804 0.68293565511703491 0.95665949583053589
0.050608854740858078 0.33959931135177612 0.052930209785699844
0.31199422478675842 0.32746028900146484 0.14377908408641815
0.35636049509048462 0.26996544003486633 0.26075494289398193
0.48319739103317261 0.3600253164768219 0.43980982899665833
0.635794997215271 0.47204399108886719 0.64315205812454224
0.75539040565490723 0.57965767383575439 0.80735945701599121
0.86182862520217896 0.68197685480117798 0.95600926876068115
0.05866534635424614 0.4949226975440979 0.055879600346088409
0.36002078652381897 0.49709156155586243 0.14522546529769897
0.48390856385231018 0.41642481088638306 0.24770881235599518
0.5174286961555481 0.38011687994003296 0.37057045102119446
0.64823049306869507 0.47023418545722961 0.55292236804962158
0.79548299312591553 0.5799708366394043 0.76095324754714966
0.93314152956008911 0.68605548143386841 0.94057857990264893
0.064292773604393005 0.6513710618019104 0.051211263984441757
0.389089435338974 0.64605695009231567 0.14785517752170563
0.61940282583236694 0.63282996416091919 0.25341689586639404
0.645072340965271 0.52620166540145874 0.36239802837371826
0.67668169736862183 0.49271953105926514 0.48355376720428467
0.79974496364593506 0.57387566566467285 0.67009621858596802
0.94960665702819824 0.68092942237854004 0.86233198642730713
0.077945351600646973 0.80031931400299072 0.054730433970689774
0.39782276749610901 0.79899311065673828 0.14507630467414856
0.67713528871536255 0.79568427801132202 0.2556111216545105
0.79935669898986816 0.71575963497161865 0.36783650517463684
0.80552190542221069 0.62347149848937988 0.47478580474853516
0.81597834825515747 0.58985096216201782 0.58385246992111206
0.95263755321502686 0.67850685119628906 0.77037698030471802
0.063117802143096924 0.9526599645614624 0.040504936128854752
0.41761085391044617 0.95017075538635254 0.14688295125961304
0.71146577596664429 0.94581514596939087 0.26095706224441528
0.93271100521087646 0.93980050086975098 0.36340931057929993
0.94778263568878174 0.79337656497955322 0.4704490602016449
0.94344204664230347 0.70711088180541992 0.58938950300216675
0.95154529809951782 0.67859375476837158 0.68771326541900635
0.047140426933765411 0.038395285606384277 0.18766164779663086
0.17419001460075378 0.046572141349315643 0.19995354115962982
0.25353005528450012 0.14634399116039276 0.34194925427436829
0.34514105319976807 0.25158900022506714 0.49774652719497681
0.44302093982696533 0.35858666896820068 0.65051907300949097
0.543132483959198 0.47281789779663086 0.80298727750778198
0.64203274250030518 0.57647097110748291 0.95565801858901978
0.037588529288768768 0.1850726455450058 0.18791955709457397
0.18319958448410034 0.19601574540138245 0.20627398788928986
0.29898247122764587 0.27756598591804504 0.33733558654785156
0.40765854716300964 0.3798084557056427 0.49435776472091675
0.51610863208770752 0.48776742815971375 0.64919722080230713
0.62420713901519775 0.60086435079574585 0.79653358459472656
0.72248315811157227 0.69010031223297119 0.95202982425689697
0.038207110017538071 0.34087604284286499 0.18408368527889252
0.20587950944900513 0.3401225209236145 0.19995181262493134
0.35426315665245056 0.32514795660972595 0.30937254428863525
0.46983003616333008 0.40570050477981567 0.47490692138671875
0.59355950355529785 0.51124638319015503 0.64445298910140991
0.70540148019790649 0.61674898862838745 0.7989383339881897
0.80629545450210571 0.71817821264266968 0.94792383909225464
0.04066009446978569 0.49774420261383057 0.19099201261997223
0.20250652730464935 0.49802964925765991 0.20109546184539795
0.45675414800643921 0.47790232300758362 0.3026239275932312
0.51378238201141357 0.42586538195610046 0.41327843070030212
0.64573562145233154 0.51884394884109497 0.59913212060928345
0.78401368856430054 0.61863130331039429 0.78814995288848877
0.89829355478286743 0.72520262002944946 0.94956082105636597
0.036503825336694717 0.64951831102371216 0.19132149219512939
0.20015284419059753 0.64469450712203979 0.19381648302078247
0.51341581344604492 0.6490517258644104 0.30029541254043579
0.64862716197967529 0.59414935111999512 0.40574967861175537
0.66773021221160889 0.53597807884216309 0.51971971988677979
0.79886090755462646 0.62105554342269897 0.70884072780609131
0.95483827590942383 0.72744083404541016 0.91019588708877563
0.03605569526553154 0.80491811037063599 0.18483112752437592
0.21359403431415558 0.80009537935256958 0.19863052666187286
0.52636122703552246 0.80126303434371948 0.29677996039390564
0.77545249462127686 0.78695034980773926 0.40641584992408752
0.80092424154281616 0.67546588182449341 0.51315748691558838
0.8272668719291687 0.64148485660552979 0.63266265392303467
0.94905233383178711 0.72189080715179443 0.81086963415145874
0.036294989287853241 0.95160210132598877 0.17914740741252899
0.22059784829616547 0.95334911346435547 0.19999653100967407
0.54120206832885742 0.9506828784942627 0.30070152878761292
0.83193665742874146 0.94691365957260132 0.40590351819992065
0.95039969682693481 0.87778979539871216 0.50868380069732666
0.95039844512939453 0.75529271364212036 0.62365627288818359
0.96314793825149536 0.73334193229675293 0.74866920709609985
0.039381634443998337 0.039820965379476547 0.34462082386016846
0.18027961254119873 0.04289386048913002 0.34099671244621277
0.31673645973205566 0.061406541615724564 0.37039613723754883
0.38635972142219543 0.14861826598644257 0.50281566381454468
0.46112522482872009 0.26096624135971069 0.64899981021881104
0.54177576303482056 0.36013525724411011 0.80082851648330688
0.63511443138122559 0.46352037787437439 0.95646673440933228
0.046723339706659317 0.18721874058246613 0.33807918429374695
0.18419276177883148 0.1897026002407074 0.33768746256828308
0.31369203329086304 0.21350769698619843 0.36796078085899353
0.41027018427848816 0.29766559600830078 0.49963158369064331
0.49589702486991882 0.40128922462463379 0.64771068096160889
0.59308850765228271 0.51406347751617432 0.80526942014694214
0.69044047594070435 0.61684030294418335 0.95673292875289917
0.049249269068241119 0.34077852964401245 0.3397001326084137
0.18906024098396301 0.33890366554260254 0.3382662832736969
0.34550526738166809 0.3455011248588562 0.37140089273452759
0.46085283160209656 0.42143088579177856 0.49882012605667114
0.56102085113525391 0.52364444732666016 0.64400768280029297
0.66609567403793335 0.62903141975402832 0.79920655488967896
0.77134150266647339 0.75085049867630005 0.95451253652572632
0.038715586066246033 0.49411764740943909 0.33881565928459167
0.18514266610145569 0.49631297588348389 0.33691194653511047
0.36353567242622375 0.49453350901603699 0.35413098335266113
0.51088684797286987 0.47816899418830872 0.46117314696311951
0.62967610359191895 0.56144005060195923 0.62837761640548706
0.75220835208892822 0.66322976350784302 0.80006951093673706
0.86092793941497803 0.77290427684783936 0.9559551477432251
0.040252789855003357 0.64821231365203857 0.33877167105674744
0.1907382607460022 0.64489918947219849 0.33375179767608643
0.37272864580154419 0.64734125137329102 0.35241532325744629
0.61875563859939575 0.63246077299118042 0.45496535301208496
0.67058330774307251 0.58403599262237549 0.5698973536491394
0.80169856548309326 0.67220836877822876 0.75862199068069458
0.94859951734542847 0.7759661078453064 0.94930481910705566
0.038369063287973404 0.80475360155105591 0.34414055943489075
0.18753573298454285 0.80548715591430664 0.3386351466178894
0.3712867796421051 0.80301541090011597 0.35849550366401672
0.67270916700363159 0.80459505319595337 0.45389655232429504
0.80010300874710083 0.75137126445770264 0.56229132413864136
0.8254547119140625 0.69271683692932129 0.67711794376373291
0.95269501209259033 0.77266311645507812 0.8560340404510498
0.036960259079933167 0.94930082559585571 0.34581774473190308
0.19254709780216217 0.95086199045181274 0.34384024143218994
0.36490979790687561 0.94329816102981567 0.34972900152206421
0.69762939214706421 0.95446580648422241 0.45138320326805115
0.93208092451095581 0.9370352029800415 0.55962467193603516
0.9518592357635498 0.82093971967697144 0.66845649480819702
0.97438687086105347 0.78955137729644775 0.77618616819381714
0.03376496210694313 0.035790015012025833 0.49620833992958069
0.18786369264125824 0.039469774812459946 0.49840366840362549
0.337352454662323 0.038294445723295212 0.49118676781654358
0.47498047351837158 0.058234736323356628 0.52614599466323853
0.53287798166275024 0.1437559574842453 0.65080887079238892
0.58818638324737549 0.25987845659255981 0.79885107278823853
0.66086053848266602 0.35430848598480225 0.94708931446075439
0.037567708641290665 0.18385416269302368 0.49017605185508728
0.18342341482639313 0.1860320121049881 0.49410030245780945
0.33637288212776184 0.18928433954715729 0.48999607563018799
0.47297161817550659 0.20557267963886261 0.52625906467437744
0.54894965887069702 0.2995486855506897 0.65297192335128784
0.61189085245132446 0.40798410773277283 0.80373197793960571
0.68800610303878784 0.50568133592605591 0.9490121603012085
0.038929779082536697 0.34141272306442261 0.49118226766586304
0.18137255311012268 0.34058013558387756 0.49121403694152832
0.33848276734352112 0.34340581297874451 0.4994032084941864
0.47732701897621155 0.35733982920646667 0.52552801370620728
0.56171393394470215 0.44931977987289429 0.64910060167312622
0.65467733144760132 0.55390983819961548 0.79904294013977051
0.74766212701797485 0.66465193033218384 0.95464128255844116
0.041147898882627487 0.49408730864524841 0.49152490496635437
0.18137255311012268 0.49677503108978271 0.49020826816558838
0.33658269047737122 0.49474063515663147 0.49546930193901062
0.49503239989280701 0.49774584174156189 0.5067330002784729
0.61166882514953613 0.57647144794464111 0.64480262994766235
0.71691852807998657 0.69395476579666138 0.80110114812850952
0.81942629814147949 0.79131507873535156 0.95096176862716675
0.036653585731983185 0.6484982967376709 0.48670923709869385
0.18273913860321045 0.64856487512588501 0.48616963624954224
0.3360292911529541 0.6515953540802002 0.49244120717048645
0.52079588174819946 0.64677125215530396 0.51692605018615723
0.6752389669418335 0.63683521747589111 0.61644738912582397
0.7903931736946106 0.71250563859939575 0.78949415683746338
0.90432989597320557 0.81564414501190186 0.94988882541656494
0.039211813360452652 0.80111175775527954 0.49054411053657532
0.1851976215839386 0.80709826946258545 0.4876549243927002
0.33969190716743469 0.80563294887542725 0.49235033988952637
0.52519625425338745 0.79982072114944458 0.51426905393600464
0.76918935775756836 0.78849834203720093 0.60971367359161377
0.82868748903274536 0.73931550979614258 0.72530049085617065
0.94875085353851318 0.82066744565963745 0.90071386098861694
0.041869670152664185 0.94908523559570312 0.50004559755325317
0.18800567090511322 0.95286428928375244 0.48843246698379517
0.35651993751525879 0.94401365518569946 0.49176684021949768
0.5271371603012085 0.94543558359146118 0.50754094123840332
0.8190765380859375 0.95363610982894897 0.60484963655471802
0.94341516494750977 0.88276469707489014 0.71108132600784302
0.97104150056838989 0.83488649129867554 0.83236426115036011
0.035139989107847214 0.049782637506723404 0.64862430095672607
0.18876038491725922 0.043629694730043411 0.65249145030975342
0.34474322199821472 0.037071153521537781 0.64661484956741333
0.49108272790908813 0.03838082030415535 0.64713329076766968
0.62198680639266968 0.059426534920930862 0.68113279342651367
0.67770850658416748 0.14722637832164764 0.80651229619979858
0.72472661733627319 0.2443917989730835 0.95598399639129639
0.038282759487628937 0.18910817801952362 0.64457350969314575
0.18595767021179199 0.1892096996307373 0.64851146936416626
0.34474724531173706 0.18734030425548553 0.6495172381401062
0.49256011843681335 0.19173642992973328 0.64788347482681274
0.63721036911010742 0.20785307884216309 0.67452049255371094
0.6854434609413147 0.29987004399299622 0.80842524766921997
0.73746925592422485 0.40250420570373535 0.95220071077346802
0.035722590982913971 0.33704030513763428 0.64774990081787109
0.18139299750328064 0.3369891345500946 0.64835697412490845
0.33436483144760132 0.34331217408180237 0.65144813060760498
0.48498427867889404 0.33960965275764465 0.64906966686248779
0.62947046756744385 0.35995665192604065 0.67643594741821289
0.69515681266784668 0.45622989535331726 0.80019766092300415
0.76365584135055542 0.55917531251907349 0.95028823614120483
0.035536102950572968 0.49027246236801147 0.6485477089881897
0.18053147196769714 0.49085161089897156 0.64911031723022461
0.32862010598182678 0.49401503801345825 0.6509665846824646
0.48698979616165161 0.49392399191856384 0.64626842737197876
0.62686377763748169 0.51487046480178833 0.67337876558303833
0.71968740224838257 0.6062127947807312 0.80278319120407104
0.8061404824256897 0.71042430400848389 0.94941848516464233
0.038540814071893692 0.64531970024108887 0.64470517635345459
0.18004441261291504 0.64848387241363525 0.64558953046798706
0.33550277352333069 0.64878851175308228 0.65208101272583008
0.4959847629070282 0.64802980422973633 0.64966440200805664
0.65827828645706177 0.64775067567825317 0.66943305730819702
0.76920861005783081 0.71736377477645874 0.8018459677696228
0.86693370342254639 0.84255069494247437 0.95000559091567993
0.035266563296318054 0.80010974407196045 0.64662110805511475
0.18091939389705658 0.80686277151107788 0.64288806915283203
0.34160983562469482 0.80769866704940796 0.64672333002090454
0.4980628490447998 0.80214470624923706 0.64847511053085327
0.66222548484802246 0.79762279987335205 0.66099804639816284
0.81174683570861816 0.78068059682846069 0.7701377272605896
0.94364988803863525 0.86435592174530029 0.95041447877883911
0.036288287490606308 0.94773083925247192 0.65172046422958374
0.18701456487178802 0.95408803224563599 0.64867192506790161
0.34435862302780151 0.9496644139289856 0.64432233572006226
0.49533200263977051 0.95099282264709473 0.64565944671630859
0.67411071062088013 0.94214719533920288 0.6657136082649231
0.92866754531860352 0.93929421901702881 0.76121383905410767
0.96103572845458984 0.8701820969581604 0.88343453407287598
0.035898052155971527 0.043900135904550552 0.80373537540435791
0.18472139537334442 0.03678397461771965 0.80687844753265381
0.34040424227714539 0.040045600384473801 0.80673027038574219
0.49019607901573181 0.04534129798412323 0.80304515361785889
0.64926886558532715 0.049037288874387741 0.80451703071594238
0.7864118218421936 0.050340600311756134 0.82699275016784668
0.82086718082427979 0.15938696265220642 0.94940710067749023
0.043949410319328308 0.18821988999843597 0.80291199684143066
0.18220454454421997 0.18740342557430267 0.80685818195343018
0.33894094824790955 0.18529412150382996 0.80314052104949951
0.49518248438835144 0.185543492436409 0.80309075117111206
0.65039020776748657 0.1858084499835968 0.80636733770370483
0.78214073181152344 0.20756025612354279 0.83138346672058105
0.82573014497756958 0.29485046863555908 0.9449424147605896
0.03635922446846962 0.33783000707626343 0.80301707983016968
0.1846582293510437 0.33826568722724915 0.80376166105270386
0.33571997284889221 0.34077447652816772 0.80440890789031982
0.48839357495307922 0.33818915486335754 0.80305474996566772
0.64465433359146118 0.33925625681877136 0.80690723657608032
0.77134650945663452 0.36553987860679626 0.83844953775405884
0.83830702304840088 0.4515843391418457 0.95507550239562988
0.036578234285116196 0.49090468883514404 0.8034859299659729
0.18124404549598694 0.49021145701408386 0.80240458250045776
0.33556860685348511 0.49638795852661133 0.80641138553619385
0.48670941591262817 0.49441123008728027 0.80419683456420898
0.64161211252212524 0.4886481761932373 0.80571275949478149
0.77516287565231323 0.51506984233856201 0.83747398853302002
0.85060834884643555 0.60335004329681396 0.95236051082611084
0.03828652948141098 0.64005756378173828 0.79968303442001343
0.17593492567539215 0.64662528038024902 0.80267214775085449
0.33182403445243835 0.64861249923706055 0.80686742067337036
0.49169409275054932 0.64736533164978027 0.80539131164550781
0.64516675472259521 0.64505934715270996 0.80105131864547729
0.77614635229110718 0.6695244312286377 0.84107881784439087
0.86530071496963501 0.75236517190933228 0.95404881238937378
0.03558490052819252 0.79874438047409058 0.80191171169281006
0.17470778524875641 0.8058851957321167 0.79890733957290649
0.33393129706382751 0.80999594926834106 0.80839306116104126
0.49812707304954529 0.80887681245803833 0.79970967769622803
0.64732354879379272 0.80091845989227295 0.79636240005493164
0.80516666173934937 0.79778635501861572 0.8169974684715271
0.91817325353622437 0.89159268140792847 0.95512628555297852
0.035036724060773849 0.9518970251083374 0.80688607692718506
0.1830553412437439 0.95676451921463013 0.79213052988052368
0.34216251969337463 0.95713299512863159 0.79736089706420898
0.49422091245651245 0.95242071151733398 0.79834425449371338
0.64374071359634399 0.94719189405441284 0.79734480381011963
0.84033882617950439 0.94728213548660278 0.83050620555877686
0.97336941957473755 0.95145261287689209 0.91607528924942017
0.02809358574450016 0.038730740547180176 0.95207029581069946
0.17541947960853577 0.036273568868637085 0.94743162393569946
0.34028366208076477 0.039614643901586533 0.94568228721618652
0.49616196751594543 0.034809187054634094 0.95561271905899048
0.64871096611022949 0.037212178111076355 0.95377790927886963
0.80187052488327026 0.042358234524726868 0.9572027325630188
0.92844301462173462 0.045878630131483078 0.96307528018951416
0.039159767329692841 0.19214463233947754 0.95665079355239868
0.18781426548957825 0.19106261432170868 0.94653075933456421
0.34423977136611938 0.19133958220481873 0.95466464757919312
0.4909205436706543 0.18481191992759705 0.94996815919876099
0.64565104246139526 0.18137255311012268 0.9519616961479187
0.80482202768325806 0.18577021360397339 0.95643901824951172
0.92740923166275024 0.21156810224056244 0.98391801118850708
0.043494865298271179 0.34904664754867554 0.95314258337020874
0.18921723961830139 0.34720292687416077 0.94559240341186523
0.33668014407157898 0.34661167860031128 0.94861996173858643
0.48876562714576721 0.34340742230415344 0.95857805013656616
0.64606797695159912 0.33912813663482666 0.95439696311950684
0.79888111352920532 0.33977434039115906 0.96293389797210693
0.93863004446029663 0.35451671481132507 0.96987015008926392
0.040880870074033737 0.49820947647094727 0.95601546764373779
0.18745137751102448 0.49571138620376587 0.95243924856185913
0.34005832672119141 0.49817270040512085 0.95261520147323608
0.48726889491081238 0.4994569718837738 0.95356303453445435
0.65154117345809937 0.49998348951339722 0.9590836763381958
0.80298298597335815 0.49179008603096008 0.9532654881477356
0.93797141313552856 0.503490149974823 0.96569597721099854
0.04047667607665062 0.64663034677505493 0.95419514179229736
0.18693938851356506 0.64833718538284302 0.9580991268157959
0.3364657461643219 0.65244787931442261 0.95395535230636597
0.49017590284347534 0.64749336242675781 0.96217620372772217
0.6395641565322876 0.64318877458572388 0.94576787948608398
0.79725009202957153 0.6471092700958252 0.96290397644042969
0.93652224540710449 0.65924322605133057 0.97152173519134521
0.050741545855998993 0.80212479829788208 0.95819640159606934
0.1869477778673172 0.80001658201217651 0.94891023635864258
0.33965694904327393 0.80425459146499634 0.95598995685577393
0.48887789249420166 0.80206394195556641 0.95074629783630371
0.63908803462982178 0.80123096704483032 0.95116609334945679
0.79198116064071655 0.80118691921234131 0.95014983415603638
0.93534839153289795 0.82273274660110474 0.98700898885726929
0.037444498389959335 0.95480811595916748 0.95984822511672974
0.18518583476543427 0.95357680320739746 0.95210891962051392
0.34116503596305847 0.9557604193687439 0.95215791463851929
0.49098673462867737 0.95464396476745605 0.95648694038391113
0.64610588550567627 0.9514153003692627 0.95184361934661865
0.80551838874816895 0.95401287078857422 0.95739543437957764
0.96246564388275146 0.95738345384597778 0.97203296422958374
