assets/lut/others faded extreme.cube
# Created by: G'MIC (https://gmic.eu)
TITLE "faded_extreme"
# LUT size
LUT_3D_SIZE 5
# Data domain
DOMAIN_MIN 0.0 0.0 0.0
DOMAIN_MAX 1.0 1.0 1.0
# LUT data points
0.013573904521763325 0.013444967567920685 0.011046316474676132
0.031334672123193741 0.020736858248710632 0.014978730119764805
0.048139356076717377 0.023983361199498177 0.021715590730309486
0.097988024353981018 0.036574196070432663 0.044118829071521759
0.16838958859443665 0.08320511132478714 0.096660405397415161
0.15574862062931061 0.16033387184143066 0.13355500996112823
0.25609895586967468 0.24085637927055359 0.2116447240114212
0.36574277281761169 0.32576724886894226 0.29572251439094543
0.43727314472198486 0.37190538644790649 0.34610149264335632
0.55771017074584961 0.47548127174377441 0.44353744387626648
0.55032563209533691 0.56020826101303101 0.48500803112983704
0.67248255014419556 0.66084563732147217 0.58203929662704468
0.76413488388061523 0.72705554962158203 0.65036547183990479
0.8608776330947876 0.80307453870773315 0.72606170177459717
0.95054084062576294 0.89166277647018433 0.81228816509246826
0.95638227462768555 0.96504437923431396 0.86778342723846436
0.98557686805725098 0.98113328218460083 0.92840218544006348
0.99148839712142944 0.98658764362335205 0.96651768684387207
0.99277621507644653 0.99221944808959961 0.98032993078231812
0.99304378032684326 0.99444615840911865 0.99067485332489014
0.99280524253845215 0.99261796474456787 0.99066388607025146
0.99097472429275513 0.9887697696685791 0.98997431993484497
0.97968149185180664 0.97949308156967163 0.97871220111846924
0.99268287420272827 0.99258935451507568 0.99200284481048584
0.98014658689498901 0.98014658689498901 0.98357242345809937
0.017869343981146812 0.018603291362524033 0.013719521462917328
0.031216355040669441 0.019811069592833519 0.01882273331284523
0.075340107083320618 0.040404811501502991 0.043321169912815094
0.16215774416923523 0.09915325790643692 0.10685408115386963
0.251901775598526 0.1669577956199646 0.17458175122737885
0.25333097577095032 0.26135063171386719 0.22759564220905304
0.37488678097724915 0.36162403225898743 0.32555574178695679
0.46726992726325989 0.43194079399108887 0.39310944080352783
0.56174004077911377 0.5007287859916687 0.46433860063552856
0.66748201847076416 0.58494329452514648 0.54580914974212646
0.65788894891738892 0.66915708780288696 0.58420079946517944
0.76224642992019653 0.75506353378295898 0.66907519102096558
0.86536920070648193 0.83689665794372559 0.75217264890670776
0.9583166241645813 0.92048460245132446 0.83976864814758301
0.989513099193573 0.95820504426956177 0.90653532743453979
0.98855090141296387 0.99247843027114868 0.95542019605636597
0.99369931221008301 0.99280780553817749 0.97885102033615112
0.98472690582275391 0.98518002033233643 0.98249685764312744
0.98711848258972168 0.98679047822952271 0.98188722133636475
0.99420106410980225 0.99385279417037964 0.99256151914596558
0.98363202810287476 0.98194849491119385 0.97973072528839111
0.99240207672119141 0.9917716383934021 0.99401813745498657
0.98715484142303467 0.9881022572517395 0.98583215475082397
0.99215686321258545 0.99215686321258545 0.99207985401153564
0.99628597497940063 0.99618232250213623 0.99607843160629272
0.021309781819581985 0.028045983985066414 0.023688012734055519
0.075342379510402679 0.062440492212772369 0.061870604753494263
0.15216231346130371 0.1121479719877243 0.11458767205476761
0.26237890124320984 0.20380480587482452 0.20311528444290161
0.37288060784339905 0.29269507527351379 0.29069146513938904
0.36270764470100403 0.37446320056915283 0.32857677340507507
0.4757361114025116 0.46602791547775269 0.42072129249572754
0.57167947292327881 0.53849303722381592 0.490578293800354
0.68265610933303833 0.62723159790039062 0.57751262187957764
0.78284746408462524 0.70461559295654297 0.65806293487548828
0.77009004354476929 0.78701227903366089 0.69466567039489746
0.87741988897323608 0.87259352207183838 0.77877545356750488
0.95570415258407593 0.94065648317337036 0.85438555479049683
0.98874765634536743 0.98079055547714233 0.92914211750030518
0.99650800228118896 0.99252855777740479 0.98078459501266479
0.99484318494796753 0.99518924951553345 0.98786252737045288
0.99560004472732544 0.99232393503189087 0.98796212673187256
0.9893568754196167 0.98895180225372314 0.98396801948547363
0.99496203660964966 0.99485182762145996 0.99204158782958984
0.99915558099746704 0.99862796068191528 0.99767512083053589
0.98759549856185913 0.9885515570640564 0.98655027151107788
0.98812747001647949 0.98804223537445068 0.98818480968475342
0.98782801628112793 0.98861861228942871 0.98683136701583862
0.98705083131790161 0.98708701133728027 0.98662501573562622
0.99548101425170898 0.99548101425170898 0.99534314870834351
0.073983959853649139 0.080981776118278503 0.075416281819343567
0.18297941982746124 0.1748044341802597 0.16626791656017303
0.27951240539550781 0.24196398258209229 0.23652806878089905
0.37544292211532593 0.31590425968170166 0.3077487051486969
0.47794517874717712 0.39961081743240356 0.39006480574607849
0.49749797582626343 0.50979650020599365 0.45780929923057556
0.57552492618560791 0.56903821229934692 0.51634210348129272
0.66505682468414307 0.6357039213180542 0.58134454488754272
0.77393203973770142 0.7206951379776001 0.66581088304519653
0.87634861469268799 0.80395615100860596 0.74911665916442871
0.89568549394607544 0.91208940744400024 0.81702083349227905
0.96028810739517212 0.95999062061309814 0.88009911775588989
0.99334466457366943 0.98855161666870117 0.94934117794036865
0.99564450979232788 0.99471330642700195 0.98637670278549194
0.99218744039535522 0.991993248462677 0.98388612270355225
0.98741376399993896 0.98836654424667358 0.98307108879089355
0.99282526969909668 0.99295985698699951 0.98672187328338623
0.98632168769836426 0.98608613014221191 0.98363590240478516
0.99404346942901611 0.99400311708450317 0.99365979433059692
0.98499178886413574 0.9849432110786438 0.98467886447906494
0.99110525846481323 0.9913439154624939 0.99040800333023071
0.98601895570755005 0.98605221509933472 0.98557460308074951
0.98576366901397705 0.98576366901397705 0.98569363355636597
0.99213582277297974 0.99213582277297974 0.99210286140441895
0.99612390995025635 0.99612390995025635 0.99612390995025635
0.17489162087440491 0.18880641460418701 0.1750682145357132
0.27141609787940979 0.26463025808334351 0.24839088320732117
0.38775181770324707 0.35533368587493896 0.33984246850013733
0.4853937029838562 0.43001279234886169 0.41266557574272156
0.59136813879013062 0.51425182819366455 0.49933329224586487
0.58868271112442017 0.60722559690475464 0.54424697160720825
0.67880833148956299 0.67412424087524414 0.61437308788299561
0.79126733541488647 0.76521247625350952 0.70192933082580566
0.88935661315917969 0.8427613377571106 0.78104370832443237
0.96774208545684814 0.91480863094329834 0.85736536979675293
0.96988630294799805 0.98193991184234619 0.91797977685928345
0.98745203018188477 0.98776787519454956 0.96281510591506958
0.99602711200714111 0.99211251735687256 0.98625153303146362
0.99261152744293213 0.99124282598495483 0.98473632335662842
0.98652315139770508 0.98579919338226318 0.98199558258056641
0.99458473920822144 0.99485969543457031 0.99348610639572144
0.98532748222351074 0.98535031080245972 0.98244303464889526
0.99384623765945435 0.99381589889526367 0.99341565370559692
0.9827805757522583 0.98277008533477783 0.9825173020362854
0.99340903759002686 0.99337613582611084 0.992931067943573
0.99322706460952759 0.99398845434188843 0.99236047267913818
0.98298704624176025 0.98308080434799194 0.98271358013153076
0.98030054569244385 0.98030054569244385 0.9802854061126709
0.98549574613571167 0.98549574613571167 0.98549574613571167
0.98848557472229004 0.98848557472229004 0.98848557472229004
