assets/lut/others blue mono.cube
# Created by: G'MIC (https://gmic.eu)
TITLE "blue_mono"
# LUT size
LUT_3D_SIZE 7
# Data domain
DOMAIN_MIN 0.0 0.0 0.0
DOMAIN_MAX 1.0 1.0 1.0
# LUT data points
0.030908502638339996 0.048396166414022446 0.14408838748931885
0.06221403181552887 0.10462146997451782 0.29499396681785583
0.10684607923030853 0.17552781105041504 0.4505494236946106
0.1735747754573822 0.27111941576004028 0.59131783246994019
0.24099624156951904 0.36230769753456116 0.70989018678665161
0.29878288507461548 0.44197097420692444 0.80204743146896362
0.4165918231010437 0.62252837419509888 0.89064258337020874
0.038897659629583359 0.05276324599981308 0.15173910558223724
0.070118650794029236 0.10987288504838943 0.30600184202194214
0.11544195562601089 0.18363752961158752 0.46588441729545593
0.17918549478054047 0.27597638964653015 0.60906034708023071
0.24489250779151917 0.36797124147415161 0.72419208288192749
0.31642106175422668 0.47119536995887756 0.81380540132522583
0.43461146950721741 0.65284013748168945 0.90020358562469482
0.042226321995258331 0.057346373796463013 0.1664101630449295
0.078251078724861145 0.12048851698637009 0.32780683040618896
0.12936849892139435 0.19878271222114563 0.48614460229873657
0.19261354207992554 0.28839200735092163 0.62520307302474976
0.25332614779472351 0.37810969352722168 0.73468208312988281
0.33101183176040649 0.49435076117515564 0.82049185037612915
0.45477533340454102 0.68364322185516357 0.90532809495925903
0.042368270456790924 0.063078857958316803 0.18065434694290161
0.081098549067974091 0.13149528205394745 0.34418514370918274
0.14023683965206146 0.2174413651227951 0.50623875856399536
0.20987175405025482 0.30945682525634766 0.64297491312026978
0.2678932249546051 0.39653283357620239 0.74705559015274048
0.34887427091598511 0.5196651816368103 0.83234918117523193
0.47059464454650879 0.70227313041687012 0.91217124462127686
0.045222055166959763 0.070719711482524872 0.20319955050945282
0.080440446734428406 0.1375361829996109 0.35979640483856201
0.13987623155117035 0.22570683062076569 0.52178823947906494
0.21513862907886505 0.32262885570526123 0.65801149606704712
0.27980956435203552 0.41364836692810059 0.75927954912185669
0.36907953023910522 0.54790967702865601 0.84569334983825684
0.48653745651245117 0.72321408987045288 0.92133820056915283
0.050987977534532547 0.077359803020954132 0.22911989688873291
0.091902367770671844 0.15031926333904266 0.39644548296928406
0.14078217744827271 0.22910529375076294 0.53562170267105103
0.21524950861930847 0.32760614156723022 0.66571855545043945
0.29210296273231506 0.43430426716804504 0.77006232738494873
0.38970330357551575 0.57970654964447021 0.85764753818511963
0.50166648626327515 0.74553918838500977 0.92798531055450439
0.056553591042757034 0.085964277386665344 0.23822797834873199
0.10582283139228821 0.16651040315628052 0.41098347306251526
0.1613323986530304 0.25117331743240356 0.55076307058334351
0.23072457313537598 0.34865039587020874 0.67031079530715942
0.31186264753341675 0.46453619003295898 0.77169317007064819
0.40957450866699219 0.60857886075973511 0.85702848434448242
0.51964068412780762 0.77023088932037354 0.9271010160446167
0.031352292746305466 0.052870206534862518 0.15154001116752625
0.068566851317882538 0.11176446825265884 0.31239473819732666
0.11469268798828125 0.18509566783905029 0.46328341960906982
0.17874540388584137 0.27801811695098877 0.60216939449310303
0.24965965747833252 0.37567386031150818 0.72198385000228882
0.31115221977233887 0.46296820044517517 0.80880153179168701
0.43142890930175781 0.64928251504898071 0.89890283346176147
0.037326693534851074 0.0599338598549366 0.16606299579143524
0.073259197175502777 0.11903568357229233 0.32777327299118042
0.11958989500999451 0.19494098424911499 0.48123133182525635
0.18416266143321991 0.2888028621673584 0.62106209993362427
0.25641259551048279 0.38839530944824219 0.73725765943527222
0.33216443657875061 0.4956020712852478 0.82532757520675659
0.45045822858810425 0.67432099580764771 0.90864831209182739
0.04308503121137619 0.066100209951400757 0.19079281389713287
0.080272942781448364 0.12895798683166504 0.35234475135803223
0.13052569329738617 0.20854030549526215 0.50405102968215942
0.19274510443210602 0.29927417635917664 0.63506567478179932
0.25654822587966919 0.38736900687217712 0.7406502366065979
0.33928802609443665 0.50413304567337036 0.82758361101150513
0.46825230121612549 0.69597524404525757 0.91240590810775757
0.046347182244062424 0.071708142757415771 0.20737655460834503
0.085574701428413391 0.14039325714111328 0.37276604771614075
0.14349484443664551 0.22670958936214447 0.52645981311798096
0.20745094120502472 0.31696787476539612 0.64842838048934937
0.26399728655815125 0.39507323503494263 0.74517250061035156
0.34836697578430176 0.51525157690048218 0.83248549699783325
0.48450270295143127 0.71826171875 0.92044538259506226
0.050592415034770966 0.077847346663475037 0.22592143714427948
0.090896964073181152 0.15061050653457642 0.39446794986724854
0.15226702392101288 0.23975159227848053 0.54971778392791748
0.21871905028820038 0.32790213823318481 0.67102789878845215
0.27596712112426758 0.40698689222335815 0.76102149486541748
0.36944344639778137 0.54559242725372314 0.84885698556900024
0.50111359357833862 0.74492388963699341 0.93353420495986938
0.054991867393255234 0.082123592495918274 0.2475789338350296
0.099147871136665344 0.16035948693752289 0.4216514527797699
0.15776917338371277 0.24633677303791046 0.56967645883560181
0.22448663413524628 0.33505123853683472 0.68859183788299561
0.29170840978622437 0.42955890297889709 0.7811475396156311
0.39185106754302979 0.58105933666229248 0.86820662021636963
0.51618808507919312 0.76779019832611084 0.94515252113342285
0.056872919201850891 0.086444973945617676 0.25661429762840271
0.10681226849555969 0.17108672857284546 0.43470901250839233
0.17010347545146942 0.26103544235229492 0.58211886882781982
0.23847383260726929 0.35479176044464111 0.69840466976165771
0.31405666470527649 0.46468237042427063 0.79249769449234009
0.41336080431938171 0.61261391639709473 0.87541794776916504
0.52950197458267212 0.78401583433151245 0.94648927450180054
0.037341054528951645 0.058225981891155243 0.1670585423707962
0.077454239130020142 0.12066566944122314 0.33105900883674622
0.12580294907093048 0.1984265148639679 0.47921591997146606
0.19082160294055939 0.29030632972717285 0.61697494983673096
0.26121982932090759 0.38692143559455872 0.73545515537261963
0.33640143275260925 0.49904718995094299 0.82606416940689087
0.45325526595115662 0.68028467893600464 0.90722376108169556
0.041849743574857712 0.065362982451915741 0.1831468939781189
0.079126276075839996 0.1295488178730011 0.34616458415985107
0.12741446495056152 0.20925916731357574 0.4960574209690094
0.19349239766597748 0.30213645100593567 0.63506293296813965
0.26660475134849548 0.40094485878944397 0.75067967176437378
0.34956875443458557 0.51948469877243042 0.84038448333740234
0.46958944201469421 0.69870227575302124 0.91876465082168579
0.047673963010311127 0.06998162716627121 0.20519429445266724
0.084202110767364502 0.13617144525051117 0.3699185848236084
0.1353125125169754 0.21884939074516296 0.51952821016311646
0.20039170980453491 0.31361368298530579 0.64941626787185669
0.26969477534294128 0.4088645875453949 0.75636869668960571
0.35750779509544373 0.53125476837158203 0.84469366073608398
0.48493880033493042 0.7171708345413208 0.92509818077087402
0.048659320920705795 0.072971463203430176 0.2176135927438736
0.08784591406583786 0.14288848638534546 0.38787227869033813
0.14745022356510162 0.23055259883403778 0.53900164365768433
0.21140377223491669 0.32375994324684143 0.65987479686737061
0.27585390210151672 0.41605207324028015 0.75796425342559814
0.36910873651504517 0.54887038469314575 0.84884464740753174
0.49988272786140442 0.74169594049453735 0.93235224485397339
0.05446065217256546 0.082876972854137421 0.23629534244537354
0.097097389400005341 0.15644901990890503 0.40957054495811462
0.16035953164100647 0.24450348317623138 0.56110751628875732
0.22309398651123047 0.33274251222610474 0.67726582288742065
0.2881397008895874 0.42868673801422119 0.76844030618667603
0.39472264051437378 0.58712208271026611 0.86209523677825928
0.51503169536590576 0.76973062753677368 0.94306325912475586
0.062273602932691574 0.09289812296628952 0.26008856296539307
0.10549236834049225 0.17099253833293915 0.43474990129470825
0.17017340660095215 0.26029404997825623 0.58503991365432739
0.23605784773826599 0.34869438409805298 0.70048528909683228
0.3033958375453949 0.44848752021789551 0.78956818580627441
0.40567633509635925 0.60243171453475952 0.87452799081802368
0.52839332818984985 0.78544694185256958 0.95119249820709229
0.059669196605682373 0.097136147320270538 0.2717704176902771
0.10636456310749054 0.17918859422206879 0.44819390773773193
0.17742958664894104 0.27315503358840942 0.59907418489456177
0.24839389324188232 0.36707699298858643 0.71471148729324341
0.31995651125907898 0.47349447011947632 0.80395591259002686
0.41944456100463867 0.62240135669708252 0.8844907283782959
0.54069358110427856 0.79943019151687622 0.95742571353912354
0.042631395161151886 0.063830010592937469 0.18400990962982178
0.078815236687660217 0.12832672894001007 0.34642615914344788
0.13151200115680695 0.20884183049201965 0.49850741028785706
0.20382238924503326 0.30231073498725891 0.63615208864212036
0.27378064393997192 0.3936212956905365 0.74957001209259033
0.35239160060882568 0.51434028148651123 0.83945333957672119
0.47031491994857788 0.70064938068389893 0.91602927446365356
0.047830142080783844 0.07025647908449173 0.20203165709972382
0.084548607468605042 0.13699518144130707 0.36510899662971497
0.13682782649993896 0.22020535171031952 0.51712119579315186
0.20482134819030762 0.31158307194709778 0.65201002359390259
0.27502855658531189 0.40410652756690979 0.76240772008895874
0.36301839351654053 0.53328078985214233 0.85186386108398438
0.48644137382507324 0.72289812564849854 0.92606723308563232
0.054890427738428116 0.074099309742450714 0.21935845911502838
0.091108165681362152 0.14475058019161224 0.38760566711425781
0.14493362605571747 0.23057807981967926 0.53740304708480835
0.21179777383804321 0.32636556029319763 0.6660311222076416
0.28455916047096252 0.42786037921905518 0.7734571099281311
0.37832719087600708 0.56213963031768799 0.86267858743667603
0.50005233287811279 0.7409932017326355 0.93548434972763062
0.055050421506166458 0.078110143542289734 0.23426491022109985
0.094010643661022186 0.15120412409305573 0.40856152772903442
0.15443792939186096 0.24023492634296417 0.55679100751876831
0.22047369182109833 0.33739036321640015 0.67736983299255371
0.29437839984893799 0.44760450720787048 0.77999204397201538
0.39501383900642395 0.59353035688400269 0.87186098098754883
0.51253372430801392 0.7610970139503479 0.94191372394561768
0.056698549538850784 0.088556833565235138 0.2553044855594635
0.10226808488368988 0.16614776849746704 0.43278086185455322
0.16809000074863434 0.255930095911026 0.57823425531387329
0.23080363869667053 0.34793376922607422 0.69205445051193237
0.30374082922935486 0.46052262187004089 0.78678804636001587
0.41283759474754333 0.6197090744972229 0.87620431184768677
0.52751284837722778 0.78377735614776611 0.94678127765655518
0.062760055065155029 0.098662972450256348 0.27255582809448242
0.11356092244386673 0.18281301856040955 0.45391961932182312
0.18222586810588837 0.27728545665740967 0.60120117664337158
0.24800007045269012 0.36827570199966431 0.71437323093414307
0.31515976786613464 0.47449818253517151 0.8020479679107666
0.42307835817337036 0.63351786136627197 0.88506245613098145
0.54200053215026855 0.80261492729187012 0.95483708381652832
0.064623482525348663 0.1073625460267067 0.2871299684047699
0.11778105050325394 0.19124016165733337 0.46767392754554749
0.18857719004154205 0.28707385063171387 0.61576658487319946
0.25891932845115662 0.38281548023223877 0.72819262742996216
0.32700994610786438 0.48852121829986572 0.81356358528137207
0.4299754798412323 0.6416318416595459 0.89318555593490601
0.55501478910446167 0.820079505443573 0.96649831533432007
0.04420534148812294 0.067154735326766968 0.1908259242773056
0.077898390591144562 0.13401605188846588 0.35730445384979248
0.1298287957906723 0.21524134278297424 0.51415038108825684
0.20516356825828552 0.30519092082977295 0.64773517847061157
0.27219375967979431 0.38845682144165039 0.75395530462265015
0.36120507121086121 0.51925033330917358 0.84523606300354004
0.48924264311790466 0.72083151340484619 0.92703258991241455
0.050350040197372437 0.075644895434379578 0.21669097244739532
0.0878630131483078 0.14383766055107117 0.38260877132415771
0.14449110627174377 0.23074392974376678 0.53734672069549561
0.21163664758205414 0.31645709276199341 0.66482937335968018
0.27697548270225525 0.40060898661613464 0.76578432321548462
0.37756916880607605 0.54590129852294922 0.85688000917434692
0.50937521457672119 0.7518419623374939 0.93618184328079224
0.056716695427894592 0.083524011075496674 0.23712347447872162
0.097554288804531097 0.15681178867816925 0.40960800647735596
0.15336517989635468 0.24156889319419861 0.55689078569412231
0.21638527512550354 0.32849830389022827 0.67791318893432617
0.28852969408035278 0.42835670709609985 0.77843964099884033
0.39379128813743591 0.57964307069778442 0.86848562955856323
0.51719307899475098 0.76632165908813477 0.9436568021774292
0.058700978755950928 0.091016896069049835 0.25624623894691467
0.10140100866556168 0.16789315640926361 0.43514412641525269
0.15981760621070862 0.2541949450969696 0.57566720247268677
0.22277620434761047 0.34334364533424377 0.69071435928344727
0.30023595690727234 0.45547395944595337 0.78926092386245728
0.40839672088623047 0.61065363883972168 0.87753492593765259
0.52594178915023804 0.78091055154800415 0.95006257295608521
0.058999843895435333 0.099078670144081116 0.28227174282073975
0.10597535967826843 0.17882712185382843 0.46303156018257141
0.16844876110553741 0.26743140816688538 0.59728533029556274
0.23026421666145325 0.35646313428878784 0.70603054761886597
0.30818110704421997 0.47324347496032715 0.79915469884872437
0.42449763417243958 0.63800960779190063 0.88587766885757446
0.54046428203582764 0.79963606595993042 0.95453071594238281
0.064023829996585846 0.10727899521589279 0.30134275555610657
0.11736699938774109 0.18953581154346466 0.48061767220497131
0.18249319493770599 0.28202134370803833 0.61853468418121338
0.24313466250896454 0.37113273143768311 0.7242240309715271
0.31557360291481018 0.48372253775596619 0.81030291318893433
0.44107073545455933 0.66343802213668823 0.89845907688140869
0.5552477240562439 0.82310235500335693 0.96238446235656738
0.068783089518547058 0.11904846131801605 0.31578496098518372
0.12763853371143341 0.19912198185920715 0.49501505494117737
0.19415527582168579 0.29313832521438599 0.63261121511459351
0.26064768433570862 0.38937687873840332 0.73788952827453613
0.33577629923820496 0.50500750541687012 0.82266008853912354
0.44848662614822388 0.67072021961212158 0.90460240840911865
0.56759184598922729 0.837901771068573 0.97162455320358276
0.049174904823303223 0.074308343231678009 0.19890290498733521
0.086138904094696045 0.14705821871757507 0.37157455086708069
0.14271059632301331 0.2310016006231308 0.52772825956344604
0.20836767554283142 0.31486263871192932 0.65455621480941772
0.27215522527694702 0.40095964074134827 0.7561347484588623
0.37330695986747742 0.54424619674682617 0.85344839096069336
0.50496143102645874 0.74312901496887207 0.94165468215942383
0.054521836340427399 0.083872400224208832 0.23634466528892517
0.095903940498828888 0.15752439200878143 0.4123593270778656
0.15700750052928925 0.24396821856498718 0.55884820222854614
0.21872736513614655 0.32717958092689514 0.67627108097076416
0.28121089935302734 0.41816779971122742 0.77097827196121216
0.39702612161636353 0.58129620552062988 0.86959958076477051
0.52840971946716309 0.77936828136444092 0.95267462730407715
0.058596517890691757 0.094306394457817078 0.25817000865936279
0.10488266497850418 0.16874697804450989 0.43634879589080811
0.16232016682624817 0.2497338205575943 0.57662183046340942
0.22117903828620911 0.33313837647438049 0.68984133005142212
0.29409366846084595 0.4389614462852478 0.78552103042602539
0.41232642531394958 0.60903447866439819 0.87938737869262695
0.53277766704559326 0.79195713996887207 0.95361089706420898
0.063322491943836212 0.10198866575956345 0.27118805050849915
0.10875532776117325 0.18105538189411163 0.45193654298782349
0.16666795313358307 0.26325890421867371 0.59154617786407471
0.22744090855121613 0.34745597839355469 0.70357644557952881
0.30476167798042297 0.45993107557296753 0.7971881628036499
0.42223358154296875 0.62935227155685425 0.88321387767791748
0.54158508777618408 0.80346792936325073 0.95715987682342529
0.067726582288742065 0.10826508700847626 0.29783183336257935
0.11014052480459213 0.18737882375717163 0.46929901838302612
0.17321908473968506 0.27511793375015259 0.60998976230621338
0.23927831649780273 0.36632815003395081 0.72079074382781982
0.32086333632469177 0.48656341433525085 0.81154918670654297
0.44116809964179993 0.6594354510307312 0.89669418334960938
0.55659431219100952 0.82054108381271362 0.96648210287094116
0.069368816912174225 0.1166122704744339 0.3240412175655365
0.11991976201534271 0.19500285387039185 0.49324217438697815
0.1845950186252594 0.28454142808914185 0.63012474775314331
0.25077810883522034 0.38066020607948303 0.73620855808258057
0.33006659150123596 0.49842268228530884 0.82126474380493164
0.45632064342498779 0.68498581647872925 0.91186797618865967
0.56954312324523926 0.84397214651107788 0.97818541526794434
0.073754467070102692 0.13053037226200104 0.33881780505180359
0.13359567523002625 0.20910219848155975 0.51131939888000488
0.19970987737178802 0.29937100410461426 0.64385974407196045
0.26884186267852783 0.40115237236022949 0.74701994657516479
0.35237976908683777 0.52823531627655029 0.83366292715072632
0.46834829449653625 0.70114278793334961 0.91804885864257812
0.5766717791557312 0.84908372163772583 0.97616112232208252
0.055148914456367493 0.086205996572971344 0.21524658799171448
0.10128827393054962 0.1644083708524704 0.39309811592102051
0.15965564548969269 0.24936631321907043 0.54002267122268677
0.22197616100311279 0.33752784132957458 0.66067570447921753
0.29046869277954102 0.4392445981502533 0.76201146841049194
0.39100012183189392 0.58538609743118286 0.85922926664352417
0.50987207889556885 0.76226699352264404 0.94549697637557983
0.058090720325708389 0.094387099146842957 0.26070258021354675
0.10806569457054138 0.17144575715065002 0.44750922918319702
0.16930863261222839 0.25506323575973511 0.57668286561965942
0.23021328449249268 0.34474390745162964 0.68805843591690063
0.29711538553237915 0.45099872350692749 0.78199052810668945
0.40851104259490967 0.61247748136520386 0.8778652548789978
0.52693027257919312 0.78965532779693604 0.95661711692810059
0.064015105366706848 0.10041245073080063 0.2812345027923584
0.1150888204574585 0.1765466034412384 0.46242830157279968
0.17364621162414551 0.25586941838264465 0.59239274263381958
0.23197413980960846 0.34552931785583496 0.70302700996398926
0.30489945411682129 0.45925813913345337 0.79763275384902954
0.42168760299682617 0.63097041845321655 0.88936811685562134
0.53857564926147461 0.80767232179641724 0.96117037534713745
0.070526361465454102 0.1091482862830162 0.30032894015312195
0.11968140304088593 0.19236265122890472 0.47750788927078247
0.17866091430187225 0.2712780237197876 0.61032509803771973
0.23990383744239807 0.35880196094512939 0.71980530023574829
0.3120916485786438 0.4696042537689209 0.810516357421875
0.43284037709236145 0.6476399302482605 0.89520901441574097
0.55370086431503296 0.82531285285949707 0.96676439046859741
0.077924229204654694 0.11959764361381531 0.32427474856376648
0.12321093678474426 0.2032623291015625 0.49290898442268372
0.18869917094707489 0.28892695903778076 0.62819892168045044
0.2614690363407135 0.38794872164726257 0.74017369747161865
0.34398180246353149 0.51348060369491577 0.83055901527404785
0.46455740928649902 0.69159507751464844 0.91466867923736572
0.57062292098999023 0.84394252300262451 0.97346705198287964
0.076068669557571411 0.12783047556877136 0.34326097369194031
0.13090968132019043 0.20886337757110596 0.50624549388885498
0.20033274590969086 0.29898238182067871 0.64162325859069824
0.27732264995574951 0.40804287791252136 0.75214236974716187
0.36626964807510376 0.54544246196746826 0.84427863359451294
0.48036512732505798 0.7164989709854126 0.92765265703201294
0.58328664302825928 0.86151909828186035 0.98608660697937012
0.081640742719173431 0.14135164022445679 0.34825867414474487
0.14382220804691315 0.22314999997615814 0.51435202360153198
0.21475358307361603 0.3136667013168335 0.6469261646270752
0.29237344861030579 0.42695119976997375 0.75538229942321777
0.38346397876739502 0.56852662563323975 0.84795975685119629
0.49075651168823242 0.73032015562057495 0.9284665584564209
0.58957201242446899 0.86533623933792114 0.98331046104431152
