assets/lut/others soft fade.cube
# Created by: G'MIC (https://gmic.eu)
TITLE "soft_fade"
# LUT size
LUT_3D_SIZE 5
# Data domain
DOMAIN_MIN 0.0 0.0 0.0
DOMAIN_MAX 1.0 1.0 1.0
# LUT data points
0.035095676779747009 0.038510207086801529 0.096410401165485382
0.27126967906951904 0.036781910806894302 0.094450049102306366
0.61326557397842407 0.041007053107023239 0.093420423567295074
0.83892428874969482 0.055385589599609375 0.09415174275636673
0.97481667995452881 0.048172071576118469 0.10429768264293671
0.037005361169576645 0.33497819304466248 0.087453760206699371
0.27160242199897766 0.33192086219787598 0.094959184527397156
0.61163705587387085 0.32698968052864075 0.093344114720821381
0.836617112159729 0.32940512895584106 0.07841898500919342
0.97398972511291504 0.33170074224472046 0.10283586382865906
0.042933668941259384 0.65635353326797485 0.088938511908054352
0.27196246385574341 0.65562337636947632 0.094344243407249451
0.6108887791633606 0.65164989233016968 0.095139443874359131
0.83936411142349243 0.6525568962097168 0.10971544682979584
0.97094988822937012 0.6539531946182251 0.10243627429008484
0.030820734798908234 0.85292500257492065 0.093220219016075134
0.28214368224143982 0.85236144065856934 0.11305370181798935
0.6134602427482605 0.85362750291824341 0.10292476415634155
0.83870303630828857 0.85531312227249146 0.094602890312671661
0.95566695928573608 0.85125738382339478 0.11380788683891296
0.042700391262769699 0.9776151180267334 0.098150469362735748
0.27305766940116882 0.97121149301528931 0.10472451150417328
0.61196678876876831 0.96970587968826294 0.097661919891834259
0.83736544847488403 0.96861833333969116 0.10016516596078873
0.96834760904312134 0.9688103199005127 0.09766630083322525
0.035900548100471497 0.049489308148622513 0.53347766399383545
0.27760949730873108 0.040220808237791061 0.5355268120765686
0.6142570972442627 0.03904520720243454 0.53918594121932983
0.8379327654838562 0.039086643606424332 0.5300757884979248
0.97334903478622437 0.043600223958492279 0.53255820274353027
0.0309892687946558 0.32779768109321594 0.54416161775588989
0.27644917368888855 0.33368679881095886 0.52768105268478394
0.61176770925521851 0.32852384448051453 0.54127985239028931
0.84016203880310059 0.33428320288658142 0.53001928329467773
0.96829229593276978 0.33349356055259705 0.53371763229370117
0.03410644456744194 0.6435692310333252 0.53655993938446045
0.27306178212165833 0.65245378017425537 0.52868545055389404
0.61346232891082764 0.64530491828918457 0.52892929315567017
0.83492839336395264 0.64905083179473877 0.52548676729202271
0.96416431665420532 0.6517069935798645 0.54129880666732788
0.046243824064731598 0.85026466846466064 0.53594446182250977
0.27285671234130859 0.85362803936004639 0.53860384225845337
0.61087179183959961 0.85266768932342529 0.53260570764541626
0.83997511863708496 0.85158467292785645 0.53115344047546387
0.96897917985916138 0.84674477577209473 0.53748971223831177
0.0335526242852211 0.97774893045425415 0.53788560628890991
0.27879428863525391 0.96548992395401001 0.53853750228881836
0.60527676343917847 0.97223186492919922 0.52301657199859619
0.83925551176071167 0.96730297803878784 0.53223854303359985
0.97308480739593506 0.97659897804260254 0.54183769226074219
0.034742690622806549 0.04151356965303421 0.72848093509674072
0.28273677825927734 0.042463280260562897 0.72956651449203491
0.60503649711608887 0.043001197278499603 0.72935652732849121
0.84160131216049194 0.045767825096845627 0.7324901819229126
0.97284799814224243 0.044918898493051529 0.73344904184341431
0.038489755243062973 0.32815894484519958 0.72294133901596069
0.27121812105178833 0.32436820864677429 0.72945290803909302
0.61027008295059204 0.32827749848365784 0.7366446852684021
0.83688974380493164 0.32714572548866272 0.73400259017944336
0.96065819263458252 0.3361581563949585 0.73911392688751221
0.034792926162481308 0.64964121580123901 0.73133569955825806
0.27938747406005859 0.65585315227508545 0.73472386598587036
0.6092536449432373 0.6522974967956543 0.73279762268066406
0.83573436737060547 0.65520364046096802 0.73595929145812988
0.96677881479263306 0.64435702562332153 0.73310679197311401
0.032600000500679016 0.85233736038208008 0.73740667104721069
0.27362513542175293 0.85030299425125122 0.73601830005645752
0.61191707849502563 0.84719866514205933 0.73239290714263916
0.83906924724578857 0.84841972589492798 0.73579442501068115
0.97198331356048584 0.85277026891708374 0.7426755428314209
0.036522511392831802 0.96077430248260498 0.7290271520614624
0.26947373151779175 0.96835207939147949 0.72711086273193359
0.60778915882110596 0.96813350915908813 0.72778874635696411
0.83449405431747437 0.96893727779388428 0.73638725280761719
0.97121638059616089 0.95612049102783203 0.7359316349029541
0.035724848508834839 0.045419879257678986 0.86933773756027222
0.27814987301826477 0.042657710611820221 0.8686058521270752
0.62054532766342163 0.045137651264667511 0.87544482946395874
0.83532059192657471 0.046893548220396042 0.87267154455184937
0.96998381614685059 0.05159333348274231 0.87205022573471069
0.036824528127908707 0.33670124411582947 0.8723989725112915
0.27395457029342651 0.32719129323959351 0.87458974123001099
0.61752951145172119 0.33238214254379272 0.87596231698989868
0.83610063791275024 0.33435001969337463 0.87182188034057617
0.96156084537506104 0.32996857166290283 0.86279088258743286
0.044078931212425232 0.65273904800415039 0.87432914972305298
0.27429252862930298 0.64428955316543579 0.87242805957794189
0.60411274433135986 0.64700108766555786 0.87123340368270874
0.83376681804656982 0.64529967308044434 0.87271714210510254
0.9628867506980896 0.65170139074325562 0.87246376276016235
0.035888209939002991 0.85304552316665649 0.87265634536743164
0.28073328733444214 0.85563844442367554 0.87948322296142578
0.6108585000038147 0.85533493757247925 0.8673827052116394
0.83759111166000366 0.84816783666610718 0.87405246496200562
0.97493839263916016 0.85196805000305176 0.87267154455184937
0.033547449856996536 0.97523325681686401 0.87172043323516846
0.27691656351089478 0.97312825918197632 0.86752700805664062
0.6132655143737793 0.97208249568939209 0.86967337131500244
0.83945906162261963 0.96312952041625977 0.87153369188308716
0.95324224233627319 0.96734297275543213 0.87170177698135376
0.034714881330728531 0.038581773638725281 0.96853858232498169
0.28441214561462402 0.042270362377166748 0.9751279354095459
0.61122810840606689 0.04521382600069046 0.97389674186706543
0.83832943439483643 0.03801371157169342 0.9721258282661438
0.96966791152954102 0.042755171656608582 0.97130835056304932
0.048262160271406174 0.33377289772033691 0.96818000078201294
0.27479773759841919 0.33688420057296753 0.97762292623519897
0.61297255754470825 0.32923045754432678 0.97946357727050781
0.83703899383544922 0.32406699657440186 0.97833269834518433
0.96899980306625366 0.3289351761341095 0.97401207685470581
0.031769756227731705 0.64994734525680542 0.97460025548934937
0.27110457420349121 0.64668071269989014 0.97233766317367554
0.61550414562225342 0.65089452266693115 0.97886085510253906
0.8425106406211853 0.65291428565979004 0.97875440120697021
0.97543418407440186 0.64774924516677856 0.96897810697555542
0.034603644162416458 0.85258299112319946 0.97136646509170532
0.27865004539489746 0.85021275281906128 0.97731584310531616
0.61771088838577271 0.85464608669281006 0.97902339696884155
0.83967596292495728 0.849720299243927 0.9694972038269043
0.96886813640594482 0.84871804714202881 0.97803133726119995
0.039190120995044708 0.97011464834213257 0.98178499937057495
0.26888686418533325 0.97409158945083618 0.9753495454788208
0.61283332109451294 0.96926254034042358 0.98057401180267334
0.83594763278961182 0.97471529245376587 0.97805392742156982
0.97438979148864746 0.96996474266052246 0.96733874082565308
