assets/lut/others orange tone.cube
# Created by: G'MIC (https://gmic.eu)
TITLE "orange_tone"
# LUT size
LUT_3D_SIZE 13
# Data domain
DOMAIN_MIN 0.0 0.0 0.0
DOMAIN_MAX 1.0 1.0 1.0
# LUT data points
0.09022955596446991 0.00085450714686885476 0.0013969122665002942
0.17488667368888855 0.0082092881202697754 0.0045882132835686207
0.27019810676574707 0.026655713096261024 0.0076459101401269436
0.3839256763458252 0.065540045499801636 0.0062850653193891048
0.51771652698516846 0.12866216897964478 0.0039028991013765335
0.66838544607162476 0.21668210625648499 0.0035522610414773226
0.82170116901397705 0.32334572076797485 0.003907566424459219
0.94889837503433228 0.4305727481842041 0.0039215688593685627
0.9992835521697998 0.52203035354614258 0.0039215688593685627
1 0.59505140781402588 0.0020255893468856812
1 0.65687429904937744 0
1 0.71480238437652588 0
1 0.7718818187713623 0
0.1017756313085556 0.0025751900393515825 0.0010590796591714025
0.18643313646316528 0.011178439483046532 0.004620271734893322
0.27900198101997375 0.027954535558819771 0.0077455407008528709
0.38768962025642395 0.062318883836269379 0.0053677279502153397
0.51735997200012207 0.12185908108949661 0.0025824154727160931
0.67046964168548584 0.21226212382316589 0.001293242210522294
0.83157491683959961 0.32622644305229187 0.0033307543490082026
0.96403378248214722 0.44087356328964233 0.0039215688593685627
1 0.53312665224075317 0.0039215688593685627
1 0.60315984487533569 0.0014285517390817404
1 0.6627008318901062 0
1 0.71938693523406982 0
1 0.77613359689712524 0
0.11225364357233047 0.005277581512928009 0.0014538783580064774
0.19699652493000031 0.015465829521417618 0.0058861225843429565
0.28818437457084656 0.032162535935640335 0.007893701083958149
0.39142933487892151 0.06285819411277771 0.0069575738161802292
0.5154375433921814 0.11793280392885208 0.0033077613916248083
0.66652661561965942 0.20807982981204987 0.0025788699276745319
0.82886034250259399 0.32578092813491821 0.0040060454048216343
0.96059858798980713 0.44341900944709778 0.0039215688593685627
0.99993312358856201 0.53549391031265259 0.0039215688593685627
1 0.60396873950958252 0.00083462585462257266
1 0.66305667161941528 0
1 0.72055494785308838 0
1 0.77871489524841309 0
0.11996940523386002 0.0060131149366497993 0.0021747963037341833
0.20585295557975769 0.018410865217447281 0.0068182405084371567
0.29600197076797485 0.036519803106784821 0.010848176665604115
0.39743992686271667 0.066883504390716553 0.010464402846992016
0.51885521411895752 0.11991120874881744 0.0085836369544267654
0.66628032922744751 0.20752511918544769 0.0089364144951105118
0.82698464393615723 0.32635200023651123 0.0086961481720209122
0.95298457145690918 0.44423800706863403 0.0063004139810800552
0.99917113780975342 0.53465473651885986 0.0039215688593685627
1 0.60109502077102661 0.00055147061357274652
1 0.66065520048141479 0
1 0.72087299823760986 0
1 0.78114867210388184 0
0.12748268246650696 0.0057252920232713223 0.0022591983433812857
0.21470294892787933 0.020288266241550446 0.0062575694173574448
0.30646836757659912 0.041163995862007141 0.0088234692811965942
0.4104066789150238 0.075167618691921234 0.0095530189573764801
0.53393173217773438 0.13020509481430054 0.010883241891860962
0.68092012405395508 0.21736982464790344 0.013871196657419205
0.84407526254653931 0.33950471878051758 0.01214726734906435
0.96435546875 0.4572388231754303 0.0078517543151974678
0.99940180778503418 0.54300528764724731 0.0039215688593685627
0.99991661310195923 0.60480695962905884 0.00055147061357274652
0.99614369869232178 0.66319197416305542 0
0.99434894323348999 0.72463655471801758 0
0.99644923210144043 0.7856641411781311 0
0.1372050940990448 0.0060017453506588936 0.0015686184633523226
0.22643917798995972 0.022368203848600388 0.0040121488273143768
0.32238870859146118 0.047485396265983582 0.0045420927926898003
0.43303921818733215 0.088620021939277649 0.0033285850659012794
0.56632643938064575 0.15313689410686493 0.005730857141315937
0.7221953272819519 0.24780724942684174 0.01014384813606739
0.88249611854553223 0.36860555410385132 0.010089530609548092
0.98612451553344727 0.48092979192733765 0.007188714575022459
0.99999219179153442 0.56090885400772095 0.0039215688593685627
1 0.62016361951828003 0.00055147061357274652
0.9987717866897583 0.67559134960174561 0
0.9936596155166626 0.73365813493728638 0
0.99410510063171387 0.79299134016036987 0
0.14929939806461334 0.0076307407580316067 0.00075046316487714648
0.2409740537405014 0.024880098178982735 0.0039215688593685627
0.34148016571998596 0.053525302559137344 0.0028113571461290121
0.46037265658378601 0.10237966477870941 7.0010914896556642e-06
0.60355329513549805 0.17727687954902649 0.0012327007716521621
0.76408809423446655 0.27871516346931458 0.0050045535899698734
0.91597598791122437 0.39593672752380371 0.0058823530562222004
0.99623823165893555 0.50092232227325439 0.0044471891596913338
1 0.57819598913192749 0.0039215688593685627
1 0.63677829504013062 0.00078795192530378699
1 0.68993675708770752 0
0.99728310108184814 0.7448154091835022 0
0.9953387975692749 0.80173265933990479 0
0.1622823178768158 0.0095241470262408257 0.00073529413202777505
0.25495153665542603 0.026577848941087723 0.0039215688593685627
0.3580869734287262 0.056366968899965286 0.0038039861246943474
0.48270371556282043 0.11076513677835464 0.0012322668917477131
0.63017052412033081 0.19196733832359314 5.4093903600005433e-05
0.78956562280654907 0.29724389314651489 0.0032422533258795738
0.93301159143447876 0.41213995218276978 0.0039215688593685627
0.99879813194274902 0.51378154754638672 0.0039215688593685627
1 0.58954370021820068 0.0039215688593685627
1 0.64784592390060425 0.0025603650137782097
0.99997293949127197 0.7008785605430603 9.8434145911596715e-05
0.99707502126693726 0.7547382116317749 1.9447477370704291e-06
0.99539321660995483 0.81043630838394165 0.00036775178159587085
0.17185607552528381 0.0096673406660556793 0.0006956212455406785
0.26650378108024597 0.027885556221008301 0.0039182626642286777
0.37095090746879578 0.058818906545639038 0.0039215688593685627
0.49568235874176025 0.11378118395805359 0.0034703870769590139
0.64160060882568359 0.19694001972675323 0.00034408568171784282
0.79907912015914917 0.30490219593048096 0.0022355921100825071
0.93815648555755615 0.42127487063407898 0.0039215688593685627
0.99910169839859009 0.52216631174087524 0.0039215688593685627
1 0.59686940908432007 0.0039215688593685627
0.99998849630355835 0.65419715642929077 0.0039215688593685627
0.99791669845581055 0.70754164457321167 0.0033090179786086082
0.99260574579238892 0.76239651441574097 0.0029788296669721603
0.99360096454620361 0.81855499744415283 0.003781427163630724
0.17807492613792419 0.0086196297779679298 0.00028776281396858394
0.27659115195274353 0.029624475166201591 0.0037553375586867332
0.3822987973690033 0.061683416366577148 0.003915734589099884
0.50278288125991821 0.11462584882974625 0.0023640352301299572
0.64303803443908691 0.19618992507457733 4.3801701394841075e-05
0.80139398574829102 0.30752930045127869 0.0012169333640486002
0.94638139009475708 0.43069937825202942 0.0039215688593685627
0.9997672438621521 0.53312581777572632 0.0039215688593685627
1 0.60484099388122559 0.0039215688593685627
0.99962747097015381 0.65937060117721558 0.0039215688593685627
0.99256068468093872 0.71240359544754028 0.0039215688593685627
0.9883958101272583 0.76811879873275757 0.0039215688593685627
0.99190717935562134 0.82502412796020508 0.0039215688593685627
0.18739746510982513 0.0092499526217579842 0
0.2895265519618988 0.033186759799718857 0.0018752901814877987
0.39696472883224487 0.06655411422252655 0.002395824296399951
0.51389241218566895 0.11834210902452469 0.00018721935339272022
0.64641481637954712 0.19691148400306702 0
0.80328971147537231 0.30968418717384338 0.00056019204203039408
0.95942234992980957 0.44304385781288147 0.0038562251720577478
1 0.54604345560073853 0.0039215688593685627
1 0.6126633882522583 0.0039215688593685627
0.99981194734573364 0.66484242677688599 0.0039215688593685627
0.99296492338180542 0.71679884195327759 0.0039215688593685627
0.98817557096481323 0.77226519584655762 0.0039215688593685627
0.99201399087905884 0.82927465438842773 0.0039215688593685627
0.20300279557704926 0.013196219690144062 0
0.30984902381896973 0.040003217756748199 2.1721334633184597e-05
0.42094498872756958 0.076325297355651855 2.9620001441799104e-05
0.53972935676574707 0.13067132234573364 0
0.66987955570220947 0.2110755443572998 0
0.82018870115280151 0.32333841919898987 0.00022588991851080209
0.96522939205169678 0.45235049724578857 0.0036522210575640202
1 0.55004805326461792 0.0039215688593685627
1 0.61369633674621582 0.0036736731417477131
0.99985450506210327 0.66608017683029175 0.0021471658255904913
0.99398535490036011 0.7188989520072937 0.0012961443280801177
0.98934167623519897 0.77484869956970215 0.0014173021772876382
0.9929460883140564 0.83188080787658691 0.0021710863802582026
0.22255104780197144 0.019615966826677322 0
0.33401146531105042 0.050689294934272766 0
0.45085617899894714 0.091709822416305542 0
0.57425343990325928 0.15157349407672882 0
0.70607960224151611 0.23732833564281464 0
0.84487342834472656 0.34627199172973633 6.4086911152116954e-05
0.96148818731307983 0.45820373296737671 0.0019388984655961394
0.99932754039764404 0.54525798559188843 0.0019589292351156473
1 0.6081281304359436 0.00035873113665729761
0.99808317422866821 0.66301393508911133 0
0.99059557914733887 0.71856689453125 0
0.98878377676010132 0.77580541372299194 0
0.99271893501281738 0.83359569311141968 0
0.097757644951343536 0.002177129965275526 7.0010914896556642e-06
0.17833001911640167 0.0075931325554847717 0.0023680892772972584
0.27305647730827332 0.02473805658519268 0.0042547485791146755
0.38611641526222229 0.061542734503746033 0.0042521306313574314
0.51947319507598877 0.12324121594429016 0.0039215688593685627
0.67194527387619019 0.21244218945503235 0.004024251364171505
0.82912415266036987 0.32254141569137573 0.0039215688593685627
0.95974892377853394 0.43428343534469604 0.0039215688593685627
0.99999845027923584 0.52794486284255981 0.0039136698469519615
1 0.60075891017913818 0.0010391385294497013
1 0.66159480810165405 0
1 0.71838462352752686 0
1 0.77492356300354004 0
0.10933088511228561 0.0049319695681333542 6.498448783531785e-05
0.19286887347698212 0.012810082174837589 0.0032712600659579039
0.28621160984039307 0.029301946982741356 0.0055961906909942627
0.39413166046142578 0.061955995857715607 0.00609588623046875
0.52348417043685913 0.12067250162363052 0.0046704309061169624
0.67651128768920898 0.21139895915985107 0.0046321195550262928
0.83921480178833008 0.32894277572631836 0.0039837704971432686
0.96979475021362305 0.44638696312904358 0.0039215688593685627
1 0.54040181636810303 0.0037705365102738142
1 0.61087077856063843 0.00044112859177403152
1 0.66934484243392944 0
1 0.72461742162704468 0
1 0.78029453754425049 0
0.12114536017179489 0.0083037735894322395 0.00063974718796089292
0.20830358564853668 0.0195809006690979 0.0047621931880712509
0.30164808034896851 0.03745931014418602 0.0077691618353128433
0.40463247895240784 0.06763496994972229 0.0078016393817961216
0.52902722358703613 0.12356247007846832 0.0068122562952339649
0.68090391159057617 0.21542711555957794 0.0061547374352812767
0.84327256679534912 0.33650770783424377 0.004708518274128437
0.97028136253356934 0.45501714944839478 0.0039215688593685627
1 0.54701602458953857 0.0036540462169796228
1 0.61509841680526733 0.00014688828377984464
1 0.67231911420822144 0
1 0.72777813673019409 0
1 0.78396695852279663 0
0.13052822649478912 0.0098767150193452835 0.0012197307078167796
0.21917422115802765 0.023859765380620956 0.0058153341524302959
0.31271600723266602 0.043433155864477158 0.0085683185607194901
0.41534951329231262 0.074596300721168518 0.0096047492697834969
0.53867441415786743 0.13032157719135284 0.0096426568925380707
0.6894870400428772 0.22233250737190247 0.0097847133874893188
0.85042238235473633 0.34418228268623352 0.0083073936402797699
0.97188711166381836 0.46248772740364075 0.005267169326543808
1 0.55161696672439575 0.0038332471158355474
1 0.61616998910903931 0.00035274730180390179
1 0.67248666286468506 0
0.9999459981918335 0.7295185923576355 0
0.99968463182449341 0.78717917203903198 0
0.13873353600502014 0.0097551681101322174 0.0013502233196049929
0.22825749218463898 0.025404028594493866 0.0049535264261066914
0.3232848048210144 0.047868166118860245 0.0077872332185506821
0.43042251467704773 0.084149621427059174 0.0083008706569671631
0.55821532011032104 0.14372396469116211 0.010359580628573895
0.71204406023025513 0.23803481459617615 0.012322668917477131
0.87589788436889648 0.36319497227668762 0.010492122732102871
0.98606735467910767 0.48043215274810791 0.0068750269711017609
1 0.56294101476669312 0.0039215688593685627
1 0.62211418151855469 0.00070004933513700962
0.9994971752166748 0.67621457576751709 0
0.99552303552627563 0.73338568210601807 0
0.99502283334732056 0.79180347919464111 0
0.14862069487571716 0.0097504109144210815 0.00088037230307236314
0.24052776396274567 0.027375448495149612 0.0039223912172019482
0.33987605571746826 0.054132349789142609 0.0041581545956432819
0.45418012142181396 0.09781540185213089 0.0040069282986223698
0.59193557500839233 0.16693185269832611 0.0059713926166296005
0.75294500589370728 0.26772081851959229 0.0091346437111496925
0.91584575176239014 0.39283251762390137 0.0087582161650061607
0.99811047315597534 0.50559860467910767 0.0059765386395156384
1 0.58132249116897583 0.0039215688593685627
1 0.63620913028717041 0.00092077814042568207
0.99978268146514893 0.6873403787612915 0
0.9944499135017395 0.74183529615402222 0
0.99243128299713135 0.79845142364501953 0
0.16020095348358154 0.010452345013618469 0.00073529413202777505
0.25600364804267883 0.029871981590986252 0.0039215688593685627
0.36049762368202209 0.060693971812725067 0.0038058112841099501
0.48228776454925537 0.11171285808086395 0.0018636217573657632
0.62761408090591431 0.18954856693744659 0.0027775333728641272
0.79075342416763306 0.29504507780075073 0.0046799750998616219
0.94192314147949219 0.41520726680755615 0.0052941716276109219
0.9999280571937561 0.52089136838912964 0.0040913899429142475
1 0.59551787376403809 0.0039215688593685627
1 0.65026432275772095 0.0012815288500860333
1 0.69996011257171631 0
0.99714058637619019 0.7518075704574585 0
0.99338310956954956 0.80636888742446899 0
0.17137414216995239 0.011513205245137215 0.0010316736297681928
0.27067276835441589 0.032057084143161774 0.0039215688593685627
0.37905475497245789 0.065248958766460419 0.0039526098407804966
0.50473225116729736 0.12033253163099289 0.0034564896486699581
0.65149295330047607 0.20249190926551819 0.0030401640105992556
0.81125056743621826 0.31036251783370972 0.0039182775653898716
0.95207774639129639 0.42755654454231262 0.0039215688593685627
1 0.52917313575744629 0.0039215688593685627
1 0.60334736108779907 0.0039215688593685627
1 0.65884971618652344 0.0024727166164666414
0.99990332126617432 0.70912307500839233 7.4797986826524721e-07
0.99562674760818481 0.76085466146469116 0
0.99363189935684204 0.81442046165466309 1.9447477370704291e-06
0.1807532012462616 0.011640721000730991 0.0012944090412929654
0.2815798819065094 0.033410031348466873 0.0039215688593685627
0.39047414064407349 0.066944390535354614 0.0043494133278727531
0.51448673009872437 0.12215752899646759 0.0039344038814306259
0.65907871723175049 0.20528337359428406 0.003780305152758956
0.81631708145141602 0.31575635075569153 0.0038868323899805546
0.95376241207122803 0.43466904759407043 0.0039215688593685627
1 0.5353887677192688 0.0039215688593685627
1 0.60792440176010132 0.0039215688593685627
0.99970161914825439 0.66242843866348267 0.0038925320841372013
0.99394673109054565 0.71403729915618896 0.0018421995919197798
0.98898166418075562 0.76774698495864868 0.0010396770667284727
0.99149185419082642 0.82265371084213257 0.0023156709503382444
0.18628528714179993 0.011848000809550285 0.0007446737727150321
0.28890624642372131 0.035192854702472687 0.0039207460358738899
0.39718532562255859 0.06851525604724884 0.0039215688593685627
0.51723712682723999 0.12117764353752136 0.003552665002644062
0.65742456912994385 0.2036060094833374 0.00099690759088844061
0.81727999448776245 0.31842035055160522 0.0028620103839784861
0.95920079946517944 0.44366666674613953 0.004302589688450098
1 0.54516476392745972 0.0057985344901680946
1 0.61410224437713623 0.0043140784837305546
0.99629515409469604 0.66528147459030151 0.0039215688593685627
0.98288697004318237 0.71747761964797974 0.0039186067879199982
0.98240041732788086 0.77323657274246216 0.0038667717017233372
0.9885677695274353 0.82982063293457031 0.0039215688593685627
0.19535726308822632 0.014563033357262611 0.0001761043822625652
0.30011579394340515 0.03942127525806427 0.0036542406305670738
0.40945738554000854 0.073278404772281647 0.0037987653631716967
0.52787715196609497 0.12524983286857605 0.00088966218754649162
0.66519284248352051 0.20739986002445221 0
0.82768756151199341 0.32666748762130737 0.00177702063228935
0.97138971090316772 0.45768600702285767 0.0050761504098773003
1 0.55716156959533691 0.0070256548933684826
1 0.62112575769424438 0.0044617597013711929
0.99721920490264893 0.67061430215835571 0.0039215688593685627
0.98279982805252075 0.72187602519989014 0.0039215688593685627
0.98083740472793579 0.77747833728790283 0.0039215688593685627
0.98754370212554932 0.83428901433944702 0.0039215688593685627
0.21374033391475677 0.020649988204240799 0
0.32121708989143372 0.047340888530015945 0.00063723395578563213
0.43465462327003479 0.083806581795215607 0.00069044524570927024
0.55738562345504761 0.14009891450405121 0
0.69681507349014282 0.2270335853099823 0
0.85547071695327759 0.34656047821044922 0.0018977894214913249
0.98305290937423706 0.47257208824157715 0.0042692595161497593
1 0.56327337026596069 0.0044219819828867912
1 0.62138080596923828 0.0036812575999647379
0.99716496467590332 0.67126893997192383 0.002207841956987977
0.98434758186340332 0.7241167426109314 0.0014705882640555501
0.98194664716720581 0.78006839752197266 0.001738379942253232
0.98779058456420898 0.83726978302001953 0.0029320660978555679
0.23677657544612885 0.027314772829413414 0
0.34845691919326782 0.058023653924465179 0
0.46725225448608398 0.099783875048160553 0
0.59580928087234497 0.1624862402677536 0
0.73567467927932739 0.25427055358886719 0
0.88217884302139282 0.36979779601097107 0.0020327549427747726
0.98781406879425049 0.48258644342422485 0.0039155399426817894
1 0.56070023775100708 0.0031393910758197308
0.99953466653823853 0.61464172601699829 0.00049019610742107034
0.99087190628051758 0.66746634244918823 0
0.98237615823745728 0.72377389669418335 0
0.98236513137817383 0.78156358003616333 0
0.9878242015838623 0.83917564153671265 0
0.10272742062807083 0.0016915265005081892 0.00021742278477177024
0.18209785223007202 0.0075727426446974277 5.1401177188381553e-05
0.27814638614654541 0.025531096383929253 0.00317994668148458
0.39048075675964355 0.062077496200799942 0.0039215688593685627
0.52202659845352173 0.12258713692426682 0.004292207770049572
0.67302954196929932 0.21176691353321075 0.0060471328906714916
0.82903248071670532 0.32360449433326721 0.0046089170500636101
0.95625573396682739 0.43702325224876404 0.0039215688593685627
0.9998164176940918 0.53152471780776978 0.0031045202631503344
1 0.6042780876159668 5.9509278798941523e-05
1 0.66463577747344971 0
1 0.7211804986000061 0
1 0.77766352891921997 0
0.11545489728450775 0.0056352205574512482 0
0.19917528331279755 0.014108396135270596 0.0016334683168679476
0.29407724738121033 0.031738594174385071 0.0041028941050171852
0.40262347459793091 0.065480388700962067 0.0057108262553811073
0.5311589241027832 0.12412667274475098 0.0074919308535754681
0.68154293298721313 0.21426309645175934 0.0078427782282233238
0.84231197834014893 0.33315619826316833 0.0055663464590907097
0.9698106050491333 0.45204800367355347 0.0038938934449106455
1 0.54673784971237183 0.0016656613443046808
1 0.61750984191894531 0
1 0.67532187700271606 0
1 0.72963792085647583 1.6455556988148601e-06
1 0.78442025184631348 0.00010531556472415105
0.12801717221736908 0.0095274234190583229 8.2576980275916867e-06
0.21745707094669342 0.022625043988227844 0.0034047295339405537
0.31402701139450073 0.042849075049161911 0.0068502537906169891
0.4186607301235199 0.075129039585590363 0.0078371837735176086
0.54437029361724854 0.13340441882610321 0.0078431377187371254
0.69617366790771484 0.22683230042457581 0.0078431377187371254
0.85486173629760742 0.34812906384468079 0.00508092250674963
0.97575384378433228 0.46623802185058594 0.0038909013383090496
1 0.5580449104309082 0.0017969617620110512
1 0.62599128484725952 0.00030771890305913985
1 0.68197274208068848 0.00070191925624385476
1 0.73537671566009521 0.0013498193584382534
1 0.78975486755371094 0.0017692864639684558
0.13868877291679382 0.01198990736156702 0.00021667480177711695
0.2304220050573349 0.027483547106385231 0.0041329776868224144
0.32822620868682861 0.050567880272865295 0.0076497397385537624
0.43396848440170288 0.085199706256389618 0.0078431377187371254
0.56162112951278687 0.14639124274253845 0.007883019745349884
0.71480327844619751 0.24326120316982269 0.0079367989674210548
0.87073332071304321 0.36385700106620789 0.0061378180980682373
0.98152023553848267 0.47899240255355835 0.0039674048312008381
1 0.56696224212646484 0.0039025400765240192
1 0.63131356239318848 0.0026480131782591343
1 0.68544632196426392 0.0021619310136884451
0.99999135732650757 0.73896819353103638 0.0023138157557696104
0.99924880266189575 0.79406368732452393 0.0029347736854106188
0.14839360117912292 0.012339319102466106 0.00032169118640013039
0.24083484709262848 0.030023971572518349 0.0039712642319500446
0.3399333655834198 0.055119831115007401 0.0065573747269809246
0.45196971297264099 0.095852747559547424 0.0077524222433567047
0.58639401197433472 0.16309720277786255 0.0079129384830594063
0.74297124147415161 0.26357889175415039 0.0081537729129195213
0.89744138717651367 0.38508322834968567 0.0064956964924931526
0.99217641353607178 0.49701118469238281 0.0042928061448037624
1 0.57908374071121216 0.0039215688593685627
1 0.63841730356216431 0.0035216237884014845
1 0.69032317399978638 0.0024820365943014622
0.99749386310577393 0.74337923526763916 0.0021646537352353334
0.99440270662307739 0.79860925674438477 0.0020044064149260521
0.15950959920883179 0.012541677802801132 0.0003972670529037714
0.25455549359321594 0.032053735107183456 0.0038933996111154556
0.35799071192741394 0.06157316267490387 0.0039687659591436386
0.47732868790626526 0.10921134054660797 0.0043087378144264221
0.61905413866043091 0.18389251828193665 0.0053492826409637928
0.77928644418716431 0.28862079977989197 0.006264406256377697
0.93065041303634644 0.41025915741920471 0.0052734971977770329
0.99912822246551514 0.51777583360671997 0.0039819306693971157
1 0.59413117170333862 0.0039215688593685627
1 0.64947521686553955 0.0036431704647839069
1 0.69910502433776855 0.0021419001277536154
0.99574464559555054 0.75035232305526733 0.00099131267052143812
0.992301344871521 0.80451768636703491 0.00030088238418102264
0.17313656210899353 0.013357379473745823 0.00081775139551609755
0.27221512794494629 0.035224705934524536 0.0039215688593685627
0.38076287508010864 0.069045767188072205 0.003953881561756134
0.5053640604019165 0.12211979925632477 0.0039359298534691334
0.65067118406295776 0.20249521732330322 0.0039215688593685627
0.81034940481185913 0.310127854347229 0.0039710551500320435
0.95335167646408081 0.42889145016670227 0.0039592068642377853
1 0.53199666738510132 0.0039215688593685627
1 0.60585594177246094 0.0039215688593685627
1 0.66039282083511353 0.003350486047565937
1 0.70896691083908081 0.00078753300476819277
0.99763429164886475 0.7590256929397583 2.154182038793806e-05
0.99497687816619873 0.81148922443389893 0
0.18532317876815796 0.01323349867016077 0.0015161102637648582
0.2893235981464386 0.038207020610570908 0.0040978225879371166
0.40173065662384033 0.075034588575363159 0.0063326666131615639
0.52747827768325806 0.13112571835517883 0.0054605072364211082
0.67032915353775024 0.21301916241645813 0.003944008145481348
0.8262869119644165 0.32171881198883057 0.0039215688593685627
