assets/lut/others faded extreme.cube
# Created by: G'MIC (https://gmic.eu)
TITLE "faded_extreme"
# LUT size
LUT_3D_SIZE 7
# Data domain
DOMAIN_MIN 0.0 0.0 0.0
DOMAIN_MAX 1.0 1.0 1.0
# LUT data points
0.013573904521763325 0.013444967567920685 0.011046316474676132
0.018978223204612732 0.013501514680683613 0.009653652086853981
0.027514379471540451 0.012288486585021019 0.0093788299709558487
0.048139356076717377 0.023983361199498177 0.021715590730309486
0.071782052516937256 0.023301636800169945 0.026833746582269669
0.12244275957345963 0.050912387669086456 0.060487948358058929
0.16838958859443665 0.08320511132478714 0.096660405397415161
0.057015273720026016 0.060911726206541061 0.047728281468153
0.097845397889614105 0.090836465358734131 0.079002678394317627
0.15109683573246002 0.12899249792098999 0.11434070020914078
0.22016339004039764 0.18194381892681122 0.16652284562587738
0.2915627658367157 0.23443369567394257 0.22270998358726501
0.35322073101997375 0.28127065300941467 0.26986345648765564
0.42756050825119019 0.3423277735710144 0.32932943105697632
0.28148895502090454 0.28974458575248718 0.24563315510749817
0.37000799179077148 0.36184519529342651 0.31506922841072083
0.44301888346672058 0.41942036151885986 0.37099018692970276
0.50716936588287354 0.46650445461273193 0.4202234148979187
0.59045261144638062 0.53644323348999023 0.48737552762031555
0.61701297760009766 0.54739511013031006 0.50046956539154053
0.69793605804443359 0.61760252714157104 0.56719028949737549
0.55032563209533691 0.56020826101303101 0.48500803112983704
0.61633884906768799 0.61339563131332397 0.53496527671813965
0.72061061859130859 0.70023936033248901 0.62179476022720337
0.76413488388061523 0.72705554962158203 0.65036547183990479
0.82381457090377808 0.77352321147918701 0.6964070200920105
0.89728564023971558 0.83292257785797119 0.75625139474868774
0.95054084062576294 0.89166277647018433 0.81228816509246826
0.83256775140762329 0.84404522180557251 0.73886412382125854
0.89428246021270752 0.89319503307342529 0.79079550504684448
0.95082652568817139 0.9413570761680603 0.84352725744247437
0.98783779144287109 0.97494012117385864 0.89885902404785156
0.9900277853012085 0.98119330406188965 0.93027180433273315
0.99225407838821411 0.98784869909286499 0.9641452431678772
0.99384421110153198 0.99511206150054932 0.9884415864944458
0.9961097240447998 0.99673342704772949 0.96098065376281738
0.98791992664337158 0.98753052949905396 0.96902108192443848
0.98905467987060547 0.98720705509185791 0.9840627908706665
0.98631244897842407 0.98399406671524048 0.97926914691925049
0.99228018522262573 0.9905247688293457 0.98499530553817749
0.99212270975112915 0.99211442470550537 0.98798179626464844
0.98957008123397827 0.99059438705444336 0.98888146877288818
0.99280524253845215 0.99261796474456787 0.99066388607025146
0.99285632371902466 0.99031394720077515 0.99201583862304688
0.98084467649459839 0.98028403520584106 0.98042327165603638
0.97968149185180664 0.97949308156967163 0.97871220111846924
0.98915576934814453 0.98887753486633301 0.98794287443161011
0.99209791421890259 0.99218893051147461 0.9922822117805481
0.98014658689498901 0.98014658689498901 0.98357242345809937
0.019287873059511185 0.021423982456326485 0.014219067059457302
0.013050602748990059 0.0098629221320152283 0.0087326802313327789
0.02924276702105999 0.013575849123299122 0.014595854096114635
0.054475236684083939 0.021187964826822281 0.025365643203258514
0.11145270615816116 0.056561682373285294 0.06516806036233902
0.17161098122596741 0.098831474781036377 0.10785528272390366
0.22357259690761566 0.13632509112358093 0.14879050850868225
0.096710473299026489 0.1014491394162178 0.084762498736381531
0.16287833452224731 0.15772704780101776 0.14002326130867004
0.22985231876373291 0.20849598944187164 0.18910506367683411
0.28513672947883606 0.24810352921485901 0.231448695063591
0.37435570359230042 0.31876280903816223 0.30126890540122986
0.42310097813606262 0.3515281081199646 0.33300685882568359
0.49961301684379578 0.41477134823799133 0.3963240385055542
0.3623090386390686 0.37022432684898376 0.32223376631736755
0.43754050135612488 0.43411168456077576 0.38305965065956116
0.50200951099395752 0.48174959421157837 0.42887571454048157
0.5710906982421875 0.53526830673217773 0.48176252841949463
0.63449752330780029 0.58409750461578369 0.53199905157089233
0.69709569215774536 0.63112735748291016 0.57874447107315063
0.77875220775604248 0.69858086109161377 0.64452296495437622
0.63349759578704834 0.64431202411651611 0.5616949200630188
0.7011914849281311 0.7002331018447876 0.61698293685913086
0.75875174999237061 0.7406994104385376 0.65984100103378296
0.82772958278656006 0.7989422082901001 0.71712589263916016
0.89211922883987427 0.84953886270523071 0.76716309785842896
0.95356839895248413 0.90484070777893066 0.83277159929275513
0.97817444801330566 0.93740099668502808 0.88258010149002075
0.90514856576919556 0.92138499021530151 0.81379729509353638
0.95930749177932739 0.96025562286376953 0.86933356523513794
0.98618018627166748 0.98252397775650024 0.91320681571960449
0.99226981401443481 0.98903161287307739 0.94676071405410767
0.99524736404418945 0.99119693040847778 0.98306542634963989
0.99540978670120239 0.99414259195327759 0.98368793725967407
0.99520760774612427 0.99430668354034424 0.99037033319473267
0.99104219675064087 0.99190974235534668 0.97499698400497437
0.98569071292877197 0.98325127363204956 0.9793592095375061
0.99206876754760742 0.99169677495956421 0.98544007539749146
0.98182445764541626 0.98246175050735474 0.97889667749404907
0.98587554693222046 0.9870448112487793 0.98426753282546997
0.9947504997253418 0.99423444271087646 0.99038845300674438
0.9987596869468689 0.99854820966720581 0.99692463874816895
0.98556894063949585 0.98405414819717407 0.98174148797988892
0.98082602024078369 0.97815597057342529 0.98058891296386719
0.99161899089813232 0.99152743816375732 0.9927361011505127
0.98626363277435303 0.98642802238464355 0.98520767688751221
0.99215090274810791 0.99214774370193481 0.99209797382354736
0.9915698766708374 0.99189561605453491 0.99136388301849365
0.99426436424255371 0.99423903226852417 0.99423825740814209
0.015896875411272049 0.016263775527477264 0.01538244541734457
0.022502824664115906 0.018314480781555176 0.017356513068079948
0.045059923082590103 0.029525037854909897 0.029463434591889381
0.10913711041212082 0.07424057275056839 0.077264763414859772
0.15156149864196777 0.098713457584381104 0.10505153983831406
0.24150118231773376 0.1718328595161438 0.17510044574737549
0.29458522796630859 0.20995017886161804 0.21431070566177368
0.1708037257194519 0.17702415585517883 0.15592654049396515
0.23583228886127472 0.23053203523159027 0.20809607207775116
0.30119025707244873 0.27945485711097717 0.25741124153137207
0.38003760576248169 0.34411212801933289 0.32064598798751831
0.45174497365951538 0.3995729386806488 0.37575861811637878
0.50171369314193726 0.43461471796035767 0.40897569060325623
0.57048094272613525 0.48784980177879333 0.46052935719490051
0.43737167119979858 0.4478415846824646 0.39387643337249756
0.48758372664451599 0.48520347476005554 0.42867013812065125
0.55921220779418945 0.5406266450881958 0.48211884498596191
0.6451452374458313 0.61311358213424683 0.55395936965942383
0.70484966039657593 0.65668421983718872 0.59850800037384033
0.77460938692092896 0.71018302440643311 0.65009593963623047
0.85473340749740601 0.77519434690475464 0.71726459264755249
0.70788311958312988 0.72087997198104858 0.63387906551361084
0.77042871713638306 0.7690662145614624 0.68201255798339844
0.83694690465927124 0.82485491037368774 0.73581105470657349
0.90965253114700317 0.88360053300857544 0.79558724164962769
0.9535672664642334 0.92185187339782715 0.83785498142242432
0.97993934154510498 0.95250314474105835 0.88946223258972168
0.99569368362426758 0.97812235355377197 0.93191272020339966
0.95423519611358643 0.96411687135696411 0.88113307952880859
0.98773902654647827 0.98758643865585327 0.93246990442276001
0.99289917945861816 0.98906141519546509 0.96717369556427002
0.99422234296798706 0.99069720506668091 0.98468703031539917
0.98783820867538452 0.98602783679962158 0.97854119539260864
0.9896882176399231 0.98926699161529541 0.98646330833435059
0.99332410097122192 0.99299794435501099 0.9898114800453186
0.99460130929946899 0.99505233764648438 0.98725992441177368
0.99143749475479126 0.99112886190414429 0.9866824746131897
0.99177062511444092 0.9909287691116333 0.9883115291595459
0.97865170240402222 0.97904288768768311 0.97614729404449463
0.98938667774200439 0.98977601528167725 0.9882931113243103
0.98561751842498779 0.98562496900558472 0.98460686206817627
0.99324136972427368 0.99321097135543823 0.99270117282867432
0.98830509185791016 0.98798978328704834 0.98370158672332764
0.9907497763633728 0.99051457643508911 0.99092733860015869
0.99108541011810303 0.99132812023162842 0.9921995997428894
0.98352062702178955 0.98549127578735352 0.9820178747177124
0.98723185062408447 0.988628089427948 0.98535442352294922
0.99189496040344238 0.99195563793182373 0.99168801307678223
0.9960331916809082 0.9960331916809082 0.99590015411376953
0.021309781819581985 0.028045983985066414 0.023688012734055519
0.053781278431415558 0.047902006655931473 0.047309756278991699
0.097882367670536041 0.078346088528633118 0.079054094851016998
0.15216231346130371 0.1121479719877243 0.11458767205476761
0.22831413149833679 0.17835548520088196 0.17862445116043091
0.30065396428108215 0.23336996138095856 0.23316395282745361
0.37288060784339905 0.29269507527351379 0.29069146513938904
0.23963241279125214 0.24758113920688629 0.21976029872894287
0.3033568263053894 0.2982233464717865 0.27422705292701721
0.38554799556732178 0.36667212843894958 0.33810660243034363
0.43237781524658203 0.39751306176185608 0.3691730797290802
0.5177074670791626 0.46846896409988403 0.43903893232345581
0.57383424043655396 0.50787234306335449 0.47820529341697693
0.64027327299118042 0.56103742122650146 0.5274466872215271
0.51210939884185791 0.52570319175720215 0.46246513724327087
0.57119572162628174 0.5702633261680603 0.50977236032485962
0.64430981874465942 0.62750619649887085 0.56394445896148682
0.73154878616333008 0.70129132270812988 0.63595151901245117
0.77427679300308228 0.73077315092086792 0.66401666402816772
0.841094970703125 0.77962130308151245 0.71652209758758545
0.92011600732803345 0.84907060861587524 0.78665679693222046
0.77009004354476929 0.78701227903366089 0.69466567039489746
0.84636729955673218 0.85006630420684814 0.75844782590866089
0.90218925476074219 0.8922310471534729 0.79685169458389282
0.95570415258407593 0.94065648317337036 0.85438555479049683
0.98309004306793213 0.96990907192230225 0.91038244962692261
0.99027758836746216 0.98311436176300049 0.95853716135025024
0.99650800228118896 0.99252855777740479 0.98078459501266479
0.98378086090087891 0.99059414863586426 0.93821895122528076
0.99381357431411743 0.99259459972381592 0.97665989398956299
0.99633699655532837 0.99532020092010498 0.98410314321517944
0.99490082263946533 0.99441099166870117 0.98788619041442871
0.9958425760269165 0.99567419290542603 0.99019646644592285
0.99230265617370605 0.99207609891891479 0.98852598667144775
0.99661535024642944 0.99609321355819702 0.99521744251251221
0.99202841520309448 0.99220281839370728 0.99064451456069946
0.99207812547683716 0.992034912109375 0.98803883790969849
0.99151092767715454 0.9907841682434082 0.98606234788894653
0.98635184764862061 0.98623901605606079 0.98212671279907227
0.99503916501998901 0.99507302045822144 0.99383258819580078
0.99166786670684814 0.99163365364074707 0.99123793840408325
0.99757188558578491 0.99744033813476562 0.99707823991775513
0.98759549856185913 0.9885515570640564 0.98655027151107788
0.98833101987838745 0.9883158802986145 0.98846650123596191
0.98668473958969116 0.98678469657897949 0.98649847507476807
0.98782801628112793 0.98861861228942871 0.98683136701583862
0.99471986293792725 0.99492466449737549 0.99436622858047485
0.98266911506652832 0.98266911506652832 0.98237580060958862
0.99548101425170898 0.99548101425170898 0.99534314870834351
0.044432859867811203 0.051416821777820587 0.049004588276147842
0.10697583854198456 0.10430830717086792 0.099879167973995209
0.16887553036212921 0.14814400672912598 0.14463135600090027
0.23672792315483093 0.19846835732460022 0.1961422860622406
0.30585277080535889 0.25493776798248291 0.24861934781074524
0.38079443573951721 0.31487312912940979 0.30884829163551331
0.43947616219520569 0.36036515235900879 0.3534393310546875
0.32363489270210266 0.33587628602981567 0.30332595109939575
0.37843024730682373 0.37599378824234009 0.3445279598236084
0.46301549673080444 0.44657805562019348 0.41106268763542175
0.5169488787651062 0.48202607035636902 0.44881352782249451
0.58591502904891968 0.54021298885345459 0.5018121600151062
0.6474795937538147 0.58098882436752319 0.54456663131713867
0.69724339246749878 0.62212973833084106 0.58864521980285645
0.56907004117965698 0.58256840705871582 0.51741594076156616
0.6559828519821167 0.65826261043548584 0.58978760242462158
0.72793340682983398 0.71312648057937622 0.64336520433425903
0.78802329301834106 0.76014423370361328 0.69084906578063965
0.84054619073867798 0.79763704538345337 0.72898781299591064
0.91167140007019043 0.85668337345123291 0.79215949773788452
0.96366709470748901 0.91090548038482666 0.84909379482269287
0.84052205085754395 0.85742425918579102 0.76259660720825195
0.91479849815368652 0.91805994510650635 0.82717680931091309
0.96668583154678345 0.9627036452293396 0.88267797231674194
0.9862600564956665 0.9768860936164856 0.92082136869430542
0.99026769399642944 0.98247230052947998 0.95455390214920044
0.99576956033706665 0.99463474750518799 0.98329049348831177
0.99600064754486084 0.99215686321258545 0.97632604837417603
0.99072372913360596 0.99204874038696289 0.97954398393630981
0.99569934606552124 0.99540740251541138 0.98449182510375977
0.99371415376663208 0.99326342344284058 0.98597592115402222
0.98945051431655884 0.98924714326858521 0.98371994495391846
0.98824220895767212 0.98757600784301758 0.98184037208557129
0.99284917116165161 0.99270975589752197 0.99023711681365967
0.99522233009338379 0.99501973390579224 0.9929777979850769
0.98108690977096558 0.98133736848831177 0.97988450527191162
0.99150818586349487 0.9916566014289856 0.98719394207000732
0.99444037675857544 0.99401700496673584 0.99049478769302368
0.99366390705108643 0.99345606565475464 0.9909747838973999
0.98198777437210083 0.98198777437210083 0.98179477453231812
0.98014140129089355 0.98013979196548462 0.97999721765518188
0.98359072208404541 0.98353451490402222 0.98340076208114624
0.98583924770355225 0.98595148324966431 0.98545986413955688
0.98899209499359131 0.98903459310531616 0.98866963386535645
0.97992062568664551 0.97992062568664551 0.97943288087844849
0.98716723918914795 0.98718744516372681 0.9870370626449585
0.98478507995605469 0.98478507995605469 0.98474287986755371
0.98342734575271606 0.9834129810333252 0.9834129810333252
0.99626535177230835 0.99623501300811768 0.99620217084884644
0.1141153946518898 0.12429790198802948 0.11464940756559372
0.17732088267803192 0.17438973486423492 0.16478127241134644
0.24406175315380096 0.22498536109924316 0.21594160795211792
0.31444159150123596 0.27911779284477234 0.27037161588668823
0.37614306807518005 0.32686838507652283 0.31781679391860962
0.44015759229660034 0.37719205021858215 0.36355248093605042
0.52480047941207886 0.44623333215713501 0.43434673547744751
0.39339542388916016 0.40931174159049988 0.36918565630912781
0.44345921277999878 0.44442564249038696 0.40581771731376648
0.52876508235931396 0.51192742586135864 0.47337028384208679
0.57909590005874634 0.54749226570129395 0.50704264640808105
0.65520185232162476 0.60525298118591309 0.56349354982376099
0.72321885824203491 0.6590195894241333 0.6183241605758667
0.78985035419464111 0.71569299697875977 0.67271041870117188
0.68298983573913574 0.69958353042602539 0.62432920932769775
0.71370309591293335 0.71979343891143799 0.64468467235565186
0.78147929906845093 0.77089869976043701 0.69655293226242065
0.84293943643569946 0.81907171010971069 0.74545454978942871
0.91340941190719604 0.88017672300338745 0.81120139360427856
0.96155554056167603 0.92767453193664551 0.87811589241027832
0.98766899108886719 0.96348685026168823 0.90872406959533691
0.92782437801361084 0.94386774301528931 0.85408538579940796
0.96570068597793579 0.97021591663360596 0.90021085739135742
0.9890739917755127 0.98549759387969971 0.94222474098205566
0.99305635690689087 0.98800265789031982 0.97317284345626831
0.99583745002746582 0.99169421195983887 0.9800715446472168
0.99124813079833984 0.98994052410125732 0.97914248704910278
0.98778843879699707 0.98814690113067627 0.98127210140228271
0.99116629362106323 0.99202901124954224 0.98699164390563965
0.98514503240585327 0.98652565479278564 0.97545081377029419
0.98227286338806152 0.98227560520172119 0.97519445419311523
0.98379391431808472 0.98341548442840576 0.97997391223907471
0.9916766881942749 0.99104022979736328 0.98880434036254883
0.98867535591125488 0.98830592632293701 0.98659896850585938
0.98055756092071533 0.98052477836608887 0.97992116212844849
0.98519480228424072 0.98684084415435791 0.98144865036010742
0.99023747444152832 0.99068641662597656 0.98595762252807617
0.99256783723831177 0.99262601137161255 0.99018639326095581
0.99393308162689209 0.99393308162689209 0.99340677261352539
0.99324584007263184 0.99324584007263184 0.99311649799346924
0.99390077590942383 0.99390077590942383 0.99362504482269287
0.99155908823013306 0.99143779277801514 0.99132341146469116
0.98761981725692749 0.98942422866821289 0.98617655038833618
0.99400633573532104 0.99404525756835938 0.99355733394622803
0.98836106061935425 0.98839396238327026 0.98799318075180054
0.98695296049118042 0.98695296049118042 0.98687922954559326
0.99437379837036133 0.99437379837036133 0.99437379837036133
0.99416095018386841 0.99416095018386841 0.99416095018386841
0.99445253610610962 0.99445253610610962 0.99445253610610962
0.17489162087440491 0.18880641460418701 0.1750682145357132
0.24245071411132812 0.24203889071941376 0.22724488377571106
0.31318747997283936 0.29668131470680237 0.28288108110427856
0.38775181770324707 0.35533368587493896 0.33984246850013733
0.44519346952438354 0.40111237764358521 0.38501909375190735
0.51798737049102783 0.45635285973548889 0.43800380825996399
0.59136813879013062 0.51425182819366455 0.49933329224586487
0.45088410377502441 0.46768701076507568 0.42432573437690735
0.5298042893409729 0.53195083141326904 0.48479560017585754
0.60214883089065552 0.58755433559417725 0.54206103086471558
0.65094935894012451 0.62310624122619629 0.57635325193405151
0.73712378740310669 0.68812888860702515 0.64583534002304077
0.80945944786071777 0.74768966436386108 0.69775164127349854
0.85963952541351318 0.78891146183013916 0.7411884069442749
0.71737480163574219 0.73734277486801147 0.66016322374343872
0.79648661613464355 0.80183815956115723 0.72481340169906616
0.86797291040420532 0.85985386371612549 0.7822260856628418
0.92415207624435425 0.90294277667999268 0.82529103755950928
0.96945786476135254 0.94638514518737793 0.88817882537841797
0.98849880695343018 0.97717434167861938 0.9222138524055481
0.98627310991287231 0.97719115018844604 0.94676446914672852
0.96988630294799805 0.98193991184234619 0.91797977685928345
0.98248791694641113 0.98561292886734009 0.94497489929199219
0.99444538354873657 0.99279308319091797 0.97507613897323608
0.99602711200714111 0.99211251735687256 0.98625153303146362
0.99458730220794678 0.99259322881698608 0.98536616563796997
0.99069499969482422 0.98961204290390015 0.98449546098709106
0.98652315139770508 0.98579919338226318 0.98199558258056641
0.98956257104873657 0.99018490314483643 0.98690688610076904
0.97936904430389404 0.97949576377868652 0.97547787427902222
0.98967218399047852 0.9895700216293335 0.98538285493850708
0.99466389417648315 0.9939262866973877 0.99216431379318237
0.98535680770874023 0.98492932319641113 0.98275625705718994
0.98333680629730225 0.98305583000183105 0.98200500011444092
0.99595284461975098 0.99580526351928711 0.99484628438949585
0.9923783540725708 0.99341040849685669 0.99088793992996216
0.98894155025482178 0.98902308940887451 0.98767244815826416
0.98989439010620117 0.98989439010620117 0.98874270915985107
0.99043750762939453 0.99043750762939453 0.99039763212203979
0.98497390747070312 0.98497390747070312 0.98490315675735474
0.99454092979431152 0.99454092979431152 0.99427241086959839
0.98625195026397705 0.98625195026397705 0.98599410057067871
0.99322706460952759 0.99398845434188843 0.99236047267913818
0.98727846145629883 0.98737514019012451 0.98700565099716187
0.98556536436080933 0.98557472229003906 0.98519432544708252
0.98030054569244385 0.98030054569244385 0.9802854061126709
0.98480308055877686 0.98480308055877686 0.98480308055877686
0.98310118913650513 0.98310118913650513 0.98310118913650513
0.98848557472229004 0.98848557472229004 0.98848557472229004
