assets/lut/others faded.cube
# Created by: G'MIC (https://gmic.eu)
TITLE "faded"
# LUT size
LUT_3D_SIZE 7
# Data domain
DOMAIN_MIN 0.0 0.0 0.0
DOMAIN_MAX 1.0 1.0 1.0
# LUT data points
0.025018759071826935 0.025806965306401253 0.018494145944714546
0.1052362322807312 0.042620938271284103 0.039076607674360275
0.18804733455181122 0.059375014156103134 0.057799693197011948
0.28823959827423096 0.075699582695960999 0.079960599541664124
0.39911234378814697 0.097044758498668671 0.10408776998519897
0.51096886396408081 0.11719878017902374 0.11985102295875549
0.62026810646057129 0.13870419561862946 0.14101047813892365
0.086368843913078308 0.15498518943786621 0.084004387259483337
0.17668378353118896 0.17485406994819641 0.1061139851808548
0.26612484455108643 0.19750736653804779 0.12510047852993011
0.37120857834815979 0.21738283336162567 0.14910390973091125
0.48862102627754211 0.24107334017753601 0.16991817951202393
0.6042366623878479 0.26541897654533386 0.18927155435085297
0.70206981897354126 0.29488453269004822 0.21461664140224457
0.15483324229717255 0.3052310049533844 0.15405319631099701
0.25078865885734558 0.32964840531349182 0.17397218942642212
0.35034886002540588 0.35823872685432434 0.19510602951049805
0.46343031525611877 0.38404721021652222 0.22251957654953003
0.5765984058380127 0.41001588106155396 0.24145756661891937
0.67999845743179321 0.43630886077880859 0.26147982478141785
0.76838618516921997 0.46211913228034973 0.29113507270812988
0.23344254493713379 0.47930699586868286 0.23070774972438812
0.33535125851631165 0.50452727079391479 0.25322887301445007
0.44561967253684998 0.53311663866043091 0.27978479862213135
0.56153815984725952 0.56298303604125977 0.3075660765171051
0.66328763961791992 0.58786875009536743 0.32752379775047302
0.75126838684082031 0.6120678186416626 0.35083585977554321
0.82877171039581299 0.63376325368881226 0.38387212157249451
0.3126714825630188 0.65192389488220215 0.31284689903259277
0.42538127303123474 0.67352080345153809 0.34137910604476929
0.53848767280578613 0.69508326053619385 0.36825329065322876
0.6454317569732666 0.71790903806686401 0.39274570345878601
0.7369159460067749 0.74048668146133423 0.41535484790802002
0.81565213203430176 0.7628706693649292 0.44372642040252686
0.88321185111999512 0.78125280141830444 0.47931870818138123
0.40324670076370239 0.78871554136276245 0.40242698788642883
0.51964843273162842 0.80890291929244995 0.42792823910713196
0.62817513942718506 0.82488411664962769 0.45395183563232422
0.72207510471343994 0.83958989381790161 0.48068434000015259
0.80097401142120361 0.85579478740692139 0.50611299276351929
0.87071061134338379 0.87355238199234009 0.53501486778259277
0.9287712574005127 0.88523799180984497 0.5667344331741333
0.49583500623703003 0.89342242479324341 0.49702772498130798
0.60851222276687622 0.90971970558166504 0.52316027879714966
0.70581448078155518 0.92128711938858032 0.55333977937698364
0.78725194931030273 0.9306337833404541 0.58046340942382812
0.85652977228164673 0.94207274913787842 0.60065931081771851
0.91344636678695679 0.95551979541778564 0.62529891729354858
0.95804852247238159 0.96316087245941162 0.65017330646514893
0.033959720283746719 0.032628510147333145 0.087254874408245087
0.11348287761211395 0.048367653042078018 0.11226450651884079
0.19674259424209595 0.064482055604457855 0.1323578953742981
0.29765403270721436 0.084748782217502594 0.15348324179649353
0.40922865271568298 0.10518172383308411 0.17658685147762299
0.52298170328140259 0.1254681795835495 0.19750745594501495
0.63176673650741577 0.14688666164875031 0.21812164783477783
0.093219980597496033 0.15922833979129791 0.15562260150909424
0.18292473256587982 0.1821010559797287 0.18414586782455444
0.27641177177429199 0.20369815826416016 0.20555704832077026
0.38470199704170227 0.22540917992591858 0.22840277850627899
0.50020056962966919 0.25027129054069519 0.25089150667190552
0.61200886964797974 0.27533653378486633 0.27352756261825562
0.71021395921707153 0.30115211009979248 0.30023667216300964
0.16169682145118713 0.30804747343063354 0.23712125420570374
0.25917723774909973 0.3365209698677063 0.26278647780418396
0.36077582836151123 0.36457526683807373 0.28349125385284424
0.47573438286781311 0.39169511198997498 0.30923742055892944
0.58927613496780396 0.41910821199417114 0.3305489718914032
0.69133466482162476 0.4449116587638855 0.35389837622642517
0.77793282270431519 0.46852001547813416 0.38312327861785889
0.24427376687526703 0.48346394300460815 0.32080617547035217
0.34333339333534241 0.51036638021469116 0.34520205855369568
0.45208573341369629 0.53934699296951294 0.37151351571083069
0.56846117973327637 0.56972521543502808 0.40054833889007568
0.673592209815979 0.59687399864196777 0.42306700348854065
0.76242995262145996 0.62219691276550293 0.44698283076286316
0.83875375986099243 0.64638906717300415 0.48058941960334778
0.32163339853286743 0.65697729587554932 0.40541094541549683
0.42987194657325745 0.67812961339950562 0.43396607041358948
0.54218178987503052 0.70092189311981201 0.46459385752677917
0.65117597579956055 0.72555410861968994 0.49336925148963928
0.7448427677154541 0.74906843900680542 0.51595896482467651
0.82294416427612305 0.77289187908172607 0.54104107618331909
0.88832730054855347 0.79261451959609985 0.5733797550201416
0.40871822834014893 0.79588913917541504 0.49660786986351013
0.52660495042800903 0.81299352645874023 0.52528136968612671
0.63505083322525024 0.83082318305969238 0.5576472282409668
0.72929757833480835 0.84694910049438477 0.58628576993942261
0.80725610256195068 0.86194527149200439 0.60579341650009155
0.87614864110946655 0.88226091861724854 0.63211315870285034
0.93076878786087036 0.89448463916778564 0.65893381834030151
0.5044705867767334 0.89820981025695801 0.5916755199432373
0.62394088506698608 0.91126167774200439 0.61984765529632568
0.72180533409118652 0.92723375558853149 0.65253114700317383
0.80032253265380859 0.93733996152877808 0.67734158039093018
0.86307179927825928 0.94358503818511963 0.68998146057128906
0.92035818099975586 0.96022260189056396 0.71488142013549805
0.96508908271789551 0.96538442373275757 0.73741596937179565
0.03541768342256546 0.033751826733350754 0.16003847122192383
0.1199553981423378 0.052263475954532623 0.18587584793567657
0.20739316940307617 0.071749262511730194 0.20893117785453796
0.30667239427566528 0.092431358993053436 0.23024065792560577
0.41777870059013367 0.11167886853218079 0.25492975115776062
0.53244012594223022 0.13228289783000946 0.27925193309783936
0.63974833488464355 0.15346084535121918 0.30258640646934509
0.097362250089645386 0.16399453580379486 0.23068979382514954
0.1886470764875412 0.18689799308776855 0.26085212826728821
0.28441569209098816 0.21070367097854614 0.2848411500453949
0.39539515972137451 0.23386211693286896 0.31072500348091125
0.51238137483596802 0.2596127986907959 0.33896669745445251
0.6220511794090271 0.28394535183906555 0.36591875553131104
0.71556425094604492 0.30716097354888916 0.39288413524627686
0.16641527414321899 0.3191952109336853 0.31657162308692932
0.26476836204528809 0.34458163380622864 0.34499552845954895
0.36561673879623413 0.37141039967536926 0.36317330598831177
0.48495644330978394 0.40082201361656189 0.39728817343711853
0.60244655609130859 0.42878812551498413 0.42778506875038147
0.70300543308258057 0.45251262187957764 0.45204845070838928
0.78502309322357178 0.47706469893455505 0.48065781593322754
0.24627740681171417 0.49715122580528259 0.40577501058578491
0.34986424446105957 0.51980072259902954 0.43390557169914246
0.45865148305892944 0.54616832733154297 0.46119773387908936
0.57595348358154297 0.57700186967849731 0.49573951959609985
0.68369203805923462 0.60379564762115479 0.52258574962615967
0.77241307497024536 0.6268734335899353 0.54357630014419556
0.84543663263320923 0.65020126104354858 0.57136672735214233
0.32887890934944153 0.66691142320632935 0.49746948480606079
0.44014489650726318 0.68530583381652832 0.52601242065429688
0.5516548752784729 0.70653057098388672 0.5588456392288208
0.65782618522644043 0.73051416873931885 0.58989489078521729
0.75129073858261108 0.75290942192077637 0.61236047744750977
0.82936137914657593 0.77421277761459351 0.63313227891921997
0.89279210567474365 0.7916380763053894 0.65720236301422119
0.41604959964752197 0.8016241192817688 0.59002047777175903
0.5345768928527832 0.81740778684616089 0.61280876398086548
0.64099937677383423 0.83461719751358032 0.641582190990448
0.73225694894790649 0.84975481033325195 0.67255896329879761
0.81200051307678223 0.86366355419158936 0.69330340623855591
0.88040906190872192 0.88056832551956177 0.71576732397079468
0.93209373950958252 0.89168870449066162 0.73489916324615479
0.50827330350875854 0.90291035175323486 0.67685139179229736
0.62925446033477783 0.91444104909896851 0.70052683353424072
0.72625440359115601 0.92921251058578491 0.72496289014816284
0.80176210403442383 0.9375 0.74423503875732422
0.8684123158454895 0.94243276119232178 0.76179307699203491
0.92490208148956299 0.95693755149841309 0.78690952062606812
0.96862131357192993 0.96428024768829346 0.80539155006408691
0.042264241725206375 0.04048481211066246 0.24184964597225189
0.12583892047405243 0.057304203510284424 0.26894912123680115
0.21369622647762299 0.075858533382415771 0.29205384850502014
0.31211274862289429 0.092474423348903656 0.31403109431266785
0.42282089591026306 0.11476960778236389 0.34013476967811584
0.53912842273712158 0.13863275945186615 0.36764618754386902
0.64933580160140991 0.16203010082244873 0.3922894299030304
0.10355034470558167 0.17143115401268005 0.321848064661026
0.19389148056507111 0.1942494660615921 0.3496628999710083
0.29002436995506287 0.21899101138114929 0.3740658164024353
0.40078744292259216 0.24219600856304169 0.40058320760726929
0.51978915929794312 0.26781219244003296 0.43096756935119629
0.63267999887466431 0.29401206970214844 0.46137222647666931
0.72596341371536255 0.31866934895515442 0.48806136846542358
0.17293731868267059 0.33072549104690552 0.40470868349075317
0.2701132595539093 0.35472419857978821 0.4344555139541626
0.37366405129432678 0.38236883282661438 0.45930084586143494
0.4918520450592041 0.41144204139709473 0.49145641922950745
0.60909503698348999 0.43835476040840149 0.52283096313476562
0.70984888076782227 0.46371868252754211 0.54931938648223877
0.79111611843109131 0.48991107940673828 0.57646828889846802
0.25414541363716125 0.50921696424484253 0.50244855880737305
0.35945850610733032 0.53084081411361694 0.52972674369812012
0.46944054961204529 0.55657577514648438 0.5581660270690918
0.5837518572807312 0.5854913592338562 0.58952111005783081
0.68901485204696655 0.61109906435012817 0.61472249031066895
0.77745431661605835 0.63507187366485596 0.63548272848129272
0.84983640909194946 0.65976011753082275 0.65866708755493164
0.34143415093421936 0.67690324783325195 0.59934777021408081
0.45461401343345642 0.69450300931930542 0.6212274432182312
0.56668245792388916 0.7150580883026123 0.65322601795196533
0.66784185171127319 0.73762553930282593 0.67875748872756958
0.75729012489318848 0.75838357210159302 0.69797194004058838
0.83512550592422485 0.77816855907440186 0.71630406379699707
0.89921087026596069 0.79540824890136719 0.73584640026092529
0.42675971984863281 0.8092578649520874 0.67836958169937134
0.54670876264572144 0.82376623153686523 0.69555336236953735
0.65258240699768066 0.84082150459289551 0.72236943244934082
0.74126392602920532 0.8557136058807373 0.74840700626373291
0.82004320621490479 0.86940628290176392 0.76857692003250122
0.88743185997009277 0.88353031873703003 0.78859889507293701
0.93948227167129517 0.89415019750595093 0.80404168367385864
0.5146288275718689 0.90890794992446899 0.75002282857894897
0.63496357202529907 0.91921520233154297 0.7690742015838623
0.73024135828018188 0.93357688188552856 0.78895759582519531
0.80536723136901855 0.94190675020217896 0.80527442693710327
0.87469291687011719 0.94856113195419312 0.82510197162628174
0.92983627319335938 0.9604070782661438 0.84738039970397949
0.9696582555770874 0.96893095970153809 0.85988599061965942
0.049726180732250214 0.047330461442470551 0.32952001690864563
0.13431990146636963 0.066513687372207642 0.35837849974632263
0.22136333584785461 0.086333133280277252 0.38048863410949707
0.31826081871986389 0.10120242089033127 0.40136566758155823
0.42913356423377991 0.11983877420425415 0.43002641201019287
0.54502314329147339 0.14431767165660858 0.46092140674591064
0.65473246574401855 0.16885682940483093 0.48831498622894287
0.11238331347703934 0.1802925318479538 0.41760984063148499
0.20299433171749115 0.20393677055835724 0.44793647527694702
0.299192875623703 0.22951270639896393 0.47253748774528503
0.40759667754173279 0.2520279586315155 0.4954928457736969
0.52424734830856323 0.27466407418251038 0.52278333902359009
0.63568365573883057 0.30100211501121521 0.55365633964538574
0.73138898611068726 0.3259219229221344 0.58246386051177979
0.18068704009056091 0.33947309851646423 0.50112491846084595
0.27916193008422852 0.36490395665168762 0.5361294150352478
0.38496765494346619 0.39429178833961487 0.56368076801300049
0.49928262829780579 0.4215846061706543 0.58726197481155396
0.6120755672454834 0.44648697972297668 0.61217278242111206
0.7109304666519165 0.4740031361579895 0.63923764228820801
0.79160892963409424 0.5002637505531311 0.66582781076431274
0.26113578677177429 0.51540452241897583 0.59664636850357056
0.36888918280601501 0.54054766893386841 0.62543118000030518
0.47965967655181885 0.56841051578521729 0.65221488475799561
0.58962869644165039 0.59485876560211182 0.67540240287780762
0.69090664386749268 0.61958664655685425 0.69579595327377319
0.77759051322937012 0.64629244804382324 0.71600693464279175
0.84937059879302979 0.6715012788772583 0.7364533543586731
0.35131281614303589 0.68192023038864136 0.68693006038665771
0.46583279967308044 0.70261192321777344 0.70780682563781738
0.57567507028579712 0.72483432292938232 0.73319703340530396
0.67458921670913696 0.74679577350616455 0.75349909067153931
0.76131647825241089 0.76723337173461914 0.76865655183792114
0.83632922172546387 0.78815895318984985 0.78492683172225952
0.89871442317962646 0.80610758066177368 0.80135029554367065
0.44039970636367798 0.81415599584579468 0.75706028938293457
0.5604899525642395 0.82911974191665649 0.77272385358810425
0.66324412822723389 0.84852594137191772 0.79832977056503296
0.7490881085395813 0.86453580856323242 0.8160930871963501
0.82539844512939453 0.87855452299118042 0.83041137456893921
0.88898611068725586 0.89220327138900757 0.84586000442504883
0.93766951560974121 0.90377128124237061 0.85774970054626465
0.53014343976974487 0.90965700149536133 0.81583189964294434
0.64756375551223755 0.92067134380340576 0.83220243453979492
0.73842495679855347 0.93942934274673462 0.85327869653701782
0.81040710210800171 0.94965946674346924 0.86436188220977783
0.87781774997711182 0.95782899856567383 0.87912070751190186
0.93156969547271729 0.96656912565231323 0.89558988809585571
0.96814936399459839 0.97451919317245483 0.90286237001419067
0.055836711078882217 0.054392166435718536 0.41945686936378479
0.14175914227962494 0.073917165398597717 0.45205986499786377
0.22914460301399231 0.094329729676246643 0.4740874171257019
0.32668116688728333 0.11167953908443451 0.49666431546211243
0.43903270363807678 0.12749515473842621 0.52506726980209351
0.55500727891921997 0.15165261924266815 0.55645245313644409
0.66342538595199585 0.17488828301429749 0.58405953645706177
0.12341764569282532 0.19079700112342834 0.51600128412246704
0.21428543329238892 0.21261849999427795 0.54540836811065674
0.3104000985622406 0.23886081576347351 0.56987965106964111
0.41666078567504883 0.26257297396659851 0.59211820363998413
0.53150093555450439 0.28313043713569641 0.61420804262161255
0.64301377534866333 0.3085019588470459 0.64044666290283203
0.74117350578308105 0.33477494120597839 0.66829627752304077
0.19039584696292877 0.3480658233165741 0.60124099254608154
0.29105034470558167 0.37413612008094788 0.63146764039993286
0.39761468768119812 0.40428730845451355 0.65566921234130859
0.50881248712539673 0.43110918998718262 0.67539489269256592
0.61818850040435791 0.45473688840866089 0.69596022367477417
0.7166401743888855 0.48287254571914673 0.71912962198257446
0.79922080039978027 0.51104682683944702 0.74237346649169922
0.26695606112480164 0.52154552936553955 0.68038219213485718
0.37766984105110168 0.54952520132064819 0.70938050746917725
0.48930752277374268 0.57835918664932251 0.7323683500289917
0.59726369380950928 0.60421502590179443 0.74996370077133179
0.69671547412872314 0.62862199544906616 0.76739966869354248
0.78249579668045044 0.65672677755355835 0.78586435317993164
0.8534780740737915 0.68183320760726929 0.8029932975769043
0.3584384024143219 0.68829762935638428 0.75646436214447021
0.47357514500617981 0.7112012505531311 0.78008353710174561
0.58283877372741699 0.73324871063232422 0.80003708600997925
0.68143808841705322 0.75540494918823242 0.81444329023361206
0.76860243082046509 0.77665108442306519 0.82751727104187012
0.84191632270812988 0.79927486181259155 0.84202909469604492
0.90182340145111084 0.81697362661361694 0.85595881938934326
0.45384258031845093 0.81936413049697876 0.82076764106750488
0.57055902481079102 0.83646094799041748 0.83954358100891113
0.67163825035095215 0.85415291786193848 0.85978800058364868
0.75684118270874023 0.8696974515914917 0.86924666166305542
0.831534743309021 0.88494104146957397 0.87793999910354614
0.89313614368438721 0.90031152963638306 0.89052063226699829
0.94133675098419189 0.91245847940444946 0.90146678686141968
0.54439419507980347 0.91418647766113281 0.87209457159042358
0.65735995769500732 0.92691540718078613 0.88759404420852661
0.74652105569839478 0.94243097305297852 0.90535640716552734
0.81717264652252197 0.95195776224136353 0.91070246696472168
0.88105875253677368 0.9608115553855896 0.92004406452178955
0.93567115068435669 0.96966588497161865 0.93437546491622925
0.97572034597396851 0.97849804162979126 0.94293892383575439
0.054682068526744843 0.056492239236831665 0.51402109861373901
0.14289900660514832 0.07950388640165329 0.54470735788345337
0.23810158669948578 0.099177941679954529 0.57259738445281982
0.34009629487991333 0.1186392530798912 0.59744876623153687
0.44992652535438538 0.13822230696678162 0.6189911961555481
0.56310391426086426 0.16210891306400299 0.64327919483184814
0.66983801126480103 0.18356606364250183 0.66366809606552124
0.13194964826107025 0.19615240395069122 0.61244243383407593
0.22310757637023926 0.21632742881774902 0.63515585660934448
0.32251656055450439 0.24435190856456757 0.65870624780654907
0.42918699979782104 0.27106115221977234 0.6820976734161377
0.54081434011459351 0.29299476742744446 0.69997787475585938
0.65077418088912964 0.31688803434371948 0.71785962581634521
0.74688923358917236 0.34406149387359619 0.74225121736526489
0.20034004747867584 0.35409018397331238 0.69203668832778931
0.30311557650566101 0.38000413775444031 0.71509671211242676
0.41070818901062012 0.40959551930427551 0.73370230197906494
0.52015525102615356 0.43721416592597961 0.75222057104110718
0.6256597638130188 0.46130579710006714 0.77224898338317871
0.7238958477973938 0.48873218894004822 0.79167431592941284
0.80840140581130981 0.51639801263809204 0.81054234504699707
0.27659204602241516 0.5294194221496582 0.75766646862030029
0.38759511709213257 0.55556291341781616 0.7822721004486084
0.49902376532554626 0.58144712448120117 0.79945909976959229
0.60552793741226196 0.60770529508590698 0.81450343132019043
0.70340710878372192 0.63270848989486694 0.83131694793701172
0.78962814807891846 0.66165763139724731 0.84807437658309937
0.8618624210357666 0.6857374906539917 0.86288052797317505
0.36651235818862915 0.69559973478317261 0.81851696968078613
0.48027727007865906 0.71638727188110352 0.84126704931259155
0.58902072906494141 0.73474496603012085 0.85500812530517578
0.68775457143783569 0.75693631172180176 0.86640423536300659
0.7754751443862915 0.78005802631378174 0.87936943769454956
0.84809452295303345 0.80468201637268066 0.8928292989730835
0.90733391046524048 0.82237374782562256 0.90594661235809326
0.46360701322555542 0.82263320684432983 0.87386089563369751
0.57568192481994629 0.84026390314102173 0.89014500379562378
0.67593234777450562 0.85302042961120605 0.90189337730407715
0.76311594247817993 0.86919617652893066 0.91123306751251221
0.83875012397766113 0.88832110166549683 0.92033308744430542
0.89731472730636597 0.90566426515579224 0.93203198909759521
0.94315606355667114 0.91853088140487671 0.94388389587402344
0.55061501264572144 0.91909730434417725 0.91932731866836548
0.65865188837051392 0.933158278465271 0.93087983131408691
0.74893856048583984 0.94295006990432739 0.9435049295425415
0.82376813888549805 0.95174968242645264 0.95068931579589844
0.88662201166152954 0.96347624063491821 0.9581494927406311
0.93799787759780884 0.9753912091255188 0.97058820724487305
0.98052054643630981 0.98568964004516602 0.98224282264709473
