assets/lut/others golden vibrant.cube
# Created by: G'MIC (https://gmic.eu)
TITLE "golden_vibrant"
# LUT size
LUT_3D_SIZE 7
# Data domain
DOMAIN_MIN 0.0 0.0 0.0
DOMAIN_MAX 1.0 1.0 1.0
# LUT data points
0.022273045033216476 0.031128976494073868 0.10496706515550613
0.115853451192379 0.026830350980162621 0.10356509685516357
0.28941476345062256 0.022816631942987442 0.099813885986804962
0.5438002347946167 0.027673952281475067 0.10169386118650436
0.82631069421768188 0.028746601194143295 0.10539302229881287
0.9404447078704834 0.02486807107925415 0.10385792702436447
0.98076075315475464 0.022323952987790108 0.10064428299665451
0.021844662725925446 0.16839662194252014 0.10007219761610031
0.11589283496141434 0.16838899254798889 0.09491584450006485
0.2831682562828064 0.16000591218471527 0.10069424659013748
0.54715478420257568 0.16575071215629578 0.10644633322954178
0.83947104215621948 0.16787698864936829 0.10867291688919067
0.93936246633529663 0.16713885962963104 0.10481118410825729
0.98123890161514282 0.16408513486385345 0.098806537687778473
0.01353053655475378 0.36027377843856812 0.098849818110466003
0.10928229242563248 0.36266759037971497 0.099247559905052185
0.28641274571418762 0.35248497128486633 0.096413619816303253
0.54080510139465332 0.35502249002456665 0.10064474493265152
0.82732892036437988 0.35649845004081726 0.099796116352081299
0.95662510395050049 0.35623234510421753 0.096774235367774963
0.98871970176696777 0.35830885171890259 0.099840842187404633
0.012595143169164658 0.56723332405090332 0.10543885827064514
0.11290323734283447 0.56772124767303467 0.10041885077953339
0.28548943996429443 0.56192988157272339 0.093219950795173645
0.53530305624008179 0.56573325395584106 0.098694637417793274
0.82656413316726685 0.5748792290687561 0.10384591668844223
0.96682471036911011 0.57341015338897705 0.099943690001964569
0.98757719993591309 0.569721519947052 0.10375470668077469
0.01677488349378109 0.7653229832649231 0.10544703155755997
0.11166108399629593 0.76276940107345581 0.10104883462190628
0.28842431306838989 0.76452910900115967 0.0956687331199646
0.55083978176116943 0.77082890272140503 0.10122100263834
0.8291010856628418 0.76892250776290894 0.10663169622421265
0.96309125423431396 0.76555705070495605 0.1022191047668457
0.98220169544219971 0.75700604915618896 0.098698772490024567
0.022438976913690567 0.91611975431442261 0.10097279399633408
0.10962445288896561 0.91476553678512573 0.10802232474088669
0.29127565026283264 0.9206702709197998 0.1027936115860939
0.5550696849822998 0.92508769035339355 0.10249529033899307
0.82590645551681519 0.92088264226913452 0.10560812801122665
0.95577079057693481 0.92432898283004761 0.10275624692440033
0.98331665992736816 0.91984814405441284 0.10481634736061096
0.021969469264149666 0.98751133680343628 0.10818076133728027
0.11547579616308212 0.98950779438018799 0.10175516456365585
0.28208222985267639 0.98948264122009277 0.10158003121614456
0.55198603868484497 0.98679274320602417 0.10268121212720871
0.82114547491073608 0.9844362735748291 0.10208786278963089
0.9405173659324646 0.98906570672988892 0.097088679671287537
0.98239684104919434 0.99044901132583618 0.11110060662031174
0.022011088207364082 0.032989084720611572 0.22859607636928558
0.11943848431110382 0.029071135446429253 0.22498127818107605
0.29352986812591553 0.027235861867666245 0.22516597807407379
0.54582792520523071 0.026802303269505501 0.22244198620319366
0.82782387733459473 0.026424841955304146 0.22229820489883423
0.94061237573623657 0.027994537726044655 0.22833721339702606
0.98596411943435669 0.028222132474184036 0.22899334132671356
0.018281210213899612 0.17226490378379822 0.22189353406429291
0.12321008741855621 0.17020562291145325 0.21940980851650238
0.2878258228302002 0.16386641561985016 0.22244882583618164
0.5401909351348877 0.16328908503055573 0.22555863857269287
0.84310400485992432 0.16806170344352722 0.23327831923961639
0.94516050815582275 0.16195391118526459 0.23142999410629272
0.98136067390441895 0.16227243840694427 0.22829405963420868
0.015481028705835342 0.35456272959709167 0.21723441779613495
0.11301791667938232 0.35425862669944763 0.21724024415016174
0.27734935283660889 0.35668215155601501 0.21922263503074646
0.53969728946685791 0.36207506060600281 0.22496603429317474
0.83599185943603516 0.35788723826408386 0.23170150816440582
0.9569096565246582 0.35029351711273193 0.22745126485824585
0.98519623279571533 0.35736158490180969 0.2296605259180069
0.016028638929128647 0.56126254796981812 0.2227761447429657
0.11411008983850479 0.56554383039474487 0.22408114373683929
0.27825570106506348 0.56783121824264526 0.22075654566287994
0.5400812029838562 0.57143265008926392 0.22160837054252625
0.83205288648605347 0.57017689943313599 0.22398638725280762
0.97224169969558716 0.57052397727966309 0.22594763338565826
0.98842966556549072 0.57530373334884644 0.23358744382858276
0.015513102523982525 0.76260459423065186 0.22158370912075043
0.11057557910680771 0.75848734378814697 0.22120861709117889
0.29083743691444397 0.76076698303222656 0.22383888065814972
0.55001026391983032 0.76620960235595703 0.2251453697681427
0.83144402503967285 0.76537638902664185 0.22535963356494904
0.97251015901565552 0.76585501432418823 0.22524510324001312
0.98967981338500977 0.76327282190322876 0.22974149882793427
0.015523379668593407 0.91543793678283691 0.22132353484630585
0.10918469727039337 0.91542309522628784 0.22251403331756592
0.29558831453323364 0.9231879711151123 0.23073616623878479
0.55106198787689209 0.92168349027633667 0.23403304815292358
0.83225107192993164 0.91702854633331299 0.23254352807998657
0.96799337863922119 0.92131847143173218 0.22616082429885864
0.98944354057312012 0.92085272073745728 0.23108823597431183
0.021377893164753914 0.98828220367431641 0.22382096946239471
0.11285243183374405 0.99227941036224365 0.21869355440139771
0.2914021909236908 0.99333149194717407 0.22338348627090454
0.55003702640533447 0.9887053370475769 0.22718684375286102
0.81841421127319336 0.98831838369369507 0.22749383747577667
0.9450717568397522 0.98954439163208008 0.22095488011837006
0.98094576597213745 0.99503785371780396 0.22961233556270599
0.020998263731598854 0.031455755233764648 0.34570994973182678
0.11735264211893082 0.029343923553824425 0.34553304314613342
0.29305973649024963 0.027388853952288628 0.34512174129486084
0.54383444786071777 0.027311841025948524 0.33788451552391052
0.82748168706893921 0.027227304875850677 0.33781301975250244
0.94716125726699829 0.029209315776824951 0.34519964456558228
0.98567742109298706 0.028718072921037674 0.34588366746902466
0.024820005521178246 0.16945275664329529 0.33598965406417847
0.12181324511766434 0.16931386291980743 0.34156146645545959
0.29523062705993652 0.16335426270961761 0.34470570087432861
0.54322564601898193 0.16774919629096985 0.34092256426811218
0.83677387237548828 0.17048516869544983 0.34491601586341858
0.94212859869003296 0.16446037590503693 0.34324884414672852
0.98394870758056641 0.16646939516067505 0.34498316049575806
0.019107788801193237 0.35976207256317139 0.33907294273376465
0.11562208086252213 0.35078084468841553 0.3409176766872406
0.2768571674823761 0.35811048746109009 0.33714359998703003
0.53914278745651245 0.36359229683876038 0.34266853332519531
0.83656018972396851 0.36064329743385315 0.34832695126533508
0.95976781845092773 0.35081958770751953 0.34491246938705444
0.99096274375915527 0.35348114371299744 0.34737914800643921
0.019362745806574821 0.56792259216308594 0.33971747756004333
0.11339245736598969 0.56463205814361572 0.34386903047561646
0.27648597955703735 0.5681876540184021 0.33713236451148987
0.53462308645248413 0.57034063339233398 0.33860653638839722
0.83133828639984131 0.56671744585037231 0.3422723114490509
0.97089552879333496 0.5647895336151123 0.34405621886253357
0.98869138956069946 0.56454247236251831 0.34823927283287048
0.019104363396763802 0.76795011758804321 0.34235683083534241
0.11493530124425888 0.7656596302986145 0.34493923187255859
0.28931844234466553 0.76450073719024658 0.34012338519096375
0.54009759426116943 0.76579314470291138 0.33645269274711609
0.82754427194595337 0.76360082626342773 0.34129554033279419
0.96714550256729126 0.76726430654525757 0.34154823422431946
0.98530220985412598 0.75972014665603638 0.34677767753601074
0.018904503434896469 0.92114639282226562 0.33775720000267029
0.11388438940048218 0.92010778188705444 0.34662482142448425
0.2911783754825592 0.92298102378845215 0.34507709741592407
0.53948450088500977 0.92053687572479248 0.33981576561927795
0.82541066408157349 0.91715782880783081 0.34260386228561401
0.95410668849945068 0.92446404695510864 0.3412565290927887
0.98326212167739868 0.91745114326477051 0.34838053584098816
0.019442090764641762 0.9921494722366333 0.34144514799118042
0.11328147351741791 0.99427199363708496 0.34133303165435791
0.28500378131866455 0.99501919746398926 0.34423661231994629
0.54189014434814453 0.99162375926971436 0.34605437517166138
0.82955729961395264 0.98835784196853638 0.34849250316619873
0.95191425085067749 0.99095445871353149 0.350269615650177
0.98389452695846558 0.99203729629516602 0.35196274518966675
0.016311345621943474 0.027097335085272789 0.4595387876033783
0.11442764848470688 0.028281074017286301 0.46049246191978455
0.28770101070404053 0.027379384264349937 0.45717301964759827
0.55037248134613037 0.02708333358168602 0.45580354332923889
0.83139067888259888 0.030668266117572784 0.45822057127952576
0.94687288999557495 0.028831241652369499 0.46890363097190857
0.98260593414306641 0.026914425194263458 0.46112892031669617
0.023640381172299385 0.16452568769454956 0.46421810984611511
0.11484105885028839 0.16661418974399567 0.46201387047767639
0.29076054692268372 0.16340702772140503 0.45863047242164612
0.5622934103012085 0.16736403107643127 0.4636307954788208
0.83751541376113892 0.16585609316825867 0.45945993065834045
0.94184744358062744 0.16412776708602905 0.46027565002441406
0.983592689037323 0.16608481109142303 0.46262693405151367
0.020940383896231651 0.35906082391738892 0.463299959897995
0.11551562696695328 0.35427865386009216 0.45972311496734619
0.28244796395301819 0.35460492968559265 0.45283174514770508
0.5502205491065979 0.35797938704490662 0.46096089482307434
0.8398139476776123 0.35837480425834656 0.46802881360054016
0.96341890096664429 0.3541925847530365 0.46391662955284119
0.99125164747238159 0.35204586386680603 0.46908393502235413
0.01643688790500164 0.57108116149902344 0.44911539554595947
0.11101596057415009 0.56852763891220093 0.44827073812484741
0.28224554657936096 0.56691032648086548 0.4487699568271637
0.54876053333282471 0.56717616319656372 0.4563344419002533
0.83645373582839966 0.56857740879058838 0.46229073405265808
0.96485799551010132 0.5678132176399231 0.45912289619445801
0.98701244592666626 0.5624503493309021 0.46077078580856323
0.014113632030785084 0.76840448379516602 0.45742398500442505
0.11057330667972565 0.7628854513168335 0.45190942287445068
0.29020234942436218 0.76705598831176758 0.45335513353347778
0.55214941501617432 0.76524806022644043 0.45069858431816101
0.83710175752639771 0.76458448171615601 0.45969864726066589
0.95283514261245728 0.76896423101425171 0.45926675200462341
0.97936403751373291 0.75933742523193359 0.45960274338722229
0.018799591809511185 0.92473691701889038 0.45523464679718018
0.11294714361429214 0.9204716682434082 0.46404314041137695
0.28608039021492004 0.92169833183288574 0.46007120609283447
0.5460735559463501 0.91871112585067749 0.451865553855896
0.83532834053039551 0.91672384738922119 0.46103641390800476
0.94329255819320679 0.92229753732681274 0.47096487879753113
0.98041367530822754 0.91129410266876221 0.46637189388275146
0.018855839967727661 0.99170589447021484 0.46414640545845032
0.11769841611385345 0.99062782526016235 0.46482473611831665
0.28306755423545837 0.99272191524505615 0.46093234419822693
0.54249626398086548 0.99227416515350342 0.46380749344825745
0.8360554575920105 0.99044495820999146 0.47262558341026306
0.94316816329956055 0.99159359931945801 0.47218385338783264
0.98611617088317871 0.98911142349243164 0.46470588445663452
0.017198704183101654 0.025830602273344994 0.57105547189712524
0.11364845186471939 0.030324479565024376 0.57729321718215942
0.29588821530342102 0.028238378465175629 0.57773846387863159
0.55835902690887451 0.02708333358168602 0.58240902423858643
0.83162933588027954 0.028188129886984825 0.58408921957015991
0.943886399269104 0.026364360004663467 0.58455163240432739
0.98435598611831665 0.02708333358168602 0.5734063982963562
0.019940141588449478 0.1602870374917984 0.5793074369430542
0.1130380854010582 0.1636311262845993 0.58183449506759644
0.28674909472465515 0.16543687880039215 0.58218091726303101
0.55643570423126221 0.1677679568529129 0.58691781759262085
0.84399646520614624 0.16635619103908539 0.58209073543548584
0.94976311922073364 0.16373392939567566 0.58287417888641357
0.98318791389465332 0.1654057651758194 0.58088690042495728
0.020796801894903183 0.35511282086372375 0.58685380220413208
0.11462362110614777 0.35073676705360413 0.58210611343383789
0.28394412994384766 0.35272103548049927 0.57731097936630249
0.54710030555725098 0.35893753170967102 0.58236551284790039
0.83654206991195679 0.35875603556632996 0.57337707281112671
0.94947928190231323 0.35928481817245483 0.56777584552764893
0.98695647716522217 0.35606464743614197 0.56882447004318237
0.018303845077753067 0.56729191541671753 0.55317205190658569
0.11482898145914078 0.56737428903579712 0.55017930269241333
0.28979942202568054 0.56804203987121582 0.57198166847229004
0.55392700433731079 0.56696557998657227 0.58034271001815796
0.83070755004882812 0.56953805685043335 0.56857997179031372
0.95391559600830078 0.57100284099578857 0.57174760103225708
0.98513996601104736 0.56863290071487427 0.57955056428909302
0.015699438750743866 0.766651451587677 0.56603258848190308
0.11654169112443924 0.76631724834442139 0.55802983045578003
0.28959736227989197 0.76503521203994751 0.57585132122039795
0.55421102046966553 0.76245039701461792 0.57696938514709473
0.8396649956703186 0.75925141572952271 0.57864552736282349
0.94347596168518066 0.77034932374954224 0.57564175128936768
0.97943496704101562 0.76631838083267212 0.58311015367507935
0.01870797760784626 0.92283189296722412 0.56004351377487183
0.11668533831834793 0.92413979768753052 0.5577424168586731
0.28475120663642883 0.91998302936553955 0.57305604219436646
0.54114764928817749 0.91581350564956665 0.57156121730804443
0.84105658531188965 0.91701227426528931 0.57279354333877563
0.94916880130767822 0.92320621013641357 0.57276803255081177
0.98128807544708252 0.91269850730895996 0.58133524656295776
0.019398648291826248 0.9844362735748291 0.57455652952194214
0.11288275569677353 0.98376590013504028 0.56596732139587402
0.28362825512886047 0.98824858665466309 0.57394784688949585
0.53627175092697144 0.98871880769729614 0.57595318555831909
0.83202505111694336 0.98837029933929443 0.58805930614471436
0.9580492377281189 0.99250251054763794 0.58167928457260132
0.98808974027633667 0.98967897891998291 0.59097230434417725
0.023284314200282097 0.031174095347523689 0.76641029119491577
0.11739028990268707 0.027630869299173355 0.76809191703796387
0.2866576611995697 0.026464320719242096 0.76300370693206787
0.54571664333343506 0.02708333358168602 0.76016932725906372
0.83557677268981934 0.027429558336734772 0.7647939920425415
0.94486314058303833 0.028485676273703575 0.74525624513626099
0.98618483543395996 0.027199659496545792 0.75922787189483643
0.021163327619433403 0.17082145810127258 0.76539319753646851
0.11516231298446655 0.16618973016738892 0.77267885208129883
0.28837797045707703 0.16536061465740204 0.76826971769332886
0.54553467035293579 0.16321127116680145 0.76214933395385742
0.84014564752578735 0.16770178079605103 0.7628476619720459
0.9517020583152771 0.16678713262081146 0.76307028532028198
0.98585391044616699 0.16362075507640839 0.75659650564193726
0.01959533616900444 0.35969695448875427 0.76570862531661987
0.10946895927190781 0.35700428485870361 0.75966924428939819
0.28931805491447449 0.35422655940055847 0.76531898975372314
0.54708248376846313 0.35399875044822693 0.76156067848205566
0.83318275213241577 0.3566490113735199 0.76076018810272217
0.9397575855255127 0.35101741552352905 0.76950263977050781
0.98168760538101196 0.34960532188415527 0.75052022933959961
0.022303322330117226 0.5732157826423645 0.77094185352325439
0.11231102794408798 0.56754451990127563 0.76216655969619751
0.29584112763404846 0.5666658878326416 0.76950937509536743
0.55066931247711182 0.56695938110351562 0.76180768013000488
0.82846862077713013 0.57171750068664551 0.76459753513336182
0.94512248039245605 0.56182956695556641 0.76612460613250732
0.98128098249435425 0.56330841779708862 0.75004416704177856
0.019426532089710236 0.76819467544555664 0.76269114017486572
0.11773340404033661 0.76278257369995117 0.75892597436904907
0.29258930683135986 0.76267290115356445 0.77278679609298706
0.54664897918701172 0.76702165603637695 0.76196902990341187
0.82714074850082397 0.7644689679145813 0.76556998491287231
0.9581490159034729 0.76350831985473633 0.76054435968399048
0.98832064867019653 0.76811414957046509 0.75908023118972778
0.019531877711415291 0.92248076200485229 0.76723486185073853
0.11987916380167007 0.9197801947593689 0.75998640060424805
0.28741797804832458 0.92210692167282104 0.75712329149246216
0.54117465019226074 0.9209560751914978 0.76094603538513184
0.83057081699371338 0.92183637619018555 0.76941359043121338
0.96201485395431519 0.92066562175750732 0.76022231578826904
0.98616605997085571 0.91608273983001709 0.77576106786727905
0.023802200332283974 0.98801738023757935 0.77769839763641357
0.11994242668151855 0.98292726278305054 0.76327377557754517
0.29412192106246948 0.98835784196853638 0.76008409261703491
0.54272550344467163 0.98835784196853638 0.75810354948043823
0.83564245700836182 0.98830169439315796 0.76711612939834595
0.9665263295173645 0.99185419082641602 0.76869446039199829
0.99037784337997437 0.9896547794342041 0.78266924619674683
0.025633180513978004 0.029138917103409767 0.93649709224700928
0.11909103393554688 0.030020516365766525 0.94140183925628662
0.29062524437904358 0.029281795024871826 0.93819880485534668
0.54474925994873047 0.031207649037241936 0.93860459327697754
0.82547825574874878 0.027875684201717377 0.93595987558364868
0.947856605052948 0.02861519530415535 0.93535697460174561
0.98765426874160767 0.027608206495642662 0.93873089551925659
0.021968541666865349 0.16739331185817719 0.94008266925811768
0.11892832070589066 0.16641904413700104 0.94761902093887329
0.29296696186065674 0.16614404320716858 0.95119553804397583
0.54439377784729004 0.16383980214595795 0.94182890653610229
0.83580112457275391 0.16819752752780914 0.94251811504364014
0.94127064943313599 0.16788631677627563 0.93880307674407959
0.98336279392242432 0.16820409893989563 0.93653732538223267
0.018992869183421135 0.35185462236404419 0.93220657110214233
0.11606578528881073 0.35615617036819458 0.93054193258285522
0.29598838090896606 0.3571314811706543 0.94066137075424194
0.54891568422317505 0.35766112804412842 0.93442994356155396
0.83337390422821045 0.36071106791496277 0.93879008293151855
0.95102626085281372 0.35484704375267029 0.95253437757492065
0.9837801456451416 0.35579937696456909 0.93952727317810059
0.019793221727013588 0.56134152412414551 0.93712252378463745
0.11199657618999481 0.56387090682983398 0.92840361595153809
0.29122257232666016 0.56674927473068237 0.93668127059936523
0.54772990942001343 0.56659197807312012 0.93261617422103882
0.82422959804534912 0.56858599185943604 0.94130164384841919
0.93821489810943604 0.56594169139862061 0.94478130340576172
0.98678362369537354 0.56789839267730713 0.9314500093460083
0.017850195989012718 0.76530629396438599 0.93857389688491821
0.11400788277387619 0.76472228765487671 0.93552112579345703
0.29201936721801758 0.76358824968338013 0.9383426308631897
0.55237287282943726 0.76696693897247314 0.94249171018600464
0.83128839731216431 0.77045238018035889 0.94836193323135376
0.94875490665435791 0.76832413673400879 0.9392164945602417
0.99137556552886963 0.7684943675994873 0.93240034580230713
0.021536614745855331 0.92449122667312622 0.9351615309715271
0.1228490024805069 0.91993111371994019 0.93858891725540161
0.29407212138175964 0.92132997512817383 0.94111889600753784
0.54026275873184204 0.92444586753845215 0.94265228509902954
0.83016806840896606 0.9218326210975647 0.9453284740447998
0.94509291648864746 0.91597002744674683 0.93617874383926392
0.98374569416046143 0.91163367033004761 0.93859291076660156
0.024479944258928299 0.98840737342834473 0.94146537780761719
0.11932528764009476 0.98728787899017334 0.93936872482299805
0.30180591344833374 0.98845064640045166 0.94379341602325439
0.55461442470550537 0.98429614305496216 0.93306428194046021
0.84149610996246338 0.98427283763885498 0.92474055290222168
0.94791460037231445 0.98576301336288452 0.93666380643844604
0.98465561866760254 0.98611688613891602 0.94235330820083618
