assets/lut/others rotated crush.cube
# Created by: G'MIC (https://gmic.eu)
TITLE "rotated_crush"
# LUT size
LUT_3D_SIZE 5
# Data domain
DOMAIN_MIN 0.0 0.0 0.0
DOMAIN_MAX 1.0 1.0 1.0
# LUT data points
0.0039215688593685627 0 0
0.0091891717165708542 0 0.025060646235942841
0.036071281880140305 0 0.26009765267372131
0.14841444790363312 8.1679398135747761e-05 0.56912857294082642
0.3041745126247406 0.00096381694311276078 0.90898436307907104
0.021122816950082779 0.016151951625943184 0
0.070796355605125427 0.033009294420480728 0.037048999220132828
0.29816451668739319 0.015985196456313133 0.23463347554206848
0.58851426839828491 0.010688572190701962 0.59559178352355957
0.83646148443222046 0.015016264282166958 0.95857959985733032
0.24979418516159058 0.23443570733070374 0
0.31140092015266418 0.1597597748041153 0.028283242136240005
0.37708321213722229 0.28038886189460754 0.27650487422943115
0.68138718605041504 0.261259526014328 0.4795876145362854
0.97828954458236694 0.26512151956558228 0.81292128562927246
0.55990976095199585 0.52312862873077393 0
0.61238187551498413 0.39262086153030396 0.026116868481040001
0.67186039686203003 0.39697489142417908 0.24969437718391418
0.774131178855896 0.63573253154754639 0.63775473833084106
0.9952283501625061 0.61053037643432617 0.78283524513244629
0.90474849939346313 0.8931390643119812 0.0018478842684999108
0.94880324602127075 0.68742251396179199 0.0071942047215998173
0.99067527055740356 0.6179012656211853 0.24781130254268646
0.9918971061706543 0.72154110670089722 0.61270898580551147
0.99776256084442139 0.98754853010177612 0.98358720541000366
0.00013364903861656785 0.00041669956408441067 0.0031333174556493759
0.002596238162368536 0.0038302701432257891 0.064144238829612732
0.01392231322824955 0.0039215688593685627 0.31961292028427124
0.06771068274974823 0.00075508566806092858 0.61773300170898438
0.20963428914546967 0.00057461310643702745 0.95378118753433228
0.0090593677014112473 0.06346932053565979 0.0042126523330807686
0.040925282984972 0.045550744980573654 0.048764757812023163
0.10972292721271515 0.0032422682270407677 0.31772783398628235
0.25592425465583801 0.001764454529620707 0.62410753965377808
0.47517454624176025 0.030615083873271942 0.95749342441558838
0.18286393582820892 0.30990073084831238 0.0046246997080743313
0.29967799782752991 0.28661966323852539 0.0047163721174001694
0.38249340653419495 0.28786554932594299 0.28831613063812256
0.67721724510192871 0.22628302872180939 0.56645643711090088
0.97273826599121094 0.29470860958099365 0.96496677398681641
0.48122918605804443 0.61232131719589233 0.0059524085372686386
0.60267418622970581 0.59444952011108398 0.0057650995440781116
0.67143046855926514 0.44904631376266479 0.20844915509223938
0.76041668653488159 0.64948725700378418 0.65268123149871826
0.99449330568313599 0.64883029460906982 0.8820459246635437
0.81433022022247314 0.95263540744781494 0.0038356108125299215
0.95510488748550415 0.94498199224472046 0.032126214355230331
0.97827315330505371 0.77636027336120605 0.28595992922782898
0.99402546882629395 0.79377251863479614 0.6466057300567627
0.9982147216796875 0.99278885126113892 0.99161034822463989
0.00040148565312847495 0.0087568843737244606 0.0039215688593685627
0.00080084707587957382 0.067841984331607819 0.079359032213687897
0.010546306148171425 0.019674398005008698 0.35996958613395691
0.044090539216995239 0.0041201421990990639 0.68048661947250366
0.15829670429229736 0.0036896499805152416 0.9933362603187561
0.0078878365457057953 0.10534553974866867 0.0076348097063601017
0.023625871166586876 0.10663527250289917 0.031122500076889992
0.13340015709400177 0.1481938511133194 0.35755434632301331
0.1853397935628891 0.051753189414739609 0.67026400566101074
0.39948040246963501 0.11737693101167679 0.98088091611862183
0.13587953150272369 0.36568695306777954 0.010693718679249287
0.24016545712947845 0.36379685997962952 0.11093803495168686
0.35664910078048706 0.36021241545677185 0.34134897589683533
0.49720469117164612 0.26683533191680908 0.68273347616195679
0.72808408737182617 0.3509405255317688 0.98638355731964111
0.40211561322212219 0.68307113647460938 0.0018582362681627274
0.51555454730987549 0.686664879322052 0.061001498252153397
0.67127162218093872 0.65678083896636963 0.27141910791397095
0.76799285411834717 0.69120770692825317 0.69305723905563354
0.99325394630432129 0.6778099536895752 0.97156977653503418
0.71250706911087036 0.98624473810195923 0.0034797070547938347
0.86575746536254883 0.97926312685012817 0.11295303702354431
0.97902411222457886 0.96682101488113403 0.34233126044273376
0.99488645792007446 0.8959047794342041 0.6845163106918335
1 0.9895283579826355 0.99553495645523071
0.0067587010562419891 0.0081524867564439774 0.003797254292294383
0 0.12427785247564316 0.038648851215839386
0.011739140376448631 0.22034637629985809 0.41284173727035522
0.03445039689540863 0.058825846761465073 0.74946767091751099
0.12615267932415009 0.031283479183912277 0.99415582418441772
0.0071589299477636814 0.15459756553173065 0.0066787721589207649
0.032482147216796875 0.15471756458282471 0.040635053068399429
0.1471877247095108 0.37934586405754089 0.39180710911750793
0.22828704118728638 0.25947478413581848 0.75155603885650635
0.33981570601463318 0.21513240039348602 0.98566311597824097
0.06239541620016098 0.39142552018165588 0.010427766479551792
0.21422778069972992 0.41467612981796265 0.1340499222278595
0.34617495536804199 0.43429139256477356 0.35145217180252075
0.46674498915672302 0.48551282286643982 0.74681675434112549
0.62121868133544922 0.46445614099502563 0.99626308679580688
0.33110502362251282 0.73543441295623779 0.020268294960260391
0.46516120433807373 0.7380141019821167 0.2176055908203125
0.61279624700546265 0.73960304260253906 0.45705094933509827
0.74671715497970581 0.73899185657501221 0.74285542964935303
0.94242799282073975 0.74200820922851562 0.99544590711593628
0.6432000994682312 0.99739676713943481 0.030712800100445747
0.78001528978347778 0.98975825309753418 0.22192072868347168
0.93641966581344604 0.99524807929992676 0.45642635226249695
0.9884154200553894 0.98635053634643555 0.73559713363647461
0.99786603450775146 0.99627339839935303 0.98705333471298218
0 0.017125356942415237 0
0.00057383516104891896 0.16533654928207397 0.015374382026493549
0.0060750474222004414 0.44239279627799988 0.45606780052185059
0.024136368185281754 0.34793767333030701 0.7926563024520874
0.11133318394422531 0.14034499228000641 0.99607044458389282
0.0076315635815262794 0.18909662961959839 0.0039350320585072041
0.050922676920890808 0.20519861578941345 0.059397529810667038
0.16738823056221008 0.46515697240829468 0.37687006592750549
0.26670300960540771 0.586742103099823 0.80362212657928467
0.33439600467681885 0.37119594216346741 0.99808698892593384
0.045438937842845917 0.46211066842079163 0.0041691199876368046
0.2097959965467453 0.45907661318778992 0.16175489127635956
0.35426750779151917 0.48935145139694214 0.36244890093803406
0.50283616781234741 0.77118527889251709 0.79478687047958374
0.58605396747589111 0.61220854520797729 0.99703347682952881
0.25591680407524109 0.79186534881591797 0.035785570740699768
0.44522550702095032 0.80774009227752686 0.2715965211391449
0.58366292715072632 0.79668986797332764 0.49978038668632507
0.73500204086303711 0.82549738883972168 0.75135558843612671
0.87094324827194214 0.89251464605331421 0.99888908863067627
0.59424424171447754 1 0.10443076491355896
0.73799848556518555 0.992290198802948 0.33575931191444397
0.87028491497039795 0.99859315156936646 0.57957059144973755
0.98944568634033203 0.99724137783050537 0.85447543859481812
0.99812662601470947 0.99648547172546387 0.99602240324020386
