assets/lut/others vibrant contrast.cube
# Created by: G'MIC (https://gmic.eu)
TITLE "vibrant_contrast"
# LUT size
LUT_3D_SIZE 5
# Data domain
DOMAIN_MIN 0.0 0.0 0.0
DOMAIN_MAX 1.0 1.0 1.0
# LUT data points
8.4013096056878567e-05 0 0.022499188780784607
0.11779610067605972 0 0.017417699098587036
0.34763181209564209 0 5.4931639169808477e-05
0.63719421625137329 0 0
0.96207219362258911 0 0
0.0062112249433994293 0.090405814349651337 0.029248794540762901
0.14175297319889069 0.097356252372264862 0.035542715340852737
0.39792367815971375 0.061214759945869446 0.0092536024749279022
0.70163214206695557 0.0025172065943479538 0
0.99999302625656128 0 0.00059217563830316067
0.0014496897347271442 0.3535422682762146 0.0087332483381032944
0.14422447979450226 0.36587727069854736 0.02630411833524704
0.44744232296943665 0.37723764777183533 0.022426260635256767
0.77895694971084595 0.26395556330680847 0.0037591971922665834
1 0.16835002601146698 0
0 0.68713229894638062 0
0.064856283366680145 0.71988999843597412 1.4540728443535045e-05
0.41438353061676025 0.75110054016113281 0.0083089787513017654
0.84327328205108643 0.73284751176834106 0.010603047907352448
0.99999302625656128 0.70752710103988647 0.00071405147900804877
0 0.9998786449432373 0
0.014783432707190514 1 0.0065497155301272869
0.33771061897277832 1 0.0014673121040686965
0.84336304664611816 1 0.010196431539952755
1 1 0.018671777099370956
0 0 0.20755495131015778
0.10135888308286667 0.0009356779046356678 0.22223566472530365
0.35728347301483154 0 0.18351598083972931
0.65090924501419067 0.0019437752198427916 0.087885312736034393
0.98602199554443359 0 0.0069045419804751873
0.0017969169421121478 0.077898882329463959 0.24241791665554047
0.14323337376117706 0.10391346365213394 0.24997475743293762
0.41313508152961731 0.089431777596473694 0.23343412578105927
0.72667479515075684 0.022992393001914024 0.1382366269826889
1 0.00081329344538971782 0.034975539892911911
0.0016346800839528441 0.35691049695014954 0.23899856209754944
0.17928609251976013 0.38050001859664917 0.26443985104560852
0.46227455139160156 0.39549720287322998 0.28453493118286133
0.81635653972625732 0.3059539794921875 0.17538820207118988
1 0.23214048147201538 0.11724565923213959
1.4540728443535045e-05 0.7117621898651123 0.12719684839248657
0.100452721118927 0.74420028924942017 0.1696249395608902
0.44768556952476501 0.78082013130187988 0.2286602109670639
0.87879770994186401 0.75677227973937988 0.21211330592632294
0.99332648515701294 0.76717215776443481 0.2046227753162384
0 1 0.05216776579618454
0.050581447780132294 1 0.11437369138002396
0.41431894898414612 1 0.16598883271217346
0.90725487470626831 1 0.23572975397109985
0.99903792142868042 1 0.27872037887573242
0 0 0.43416345119476318
0.042007163166999817 0.0012117722071707249 0.45195594429969788
0.34116753935813904 0 0.46355128288269043
0.67787909507751465 0 0.39011108875274658
0.99539244174957275 0 0.22463364899158478
0 0.019607469439506531 0.46927592158317566
0.097949206829071045 0.061770301312208176 0.47763016819953918
0.40758305788040161 0.088836595416069031 0.50361740589141846
0.74196070432662964 0.042501829564571381 0.44518464803695679
1 0.0093413554131984711 0.30504906177520752
0.0014993854565545917 0.32432407140731812 0.49468705058097839
0.15961040556430817 0.37338671088218689 0.51633667945861816
0.46892240643501282 0.40518984198570251 0.53695493936538696
0.83144158124923706 0.35534271597862244 0.4830341637134552
1 0.28943592309951782 0.40378046035766602
0.0015233956510201097 0.73144793510437012 0.45336377620697021
0.14250971376895905 0.77069121599197388 0.47816199064254761
0.48864516615867615 0.78395384550094604 0.52641111612319946
0.87872225046157837 0.78894317150115967 0.52592438459396362
0.99998891353607178 0.80713826417922974 0.50729513168334961
0 1 0.33496329188346863
0.088858149945735931 1 0.41656896471977234
0.48726129531860352 0.99663501977920532 0.48898071050643921
0.92410373687744141 0.99878036975860596 0.54896622896194458
1 0.99963712692260742 0.58760040998458862
0 0 0.66827172040939331
0.0015003129374235868 0.00054472382180392742 0.68082010746002197
0.25025534629821777 0.00050135591300204396 0.69915318489074707
0.66812717914581299 0.00037611418520100415 0.70372623205184937
0.99711877107620239 0.0017728768289089203 0.58996385335922241
0.00071644503623247147 0.00014109892072156072 0.70453983545303345
0.02603677473962307 0.0059431637637317181 0.71743321418762207
0.33016890287399292 0.041958335787057877 0.74247080087661743
0.75047731399536133 0.05196850374341011 0.73858392238616943
1 0.021419839933514595 0.65257573127746582
0 0.24168972671031952 0.7332078218460083
0.094076164066791534 0.30434378981590271 0.74913316965103149
0.42283523082733154 0.35074445605278015 0.77485030889511108
0.83761954307556152 0.39129441976547241 0.77608650922775269
0.99978470802307129 0.34803348779678345 0.73998570442199707
0 0.72222268581390381 0.74704688787460327
0.13595986366271973 0.75596821308135986 0.77165919542312622
0.4968377947807312 0.79347395896911621 0.80141443014144897
0.89485436677932739 0.80549025535583496 0.81664812564849854
0.9934316873550415 0.82807523012161255 0.81707549095153809
0 1 0.70079255104064941
0.13181963562965393 1 0.76622122526168823
0.52158111333847046 0.99899840354919434 0.80285465717315674
0.94820207357406616 0.99481922388076782 0.85324776172637939
1 0.99999243021011353 0.87851643562316895
0 0 0.8988649845123291
0 0.0027806449215859175 0.9236864447593689
0.1248353123664856 0 0.95065653324127197
0.56381183862686157 0.0007349650259129703 0.96202611923217773
0.9999159574508667 0 0.96694236993789673
0.0026475794147700071 0 0.94453996419906616
0.0019788106437772512 1.750272872413916e-06 0.96535903215408325
0.23487390577793121 0.0027870028279721737 0.9804418683052063
0.67907935380935669 0.01494960393756628 0.99051415920257568
1 0.062583774328231812 0.99787241220474243
2.8004365958622657e-05 0.12384241074323654 0.97486668825149536
0.023060981184244156 0.19132144749164581 0.99407249689102173
0.34013992547988892 0.26919639110565186 0.99773859977722168
0.79492229223251343 0.35247266292572021 0.9997938871383667
1 0.40791529417037964 1
0 0.66148728132247925 0.99961191415786743
0.094730153679847717 0.69830918312072754 0.99993216991424561
0.47300583124160767 0.75974202156066895 1
0.89726072549819946 0.81666094064712524 1
0.99900895357131958 0.83043277263641357 1
0.010311216115951538 0.99975711107254028 1
0.18396323919296265 1 1
0.56725364923477173 1 1
0.9432874321937561 1 1
1 1 1
