assets/lut/others summer alt.cube
# Created by: G'MIC (https://gmic.eu)
TITLE "summer_alt"
# LUT size
LUT_3D_SIZE 5
# Data domain
DOMAIN_MIN 0.0 0.0 0.0
DOMAIN_MAX 1.0 1.0 1.0
# LUT data points
0.043161399662494659 0.022163135930895805 0.23835371434688568
0.33459770679473877 0.024446643888950348 0.23695524036884308
0.58874702453613281 0.025475027039647102 0.24042777717113495
0.79196399450302124 0.026999305933713913 0.23940537869930267
0.96899509429931641 0.025518201291561127 0.2396240234375
0.046446077525615692 0.21914444863796234 0.24050244688987732
0.33535701036453247 0.21748213469982147 0.23777884244918823
0.58620679378509521 0.22005686163902283 0.23713649809360504
0.78863441944122314 0.22253629565238953 0.23667655885219574
0.97082972526550293 0.22031153738498688 0.23925602436065674
0.042684458196163177 0.43529412150382996 0.2415902316570282
0.33085015416145325 0.43529412150382996 0.24016973376274109
0.58006292581558228 0.43921568989753723 0.23828525841236115
0.78642988204956055 0.43920168280601501 0.24101041257381439
0.97299134731292725 0.43529412150382996 0.24108918011188507
0.043345045298337936 0.68032574653625488 0.23942545056343079
0.331624835729599 0.68344485759735107 0.24020588397979736
0.58074331283569336 0.68626570701599121 0.23796415328979492
0.78645247220993042 0.68443459272384644 0.24294871091842651
0.97059226036071777 0.68306601047515869 0.23776537179946899
0.045632008463144302 0.94748812913894653 0.23643697798252106
0.33224612474441528 0.94811153411865234 0.23985899984836578
0.58758902549743652 0.94877451658248901 0.24062244594097137
0.79374170303344727 0.94857203960418701 0.24289216101169586
0.97007691860198975 0.94813024997711182 0.24105106294155121
0.04242338240146637 0.025495581328868866 0.36471930146217346
0.3319929838180542 0.026867317035794258 0.36703640222549438
0.58695399761199951 0.025490196421742439 0.36878111958503723
0.7917245626449585 0.025490196421742439 0.36851993203163147
0.96899509429931641 0.024263838306069374 0.36770832538604736
0.039011202752590179 0.22494678199291229 0.36455246806144714
0.33204656839370728 0.22121292352676392 0.36585444211959839
0.58823531866073608 0.21912582218647003 0.3663402795791626
0.7931092381477356 0.21972560882568359 0.36797639727592468
0.97291666269302368 0.21899509429931641 0.36796042323112488
0.04033864289522171 0.4388880729675293 0.3699643611907959
0.33330622315406799 0.43529412150382996 0.36673626303672791
0.58698916435241699 0.43990659713745117 0.36304721236228943
0.79305899143218994 0.43902775645256042 0.36655464768409729
0.97683823108673096 0.43529412150382996 0.37021979689598083
0.040479801595211029 0.68688344955444336 0.36950916051864624
0.33567216992378235 0.68223893642425537 0.36994177103042603
0.58573019504547119 0.68420302867889404 0.3684295117855072
0.78777700662612915 0.68404746055603027 0.36704081296920776
0.97898405790328979 0.67831045389175415 0.3759273886680603
0.042606189846992493 0.95218068361282349 0.36967241764068604
0.33222848176956177 0.94805103540420532 0.36857670545578003
0.58438402414321899 0.94914746284484863 0.36803624033927917
0.7889409065246582 0.94894546270370483 0.36789214611053467
0.97291666269302368 0.94748103618621826 0.37324720621109009
0.038643870502710342 0.024342017248272896 0.49859994649887085
0.3291890025138855 0.025490196421742439 0.49762105941772461
0.58347278833389282 0.024686627089977264 0.49889054894447327
0.78765642642974854 0.024693626910448074 0.49936038255691528
0.96899509429931641 0.025346091017127037 0.5
0.039736520498991013 0.22557619214057922 0.49504148960113525
0.33736363053321838 0.22015459835529327 0.49980485439300537
0.59121453762054443 0.21818335354328156 0.50021952390670776
0.79364210367202759 0.21899509429931641 0.50139844417572021
0.97291666269302368 0.21899509429931641 0.49841347336769104
0.039574716240167618 0.43829667568206787 0.49575057625770569
0.33678025007247925 0.43529412150382996 0.49499523639678955
0.59214663505554199 0.43921568989753723 0.49328285455703735
0.79461121559143066 0.43921568989753723 0.49899908900260925
0.96934592723846436 0.43811884522438049 0.50042492151260376
0.041238836944103241 0.68480390310287476 0.49980419874191284
0.33591145277023315 0.6829645037651062 0.49763154983520508
0.59235280752182007 0.68223041296005249 0.4941367506980896
0.799843430519104 0.67960268259048462 0.49666121602058411
0.96798616647720337 0.68087434768676758 0.50196081399917603
0.042538512498140335 0.95527267456054688 0.49646270275115967
0.33226111531257629 0.94857043027877808 0.49681550264358521
0.5869629979133606 0.94733673334121704 0.49730128049850464
0.79262340068817139 0.94740229845046997 0.49842527508735657
0.96899509429931641 0.94802403450012207 0.50048542022705078
0.042524509131908417 0.023461690172553062 0.62476217746734619
0.32918336987495422 0.025490196421742439 0.62656259536743164
0.58518505096435547 0.024645203724503517 0.62717634439468384
0.79171836376190186 0.024718131870031357 0.62747853994369507
0.96917480230331421 0.025300582870841026 0.62619137763977051
0.03960895910859108 0.2199908047914505 0.62523692846298218
0.33211460709571838 0.22235152125358582 0.6323285698890686
0.58823531866073608 0.21973568201065063 0.63283020257949829
0.79534268379211426 0.21897934377193451 0.63082337379455566
0.97291666269302368 0.21899509429931641 0.62689924240112305
0.038602940738201141 0.43921917676925659 0.62703186273574829
0.33378791809082031 0.43921568989753723 0.62746739387512207
0.58797013759613037 0.43921568989753723 0.6274106502532959
0.79265791177749634 0.43921568989753723 0.6284480094909668
0.96899509429931641 0.43921568989753723 0.62524211406707764
0.038602940738201141 0.68806064128875732 0.62947028875350952
0.33383220434188843 0.6871027946472168 0.62853068113327026
0.58296447992324829 0.68689310550689697 0.62397480010986328
0.79596322774887085 0.68242931365966797 0.62760078907012939
0.96901965141296387 0.6859966516494751 0.62434500455856323
0.042524509131908417 0.94963133335113525 0.62400120496749878
0.33102232217788696 0.94877451658248901 0.62602329254150391
0.58397525548934937 0.94588524103164673 0.62470203638076782
0.78674739599227905 0.94869011640548706 0.62517040967941284
0.9690021276473999 0.9498254656791687 0.62473887205123901
0.04580586776137352 0.026665586978197098 0.75142908096313477
0.33875110745429993 0.026288110762834549 0.75712126493453979
0.58622187376022339 0.025490196421742439 0.75527596473693848
0.79044008255004883 0.025490196421742439 0.75604218244552612
0.96980583667755127 0.02564208023250103 0.75167697668075562
0.041333604604005814 0.22578327357769012 0.75863176584243774
0.32728499174118042 0.22469362616539001 0.76401656866073608
0.58088666200637817 0.22450137138366699 0.76276314258575439
0.79296553134918213 0.22257751226425171 0.75693619251251221
0.97291666269302368 0.22079481184482574 0.75759744644165039
0.042483579367399216 0.4334244430065155 0.75349628925323486
0.32621058821678162 0.43921568989753723 0.76235306262969971
0.57832157611846924 0.44225463271141052 0.76209414005279541
0.78688126802444458 0.43852359056472778 0.75332355499267578
0.9716755747795105 0.435506671667099 0.75169873237609863
0.042490042746067047 0.67942917346954346 0.75375622510910034
0.33012324571609497 0.68595820665359497 0.76043331623077393
0.58045428991317749 0.6888434886932373 0.75957220792770386
0.79063659906387329 0.68691354990005493 0.75981354713439941
0.97196751832962036 0.68322670459747314 0.75891530513763428
0.042524509131908417 0.94818389415740967 0.75040900707244873
0.33123469352722168 0.94983798265457153 0.75286418199539185
0.58753734827041626 0.9541662335395813 0.75470751523971558
0.79127103090286255 0.95335114002227783 0.75571775436401367
0.97291666269302368 0.95092421770095825 0.75252878665924072
