assets/lut/others warm yellow.cube
# Created by: G'MIC (https://gmic.eu)
TITLE "warm_yellow"
# LUT size
LUT_3D_SIZE 7
# Data domain
DOMAIN_MIN 0.0 0.0 0.0
DOMAIN_MAX 1.0 1.0 1.0
# LUT data points
0.088170640170574188 0.024975450709462166 0.01190662756562233
0.31524580717086792 0.011115564033389091 0.0061738109216094017
0.52947193384170532 0.0068926792591810226 0.0040755928494036198
0.68894112110137939 0.0072085661813616753 0.0035964068956673145
0.82057595252990723 0.004983849823474884 0.0037214541807770729
0.9137611985206604 0.015595454722642899 0.010331411845982075
0.98059368133544922 0.0090432111173868179 0.0071548759005963802
0.179718017578125 0.12967070937156677 0.031137144193053246
0.32521489262580872 0.12584342062473297 0.013796099461615086
0.5329364538192749 0.11217223852872849 0.0027959337458014488
0.70118945837020874 0.10348021239042282 0.00092502665938809514
0.82335454225540161 0.097890459001064301 1.8669577912078239e-05
0.91168057918548584 0.10486599802970886 0.001454461831599474
0.97804892063140869 0.097174674272537231 0.00034269446041435003
0.28399986028671265 0.32292979955673218 0.066049687564373016
0.35017508268356323 0.32487624883651733 0.023136138916015625
0.534373939037323 0.32484567165374756 0.0049912096001207829
0.70323324203491211 0.29718533158302307 0
0.8256104588508606 0.28590202331542969 3.0158547815517522e-05
0.9112744927406311 0.27853843569755554 0
0.9801909327507019 0.27486720681190491 0
0.40643787384033203 0.56944286823272705 0.11968014389276505
0.42457669973373413 0.57439416646957397 0.055746626108884811
0.54320114850997925 0.57115703821182251 0.020828919485211372
0.70352107286453247 0.55927926301956177 0.0026036130730062723
0.82537531852722168 0.54672747850418091 0.00019369686197023839
0.91431695222854614 0.53430187702178955 0
0.97911137342453003 0.53023242950439453 0
0.50931334495544434 0.79088896512985229 0.17921043932437897
0.51422035694122314 0.79599833488464355 0.099705733358860016
0.57030594348907471 0.78820860385894775 0.034507453441619873
0.70102465152740479 0.79167425632476807 0.01234874315559864
0.82406407594680786 0.77839869260787964 0.0015760534442961216
0.91360008716583252 0.76549655199050903 0
0.97699636220932007 0.75970238447189331 0
0.59955298900604248 0.91556078195571899 0.27095150947570801
0.59504884481430054 0.91899281740188599 0.15686184167861938
0.62687408924102783 0.91658979654312134 0.070771127939224243
0.71202266216278076 0.91447526216506958 0.029686318710446358
0.8192908763885498 0.91113132238388062 0.0086848242208361626
0.91089308261871338 0.91188448667526245 0.0030179042369127274
0.98060888051986694 0.91197854280471802 0
0.69507485628128052 0.98241686820983887 0.40394529700279236
0.66899400949478149 0.98013025522232056 0.24292618036270142
0.6872248649597168 0.98340773582458496 0.11603499948978424
0.73933595418930054 0.98023396730422974 0.050648108124732971
0.81762480735778809 0.97920733690261841 0.012389329262077808
0.90389353036880493 0.97757405042648315 0.0037268246524035931
0.97923660278320312 0.97624266147613525 0
0.14365541934967041 0.047162912786006927 0.080934233963489532
0.32218697667121887 0.028893444687128067 0.078330099582672119
0.53017741441726685 0.012345661409199238 0.068463928997516632
0.69831866025924683 0.0049761156551539898 0.05177924782037735
0.82359552383422852 0.0039215688593685627 0.056094855070114136
0.91204619407653809 0.005968011450022459 0.064421683549880981
0.97502022981643677 0.0027263567317277193 0.064019039273262024
0.13787083327770233 0.13452750444412231 0.079953841865062714
0.32640084624290466 0.13301791250705719 0.080176167190074921
0.53323221206665039 0.098543755710124969 0.059514559805393219
0.70300173759460449 0.068053901195526123 0.037515077739953995
0.82386434078216553 0.043943829834461212 0.022501477971673012
0.91105532646179199 0.033221285790205002 0.018237333744764328
0.98066931962966919 0.015207342803478241 0.0081839766353368759
0.23856861889362335 0.3260912299156189 0.11180318146944046
0.40658816695213318 0.32218900322914124 0.11793452501296997
0.53622704744338989 0.31455716490745544 0.056802172213792801
0.7021520733833313 0.25474649667739868 0.035217702388763428
0.82932919263839722 0.19321852922439575 0.016726071015000343
0.91482424736022949 0.15958002209663391 0.0057393540628254414
0.97884064912796021 0.13890507817268372 0.0012459100689738989
0.35477361083030701 0.57716280221939087 0.16905726492404938
0.49490100145339966 0.56863713264465332 0.18072493374347687
0.56117552518844604 0.57379329204559326 0.099627234041690826
0.70109504461288452 0.5596994161605835 0.04287160187959671
0.82618153095245361 0.49092698097229004 0.019583683460950851
0.91519606113433838 0.43013834953308105 0.0061022741720080376
0.978232741355896 0.37950587272644043 0.00077065860386937857
0.46866044402122498 0.79467499256134033 0.25584065914154053
0.59848588705062866 0.79108589887619019 0.27608287334442139
0.6212770938873291 0.79416733980178833 0.16026411950588226
0.70402699708938599 0.78283083438873291 0.074368767440319061
0.82203167676925659 0.77937805652618408 0.01972644217312336
0.91240483522415161 0.72849202156066895 0.0067745731212198734
0.96875792741775513 0.69955170154571533 0.0066723693162202835
0.56830257177352905 0.91782969236373901 0.36769977211952209
0.67809230089187622 0.91378718614578247 0.39080813527107239
0.68618559837341309 0.91547423601150513 0.24034923315048218
0.73172271251678467 0.91787946224212646 0.11682652682065964
0.8120582103729248 0.91695880889892578 0.042322002351284027
0.91078507900238037 0.9116816520690918 0.007228597067296505
0.97452032566070557 0.89174699783325195 0.003922436386346817
0.65535205602645874 0.98292773962020874 0.49880394339561462
0.75116455554962158 0.98408085107803345 0.52705734968185425
0.74852776527404785 0.98296135663986206 0.3458421528339386
0.76599669456481934 0.98048609495162964 0.1817852109670639
0.82587891817092896 0.9783710241317749 0.07697778195142746
0.90222299098968506 0.98148709535598755 0.022169405594468117
0.97716641426086426 0.96824353933334351 0.0042149564251303673
0.20869125425815582 0.074293635785579681 0.21456243097782135
0.35208806395530701 0.04971744492650032 0.20930267870426178
0.53496032953262329 0.027343390509486198 0.20717988908290863
0.70458650588989258 0.014177479781210423 0.19371515512466431
0.82644718885421753 0.011247447691857815 0.19826067984104156
0.9112744927406311 0.0042167212814092636 0.17760400474071503
0.97812753915786743 0 0.15641164779663086
0.19264903664588928 0.16506564617156982 0.20815262198448181
0.37452176213264465 0.16551102697849274 0.21084649860858917
0.54086071252822876 0.12929666042327881 0.20603112876415253
0.705463707447052 0.090299017727375031 0.18162229657173157
0.82033056020736694 0.063874095678329468 0.15399211645126343
0.91130781173706055 0.037622548639774323 0.12025889754295349
0.97846412658691406 0.01728343591094017 0.094605855643749237
0.18739752471446991 0.32641002535820007 0.21144749224185944
0.3750152587890625 0.3258853554725647 0.21666052937507629
0.54499834775924683 0.31616774201393127 0.2025662362575531
0.70586776733398438 0.26074942946434021 0.16371569037437439
0.82614171504974365 0.20713908970355988 0.12950658798217773
0.91430246829986572 0.15591150522232056 0.097478501498699188
0.97952926158905029 0.1180126890540123 0.075665481388568878
0.29255101084709167 0.57466495037078857 0.26953616738319397
0.4617636501789093 0.5655510425567627 0.2884368896484375
0.60690540075302124 0.57168573141098022 0.2789585292339325
0.70388549566268921 0.56141549348831177 0.17421823740005493
0.82847064733505249 0.49469798803329468 0.11750084161758423
0.91510134935379028 0.41413417458534241 0.086516886949539185
0.98060047626495361 0.34635835886001587 0.064301416277885437
0.40433868765830994 0.78964346647262573 0.35615056753158569
0.56229853630065918 0.78709763288497925 0.38333615660667419
0.68396520614624023 0.78226429224014282 0.39625579118728638
0.73087203502655029 0.786540687084198 0.24835897982120514
0.82420319318771362 0.77763378620147705 0.12809416651725769
0.91504442691802979 0.71854686737060547 0.082095667719841003
0.97946810722351074 0.65786087512969971 0.060635272413492203
0.50538766384124756 0.91808116436004639 0.4681345522403717
0.65374672412872314 0.9156147837638855 0.50480461120605469
0.75331884622573853 0.91692948341369629 0.5328487753868103
0.76914232969284058 0.91512143611907959 0.34815141558647156
0.82250308990478516 0.916831374168396 0.1895088404417038
0.91356074810028076 0.91061270236968994 0.08647531270980835
0.98058801889419556 0.87573373317718506 0.056479673832654953
0.61012542247772217 0.98287838697433472 0.59590429067611694
0.72749453783035278 0.98278969526290894 0.64054340124130249
0.81256437301635742 0.98409199714660645 0.66936284303665161
0.81421828269958496 0.98266363143920898 0.46636179089546204
0.84501045942306519 0.98139476776123047 0.27896538376808167
0.9065590500831604 0.98023957014083862 0.14041586220264435
0.97608619928359985 0.97848749160766602 0.055266629904508591
0.2808665931224823 0.10824010521173477 0.43364429473876953
0.41093984246253967 0.082451790571212769 0.43773218989372253
0.55664503574371338 0.052758399397134781 0.43909981846809387
0.70671659708023071 0.028692582622170448 0.43015602231025696
0.82236647605895996 0.013697082176804543 0.42794245481491089
0.91247403621673584 0.0034921234473586082 0.40810865163803101
0.98085123300552368 0.00032671759254299104 0.39631634950637817
0.26632794737815857 0.21488277614116669 0.43774747848510742
0.43386897444725037 0.21746610105037689 0.43854418396949768
0.56765162944793701 0.17891335487365723 0.43815895915031433
0.70838171243667603 0.13066814839839935 0.43051576614379883
0.82388901710510254 0.092772632837295532 0.40004491806030273
0.91270822286605835 0.061421040445566177 0.35884705185890198
0.98176383972167969 0.032353628426790237 0.30592551827430725
0.24371729791164398 0.37484148144721985 0.43528613448143005
0.42673540115356445 0.37984681129455566 0.43536686897277832
0.58489906787872314 0.37982553243637085 0.44023916125297546
0.70547163486480713 0.32478085160255432 0.42568099498748779
0.82143557071685791 0.26103562116622925 0.38804343342781067
0.91233974695205688 0.19853022694587708 0.33585813641548157
0.98064893484115601 0.14892874658107758 0.27615123987197876
0.24530951678752899 0.58296215534210205 0.44709214568138123
0.42306271195411682 0.57486480474472046 0.44414868950843811
0.5856863260269165 0.58222705125808716 0.45015057921409607
0.71329641342163086 0.58094292879104614 0.42971158027648926
0.82824540138244629 0.50604766607284546 0.35965844988822937
0.91440945863723755 0.43291217088699341 0.29799363017082214
0.98196995258331299 0.35827955603599548 0.24231120944023132
0.33320707082748413 0.79107093811035156 0.51269626617431641
0.50799942016601562 0.78338992595672607 0.52140653133392334
0.6531718373298645 0.78554952144622803 0.53846335411071777
0.76115924119949341 0.78797870874404907 0.53464692831039429
0.83080261945724487 0.78133797645568848 0.36671414971351624
0.91497588157653809 0.73358690738677979 0.2818203866481781
0.98106890916824341 0.6584775447845459 0.22745627164840698
0.44590011239051819 0.91682577133178711 0.60926234722137451
0.60067594051361084 0.91390502452850342 0.62962228059768677
0.72510313987731934 0.91303485631942749 0.65797692537307739
0.81393587589263916 0.91689741611480713 0.67094320058822632
0.84885996580123901 0.91319042444229126 0.48089689016342163
0.9107816219329834 0.90617018938064575 0.29315289855003357
0.97962868213653564 0.87511157989501953 0.21661216020584106
0.54415422677993774 0.98128354549407959 0.71978217363357544
0.68229895830154419 0.98298001289367676 0.74537116289138794
0.78854858875274658 0.98382997512817383 0.77823197841644287
0.85949182510375977 0.98431867361068726 0.79687738418579102
0.87074857950210571 0.9833330512046814 0.61367237567901611
0.9121519923210144 0.98211240768432617 0.3899422287940979
0.98007863759994507 0.97571408748626709 0.22436191141605377
0.35334321856498718 0.1559787392616272 0.70857918262481689
0.46856561303138733 0.11681735515594482 0.70920610427856445
0.5920453667640686 0.083079531788825989 0.71124535799026489
0.71750617027282715 0.061243169009685516 0.70576077699661255
0.82197189331054688 0.027269789949059486 0.70376968383789062
0.9124637246131897 0.013060237281024456 0.69954520463943481
0.97415673732757568 0.0010106104891747236 0.67405462265014648
0.33279308676719666 0.27300408482551575 0.70424890518188477
0.49551397562026978 0.27543509006500244 0.70275956392288208
0.61341971158981323 0.23772680759429932 0.70570629835128784
0.72068279981613159 0.18247242271900177 0.70097339153289795
0.82671183347702026 0.13259135186672211 0.69348227977752686
0.91279822587966919 0.094018511474132538 0.69102537631988525
0.97982555627822876 0.063320234417915344 0.63349765539169312
0.31204479932785034 0.44340354204177856 0.70665526390075684
0.48813518881797791 0.45232492685317993 0.70848953723907471
0.63408899307250977 0.45745381712913513 0.70768672227859497
0.73147064447402954 0.39403524994850159 0.70572549104690552
0.82373505830764771 0.32281836867332458 0.70549261569976807
0.91404592990875244 0.25804731249809265 0.68110376596450806
0.98101663589477539 0.19717845320701599 0.62477737665176392
0.28960588574409485 0.62962716817855835 0.70058846473693848
0.46849760413169861 0.63233977556228638 0.70556116104125977
0.6234285831451416 0.63865780830383301 0.70853972434997559
0.74210947751998901 0.63263106346130371 0.70720654726028442
0.82998049259185791 0.57479262351989746 0.7011454701423645
0.91519606113433838 0.49427369236946106 0.6526719331741333
0.98106878995895386 0.41722643375396729 0.58290308713912964
0.29015049338340759 0.79930520057678223 0.72243309020996094
0.4680076539516449 0.79002797603607178 0.71437972784042358
0.62544095516204834 0.79720234870910645 0.72280341386795044
0.74949026107788086 0.80231821537017822 0.72444748878479004
0.83683758974075317 0.78783702850341797 0.70362496376037598
0.91471338272094727 0.73956871032714844 0.64517658948898315
0.9803205132484436 0.68240576982498169 0.56334018707275391
0.37813445925712585 0.91781628131866455 0.77438735961914062
0.54618477821350098 0.91436094045639038 0.77823895215988159
0.68619018793106079 0.91556507349014282 0.78824281692504883
0.79012846946716309 0.9182853102684021 0.80231589078903198
0.8660118579864502 0.91804450750350952 0.79243075847625732
0.91444146633148193 0.90873420238494873 0.62039929628372192
0.97989827394485474 0.87478142976760864 0.53121107816696167
0.48973354697227478 0.98324567079544067 0.85087865591049194
0.63579082489013672 0.98290443420410156 0.85711687803268433
0.75083637237548828 0.98278564214706421 0.87193286418914795
0.84359729290008545 0.98294997215270996 0.89623767137527466
0.90625768899917603 0.98420655727386475 0.90070682764053345
0.92463678121566772 0.98199164867401123 0.73746609687805176
0.97654706239700317 0.97868174314498901 0.55861258506774902
0.41945186257362366 0.19828763604164124 0.92118459939956665
0.52506691217422485 0.16233110427856445 0.92089128494262695
0.63189435005187988 0.11948985606431961 0.92022824287414551
0.73919463157653809 0.084807619452476501 0.91902583837509155
0.83297598361968994 0.050508253276348114 0.92081767320632935
0.91513228416442871 0.027294622734189034 0.90936082601547241
0.98046821355819702 0.01538136787712574 0.90870851278305054
0.40091156959533691 0.34282147884368896 0.92409414052963257
0.55956423282623291 0.35235235095024109 0.91446143388748169
0.65854370594024658 0.29596257209777832 0.91881078481674194
0.74425721168518066 0.23919735848903656 0.9161611795425415
0.83311301469802856 0.1763484925031662 0.91838914155960083
0.91508430242538452 0.13466636836528778 0.91478508710861206
0.97620081901550293 0.095276236534118652 0.89914262294769287
0.37826675176620483 0.51621949672698975 0.92360174655914307
0.54637020826339722 0.5293419361114502 0.92045670747756958
0.68246638774871826 0.53344541788101196 0.91448259353637695
0.76208961009979248 0.46809270977973938 0.92112904787063599
0.83869051933288574 0.39378431439399719 0.91398727893829346
0.91548460721969604 0.32049944996833801 0.91306281089782715
0.9816594123840332 0.25415700674057007 0.90321838855743408
0.35712689161300659 0.68922275304794312 0.9206889271736145
0.52593272924423218 0.69490271806716919 0.92002147436141968
0.6707267165184021 0.70282328128814697 0.92203855514526367
0.77284353971481323 0.69834285974502563 0.91858053207397461
0.8450813889503479 0.64296436309814453 0.92061352729797363
0.91534358263015747 0.57493633031845093 0.91451394557952881
0.97845149040222168 0.50059980154037476 0.89061683416366577
0.33799067139625549 0.82541161775588989 0.92093157768249512
0.50980418920516968 0.83033698797225952 0.91984885931015015
0.6561703085899353 0.83228230476379395 0.92125445604324341
0.77230417728424072 0.83220678567886353 0.92266994714736938
0.85054069757461548 0.82647716999053955 0.92285937070846558
0.91572278738021851 0.78780710697174072 0.91868126392364502
0.97238337993621826 0.74389100074768066 0.88576453924179077
0.32968020439147949 0.92149871587753296 0.92791098356246948
0.50522083044052124 0.91986322402954102 0.92702573537826538
0.66917961835861206 0.92264169454574585 0.9216846227645874
0.77677923440933228 0.91946160793304443 0.92108100652694702
0.86104327440261841 0.92259889841079712 0.93290716409683228
0.91845226287841797 0.91654181480407715 0.91647994518280029
0.97900307178497314 0.89313644170761108 0.86576426029205322
0.41996532678604126 0.98163020610809326 0.95584332942962646
0.5837891697883606 0.98288643360137939 0.95509755611419678
0.71022111177444458 0.98096901178359985 0.95249634981155396
0.81609523296356201 0.98272740840911865 0.96197104454040527
0.88987195491790771 0.98236608505249023 0.96556371450424194
0.94412225484848022 0.98008400201797485 0.96261453628540039
0.98109596967697144 0.97894144058227539 0.85261386632919312
0.47879654169082642 0.2531161904335022 0.99537777900695801
0.57592523097991943 0.21437254548072815 0.99556440114974976
0.6703001856803894 0.15585228800773621 0.99503576755523682
0.76593077182769775 0.1194337010383606 0.99331158399581909
0.84381920099258423 0.081101991236209869 0.99461382627487183
0.91580879688262939 0.045146584510803223 0.97977668046951294
0.97632110118865967 0.028383621945977211 0.987254798412323
0.45906370878219604 0.40533113479614258 0.98955971002578735
0.61287230253219604 0.42526441812515259 0.99118608236312866
0.69803333282470703 0.3599623441696167 0.99361354112625122
0.77786844968795776 0.29722902178764343 0.99149638414382935
0.84769326448440552 0.2276434451341629 0.99327915906906128
0.91637444496154785 0.17676401138305664 0.98864269256591797
0.97967261075973511 0.13232412934303284 0.98897868394851685
0.44879496097564697 0.57524353265762329 0.98975825309753418
0.60120469331741333 0.60154229402542114 0.99058371782302856
0.72156459093093872 0.60313612222671509 0.99143946170806885
0.79140675067901611 0.54020202159881592 0.99182748794555664
0.85446882247924805 0.46778541803359985 0.99094051122665405
0.91934263706207275 0.3935319185256958 0.98705101013183594
0.97931265830993652 0.31716811656951904 0.98883712291717529
0.42122909426689148 0.74360918998718262 0.99457991123199463
0.58429408073425293 0.75019806623458862 0.98835724592208862
0.71384245157241821 0.76235097646713257 0.99242597818374634
0.80524271726608276 0.75479316711425781 0.99224001169204712
0.86351066827774048 0.71375924348831177 0.99103105068206787
0.92040228843688965 0.63843685388565063 0.99426150321960449
0.97931420803070068 0.56650841236114502 0.99388927221298218
0.39480447769165039 0.85968649387359619 0.99480545520782471
0.56781798601150513 0.86650151014328003 0.98763233423233032
0.69824928045272827 0.85863661766052246 0.99176543951034546
0.79772043228149414 0.86479735374450684 0.98942524194717407
0.87380820512771606 0.86347091197967529 0.9917905330657959
0.92712640762329102 0.83058363199234009 0.99220067262649536
0.9813544750213623 0.77747303247451782 0.99227970838546753
0.37990108132362366 0.93208473920822144 0.99292176961898804
0.54772830009460449 0.93414402008056641 0.98776483535766602
0.68528938293457031 0.93384581804275513 0.98985618352890015
0.77990931272506714 0.93086415529251099 0.98803651332855225
0.86856323480606079 0.9371524453163147 0.9913867712020874
0.93054735660552979 0.93682658672332764 0.99250811338424683
0.98163235187530518 0.91636782884597778 0.98697376251220703
0.36986362934112549 0.97732162475585938 0.99570250511169434
0.54973804950714111 0.97917640209197998 0.99486976861953735
0.67877388000488281 0.98321038484573364 0.99512356519699097
0.78323960304260254 0.97982794046401978 0.99263042211532593
0.87188816070556641 0.98156154155731201 0.99525213241577148
0.93129217624664307 0.98470544815063477 0.99536609649658203
0.98094308376312256 0.98229455947875977 0.98782902956008911
