assets/lut/others instantc.cube
# Created by: G'MIC (https://gmic.eu)
TITLE "instantc"
# LUT size
LUT_3D_SIZE 7
# Data domain
DOMAIN_MIN 0.0 0.0 0.0
DOMAIN_MAX 1.0 1.0 1.0
# LUT data points
0.039873011410236359 0.04618135467171669 0.047418408095836639
0.077874414622783661 0.042446661740541458 0.034412384033203125
0.17278523743152618 0.046131867915391922 0.026589831337332726
0.26238259673118591 0.048824042081832886 0.022042158991098404
0.29776614904403687 0.04765382781624794 0.021803911775350571
0.33674237132072449 0.038715600967407227 0.016673577949404716
0.36771935224533081 0.033192623406648636 0.015686275437474251
0.030433265492320061 0.061876453459262848 0.04510803148150444
0.076024256646633148 0.06825573742389679 0.039639268070459366
0.20788970589637756 0.084987640380859375 0.029007811099290848
0.36282074451446533 0.092518463730812073 0.020535217598080635
0.45779988169670105 0.078994810581207275 0.015697943046689034
0.5162729024887085 0.062769092619419098 0.015686275437474251
0.55587291717529297 0.050539173185825348 0.019463513046503067
0.039391983300447464 0.12511424720287323 0.052785221487283707
0.090999051928520203 0.14299723505973816 0.050985686480998993
0.21516163647174835 0.16545052826404572 0.043533969670534134
0.41917049884796143 0.17896315455436707 0.026357479393482208
0.53828078508377075 0.13990142941474915 0.016696421429514885
0.60433530807495117 0.10515527427196503 0.019119083881378174
0.64615875482559204 0.091059185564517975 0.024498598650097847
0.15208779275417328 0.26309269666671753 0.056378681212663651
0.22155234217643738 0.28735217452049255 0.053429443389177322
0.28214612603187561 0.29687196016311646 0.050714023411273956
0.45623430609703064 0.31250089406967163 0.041099995374679565
0.64163577556610107 0.29506182670593262 0.028363965451717377
0.70993149280548096 0.23873332142829895 0.030188795179128647
0.73660904169082642 0.20112702250480652 0.034550834447145462
0.48108890652656555 0.48265314102172852 0.043243948370218277
0.50737106800079346 0.49203106760978699 0.043777018785476685
0.51090312004089355 0.48516619205474854 0.041424620896577835
0.54724889993667603 0.46680048108100891 0.046761665493249893
0.69968122243881226 0.46523392200469971 0.044807944446802139
0.81327700614929199 0.44309318065643311 0.047878984361886978
0.84905070066452026 0.40910047292709351 0.054864682257175446
0.76321697235107422 0.69213032722473145 0.06068522110581398
0.76296412944793701 0.68339967727661133 0.059495095163583755
0.7261844277381897 0.65970265865325928 0.052809201180934906
0.72194927930831909 0.63789284229278564 0.057085223495960236
0.80800867080688477 0.63211381435394287 0.067008957266807556
0.88541227579116821 0.61896723508834839 0.07642529159784317
0.93039864301681519 0.61724478006362915 0.091914653778076172
0.92780905961990356 0.82380396127700806 0.11585289239883423
0.92170631885528564 0.81505239009857178 0.10766804963350296
0.90138673782348633 0.80018705129623413 0.096435666084289551
0.88695859909057617 0.78170692920684814 0.09196026623249054
0.92219114303588867 0.77747553586959839 0.1039820984005928
0.95371341705322266 0.7711445689201355 0.11945243924856186
0.97440379858016968 0.76483851671218872 0.1348525732755661
0.029834149405360222 0.044194359332323074 0.060647372156381607
0.060832574963569641 0.046814668923616409 0.065071269869804382
0.14706145226955414 0.052090171724557877 0.06956896185874939
0.22784377634525299 0.054031744599342346 0.070790790021419525
0.27094480395317078 0.050896063446998596 0.063911139965057373
0.31784370541572571 0.040519446134567261 0.044284433126449585
0.35473364591598511 0.031714420765638351 0.023961219936609268
0.018054662272334099 0.065682880580425262 0.074597902595996857
0.067957170307636261 0.080862917006015778 0.078066788613796234
0.18875600397586823 0.092550881206989288 0.073822543025016785
0.33358550071716309 0.10284557193517685 0.063347265124320984
0.44138383865356445 0.090320482850074768 0.048520464450120926
0.49469378590583801 0.067141033709049225 0.033371809870004654
0.53044432401657104 0.046272113919258118 0.024488501250743866
0.025297725573182106 0.12766808271408081 0.090254843235015869
0.096067182719707489 0.16292199492454529 0.095130175352096558
0.25155812501907349 0.19220703840255737 0.084514349699020386
0.43891242146492004 0.19544236361980438 0.058933451771736145
0.57514947652816772 0.17125193774700165 0.043456986546516418
0.64001631736755371 0.1302526593208313 0.035750430077314377
0.6697458028793335 0.097423717379570007 0.033062580972909927
0.079383552074432373 0.26152294874191284 0.091874383389949799
0.23624494671821594 0.33078518509864807 0.09987061470746994
0.37582939863204956 0.35826534032821655 0.084833286702632904
0.54535871744155884 0.35805511474609375 0.061001226305961609
0.69619381427764893 0.32921397686004639 0.045012574642896652
0.75878643989562988 0.28439146280288696 0.042263209819793701
0.76644361019134521 0.22789515554904938 0.041855398565530777
0.35183054208755493 0.47799989581108093 0.075028516352176666
0.45417258143424988 0.52014577388763428 0.083275184035301208
0.56521618366241455 0.54597502946853638 0.075401589274406433
0.68326520919799805 0.55803316831588745 0.063672684133052826
0.79176312685012817 0.5374828577041626 0.058389041572809219
0.87285429239273071 0.51467609405517578 0.065473370254039764
0.88533705472946167 0.47028511762619019 0.070729076862335205
0.6490667462348938 0.67763358354568481 0.06591343879699707
0.69558411836624146 0.70053905248641968 0.073611423373222351
0.7487483024597168 0.70641911029815674 0.077258855104446411
0.81247437000274658 0.712779700756073 0.080090798437595367
0.89028447866439819 0.7143852710723877 0.087777711451053619
0.9437185525894165 0.71064239740371704 0.10622679442167282
0.96657198667526245 0.7078559398651123 0.1236896738409996
0.87004333734512329 0.8110661506652832 0.098421655595302582
0.89371484518051147 0.82261747121810913 0.1058899387717247
0.90039986371994019 0.82060909271240234 0.11070236563682556
0.91416352987289429 0.81924235820770264 0.11466438323259354
0.95066934823989868 0.82748687267303467 0.1305105984210968
0.97626727819442749 0.821563720703125 0.15111632645130157
0.98882782459259033 0.81777501106262207 0.16568513214588165
0.019590908661484718 0.052339218556880951 0.086305253207683563
0.039226517081260681 0.058843020349740982 0.10387888550758362
0.11814795434474945 0.054859086871147156 0.12578366696834564
0.20177894830703735 0.053368259221315384 0.13731908798217773
0.25431841611862183 0.051544606685638428 0.12853330373764038
0.30207869410514832 0.047666870057582855 0.11139903217554092
0.34196332097053528 0.037907961755990982 0.077677361667156219
0.019972467795014381 0.09034893661737442 0.131877601146698
0.043824214488267899 0.097103312611579895 0.13634113967418671
0.16785834729671478 0.10389897972345352 0.15716476738452911
0.29256945848464966 0.10001517087221146 0.14593969285488129
0.39469239115715027 0.099169589579105377 0.13788256049156189
0.44787156581878662 0.079633288085460663 0.11240005493164062
0.49033841490745544 0.049437936395406723 0.067265577614307404
0.019770573824644089 0.15045808255672455 0.17088431119918823
0.048189695924520493 0.16636601090431213 0.17683291435241699
0.21656090021133423 0.21677479147911072 0.20639297366142273
0.42542597651481628 0.23685306310653687 0.1963171660900116
0.57003355026245117 0.2203533947467804 0.17098765075206757
0.62455791234970093 0.17363980412483215 0.13286446034908295
0.65211498737335205 0.11547961086034775 0.078534685075283051
0.028808100149035454 0.23754701018333435 0.17390307784080505
0.10268808901309967 0.29931637644767761 0.19658960402011871
0.32451549172401428 0.38104873895645142 0.22305074334144592
0.54292029142379761 0.41429570317268372 0.18454115092754364
0.72380673885345459 0.40874671936035156 0.14548352360725403
0.78993368148803711 0.3813646137714386 0.13068349659442902
0.79110902547836304 0.30742347240447998 0.10414102673530579
0.15157550573348999 0.43972426652908325 0.16625049710273743
0.28325295448303223 0.50647401809692383 0.18930163979530334
0.4778175950050354 0.57355409860610962 0.20345281064510345
0.68360388278961182 0.61626332998275757 0.1672884076833725
0.82662004232406616 0.62038439512252808 0.12918338179588318
0.90325242280960083 0.60796666145324707 0.12414779514074326
0.91658872365951538 0.56616765260696411 0.11885979026556015
0.42859509587287903 0.64306730031967163 0.14603680372238159
0.51132118701934814 0.67773616313934326 0.15671339631080627
0.64687842130661011 0.72054791450500488 0.16807371377944946
0.78485912084579468 0.75287002325057983 0.16035537421703339
0.89968681335449219 0.77093493938446045 0.14990684390068054
0.95197445154190063 0.76583433151245117 0.14704307913780212
0.96944278478622437 0.75540006160736084 0.1644883006811142
0.74405795335769653 0.79068779945373535 0.11444850265979767
0.77664589881896973 0.80753612518310547 0.12602883577346802
0.82861912250518799 0.82688772678375244 0.14941999316215515
0.8877633810043335 0.83937346935272217 0.1615837961435318
0.94191557168960571 0.84842205047607422 0.17568713426589966
0.9753342866897583 0.84717899560928345 0.19388499855995178
0.98713499307632446 0.83806467056274414 0.1968926340341568
0.016839884221553802 0.055831894278526306 0.10285276174545288
0.026277653872966766 0.06743844598531723 0.12637956440448761
0.067412585020065308 0.065834492444992065 0.15371963381767273
0.14052523672580719 0.056745655834674835 0.17148797214031219
0.20936134457588196 0.054313927888870239 0.18040335178375244
0.26572319865226746 0.052447404712438583 0.17910285294055939
0.30394160747528076 0.046209074556827545 0.14659973978996277
0.017485421150922775 0.11024130880832672 0.19643320143222809
0.035660896450281143 0.12088403105735779 0.20927917957305908
0.105343297123909 0.11834248900413513 0.22673891484737396
0.26279988884925842 0.095314368605613708 0.24041265249252319
0.35946258902549744 0.086637280881404877 0.22927165031433105
0.40903639793395996 0.071656994521617889 0.20423591136932373
0.46115049719810486 0.049839332699775696 0.14842842519283295
0.017183102667331696 0.1869722306728363 0.29073908925056458
0.033040363341569901 0.19760841131210327 0.29654639959335327
0.097530052065849304 0.22822421789169312 0.32087114453315735
0.35365262627601624 0.23880144953727722 0.33681780099868774
0.51079344749450684 0.23375476896762848 0.32498174905776978
0.58886891603469849 0.20804169774055481 0.2934146523475647
0.64064174890518188 0.15195418894290924 0.22415998578071594
0.016960024833679199 0.25168910622596741 0.32705682516098022
0.03307679295539856 0.27556619048118591 0.36349830031394958
0.11299523711204529 0.33545714616775513 0.39488938450813293
0.4455011785030365 0.46249821782112122 0.45469403266906738
0.69157356023788452 0.49160757660865784 0.44582670927047729
0.77564853429794312 0.47990387678146362 0.43259134888648987
0.80359941720962524 0.42444917559623718 0.36274078488349915
0.032025057822465897 0.37063446640968323 0.33748850226402283
0.064412347972393036 0.42985177040100098 0.36115708947181702
0.17850281298160553 0.51814013719558716 0.39203307032585144
0.53430259227752686 0.64654016494750977 0.44412171840667725
0.78805756568908691 0.6905638575553894 0.42592912912368774
0.89226347208023071 0.69924449920654297 0.42163774371147156
0.9217146635055542 0.6807054877281189 0.40770265460014343
0.10477692633867264 0.5577700138092041 0.32953548431396484
0.20318979024887085 0.61860305070877075 0.33219090104103088
0.34964308142662048 0.68408095836639404 0.36535608768463135
0.64492475986480713 0.76977920532226562 0.40958958864212036
0.85594666004180908 0.80944728851318359 0.402931809425354
0.93927431106567383 0.81120985746383667 0.36319196224212646
0.97103226184844971 0.80090451240539551 0.34316998720169067
0.45435410737991333 0.75492709875106812 0.31294593214988708
0.53405541181564331 0.78226441144943237 0.31823673844337463
0.63911360502243042 0.80899369716644287 0.32291820645332336
0.7799028754234314 0.84772408008575439 0.35773828625679016
0.89789777994155884 0.86818993091583252 0.35500210523605347
0.96402204036712646 0.87686812877655029 0.35510990023612976
0.98611795902252197 0.86192840337753296 0.32112586498260498
0.012976792640984058 0.058615799993276596 0.1233757883310318
0.020322194322943687 0.070606216788291931 0.15329793095588684
0.037592284381389618 0.079016260802745819 0.18800799548625946
0.081004366278648376 0.073785804212093353 0.20925252139568329
0.11038462072610855 0.06546388566493988 0.2029758095741272
0.1660308837890625 0.063618816435337067 0.22408095002174377
0.2551305890083313 0.057128816843032837 0.23706012964248657
0.012110212817788124 0.12478137761354446 0.26886376738548279
0.02482949011027813 0.13111108541488647 0.28449416160583496
0.053250286728143692 0.13346195220947266 0.30443701148033142
0.15922696888446808 0.11066717654466629 0.32135629653930664
0.2592214047908783 0.082926206290721893 0.31998714804649353
0.34323185682296753 0.070248410105705261 0.3250700831413269
0.44886940717697144 0.061752934008836746 0.30425947904586792
0.011770450510084629 0.21175001561641693 0.40459558367729187
0.018222793936729431 0.21791741251945496 0.41646438837051392
0.039969097822904587 0.23649656772613525 0.43175762891769409
0.18152980506420135 0.25984543561935425 0.45066121220588684
0.39792695641517639 0.21930836141109467 0.45127388834953308
0.54329383373260498 0.20314708352088928 0.45731440186500549
0.64848697185516357 0.16114047169685364 0.41235074400901794
0.0082284519448876381 0.28689432144165039 0.50761109590530396
0.012146714143455029 0.29717844724655151 0.52793145179748535
0.032445527613162994 0.32764676213264465 0.54507237672805786
0.18960122764110565 0.4333750307559967 0.59415650367736816
0.56268233060836792 0.49819707870483398 0.61804831027984619
0.72954869270324707 0.49544498324394226 0.62000662088394165
0.80031681060791016 0.48432159423828125 0.5960700511932373
0.0092023508623242378 0.40816217660903931 0.57343113422393799
0.016510967165231705 0.44072422385215759 0.59340983629226685
0.041740700602531433 0.49060586094856262 0.61230719089508057
0.21985974907875061 0.60656261444091797 0.66368347406387329
0.71917569637298584 0.74228698015213013 0.72781610488891602
0.86026346683502197 0.76267725229263306 0.73026317358016968
0.90096849203109741 0.7596544623374939 0.7200857400894165
0.020212061703205109 0.53011703491210938 0.568534255027771
0.035760227590799332 0.56749063730239868 0.5795103907585144
0.074447616934776306 0.61706817150115967 0.59376847743988037
0.2579139769077301 0.71464914083480835 0.64013022184371948
0.75864118337631226 0.83673274517059326 0.70971417427062988
0.90315532684326172 0.85501879453659058 0.71043097972869873
0.95110630989074707 0.85495036840438843 0.70415937900543213
0.084749899804592133 0.67304587364196777 0.56190294027328491
0.10611531883478165 0.70285934209823608 0.59013992547988892
0.20698797702789307 0.74112910032272339 0.56959855556488037
0.48117083311080933 0.81986993551254272 0.61020147800445557
0.78213614225387573 0.88131612539291382 0.64711058139801025
0.92680424451828003 0.90122926235198975 0.65875375270843506
0.97259825468063354 0.90217143297195435 0.6522446870803833
0.011764706112444401 0.067115709185600281 0.14911322295665741
0.014618727378547192 0.077202819287776947 0.18051159381866455
0.023376764729619026 0.096020430326461792 0.24717879295349121
0.047928575426340103 0.098840512335300446 0.27033257484436035
0.071727514266967773 0.095991231501102448 0.28007182478904724
0.081082634627819061 0.086205467581748962 0.26001444458961487
0.13116323947906494 0.080306030809879303 0.281516432762146
0.011764706112444401 0.1412472277879715 0.33023750782012939
0.014776880852878094 0.14598886668682098 0.35815402865409851
0.024235459044575691 0.14899727702140808 0.37658625841140747
0.081071563065052032 0.14506971836090088 0.40777811408042908
0.13588352501392365 0.12428764253854752 0.4109521210193634
0.17738145589828491 0.10081124305725098 0.38676762580871582
0.31324923038482666 0.083611659705638885 0.41831865906715393
0.009573797695338726 0.22914515435695648 0.49476870894432068
0.0095598110929131508 0.23781244456768036 0.51585716009140015
0.013668389059603214 0.24866509437561035 0.52502429485321045
0.075198978185653687 0.26514160633087158 0.5266265869140625
0.21161267161369324 0.25176098942756653 0.53799581527709961
0.32933902740478516 0.19145362079143524 0.52460050582885742
0.56766283512115479 0.16189278662204742 0.55401521921157837
0.0073339873924851418 0.312468022108078 0.6064833402633667
0.0060530267655849457 0.31092098355293274 0.62117451429367065
0.014905772171914577 0.33674842119216919 0.63393205404281616
0.08295142650604248 0.41859561204910278 0.66496682167053223
0.33818194270133972 0.50109386444091797 0.68785232305526733
0.55039167404174805 0.47953689098358154 0.68705892562866211
0.76057827472686768 0.48241740465164185 0.70671224594116211
0.0040292777121067047 0.42142421007156372 0.68411934375762939
0.0082419002428650856 0.45151218771934509 0.69056862592697144
0.022100485861301422 0.49506908655166626 0.71294701099395752
0.11481066048145294 0.59512221813201904 0.74875718355178833
0.57976877689361572 0.73722749948501587 0.8045160174369812
0.77692282199859619 0.7613874077796936 0.80919373035430908
0.87347316741943359 0.77230513095855713 0.81421047449111938
0.0074822818860411644 0.55727040767669678 0.72470271587371826
0.013532048091292381 0.57875674962997437 0.73086065053939819
0.03350130096077919 0.61965495347976685 0.74622225761413574
0.13752560317516327 0.70045691728591919 0.77411955595016479
0.63259989023208618 0.82927858829498291 0.82898437976837158
0.86841708421707153 0.87365424633026123 0.8534243106842041
0.93176174163818359 0.88638699054718018 0.85892552137374878
0.020797878503799438 0.64241093397140503 0.7317889928817749
0.032995801419019699 0.66453200578689575 0.72994601726531982
0.058229483664035797 0.69748634099960327 0.73640197515487671
0.19928665459156036 0.77404320240020752 0.7700081467628479
0.61429792642593384 0.87082433700561523 0.80927616357803345
0.87104648351669312 0.91419041156768799 0.83534187078475952
0.95124977827072144 0.92586499452590942 0.84994244575500488
0.011764706112444401 0.082185275852680206 0.19441169500350952
0.011764706112444401 0.084599003195762634 0.20715747773647308
0.015344507992267609 0.10998798161745071 0.29148319363594055
0.030201302841305733 0.12766917049884796 0.34945568442344666
0.048252284526824951 0.12642127275466919 0.36025971174240112
0.057169325649738312 0.11702370643615723 0.34268814325332642
0.064550556242465973 0.10550118237733841 0.3140527606010437
0.011764706112444401 0.15699848532676697 0.4005199670791626
0.011682577431201935 0.162811279296875 0.41818729043006897
0.013938888907432556 0.17508101463317871 0.44852223992347717
0.029519025236368179 0.17858415842056274 0.47100639343261719
0.071669168770313263 0.16561953723430634 0.49236065149307251
0.1079321950674057 0.1464211493730545 0.4833284318447113
0.16374306380748749 0.12596581876277924 0.47051408886909485
0.0078431377187371254 0.24401204288005829 0.55324441194534302
0.0078431377187371254 0.24561858177185059 0.56595379114151001
0.010819214396178722 0.25583016872406006 0.57908505201339722
0.027425339445471764 0.26950567960739136 0.58491885662078857
0.095732279121875763 0.28855308890342712 0.59391903877258301
0.20837242901325226 0.25569337606430054 0.60021167993545532
0.34968698024749756 0.19631578028202057 0.60180985927581787
0.0041083539836108685 0.3217988908290863 0.67547869682312012
0.0039330576546490192 0.32392591238021851 0.66832298040390015
0.0091756638139486313 0.34448352456092834 0.68580526113510132
0.067598573863506317 0.44362831115722656 0.72127819061279297
0.23529611527919769 0.51900219917297363 0.73784399032592773
0.42092859745025635 0.53853482007980347 0.74448448419570923
0.60746979713439941 0.50695335865020752 0.74674457311630249
0.0023894964251667261 0.44802427291870117 0.74963957071304321
0.0075621660798788071 0.47636336088180542 0.74912220239639282
0.020970392972230911 0.51993322372436523 0.76403027772903442
0.13285332918167114 0.62962472438812256 0.80049002170562744
0.56798076629638672 0.76137769222259521 0.8481641411781311
0.72997069358825684 0.78371477127075195 0.84808164834976196
0.81002795696258545 0.78112703561782837 0.84819632768630981
0.0039694393053650856 0.56996607780456543 0.78948283195495605
0.011620406061410904 0.59801816940307617 0.79404175281524658
0.038145970553159714 0.64694178104400635 0.80723941326141357
0.18592135608196259 0.73263716697692871 0.83601784706115723
0.64684760570526123 0.84313702583312988 0.87695759534835815
0.85116612911224365 0.8857961893081665 0.89167076349258423
0.90675407648086548 0.89231675863265991 0.89561820030212402
0.012040860019624233 0.65551596879959106 0.80723351240158081
0.020057437941431999 0.67430227994918823 0.81063461303710938
0.051388069987297058 0.71034818887710571 0.81968510150909424
0.24520735442638397 0.80400127172470093 0.85444056987762451
0.62351793050765991 0.87417697906494141 0.87716716527938843
0.85247564315795898 0.91695272922515869 0.89880168437957764
0.93722885847091675 0.92960530519485474 0.90579074621200562
