assets/lut/others 60s faded.cube
# Created by: G'MIC (https://gmic.eu)
TITLE "60s_faded"
# LUT size
LUT_3D_SIZE 7
# Data domain
DOMAIN_MIN 0.0 0.0 0.0
DOMAIN_MAX 1.0 1.0 1.0
# LUT data points
0.49301111698150635 0.16871088743209839 0.15012037754058838
0.51980072259902954 0.17964868247509003 0.15648069977760315
0.58948689699172974 0.18399398028850555 0.16393646597862244
0.66336792707443237 0.19853916764259338 0.17037828266620636
0.73959040641784668 0.20242597162723541 0.18139423429965973
0.77352613210678101 0.21165315806865692 0.17939208447933197
0.76372289657592773 0.21551069617271423 0.18413680791854858
0.48572981357574463 0.28854268789291382 0.15392148494720459
0.51365572214126587 0.2922416627407074 0.15794675052165985
0.58905452489852905 0.30018386244773865 0.16694556176662445
0.67041629552841187 0.30721834301948547 0.17283478379249573
0.74111479520797729 0.31656980514526367 0.17728616297245026
0.77596503496170044 0.3253079354763031 0.18855898082256317
0.77381283044815063 0.33204668760299683 0.19409818947315216
0.46532240509986877 0.39710566401481628 0.16350322961807251
0.51698416471481323 0.3969065248966217 0.16569849848747253
0.58760744333267212 0.40134871006011963 0.16906338930130005
0.66963434219360352 0.40591922402381897 0.17084234952926636
0.73750966787338257 0.41368392109870911 0.17736238241195679
0.77902787923812866 0.4199182391166687 0.18649519979953766
0.78547590970993042 0.43000596761703491 0.19867774844169617
0.46681299805641174 0.49156901240348816 0.17329534888267517
0.51963108777999878 0.48932218551635742 0.17339888215065002
0.59309655427932739 0.48970118165016174 0.17251631617546082
0.67201834917068481 0.49020415544509888 0.17236579954624176
0.74135172367095947 0.49634245038032532 0.1812632828950882
0.77998977899551392 0.50102949142456055 0.1857338547706604
0.7978966236114502 0.50657010078430176 0.19141463935375214
0.46299755573272705 0.57315582036972046 0.18833358585834503
0.52293229103088379 0.57176673412322998 0.17791347205638885
0.59838426113128662 0.56967878341674805 0.17821185290813446
0.67606884241104126 0.56808966398239136 0.17456831037998199
0.74044263362884521 0.56849998235702515 0.1793719083070755
0.78174787759780884 0.57801300287246704 0.1838969886302948
0.81333762407302856 0.59167414903640747 0.20096813142299652
0.47100621461868286 0.63928067684173584 0.18361932039260864
0.53233736753463745 0.64584189653396606 0.19035986065864563
0.60580229759216309 0.63997972011566162 0.18374951183795929
0.6771705150604248 0.6387220025062561 0.18283315002918243
0.74376004934310913 0.64012181758880615 0.1822664737701416
0.78776705265045166 0.64192533493041992 0.18810239434242249
0.81182461977005005 0.65262311697006226 0.20474450290203094
0.45657014846801758 0.68154364824295044 0.20090830326080322
0.53506290912628174 0.69135832786560059 0.20067693293094635
0.61924993991851807 0.69908475875854492 0.2140086442232132
0.69636076688766479 0.69988292455673218 0.21619641780853271
0.75303328037261963 0.69775718450546265 0.20670858025550842
0.80398398637771606 0.68575745820999146 0.21578824520111084
0.84990102052688599 0.69749218225479126 0.22477595508098602
0.40094390511512756 0.26883703470230103 0.26576641201972961
0.50774151086807251 0.28070715069770813 0.29234710335731506
0.57923072576522827 0.28362977504730225 0.28900372982025146
0.66021299362182617 0.29344421625137329 0.29754039645195007
0.73623698949813843 0.30403009057044983 0.31196650862693787
0.79158085584640503 0.31290891766548157 0.31845319271087646
0.83024489879608154 0.33084595203399658 0.32986301183700562
0.42784020304679871 0.37022167444229126 0.30180174112319946
0.52045047283172607 0.38430675864219666 0.31078404188156128
0.60179620981216431 0.38633483648300171 0.31925204396247864
0.68346095085144043 0.39589869976043701 0.32978099584579468
0.74878138303756714 0.40562388300895691 0.33348831534385681
0.80755501985549927 0.41461515426635742 0.34058958292007446
0.85463470220565796 0.42227613925933838 0.34543418884277344
0.42717865109443665 0.46738266944885254 0.30639222264289856
0.51338332891464233 0.48205867409706116 0.31910455226898193
0.60167604684829712 0.4849713146686554 0.32194522023200989
0.68188971281051636 0.49063178896903992 0.32512655854225159
0.75221771001815796 0.49673324823379517 0.33369258046150208
0.79941534996032715 0.50328737497329712 0.33759784698486328
0.83613330125808716 0.50916987657546997 0.34177091717720032
0.42666071653366089 0.54169744253158569 0.30449742078781128
0.5305711030960083 0.56156939268112183 0.3266359269618988
0.6064448356628418 0.56434446573257446 0.3278658390045166
0.68454867601394653 0.56887876987457275 0.32568538188934326
0.75385302305221558 0.5753786563873291 0.33451387286186218
0.80483847856521606 0.57658034563064575 0.33674758672714233
0.85807502269744873 0.58559173345565796 0.3428114652633667
0.45612630248069763 0.6227191686630249 0.3170488178730011
0.52461493015289307 0.64290148019790649 0.33109673857688904
0.60959666967391968 0.63878518342971802 0.33083197474479675
0.68106168508529663 0.63898277282714844 0.32873901724815369
0.74613010883331299 0.64310568571090698 0.33218443393707275
0.80546599626541138 0.64848381280899048 0.33759987354278564
0.84559726715087891 0.65688091516494751 0.34860441088676453
0.43422132730484009 0.68985223770141602 0.31629586219787598
0.53766191005706787 0.70714700222015381 0.33078965544700623
0.61361938714981079 0.70912265777587891 0.33353540301322937
0.68502891063690186 0.70842450857162476 0.33156254887580872
0.74774563312530518 0.7077484130859375 0.33206894993782043
0.8033028244972229 0.70579290390014648 0.33764094114303589
0.86224031448364258 0.71497923135757446 0.34723091125488281
0.44663062691688538 0.7493937611579895 0.33487534523010254
0.54788750410079956 0.77454310655593872 0.35037419199943542
0.64366292953491211 0.76935380697250366 0.36989748477935791
0.70438015460968018 0.75871068239212036 0.36039716005325317
0.76573330163955688 0.77627754211425781 0.34542015194892883
0.81652975082397461 0.74960422515869141 0.3566526472568512
0.87248128652572632 0.77669292688369751 0.38812974095344543
0.40826386213302612 0.33494070172309875 0.41860130429267883
0.50860416889190674 0.34419196844100952 0.42204207181930542
0.60111725330352783 0.3369651734828949 0.43879467248916626
0.66491949558258057 0.34406265616416931 0.42597779631614685
0.73847794532775879 0.35801228880882263 0.44080615043640137
0.79790347814559937 0.36610254645347595 0.44214719533920288
0.84504324197769165 0.38322162628173828 0.45816692709922791
0.43636250495910645 0.4432063102722168 0.43613782525062561
0.52854412794113159 0.44840320944786072 0.43551075458526611
0.60221761465072632 0.44760653376579285 0.43776363134384155
0.67971444129943848 0.45463210344314575 0.44309741258621216
0.75250744819641113 0.46840468049049377 0.45299780368804932
0.81564074754714966 0.47090095281600952 0.45885059237480164
0.85616022348403931 0.48215359449386597 0.46443518996238708
0.42526695132255554 0.52589493989944458 0.42388683557510376
0.51982623338699341 0.53891092538833618 0.43539902567863464
0.61465543508529663 0.54609155654907227 0.44712170958518982
0.68553441762924194 0.55300086736679077 0.44822779297828674
0.75447291135787964 0.56250208616256714 0.45532199740409851
0.81643861532211304 0.56697207689285278 0.46330535411834717
0.86405950784683228 0.58245128393173218 0.47615846991539001
0.43694290518760681 0.60874384641647339 0.43340998888015747
0.52822834253311157 0.61615532636642456 0.44270569086074829
0.61126643419265747 0.62282359600067139 0.44713979959487915
0.69049555063247681 0.62668406963348389 0.45060339570045471
0.75907295942306519 0.63082236051559448 0.45541566610336304
0.81770414113998413 0.63606667518615723 0.4609469473361969
0.87827771902084351 0.64189225435256958 0.46299245953559875
0.43688678741455078 0.6738094687461853 0.42325204610824585
0.53848642110824585 0.69420546293258667 0.44517689943313599
0.620250403881073 0.69711226224899292 0.45282995700836182
0.68648487329483032 0.69929987192153931 0.4510263204574585
0.75668251514434814 0.7010113000869751 0.45478832721710205
0.81572961807250977 0.70670199394226074 0.46234226226806641
0.85681653022766113 0.71336835622787476 0.46357288956642151
0.4446566104888916 0.7343134880065918 0.43260791897773743
0.54128736257553101 0.75588053464889526 0.44978848099708557
0.61725115776062012 0.76114732027053833 0.45456847548484802
0.69367098808288574 0.76208603382110596 0.4557335376739502
0.75819706916809082 0.76423531770706177 0.45743891596794128
0.81772065162658691 0.76473993062973022 0.46112743020057678
0.86761420965194702 0.76574409008026123 0.46399644017219543
0.4462026059627533 0.79721176624298096 0.45612254738807678
0.54873347282409668 0.81738972663879395 0.46525758504867554
0.6444469690322876 0.82824957370758057 0.4827427864074707
0.71498030424118042 0.82582110166549683 0.47756180167198181
0.77516871690750122 0.83030474185943604 0.47561615705490112
0.83274549245834351 0.82780188322067261 0.47768419981002808
0.88127988576889038 0.81360703706741333 0.49035567045211792
0.42525458335876465 0.3920154869556427 0.53979390859603882
0.51247793436050415 0.40447160601615906 0.52531367540359497
0.60775518417358398 0.38819977641105652 0.54351925849914551
0.67227154970169067 0.38512000441551208 0.53139024972915649
0.73760414123535156 0.39283496141433716 0.5340999960899353
0.79909729957580566 0.40165287256240845 0.54207289218902588
0.84851491451263428 0.42207908630371094 0.5568128228187561
0.43426835536956787 0.48366299271583557 0.53041881322860718
0.52948367595672607 0.50224846601486206 0.54673486948013306
0.61365175247192383 0.50307130813598633 0.54628950357437134
0.68774551153182983 0.50449627637863159 0.54969948530197144
0.75861948728561401 0.51264047622680664 0.55830937623977661
0.81795340776443481 0.51794624328613281 0.56084549427032471
0.8685600757598877 0.53249549865722656 0.57186651229858398
0.43744343519210815 0.57754194736480713 0.53249549865722656
0.53305536508560181 0.5892680287361145 0.54541176557540894
0.61697369813919067 0.59415030479431152 0.55238789319992065
0.69236308336257935 0.60017508268356323 0.55383515357971191
0.76069438457489014 0.60340303182601929 0.55598980188369751
0.82107782363891602 0.60885316133499146 0.5635678768157959
0.86918407678604126 0.62188732624053955 0.57961344718933105
0.43703895807266235 0.65417909622192383 0.53879189491271973
0.53922384977340698 0.66495072841644287 0.55291783809661865
0.61720448732376099 0.67023879289627075 0.55283498764038086
0.69320154190063477 0.67425346374511719 0.55678325891494751
0.76353102922439575 0.67870640754699707 0.56104820966720581
0.82324552536010742 0.68410962820053101 0.56867522001266479
0.87176972627639771 0.69075417518615723 0.57148414850234985
0.44582259654998779 0.72369533777236938 0.5441054105758667
0.53114652633666992 0.7334287166595459 0.54759734869003296
0.61784261465072632 0.73929488658905029 0.55234843492507935
0.69438713788986206 0.7416151762008667 0.55830985307693481
0.76270616054534912 0.74598520994186401 0.56569057703018188
0.81715655326843262 0.75062102079391479 0.56858295202255249
0.85982429981231689 0.76482754945755005 0.58258020877838135
0.45820996165275574 0.7706332802772522 0.53403955698013306
0.54655271768569946 0.79475575685501099 0.55298888683319092
0.62438559532165527 0.80011475086212158 0.55870598554611206
0.70197862386703491 0.80183863639831543 0.56267678737640381
0.76733314990997314 0.80500829219818115 0.56832504272460938
0.82424205541610718 0.80773121118545532 0.56820380687713623
0.88246005773544312 0.80942392349243164 0.57224458456039429
0.42610308527946472 0.83418101072311401 0.53247177600860596
0.54817205667495728 0.84706717729568481 0.56762397289276123
0.63533109426498413 0.84940111637115479 0.57403159141540527
0.71371358633041382 0.85317105054855347 0.57862335443496704
0.78814518451690674 0.86064934730529785 0.59124481678009033
0.83804333209991455 0.86715757846832275 0.58837926387786865
0.86332809925079346 0.87298369407653809 0.5946725606918335
0.43231853842735291 0.44908961653709412 0.61664688587188721
0.52040445804595947 0.44053050875663757 0.6250188946723938
0.61272674798965454 0.44774535298347473 0.62865281105041504
0.68283993005752563 0.43428799510002136 0.62714636325836182
0.73997938632965088 0.44009625911712646 0.6249549388885498
0.80345577001571655 0.44300207495689392 0.63108944892883301
0.86256766319274902 0.45813819766044617 0.64086180925369263
0.44689288735389709 0.54195284843444824 0.63048994541168213
0.5363810658454895 0.55170911550521851 0.63938838243484497
0.62333935499191284 0.55416226387023926 0.63823443651199341
0.69185692071914673 0.55318540334701538 0.63884836435317993
0.75960707664489746 0.55484098196029663 0.64130717515945435
0.8150671124458313 0.56115931272506714 0.64540702104568481
0.8630555272102356 0.56885761022567749 0.65260660648345947
0.44772884249687195 0.61996454000473022 0.62315857410430908
0.5419037938117981 0.63687849044799805 0.63757050037384033
0.62190788984298706 0.64299911260604858 0.64061075448989868
0.69425630569458008 0.64400964975357056 0.64084792137145996
0.76395678520202637 0.64306771755218506 0.64250808954238892
0.81688737869262695 0.6517607569694519 0.64899420738220215
0.87161511182785034 0.66572093963623047 0.66281384229660034
0.44016000628471375 0.69005727767944336 0.61667299270629883
0.54659980535507202 0.70665961503982544 0.63540816307067871
0.62251096963882446 0.7153438925743103 0.639598548412323
0.69665485620498657 0.72063612937927246 0.64519160985946655
0.77045309543609619 0.7217329740524292 0.64828300476074219
0.82200568914413452 0.72610825300216675 0.65252685546875
0.88027608394622803 0.73437368869781494 0.66244882345199585
0.45138508081436157 0.76148086786270142 0.6290324330329895
0.54490435123443604 0.76737362146377563 0.63758885860443115
0.62274539470672607 0.77832710742950439 0.63921642303466797
0.70059108734130859 0.78244578838348389 0.64690053462982178
0.76982444524765015 0.7892831563949585 0.65392065048217773
0.81687307357788086 0.7918999195098877 0.65577483177185059
0.87138533592224121 0.79571455717086792 0.65947872400283813
0.44131103157997131 0.81356251239776611 0.61952751874923706
0.54580330848693848 0.83111602067947388 0.63834923505783081
0.62774491310119629 0.83531057834625244 0.64580374956130981
0.70421594381332397 0.84321510791778564 0.65295618772506714
0.76969003677368164 0.84588885307312012 0.65717196464538574
0.8178325891494751 0.84674042463302612 0.65787047147750854
0.87501263618469238 0.86079883575439453 0.66535025835037231
0.46727138757705688 0.85629349946975708 0.64960932731628418
0.57030081748962402 0.88907539844512939 0.66916042566299438
0.64814358949661255 0.89341908693313599 0.66337752342224121
0.71149319410324097 0.8894888162612915 0.6577257513999939
0.78975200653076172 0.89149242639541626 0.67398530244827271
0.8281090259552002 0.88687926530838013 0.66321170330047607
0.87318450212478638 0.89171373844146729 0.67258965969085693
0.43166822195053101 0.48006659746170044 0.67928475141525269
0.52287298440933228 0.4989573061466217 0.69019275903701782
0.62474161386489868 0.49521160125732422 0.71257901191711426
0.6897316575050354 0.49003952741622925 0.70693230628967285
0.75267934799194336 0.49501621723175049 0.70616024732589722
0.80395591259002686 0.49106001853942871 0.70707839727401733
0.85310500860214233 0.50099653005599976 0.71322059631347656
0.46945330500602722 0.58363938331604004 0.70858073234558105
0.55330389738082886 0.59398990869522095 0.71995836496353149
0.6327701210975647 0.59886223077774048 0.71911764144897461
0.69730877876281738 0.59866338968276978 0.71905887126922607
0.7610664963722229 0.59614652395248413 0.71898430585861206
0.81349879503250122 0.59932500123977661 0.72275710105895996
0.858856201171875 0.60701835155487061 0.72688406705856323
0.46943926811218262 0.66439348459243774 0.70794779062271118
0.55067819356918335 0.67638009786605835 0.72204792499542236
0.63374155759811401 0.68203186988830566 0.71914136409759521
0.70425647497177124 0.68418723344802856 0.72129327058792114
0.76651585102081299 0.68200200796127319 0.72111707925796509
0.81569623947143555 0.68725979328155518 0.72644889354705811
0.85748165845870972 0.69715309143066406 0.73463565111160278
0.46983423829078674 0.74238783121109009 0.70802706480026245
0.55882906913757324 0.74599909782409668 0.71550822257995605
0.63409864902496338 0.75170046091079712 0.71906745433807373
0.71239781379699707 0.7587045431137085 0.72628688812255859
0.77219527959823608 0.75787609815597534 0.727122962474823
0.81966370344161987 0.76153892278671265 0.72949695587158203
0.85998785495758057 0.76597326993942261 0.7342454195022583
0.49462762475013733 0.8071296215057373 0.71493631601333618
0.55395203828811646 0.80907464027404785 0.71519368886947632
0.63056391477584839 0.81267374753952026 0.71883761882781982
0.70570498704910278 0.8199533224105835 0.72706371545791626
0.77295893430709839 0.82401341199874878 0.73394173383712769
0.81785100698471069 0.82526129484176636 0.73543262481689453
0.86295920610427856 0.83033293485641479 0.73199862241744995
0.48180127143859863 0.85255706310272217 0.70183271169662476
0.55668669939041138 0.86827880144119263 0.71496784687042236
0.63165199756622314 0.87153643369674683 0.720550537109375
0.70653617382049561 0.87650483846664429 0.72877484560012817
0.7756577730178833 0.88116848468780518 0.73298555612564087
0.82892221212387085 0.88474529981613159 0.73991823196411133
0.83699661493301392 0.88954776525497437 0.74337029457092285
0.50622081756591797 0.88641458749771118 0.72064656019210815
0.56614464521408081 0.87704241275787354 0.72919803857803345
0.64106351137161255 0.88606268167495728 0.73617124557495117
0.72095745801925659 0.87744736671447754 0.74452072381973267
0.79329919815063477 0.90144890546798706 0.75094330310821533
0.83349084854125977 0.90039694309234619 0.75212562084197998
0.84212929010391235 0.90513026714324951 0.75312751531600952
0.49963021278381348 0.56542426347732544 0.77732062339782715
0.55726581811904907 0.56267374753952026 0.77234625816345215
0.63307923078536987 0.55704879760742188 0.78712308406829834
0.70192211866378784 0.55654454231262207 0.780769944190979
0.76901793479919434 0.55968916416168213 0.78825575113296509
0.8091435432434082 0.56047904491424561 0.78449130058288574
0.83705568313598633 0.55762004852294922 0.78959643840789795
0.53602057695388794 0.62704789638519287 0.78790700435638428
0.57364755868911743 0.63133162260055542 0.79175776243209839
0.63454985618591309 0.63471072912216187 0.79444867372512817
0.70444560050964355 0.63200390338897705 0.78843009471893311
0.7680400013923645 0.63665449619293213 0.79802215099334717
0.81375676393508911 0.63328278064727783 0.79724681377410889
0.81312662363052368 0.63785630464553833 0.7998960018157959
0.52413523197174072 0.70581197738647461 0.78487980365753174
0.57550632953643799 0.71127486228942871 0.7986830472946167
0.64112961292266846 0.71293658018112183 0.7942315936088562
0.71193999052047729 0.71393048763275146 0.79785811901092529
0.77380144596099854 0.71756148338317871 0.80287575721740723
0.81666308641433716 0.71470242738723755 0.79515254497528076
0.80025172233581543 0.71957552433013916 0.79856735467910767
0.56036877632141113 0.77351498603820801 0.78781729936599731
0.58290010690689087 0.7801438570022583 0.79153639078140259
0.64422929286956787 0.78202986717224121 0.7986636757850647
0.71824228763580322 0.78893429040908813 0.80731064081192017
0.77428686618804932 0.78919845819473267 0.80381119251251221
0.81566888093948364 0.79301059246063232 0.80686825513839722
0.80547153949737549 0.79100686311721802 0.80653232336044312
0.57087475061416626 0.83560603857040405 0.78921103477478027
0.58516430854797363 0.8415224552154541 0.79212427139282227
0.63946616649627686 0.84435129165649414 0.80144435167312622
0.71044981479644775 0.84888601303100586 0.80434346199035645
0.77843642234802246 0.85536223649978638 0.80800932645797729
0.81560701131820679 0.85890018939971924 0.81175523996353149
0.80311089754104614 0.85735052824020386 0.80941861867904663
0.58040565252304077 0.89377307891845703 0.79132223129272461
0.58223289251327515 0.89756172895431519 0.79718977212905884
0.64082956314086914 0.90011721849441528 0.79929721355438232
0.71762764453887939 0.90513020753860474 0.80783993005752563
0.78372484445571899 0.90921235084533691 0.81169289350509644
0.82273310422897339 0.91255182027816772 0.81391549110412598
0.78214752674102783 0.91328257322311401 0.81559848785400391
0.59224897623062134 0.9417911171913147 0.79269504547119141
0.58689993619918823 0.94466656446456909 0.79382991790771484
0.64207649230957031 0.94886678457260132 0.80263239145278931
0.71731430292129517 0.95370745658874512 0.8055998682975769
0.78196024894714355 0.95238333940505981 0.798675537109375
0.81773519515991211 0.96348333358764648 0.81618064641952515
0.7955135703086853 0.96398055553436279 0.81416100263595581
