assets/lut/others golden fade.cube
# Created by: G'MIC (https://gmic.eu)
TITLE "golden_fade"
# LUT size
LUT_3D_SIZE 5
# Data domain
DOMAIN_MIN 0.0 0.0 0.0
DOMAIN_MAX 1.0 1.0 1.0
# LUT data points
0.27862158417701721 0.12061171978712082 0.31530493497848511
0.53386086225509644 0.17014563083648682 0.35235652327537537
0.72700959444046021 0.21267035603523254 0.38031178712844849
0.86752694845199585 0.25993549823760986 0.41076108813285828
0.95514523983001709 0.27490618824958801 0.43168136477470398
0.40224155783653259 0.36565467715263367 0.38438749313354492
0.64831346273422241 0.40522381663322449 0.41486859321594238
0.8212776780128479 0.46863949298858643 0.44940200448036194
0.92310518026351929 0.51268261671066284 0.47206750512123108
0.96656101942062378 0.56698977947235107 0.50095599889755249
0.52778017520904541 0.61500632762908936 0.44603350758552551
0.76283019781112671 0.66498804092407227 0.48420953750610352
0.88942164182662964 0.71375298500061035 0.51065075397491455
0.9506797194480896 0.73854202032089233 0.51942640542984009
0.96700173616409302 0.7836834192276001 0.56201887130737305
0.62585353851318359 0.81826061010360718 0.49927410483360291
0.82920855283737183 0.84379822015762329 0.52873390913009644
0.92977255582809448 0.87338435649871826 0.56731432676315308
0.96324211359024048 0.88973623514175415 0.57526677846908569
0.96965569257736206 0.91845178604125977 0.61163979768753052
0.75505781173706055 0.98263406753540039 0.57832306623458862
0.90104460716247559 0.95978295803070068 0.60107254981994629
0.98531955480575562 0.98668009042739868 0.63296663761138916
0.96994751691818237 0.96838146448135376 0.65732598304748535
0.96780169010162354 0.96726804971694946 0.68740379810333252
0.25364536046981812 0.10419896245002747 0.38883307576179504
0.5304790735244751 0.14557236433029175 0.42460229992866516
0.72721987962722778 0.18406964838504791 0.45392778515815735
0.86487102508544922 0.21121963858604431 0.47623467445373535
0.96104162931442261 0.24936129152774811 0.50634497404098511
0.4255928099155426 0.38397246599197388 0.46991336345672607
0.68655139207839966 0.44476026296615601 0.50228589773178101
0.84123212099075317 0.49098533391952515 0.53286033868789673
0.93868619203567505 0.52083373069763184 0.55500692129135132
0.98682355880737305 0.57910275459289551 0.58530235290527344
0.53666001558303833 0.63261240720748901 0.53091394901275635
0.77239245176315308 0.67981356382369995 0.55977445840835571
0.91059249639511108 0.7304990291595459 0.59641003608703613
0.9778704047203064 0.74442499876022339 0.6133110523223877
0.98407441377639771 0.79938274621963501 0.64187157154083252
0.6347234845161438 0.83685421943664551 0.58505880832672119
0.85020864009857178 0.87328058481216431 0.62120920419692993
0.94789266586303711 0.89867264032363892 0.65172374248504639
0.98682314157485962 0.9164193868637085 0.67581725120544434
0.9880836009979248 0.95135825872421265 0.70489752292633057
0.76632404327392578 0.99469411373138428 0.66384983062744141
0.92938244342803955 0.98325014114379883 0.69513249397277832
0.98366135358810425 0.9882320761680603 0.70968097448348999
0.98607659339904785 0.98331910371780396 0.7446485161781311
0.98514604568481445 0.9829714298248291 0.77385842800140381
0.27123048901557922 0.11165556311607361 0.47475606203079224
0.54821056127548218 0.15466718375682831 0.51044654846191406
0.74072587490081787 0.19008900225162506 0.53673350811004639
0.88257086277008057 0.23001007735729218 0.56527125835418701
0.97950321435928345 0.27723994851112366 0.59176486730575562
0.44540703296661377 0.39909785985946655 0.55632209777832031
0.69472575187683105 0.45045009255409241 0.5861135721206665
0.85925668478012085 0.5128600001335144 0.6180533766746521
0.95606857538223267 0.55096578598022461 0.64344638586044312
0.99401527643203735 0.59591221809387207 0.67152959108352661
0.5536385178565979 0.64652585983276367 0.61302918195724487
0.78225076198577881 0.70042520761489868 0.64838379621505737
0.92007529735565186 0.74032831192016602 0.6789175271987915
0.99050164222717285 0.78290975093841553 0.71061599254608154
0.99260514974594116 0.82409918308258057 0.72962254285812378
0.64952152967453003 0.85001856088638306 0.67045551538467407
0.87604504823684692 0.90198808908462524 0.71141749620437622
0.96573281288146973 0.91810375452041626 0.73600625991821289
0.991782546043396 0.93414866924285889 0.76029855012893677
0.99434852600097656 0.95882439613342285 0.79127413034439087
0.76707679033279419 0.99474847316741943 0.7413022518157959
0.9407958984375 0.98948001861572266 0.77987831830978394
0.97822868824005127 0.97922682762145996 0.77085214853286743
0.99152052402496338 0.98114866018295288 0.78653407096862793
0.99301975965499878 0.98982971906661987 0.82899731397628784
0.29666125774383545 0.12155212461948395 0.55792826414108276
0.56847083568572998 0.16647650301456451 0.59104317426681519
0.74844777584075928 0.19934535026550293 0.61738842725753784
0.88359564542770386 0.2412431538105011 0.64421814680099487
0.9656335711479187 0.27207168936729431 0.66733163595199585
0.46148377656936646 0.40897414088249207 0.63528072834014893
0.70234912633895874 0.45693537592887878 0.66430211067199707
0.85551899671554565 0.5153006911277771 0.69876563549041748
0.95343708992004395 0.55974316596984863 0.72115319967269897
0.99446195363998413 0.62103855609893799 0.75485527515411377
0.57750195264816284 0.65766948461532593 0.69557434320449829
0.79954820871353149 0.71737027168273926 0.73228400945663452
0.92315089702606201 0.75240415334701538 0.76114082336425781
0.97398179769515991 0.77554655075073242 0.78068071603775024
0.99544006586074829 0.8117632269859314 0.80881452560424805
0.67589026689529419 0.8545718789100647 0.75314456224441528
0.87261366844177246 0.90431833267211914 0.79252403974533081
0.96148443222045898 0.91743940114974976 0.81313538551330566
0.98570817708969116 0.93235307931900024 0.8330722451210022
0.99256891012191772 0.94637435674667358 0.85546970367431641
0.77553027868270874 0.99395143985748291 0.82635194063186646
0.93762338161468506 0.98329609632492065 0.85363638401031494
0.969035804271698 0.95760083198547363 0.82307058572769165
0.98456478118896484 0.95861339569091797 0.83188962936401367
0.99558085203170776 0.99149870872497559 0.87379199266433716
0.29669979214668274 0.12303697317838669 0.62274956703186035
0.56672912836074829 0.17366123199462891 0.65375381708145142
0.74664163589477539 0.20267528295516968 0.68189477920532227
0.86991304159164429 0.24004128575325012 0.70409363508224487
0.95055204629898071 0.2711237370967865 0.72903764247894287
0.46612045168876648 0.41574898362159729 0.70461863279342651
0.70994532108306885 0.46606963872909546 0.72886013984680176
0.85004478693008423 0.51850759983062744 0.76113361120223999
0.93788760900497437 0.55027574300765991 0.78151601552963257
0.97017872333526611 0.60210871696472168 0.81437122821807861
0.57258409261703491 0.65781897306442261 0.76238906383514404
0.79463809728622437 0.70823198556900024 0.78612369298934937
0.9109349250793457 0.7491115927696228 0.82109373807907104
0.97189652919769287 0.78460568189620972 0.84235554933547974
0.97202593088150024 0.82887500524520874 0.85165214538574219
0.6678280234336853 0.84743386507034302 0.81714439392089844
0.87014102935791016 0.88832312822341919 0.85040706396102905
0.94679754972457886 0.90103739500045776 0.84734612703323364
0.97009032964706421 0.91957610845565796 0.8505433201789856
0.97453343868255615 0.95037692785263062 0.85493642091751099
0.77708727121353149 0.9728284478187561 0.86138671636581421
0.93357986211776733 0.97977650165557861 0.86569559574127197
0.95839071273803711 0.96275383234024048 0.85206449031829834
0.96925961971282959 0.96332615613937378 0.85098040103912354
0.96412420272827148 0.96119791269302368 0.84825462102890015
