assets/lut/others expired polaroid.cube
# Created by: G'MIC (https://gmic.eu)
TITLE "expired_polaroid"
# LUT size
LUT_3D_SIZE 5
# Data domain
DOMAIN_MIN 0.0 0.0 0.0
DOMAIN_MAX 1.0 1.0 1.0
# LUT data points
0.42800945043563843 0.26184657216072083 0.10062351822853088
0.52548044919967651 0.29116204380989075 0.11873984336853027
0.61908805370330811 0.30802181363105774 0.13828478753566742
0.71400803327560425 0.31718090176582336 0.16611066460609436
0.80414700508117676 0.32808423042297363 0.18118886649608612
0.42751729488372803 0.33685025572776794 0.099878288805484772
0.52607673406600952 0.36760234832763672 0.11925485730171204
0.6226000189781189 0.38694697618484497 0.1399075984954834
0.71947216987609863 0.40222141146659851 0.16563260555267334
0.81253790855407715 0.41652429103851318 0.18533121049404144
0.42551532387733459 0.41918298602104187 0.10109930485486984
0.52369982004165649 0.43608686327934265 0.11331562697887421
0.62016677856445312 0.45535504817962646 0.13440054655075073
0.71670562028884888 0.47556880116462708 0.16003359854221344
0.81067264080047607 0.49379763007164001 0.18333061039447784
0.43695086240768433 0.51165962219238281 0.11431187391281128
0.52977406978607178 0.51812756061553955 0.11991599947214127
0.61870318651199341 0.52816355228424072 0.13156570494174957
0.71265238523483276 0.54807174205780029 0.15463352203369141
0.80648022890090942 0.56868672370910645 0.18057005107402802
0.45210906863212585 0.60551166534423828 0.12833860516548157
0.53937393426895142 0.60841876268386841 0.13085256516933441
0.61923134326934814 0.6085171103477478 0.13255858421325684
0.71157830953598022 0.62677609920501709 0.15195412933826447
0.80507874488830566 0.64754015207290649 0.17687894403934479
0.44459199905395508 0.28030833601951599 0.19487926363945007
0.54604446887969971 0.30817693471908569 0.21707721054553986
0.6441771388053894 0.32913336157798767 0.24153921008110046
0.74297428131103516 0.34782135486602783 0.26912230253219604
0.83630836009979248 0.36467087268829346 0.28690394759178162
0.44482013583183289 0.36134764552116394 0.19696404039859772
0.54517018795013428 0.38524514436721802 0.21777597069740295
0.64494425058364868 0.40705865621566772 0.24190996587276459
0.74554431438446045 0.42908173799514771 0.26924735307693481
0.84171152114868164 0.44893598556518555 0.29084131121635437
0.44064727425575256 0.44059118628501892 0.19754791259765625
0.54056590795516968 0.45458346605300903 0.2152220755815506
0.63986712694168091 0.47454744577407837 0.23619905114173889
0.73946744203567505 0.4993709921836853 0.26253563165664673
0.83657562732696533 0.52222585678100586 0.28852492570877075
0.45645231008529663 0.52910584211349487 0.21490275859832764
0.5474541187286377 0.5329822301864624 0.2212543785572052
0.63855159282684326 0.54658728837966919 0.23092031478881836
0.73474264144897461 0.57095789909362793 0.25517332553863525
0.83117574453353882 0.59615474939346313 0.2854866087436676
0.47864553332328796 0.62340652942657471 0.23120969533920288
0.56170141696929932 0.62428760528564453 0.22774720191955566
0.64386332035064697 0.63013064861297607 0.22927886247634888
0.73520767688751221 0.65080487728118896 0.25180056691169739
0.82947564125061035 0.67568767070770264 0.2837679386138916
0.45620420575141907 0.29249772429466248 0.28295373916625977
0.55901408195495605 0.31708955764770508 0.30652296543121338
0.65955209732055664 0.34048935770988464 0.33189499378204346
0.76042962074279785 0.36726418137550354 0.35842022299766541
0.85660547018051147 0.39005196094512939 0.37879425287246704
0.46175023913383484 0.38099488615989685 0.29167875647544861
0.56161057949066162 0.39991867542266846 0.31222787499427795
0.66201353073120117 0.421886146068573 0.33641430735588074
0.76351803541183472 0.44836238026618958 0.36325019598007202
0.8613399863243103 0.47144865989685059 0.38610649108886719
0.46074491739273071 0.46109998226165771 0.29702311754226685
0.55839282274246216 0.47229704260826111 0.31531745195388794
0.6571575403213501 0.49251803755760193 0.33520874381065369
0.75735807418823242 0.51883906126022339 0.36019223928451538
0.85575693845748901 0.54279369115829468 0.38607385754585266
0.47655045986175537 0.54619318246841431 0.31389766931533813
0.56425982713699341 0.54693090915679932 0.32277446985244751
0.6560097336769104 0.56462514400482178 0.33127442002296448
0.75200474262237549 0.58974301815032959 0.35342064499855042
0.84932518005371094 0.614146888256073 0.38285741209983826
0.50158816576004028 0.64053016901016235 0.32758918404579163
0.57997316122055054 0.64077603816986084 0.32018804550170898
0.66341853141784668 0.64941775798797607 0.3269505500793457
0.75378024578094482 0.66786020994186401 0.34900620579719543
0.84696435928344727 0.69040685892105103 0.3804534375667572
0.46580877900123596 0.30023613572120667 0.36584076285362244
0.56765389442443848 0.32104676961898804 0.38911041617393494
0.66646081209182739 0.34232226014137268 0.41382178664207458
0.76494413614273071 0.3704012930393219 0.43699973821640015
0.85852789878845215 0.39262664318084717 0.45551607012748718
0.47899320721626282 0.39559069275856018 0.3824525773525238
0.57754623889923096 0.41330975294113159 0.40155825018882751
0.67560464143753052 0.43346965312957764 0.42489922046661377
0.77572000026702881 0.45950567722320557 0.44960781931877136
0.87329578399658203 0.48211982846260071 0.47143414616584778
0.48414131999015808 0.4815070629119873 0.39407390356063843
0.58014333248138428 0.49536803364753723 0.41088244318962097
0.67553615570068359 0.51385033130645752 0.43126574158668518
0.77538162469863892 0.5381743311882019 0.45476412773132324
0.87535923719406128 0.5600736141204834 0.47859093546867371
0.50087326765060425 0.56900483369827271 0.41046601533889771
0.58697795867919922 0.57532733678817749 0.42161190509796143
0.67566001415252686 0.59074097871780396 0.43419238924980164
0.77097815275192261 0.61179858446121216 0.45283439755439758
0.87007123231887817 0.63131499290466309 0.47703725099563599
0.52631938457489014 0.66282051801681519 0.42443883419036865
0.60269993543624878 0.66513395309448242 0.42561274766921997
0.68441128730773926 0.67397856712341309 0.43409574031829834
0.7738075852394104 0.68666344881057739 0.44943326711654663
0.86805593967437744 0.70111203193664551 0.47122731804847717
0.4706299901008606 0.30263516306877136 0.44591262936592102
0.57221275568008423 0.32308807969093323 0.46957996487617493
0.66894495487213135 0.34272149205207825 0.49302062392234802
0.76353830099105835 0.3678375780582428 0.51224684715270996
0.85357511043548584 0.38765725493431091 0.52735036611557007
0.49200344085693359 0.40355592966079712 0.4708561897277832
0.59060913324356079 0.42324537038803101 0.49014151096343994
0.68678301572799683 0.4432063102722168 0.51186943054199219
0.78486311435699463 0.46705609560012817 0.53339207172393799
0.88149547576904297 0.48759868741035461 0.55274039506912231
0.50877285003662109 0.4967685341835022 0.49415254592895508
0.60219627618789673 0.5154043436050415 0.50907057523727417
0.69460415840148926 0.53423774242401123 0.52788645029067993
0.7947920560836792 0.55701756477355957 0.54849785566329956
0.89803755283355713 0.5781242847442627 0.56960016489028931
0.53082758188247681 0.59113216400146484 0.51442205905914307
0.61421889066696167 0.60310459136962891 0.52727723121643066
0.6982915997505188 0.61827033758163452 0.53989702463150024
0.79369735717773438 0.6381453275680542 0.55510622262954712
0.89420932531356812 0.65494817495346069 0.57409864664077759
0.5579601526260376 0.68775975704193115 0.52870917320251465
0.63160854578018188 0.69279485940933228 0.53921890258789062
0.70927006006240845 0.70218110084533691 0.54563182592391968
0.79653632640838623 0.7150341272354126 0.55716371536254883
0.88951563835144043 0.72795951366424561 0.57465565204620361
