assets/lut/others expired fade.cube
# Created by: G'MIC (https://gmic.eu)
TITLE "expired_fade"
# LUT size
LUT_3D_SIZE 7
# Data domain
DOMAIN_MIN 0.0 0.0 0.0
DOMAIN_MAX 1.0 1.0 1.0
# LUT data points
0.21707382798194885 0.12044046074151993 0.022406110540032387
0.27535617351531982 0.12818746268749237 0.027601264417171478
0.38990718126296997 0.16601109504699707 0.054141610860824585
0.54046732187271118 0.2337128221988678 0.10424273461103439
0.69565010070800781 0.31377905607223511 0.16880150139331818
0.82388889789581299 0.38315412402153015 0.23064564168453217
0.91473740339279175 0.43339040875434875 0.28037244081497192
0.23294843733310699 0.17339850962162018 0.031512286514043808
0.28010654449462891 0.17320063710212708 0.029730807989835739
0.38070416450500488 0.20204439759254456 0.048520404845476151
0.52991735935211182 0.26654648780822754 0.094010628759860992
0.69016242027282715 0.34509861469268799 0.15802572667598724
0.82369011640548706 0.41240119934082031 0.22098609805107117
0.91502690315246582 0.4678337574005127 0.27539864182472229
0.27705687284469604 0.27487668395042419 0.056473031640052795
0.31490445137023926 0.26512986421585083 0.051222380250692368
0.39524948596954346 0.27658742666244507 0.057393781840801239
0.52927428483963013 0.32523694634437561 0.088143430650234222
0.68833273649215698 0.39645972847938538 0.14918607473373413
0.82351279258728027 0.46096837520599365 0.20986488461494446
0.91573327779769897 0.51403450965881348 0.26056888699531555
0.3479156494140625 0.40823566913604736 0.10423718392848969
0.38361728191375732 0.40221205353736877 0.098143860697746277
0.44630035758018494 0.40234649181365967 0.091480821371078491
0.55004346370697021 0.42264431715011597 0.097875304520130157
0.69042325019836426 0.4701964259147644 0.1392962634563446
0.81996721029281616 0.52637147903442383 0.19219550490379333
0.9167400598526001 0.57658833265304565 0.24227632582187653
0.43137308955192566 0.54709386825561523 0.16671998798847198
0.46795409917831421 0.54793190956115723 0.16152606904506683
0.52243137359619141 0.54669570922851562 0.14994069933891296
0.60159575939178467 0.54680508375167847 0.13579192757606506
0.70144128799438477 0.55640840530395508 0.13665013015270233
0.81296467781066895 0.59567725658416748 0.17219261825084686
0.91187953948974609 0.64172244071960449 0.22137464582920074
0.51179641485214233 0.66833752393722534 0.23016393184661865
0.54588037729263306 0.66966903209686279 0.22417262196540833
0.59762173891067505 0.66832691431045532 0.21067096292972565
0.66915112733840942 0.66542530059814453 0.19230890274047852
0.74790835380554199 0.66367954015731812 0.177488774061203
0.82894796133041382 0.67827725410461426 0.1821446418762207
0.91038745641708374 0.70394688844680786 0.20880773663520813
0.576671302318573 0.75845474004745483 0.28437355160713196
0.60758340358734131 0.75821125507354736 0.27565571665763855
0.65619182586669922 0.75710785388946533 0.2612936794757843
0.7243921160697937 0.75710785388946533 0.24408261477947235
0.79998993873596191 0.75922191143035889 0.22805923223495483
0.86373978853225708 0.75763875246047974 0.21246787905693054
0.9238092303276062 0.76311498880386353 0.21402625739574432
0.23312132060527802 0.13025292754173279 0.058287691324949265
0.27868035435676575 0.12897795438766479 0.056949060410261154
0.38791513442993164 0.15998907387256622 0.080138564109802246
0.54314130544662476 0.22685162723064423 0.13214921951293945
0.69705158472061157 0.3054816722869873 0.19802141189575195
0.82143330574035645 0.37515786290168762 0.25819724798202515
0.91404610872268677 0.42946654558181763 0.30746141076087952
0.23461270332336426 0.17705102264881134 0.063298769295215607
0.27585408091545105 0.17081190645694733 0.056798793375492096
0.37474307417869568 0.19350956380367279 0.072871491312980652
0.53033053874969482 0.25799781084060669 0.12147590517997742
0.6961066722869873 0.34142729640007019 0.18974989652633667
0.82535725831985474 0.40899527072906494 0.24978542327880859
0.91736632585525513 0.46345749497413635 0.30006134510040283
0.26783105731010437 0.27131587266921997 0.087435752153396606
0.30575212836265564 0.26305338740348816 0.07927347719669342
0.38868227601051331 0.27092710137367249 0.081136353313922882
0.52749621868133545 0.3159349262714386 0.11270123720169067
0.69195818901062012 0.39067080616950989 0.17716056108474731
0.82806211709976196 0.45638900995254517 0.23705893754959106
0.91518080234527588 0.50751471519470215 0.2851753830909729
0.33594083786010742 0.40615090727806091 0.13561734557151794
0.37600204348564148 0.40401515364646912 0.1300644725561142
0.44169503450393677 0.40247383713722229 0.11949009448289871
0.55072379112243652 0.41762205958366394 0.1230894923210144
0.69632607698440552 0.46913272142410278 0.17070850729942322
0.82536166906356812 0.52460569143295288 0.2251017838716507
0.91789215803146362 0.57148092985153198 0.27114683389663696
0.42143258452415466 0.5500912070274353 0.19703972339630127
0.46090918779373169 0.55401337146759033 0.19368050992488861
0.5214117169380188 0.55348581075668335 0.18223528563976288
0.60680508613586426 0.55298209190368652 0.16891014575958252
0.70947515964508057 0.56516939401626587 0.17724153399467468
0.81943166255950928 0.6003386378288269 0.21184352040290833
0.91459280252456665 0.64209151268005371 0.25502282381057739
0.49953022599220276 0.67192715406417847 0.25817409157752991
0.53585302829742432 0.6744920015335083 0.25258466601371765
0.59382170438766479 0.67484444379806519 0.23988667130470276
0.67085856199264526 0.67198103666305542 0.22391849756240845
0.74762743711471558 0.6669914722442627 0.21053948998451233
0.83064252138137817 0.68154305219650269 0.21730339527130127
0.91388970613479614 0.70774835348129272 0.24428138136863708
0.55725294351577759 0.7595217227935791 0.30765801668167114
0.59275162220001221 0.76071393489837646 0.29942801594734192
0.64682382345199585 0.75958776473999023 0.28557893633842468
0.71998590230941772 0.75639480352401733 0.26845008134841919
0.79704087972640991 0.75686168670654297 0.25558605790138245
0.86535811424255371 0.75839477777481079 0.24481296539306641
0.92185008525848389 0.76307237148284912 0.2459522932767868
0.2768867015838623 0.16834381222724915 0.14011164009571075
0.31888192892074585 0.16204245388507843 0.13417531549930573
0.40586662292480469 0.17061127722263336 0.14484775066375732
0.54245448112487793 0.2139810174703598 0.18259385228157043
0.68839561939239502 0.28228172659873962 0.23933367431163788
0.8113672137260437 0.35246384143829346 0.29483416676521301
0.9112861156463623 0.41594865918159485 0.34467527270317078
0.27008336782455444 0.20872765779495239 0.13839638233184814
0.30592292547225952 0.19791941344738007 0.12881788611412048
0.38769674301147461 0.20067256689071655 0.13399174809455872
0.5319254994392395 0.24796424806118011 0.17395403981208801
0.69388693571090698 0.3250332772731781 0.23693031072616577
0.81800675392150879 0.38984295725822449 0.28984251618385315
0.91351497173309326 0.44964957237243652 0.33841851353645325
0.28306165337562561 0.28645983338356018 0.1512773185968399
0.31795084476470947 0.27764970064163208 0.14197508990764618
0.39566129446029663 0.27819588780403137 0.14104530215263367
0.5308462381362915 0.31207993626594543 0.16870002448558807
0.68871003389358521 0.37695342302322388 0.22464288771152496
0.81983429193496704 0.44012248516082764 0.27992251515388489
0.91383898258209229 0.4953785240650177 0.32734957337379456
0.32707127928733826 0.40587183833122253 0.18552553653717041
0.37361809611320496 0.40904727578163147 0.18366807699203491
0.44268509745597839 0.40574502944946289 0.17449156939983368
0.55250793695449829 0.41755783557891846 0.17909489572048187
0.69060212373733521 0.45889365673065186 0.21914474666118622
0.82013952732086182 0.51339197158813477 0.27349439263343811
0.91397058963775635 0.56103259325027466 0.31634661555290222
0.40495121479034424 0.54504191875457764 0.23942878842353821
0.44722512364387512 0.54923409223556519 0.2374018132686615
0.5108867883682251 0.54851037263870239 0.22614812850952148
0.60030442476272583 0.54869335889816284 0.21673646569252014
0.70625823736190796 0.5615079402923584 0.22898931801319122
0.81986969709396362 0.59830278158187866 0.2659563422203064
0.91397058963775635 0.63685297966003418 0.30449742078781128
0.48471876978874207 0.66815352439880371 0.29975742101669312
0.52092552185058594 0.67047333717346191 0.29553928971290588
0.58137387037277222 0.67147928476333618 0.28151550889015198
0.66221851110458374 0.6701124906539917 0.27014473080635071
0.74418139457702637 0.66651755571365356 0.26171484589576721
0.83190369606018066 0.68281292915344238 0.2695680558681488
0.91404259204864502 0.70725131034851074 0.29570892453193665
0.54351001977920532 0.75710785388946533 0.34653991460800171
0.57913482189178467 0.75710785388946533 0.33984240889549255
0.63313591480255127 0.75782352685928345 0.32593825459480286
0.7101205587387085 0.7576221227645874 0.31385001540184021
0.78997230529785156 0.75544887781143188 0.30355703830718994
0.86000221967697144 0.75750827789306641 0.29478180408477783
0.91708528995513916 0.76128941774368286 0.29483258724212646
0.34785100817680359 0.23065812885761261 0.25418853759765625
0.39089506864547729 0.22818949818611145 0.2544189989566803
0.45685938000679016 0.21907338500022888 0.25595888495445251
0.55873978137969971 0.22151795029640198 0.26694762706756592
0.6817588210105896 0.25835907459259033 0.2989555299282074
0.80248367786407471 0.32342907786369324 0.34726119041442871
0.9103771448135376 0.39490044116973877 0.39818868041038513
0.34049195051193237 0.26796934008598328 0.25343143939971924
0.37588545680046082 0.26099768280982971 0.24836187064647675
0.44070157408714294 0.24914595484733582 0.24608190357685089
0.54875487089157104 0.25453928112983704 0.25941509008407593
0.68220639228820801 0.296174556016922 0.29610082507133484
0.80659925937652588 0.35981795191764832 0.34508949518203735
0.91095966100692749 0.42692741751670837 0.39508551359176636
0.33163201808929443 0.32640078663825989 0.25294387340545654
0.36758196353912354 0.32146501541137695 0.24877578020095825
0.43714985251426697 0.31496578454971313 0.24681629240512848
0.54657536745071411 0.32061412930488586 0.25698128342628479
0.68057364225387573 0.35765793919563293 0.29144978523254395
0.80741304159164429 0.41626515984535217 0.33964988589286804
0.91073697805404663 0.47821518778800964 0.38711637258529663
0.32894435524940491 0.4147641658782959 0.26041257381439209
0.37870877981185913 0.41850629448890686 0.26351571083068848
0.44893106818199158 0.41503173112869263 0.25971409678459167
0.55299025774002075 0.41850006580352783 0.26218041777610779
0.67963051795959473 0.44390460848808289 0.28772434592247009
0.80711513757705688 0.49517235159873962 0.33360117673873901
0.91173422336578369 0.55050873756408691 0.38003489375114441
0.38611632585525513 0.54200094938278198 0.30148434638977051
0.42948564887046814 0.54442036151885986 0.30089306831359863
0.49391826987266541 0.54400479793548584 0.29498675465583801
0.58513098955154419 0.54225891828536987 0.28893110156059265
0.69431328773498535 0.55141788721084595 0.29714101552963257
0.81076598167419434 0.58845257759094238 0.32874366641044617
0.91253864765167236 0.63152271509170532 0.37163150310516357
0.47250917553901672 0.66998153924942017 0.35928505659103394
0.50759536027908325 0.66874998807907104 0.3549710214138031
0.56453812122344971 0.67181003093719482 0.34790164232254028
0.6472470760345459 0.6689104437828064 0.33974775671958923
0.73880648612976074 0.66668939590454102 0.3344864547252655
0.83159011602401733 0.68351989984512329 0.33996415138244629
0.91423159837722778 0.70490854978561401 0.36478820443153381
0.52948737144470215 0.75710785388946533 0.400522381067276
0.56423628330230713 0.75761383771896362 0.39896225929260254
0.61974942684173584 0.76096451282501221 0.39019086956977844
0.69832372665405273 0.76051098108291626 0.3802599310874939
0.78370392322540283 0.75710785388946533 0.37435293197631836
0.85831129550933838 0.75897067785263062 0.36694970726966858
0.91699868440628052 0.76129442453384399 0.36428076028823853
0.43157163262367249 0.30481240153312683 0.37991130352020264
0.47132095694541931 0.30286607146263123 0.3805147111415863
0.5286632776260376 0.29202941060066223 0.3827875554561615
0.6077306866645813 0.27121374011039734 0.37945076823234558
0.69935911893844604 0.26715770363807678 0.38280946016311646
0.80546605587005615 0.31036388874053955 0.41692188382148743
0.91031581163406372 0.373138427734375 0.46258252859115601
0.42410522699356079 0.34259715676307678 0.38165754079818726
0.46150666475296021 0.33906280994415283 0.37978008389472961
0.5202178955078125 0.32623368501663208 0.3789716362953186
0.6008141040802002 0.30382576584815979 0.37493997812271118
0.70118254423141479 0.30460253357887268 0.38370302319526672
0.80937767028808594 0.34645289182662964 0.41652372479438782
0.91086649894714355 0.40867093205451965 0.46039432287216187
0.40772339701652527 0.39426419138908386 0.37814062833786011
0.44819349050521851 0.39180165529251099 0.37932291626930237
0.51127713918685913 0.38345813751220703 0.37981274724006653
0.59533864259719849 0.36563745141029358 0.37454479932785034
0.7007451057434082 0.3690369725227356 0.38415807485580444
0.81077039241790771 0.40662097930908203 0.41474688053131104
0.90859979391098022 0.46278882026672363 0.45261859893798828
0.38392943143844604 0.46397155523300171 0.37366560101509094
0.43113592267036438 0.46509203314781189 0.3787446916103363
0.49262905120849609 0.45617669820785522 0.37561249732971191
0.5847967267036438 0.44945552945137024 0.37275737524032593
0.69432419538497925 0.45391559600830078 0.38108405470848083
0.80773031711578369 0.48975655436515808 0.41025808453559875
0.90848428010940552 0.53926599025726318 0.44817030429840088
0.38782835006713867 0.55495774745941162 0.38266617059707642
0.43723046779632568 0.55952733755111694 0.38606435060501099
0.50217181444168091 0.55863779783248901 0.38641273975372314
0.59252488613128662 0.55504262447357178 0.38392525911331177
0.70085024833679199 0.56059396266937256 0.38924124836921692
0.80841523408889771 0.58592671155929565 0.40869089961051941
0.9085010290145874 0.62488871812820435 0.44453927874565125
0.45439338684082031 0.67141574621200562 0.42508748173713684
0.48953929543495178 0.66724956035614014 0.4203239381313324
0.55118179321289062 0.67005985975265503 0.42175012826919556
0.63889485597610474 0.67056417465209961 0.42058572173118591
0.73538380861282349 0.67181658744812012 0.41900819540023804
0.82368111610412598 0.67907178401947021 0.41946530342102051
0.91092771291732788 0.70096993446350098 0.44223347306251526
0.50343775749206543 0.75615972280502319 0.46172544360160828
0.54404532909393311 0.75708615779876709 0.46234038472175598
0.6043277382850647 0.757607102394104 0.45937404036521912
0.68556123971939087 0.75712651014328003 0.45163491368293762
0.77443164587020874 0.75710785388946533 0.44651541113853455
0.85393726825714111 0.75814622640609741 0.44213134050369263
0.91936028003692627 0.76364797353744507 0.44339850544929504
0.51103854179382324 0.37777262926101685 0.48805549740791321
0.54600232839584351 0.37186518311500549 0.48723116517066956
0.5995793342590332 0.36100563406944275 0.48866680264472961
0.67304915189743042 0.34164673089981079 0.48987874388694763
0.74790316820144653 0.3225243091583252 0.48560017347335815
0.82903885841369629 0.33301475644111633 0.49754747748374939
0.91699141263961792 0.36781850457191467 0.52393877506256104
0.5045398473739624 0.41259634494781494 0.49154868721961975
0.53907221555709839 0.40614590048789978 0.4894222617149353
0.59160786867141724 0.39380249381065369 0.48864483833312988
0.6650317907333374 0.37169703841209412 0.48433032631874084
0.74749857187271118 0.35478881001472473 0.4824758768081665
0.83153253793716431 0.3660142719745636 0.49649012088775635
0.91525483131408691 0.40340021252632141 0.52053630352020264
0.49156451225280762 0.46367946267127991 0.49104481935501099
0.5273093581199646 0.45673313736915588 0.49172487854957581
0.57957059144973755 0.44411474466323853 0.49028310179710388
0.65711295604705811 0.42833882570266724 0.48582831025123596
0.747081458568573 0.41636544466018677 0.48489025235176086
0.832386314868927 0.42391675710678101 0.49521458148956299
0.91144335269927979 0.45473459362983704 0.51499539613723755
0.46601957082748413 0.52842241525650024 0.48640954494476318
0.50607419013977051 0.52554035186767578 0.48972773551940918
0.56085002422332764 0.51539617776870728 0.48950108885765076
0.64829343557357788 0.51073992252349854 0.48900091648101807
0.74534589052200317 0.50578802824020386 0.48905527591705322
0.82998842000961304 0.5085565447807312 0.49366876482963562
0.90977174043655396 0.53206378221511841 0.51128685474395752
0.44651663303375244 0.60037922859191895 0.48311084508895874
0.48507511615753174 0.59948533773422241 0.48203033208847046
0.55086565017700195 0.60077571868896484 0.48819354176521301
0.64206200838088989 0.59989303350448608 0.49042603373527527
0.73799693584442139 0.59625244140625 0.48797166347503662
0.82521015405654907 0.60007452964782715 0.49127709865570068
0.90924763679504395 0.62139135599136353 0.50968563556671143
0.44486191868782043 0.67540568113327026 0.49064430594444275
0.49349334836006165 0.67713731527328491 0.48959684371948242
0.56174314022064209 0.68117308616638184 0.4961620569229126
0.65324312448501587 0.68322527408599854 0.50038450956344604
0.74607288837432861 0.68152672052383423 0.49635624885559082
0.82756632566452026 0.68131911754608154 0.49357804656028748
0.91365331411361694 0.6995847225189209 0.51277011632919312
0.48415187001228333 0.7546236515045166 0.52187091112136841
0.52893507480621338 0.75669389963150024 0.52022743225097656
0.59101790189743042 0.75739628076553345 0.51999759674072266
0.678428053855896 0.75760102272033691 0.51784837245941162
0.77059191465377808 0.75714337825775146 0.51401180028915405
0.85426682233810425 0.75766998529434204 0.5115818977355957
0.92254126071929932 0.76336193084716797 0.51363885402679443
0.57617521286010742 0.44165754318237305 0.56707233190536499
0.60392957925796509 0.42753210663795471 0.56635093688964844
0.655254065990448 0.41811776161193848 0.56726932525634766
0.7217215895652771 0.39907810091972351 0.56758183240890503
0.79690945148468018 0.37810519337654114 0.56718313694000244
0.86212313175201416 0.36462011933326721 0.56739109754562378
0.92881304025650024 0.37026527523994446 0.57470792531967163
0.56669443845748901 0.46806660294532776 0.56814676523208618
0.59849071502685547 0.45608425140380859 0.5672793984413147
0.64686793088912964 0.44718560576438904 0.5672793984413147
0.71619886159896851 0.42989975214004517 0.56491351127624512
0.79453623294830322 0.41074937582015991 0.56363439559936523
0.86177188158035278 0.40189442038536072 0.5680275559425354
0.9272187352180481 0.40985831618309021 0.57593464851379395
0.55259281396865845 0.51200741529464722 0.5672793984413147
0.58727389574050903 0.50428658723831177 0.56734555959701538
0.63440418243408203 0.49441021680831909 0.56807595491409302
0.70429867506027222 0.48086857795715332 0.56695228815078735
0.7862972617149353 0.46560508012771606 0.56583178043365479
0.859130859375 0.45648941397666931 0.56769055128097534
0.92235726118087769 0.46166542172431946 0.57359969615936279
0.52813363075256348 0.57699346542358398 0.56756758689880371
0.56444388628005981 0.57113182544708252 0.5672793984413147
0.61717051267623901 0.56181532144546509 0.5672793984413147
0.6931908130645752 0.55350041389465332 0.56801873445510864
0.78026562929153442 0.54399383068084717 0.56733423471450806
0.85711133480072021 0.53518873453140259 0.56716585159301758
0.91946041584014893 0.53792154788970947 0.57032722234725952
0.50706368684768677 0.64837777614593506 0.57077658176422119
0.54254484176635742 0.64211052656173706 0.565296471118927
0.6023094654083252 0.63749462366104126 0.56721001863479614
0.68639600276947021 0.63342791795730591 0.56780117750167847
0.77616697549819946 0.62723761796951294 0.56728875637054443
0.85421150922775269 0.62111812829971313 0.56501692533493042
0.91816788911819458 0.6267162561416626 0.56714737415313721
0.48826196789741516 0.70978105068206787 0.57081437110900879
0.53213369846343994 0.70554137229919434 0.56140172481536865
0.59392279386520386 0.70603746175765991 0.56486803293228149
0.68254584074020386 0.70486032962799072 0.56909656524658203
0.77319717407226562 0.69919973611831665 0.56803905963897705
0.85468697547912598 0.69582974910736084 0.56656140089035034
0.92078888416290283 0.70111262798309326 0.56822150945663452
0.49437549710273743 0.7710874080657959 0.58323138952255249
0.53013509511947632 0.76623934507369995 0.57230949401855469
0.58413505554199219 0.76385027170181274 0.56925386190414429
0.67902851104736328 0.76337164640426636 0.57361030578613281
0.77389985322952271 0.76078635454177856 0.5727238655090332
0.85624337196350098 0.75961089134216309 0.56882995367050171
0.92377263307571411 0.76084911823272705 0.5692284107208252
