assets/lut/others vintage.cube
# Created by: G'MIC (https://gmic.eu)
TITLE "vintage"
# LUT size
LUT_3D_SIZE 7
# Data domain
DOMAIN_MIN 0.0 0.0 0.0
DOMAIN_MAX 1.0 1.0 1.0
# LUT data points
0.044447671622037888 0.029253283515572548 0.32211405038833618
0.08449285477399826 0.03709736093878746 0.34259146451950073
0.25972297787666321 0.045198075473308563 0.33021718263626099
0.52978819608688354 0.038363810628652573 0.34357637166976929
0.79617726802825928 0.043696712702512741 0.32488510012626648
0.97241365909576416 0.0350341796875 0.34468382596969604
0.94822388887405396 0.045611333101987839 0.34548777341842651
0.03975246474146843 0.10247328877449036 0.31804755330085754
0.083569332957267761 0.12892194092273712 0.32781305909156799
0.26809993386268616 0.14484879374504089 0.33236336708068848
0.53957533836364746 0.13058219850063324 0.33537000417709351
0.7982640266418457 0.1246747151017189 0.33093914389610291
0.96766525506973267 0.12683489918708801 0.33421343564987183
0.94387030601501465 0.12798026204109192 0.34583213925361633
0.040808480232954025 0.26085007190704346 0.32360365986824036
0.085112616419792175 0.29347443580627441 0.33441448211669922
0.27295434474945068 0.29360765218734741 0.33893367648124695
0.54448938369750977 0.28712540864944458 0.3345191478729248
0.79834866523742676 0.28448206186294556 0.33217975497245789
0.96496909856796265 0.28449159860610962 0.33551162481307983
0.94795447587966919 0.28567901253700256 0.34631046652793884
0.051536917686462402 0.50976765155792236 0.32077500224113464
0.088650032877922058 0.5270572304725647 0.33683061599731445
0.26897865533828735 0.52173149585723877 0.33747225999832153
0.52787631750106812 0.51252669095993042 0.33207458257675171
0.80331319570541382 0.50695580244064331 0.32726126909255981
0.9754365086555481 0.50301706790924072 0.34106206893920898
0.94008392095565796 0.52573823928833008 0.3477357029914856
0.049055211246013641 0.75369912385940552 0.31826364994049072
0.082825228571891785 0.76429617404937744 0.33655864000320435
0.25706502795219421 0.75885778665542603 0.32995235919952393
0.52323871850967407 0.75422120094299316 0.32827496528625488
0.79553747177124023 0.75913518667221069 0.32940703630447388
0.9676203727722168 0.75867271423339844 0.34618827700614929
0.9481852650642395 0.77926892042160034 0.347005695104599
0.056973699480295181 0.91981452703475952 0.32268735766410828
0.078100107610225677 0.93652886152267456 0.32148918509483337
0.2535337507724762 0.93703031539916992 0.32949307560920715
0.51377785205841064 0.93586099147796631 0.3297271728515625
0.80262136459350586 0.93371874094009399 0.33044260740280151
0.96972841024398804 0.93099385499954224 0.32906714081764221
0.93545287847518921 0.94455349445343018 0.34530031681060791
0.073075331747531891 0.93560832738876343 0.35081207752227783
0.099734798073768616 0.95257264375686646 0.35850909352302551
0.27003940939903259 0.95227652788162231 0.35997241735458374
0.55517220497131348 0.95011430978775024 0.36311599612236023
0.83487802743911743 0.94863200187683105 0.36585357785224915
0.98189365863800049 0.94458919763565063 0.36451420187950134
0.95378124713897705 0.95342379808425903 0.37861299514770508
0.032507278025150299 0.053493797779083252 0.35650509595870972
0.063635386526584625 0.063240617513656616 0.36911749839782715
0.22818475961685181 0.075718946754932404 0.36142253875732422
0.50473886728286743 0.062380921095609665 0.36738288402557373
0.78722965717315674 0.065842613577842712 0.36574754118919373
0.95058006048202515 0.068021245300769806 0.36504915356636047
0.91969758272171021 0.07746017724275589 0.38423344492912292
0.0466143898665905 0.10278227925300598 0.37132909893989563
0.091421283781528473 0.12561625242233276 0.38907328248023987
0.26911288499832153 0.13906174898147583 0.38919761776924133
0.53610730171203613 0.12832850217819214 0.39633843302726746
0.78685778379440308 0.13599270582199097 0.38295638561248779
0.97025573253631592 0.11942020803689957 0.38732650876045227
0.94759821891784668 0.12756799161434174 0.40359947085380554
0.048859987407922745 0.25690737366676331 0.3718419075012207
0.091009654104709625 0.28146427869796753 0.38787052035331726
0.2638801634311676 0.28359699249267578 0.39290794730186462
0.52677130699157715 0.27896741032600403 0.39315760135650635
0.79886037111282349 0.27475956082344055 0.38821572065353394
0.96051704883575439 0.27439349889755249 0.38954633474349976
0.94697481393814087 0.28795450925827026 0.40403217077255249
0.04822152853012085 0.49373847246170044 0.37567910552024841
0.089870572090148926 0.50937497615814209 0.39128425717353821
0.26996389031410217 0.5103340744972229 0.39105710387229919
0.51846998929977417 0.5101739764213562 0.38859549164772034
0.79308807849884033 0.51417571306228638 0.3873540461063385
0.96946138143539429 0.507313072681427 0.39388212561607361
0.9482724666595459 0.52692925930023193 0.40487661957740784
0.055791996419429779 0.74657744169235229 0.37568226456642151
0.087544836103916168 0.74902081489562988 0.38988190889358521
0.26461294293403625 0.76314693689346313 0.39665040373802185
0.53120118379592896 0.76036375761032104 0.39224070310592651
0.79264169931411743 0.76136916875839233 0.39122867584228516
0.96956932544708252 0.75944894552230835 0.40025684237480164
0.94861292839050293 0.78290253877639771 0.40264415740966797
0.05009123682975769 0.92619621753692627 0.37020581960678101
0.076038122177124023 0.93621212244033813 0.37936550378799438
0.25577530264854431 0.93448305130004883 0.38679799437522888
0.52510792016983032 0.93347233533859253 0.39006754755973816
0.78816467523574829 0.92658251523971558 0.39021828770637512
0.96721696853637695 0.92626810073852539 0.39008456468582153
0.93133562803268433 0.94995307922363281 0.40860453248023987
0.062291823327541351 0.93831568956375122 0.41388857364654541
0.10106144100427628 0.94866269826889038 0.42056336998939514
0.27484896779060364 0.94750940799713135 0.42034032940864563
0.56598275899887085 0.93733423948287964 0.430763840675354
0.83946919441223145 0.94760143756866455 0.42403417825698853
0.98255342245101929 0.94996970891952515 0.41732856631278992
0.96174466609954834 0.95095962285995483 0.43115636706352234
0.04381110891699791 0.045556206256151199 0.42933163046836853
0.058318506926298141 0.057813141494989395 0.44383442401885986
0.22571469843387604 0.065007664263248444 0.43950602412223816
0.50890415906906128 0.063188396394252777 0.44285842776298523
0.77584284543991089 0.073553211987018585 0.42911019921302795
0.95654261112213135 0.056625783443450928 0.44144269824028015
0.9339064359664917 0.068679407238960266 0.45586547255516052
0.04734986275434494 0.10142470896244049 0.44671911001205444
0.08582141250371933 0.12469445168972015 0.46223947405815125
0.25579425692558289 0.12928305566310883 0.46653124690055847
0.52699601650238037 0.12323081493377686 0.46443325281143188
0.79362720251083374 0.12407798320055008 0.45784974098205566
0.95457375049591064 0.1224520355463028 0.4608093798160553
0.93984478712081909 0.12922990322113037 0.48135167360305786
0.052417784929275513 0.26017895340919495 0.44223353266716003
0.082188896834850311 0.27533480525016785 0.46079885959625244
0.26922434568405151 0.29103130102157593 0.46612617373466492
0.51927429437637329 0.28226795792579651 0.46652597188949585
0.79258972406387329 0.27896514534950256 0.4655209481716156
0.967304527759552 0.27472364902496338 0.46767562627792358
0.94786328077316284 0.28754803538322449 0.47583416104316711
0.050286460667848587 0.49787220358848572 0.44387716054916382
0.095361851155757904 0.50636333227157593 0.46119707822799683
0.27534699440002441 0.51725691556930542 0.46732446551322937
0.52218890190124512 0.51205635070800781 0.46811369061470032
0.80261480808258057 0.51089417934417725 0.46377420425415039
0.97064459323883057 0.50865799188613892 0.46619963645935059
0.949116051197052 0.52472043037414551 0.47737264633178711
0.057514071464538574 0.75157219171524048 0.44458985328674316
0.085855118930339813 0.75599473714828491 0.47031998634338379
0.27380645275115967 0.76107162237167358 0.46787580847740173
0.53676134347915649 0.75626379251480103 0.46465477347373962
0.80338931083679199 0.75897896289825439 0.46120259165763855
0.95949912071228027 0.76344311237335205 0.46008011698722839
0.94448995590209961 0.77906984090805054 0.47631219029426575
0.060631096363067627 0.92048609256744385 0.44128257036209106
0.08619033545255661 0.93178588151931763 0.45909669995307922
0.26276040077209473 0.9325140118598938 0.45895260572433472
0.52376663684844971 0.93631136417388916 0.46011626720428467
0.80036938190460205 0.93639302253723145 0.46106436848640442
0.96763443946838379 0.92794579267501831 0.46455484628677368
0.93753308057785034 0.94623857736587524 0.47825664281845093
0.06788317859172821 0.93538820743560791 0.48569294810295105
0.1009395495057106 0.94905596971511841 0.48997551202774048
0.2771461009979248 0.95339316129684448 0.4889644980430603
0.54647731781005859 0.94904279708862305 0.48930120468139648
0.82935976982116699 0.94943737983703613 0.49333029985427856
0.98512905836105347 0.94058692455291748 0.50384294986724854
0.95065021514892578 0.95425856113433838 0.51039266586303711
0.027466747909784317 0.06113230437040329 0.50079315900802612
0.057762503623962402 0.076452948153018951 0.50983977317810059
0.22839316725730896 0.069980189204216003 0.51252108812332153
0.49324518442153931 0.072707980871200562 0.51078253984451294
0.78757035732269287 0.052758041769266129 0.52432024478912354
0.95483076572418213 0.060042615979909897 0.51982760429382324
0.93814826011657715 0.066814884543418884 0.5392724871635437
0.046076755970716476 0.10598075389862061 0.52374410629272461
0.093270152807235718 0.13577328622341156 0.5310901403427124
0.25956213474273682 0.13637812435626984 0.53489512205123901
0.52779841423034668 0.12484144419431686 0.53654313087463379
0.80241459608078003 0.12252135574817657 0.53613662719726562
0.9724615216255188 0.11179047822952271 0.54436272382736206
0.94612044095993042 0.12995806336402893 0.55700391530990601
0.051729090511798859 0.26179206371307373 0.52012908458709717
0.089494131505489349 0.27946922183036804 0.53455138206481934
0.26824063062667847 0.28415724635124207 0.54026162624359131
0.52806109189987183 0.28115719556808472 0.53961986303329468
0.78745901584625244 0.2812080979347229 0.53927797079086304
0.9687122106552124 0.27667483687400818 0.54355204105377197
0.94800102710723877 0.29161012172698975 0.55435961484909058
0.034568503499031067 0.49736550450325012 0.53028994798660278
0.093503929674625397 0.51172375679016113 0.53855711221694946
0.28154563903808594 0.51283127069473267 0.5414009690284729
0.53939944505691528 0.51694720983505249 0.54412937164306641
0.79389512538909912 0.51552993059158325 0.54436051845550537
0.96816468238830566 0.51228988170623779 0.54484468698501587
0.94791090488433838 0.52900922298431396 0.55803030729293823
0.03992168977856636 0.75904881954193115 0.52844816446304321
0.087068609893321991 0.75967276096343994 0.54331278800964355
0.27482426166534424 0.76217126846313477 0.54706227779388428
0.53247296810150146 0.76156216859817505 0.54536586999893188
0.80356085300445557 0.75811821222305298 0.5447838306427002
0.97415244579315186 0.75910693407058716 0.55298829078674316
0.95295149087905884 0.77229613065719604 0.5543215274810791
0.031721435487270355 0.92907202243804932 0.52816927433013916
0.084288187325000763 0.93178313970565796 0.53203898668289185
0.27872553467750549 0.92871308326721191 0.53812950849533081
0.54381865262985229 0.93207353353500366 0.53836631774902344
0.80242043733596802 0.9348035454750061 0.53923195600509644
0.97464883327484131 0.93493056297302246 0.54309463500976562
0.94769287109375 0.94938176870346069 0.5532345175743103
0.078402020037174225 0.93459761142730713 0.5607340931892395
0.10030785202980042 0.95073544979095459 0.57045191526412964
0.28161165118217468 0.95195555686950684 0.57273238897323608
0.56011426448822021 0.94867974519729614 0.57289326190948486
0.83273804187774658 0.95016992092132568 0.57498431205749512
0.98177081346511841 0.94196587800979614 0.57942575216293335
0.94339609146118164 0.95917046070098877 0.59347951412200928
0.031402349472045898 0.054268870502710342 0.5847010612487793
0.057248674333095551 0.078142397105693817 0.58526116609573364
0.24051755666732788 0.059872869402170181 0.59396344423294067
0.51600629091262817 0.061408534646034241 0.59560942649841309
0.77471119165420532 0.073432669043540955 0.58931618928909302
0.95264703035354614 0.065067291259765625 0.59785974025726318
0.9349324107170105 0.06571611762046814 0.61625874042510986
0.047530215233564377 0.10242662578821182 0.60471171140670776
0.094779565930366516 0.13103154301643372 0.61194604635238647
0.2824733555316925 0.12432821094989777 0.61331683397293091
0.5360713005065918 0.12327215075492859 0.61527931690216064
0.79942995309829712 0.12178260833024979 0.61607086658477783
0.95919162034988403 0.12912978231906891 0.61832582950592041
0.94500267505645752 0.12692855298519135 0.63217586278915405
0.042660851031541824 0.25812289118766785 0.60073316097259521
0.08547472208738327 0.28187775611877441 0.61520093679428101
0.27111530303955078 0.28586620092391968 0.61445212364196777
0.53323137760162354 0.28083065152168274 0.61930757761001587
0.79291778802871704 0.27795878052711487 0.61622440814971924
0.95472246408462524 0.27984923124313354 0.6155816912651062
0.94279032945632935 0.28663042187690735 0.63157373666763306
0.04403236135840416 0.50316733121871948 0.60297250747680664
0.092868834733963013 0.51273876428604126 0.61824923753738403
0.26453888416290283 0.5106690526008606 0.61902922391891479
0.5244210958480835 0.51391339302062988 0.62430298328399658
0.78719347715377808 0.51718646287918091 0.62406998872756958
0.96547204256057739 0.50880891084671021 0.62018662691116333
0.94960039854049683 0.52199405431747437 0.63405859470367432
0.040764287114143372 0.75732403993606567 0.60703271627426147
0.081054523587226868 0.76177084445953369 0.61723333597183228
0.25154078006744385 0.76274257898330688 0.61902856826782227
0.52959269285202026 0.76381689310073853 0.62003421783447266
0.79647946357727051 0.76245826482772827 0.6218266487121582
0.95867854356765747 0.75159531831741333 0.62328946590423584
0.9476158618927002 0.77403789758682251 0.63545072078704834
0.066476039588451385 0.91905951499938965 0.59766781330108643
0.076430574059486389 0.93280035257339478 0.61534017324447632
0.25592491030693054 0.93039810657501221 0.61749553680419922
0.52628880739212036 0.93406456708908081 0.61646395921707153
0.78934359550476074 0.93172091245651245 0.61364728212356567
0.95816648006439209 0.93421024084091187 0.61212915182113647
0.94948089122772217 0.94720923900604248 0.63047957420349121
0.055648401379585266 0.94695121049880981 0.63696950674057007
0.10250119864940643 0.94874691963195801 0.64709627628326416
0.28500157594680786 0.94732534885406494 0.64780628681182861
0.54645556211471558 0.95263010263442993 0.64931750297546387
0.84163045883178711 0.94459927082061768 0.65289384126663208
0.9835548996925354 0.94995677471160889 0.64897346496582031
0.95297443866729736 0.95369243621826172 0.66815066337585449
0.053672343492507935 0.044302038848400116 0.65908670425415039
0.060003049671649933 0.066325031220912933 0.66628468036651611
0.23457427322864532 0.06634107232093811 0.66477537155151367
0.51755911111831665 0.06056627631187439 0.67456912994384766
0.77606427669525146 0.069492712616920471 0.66650164127349854
0.94738376140594482 0.073309354484081268 0.66514259576797485
0.93038201332092285 0.0685606449842453 0.68850594758987427
0.048642370849847794 0.09896569699048996 0.67583292722702026
0.096477657556533813 0.13123627007007599 0.68479615449905396
0.25779837369918823 0.12375219166278839 0.68930280208587646
0.52871501445770264 0.12007742375135422 0.689594566822052
0.79721939563751221 0.12335231900215149 0.6865546703338623
0.96847069263458252 0.12356404215097427 0.69165492057800293
0.94760072231292725 0.13046814501285553 0.70333433151245117
0.045395195484161377 0.26545372605323792 0.67720943689346313
0.0950789675116539 0.28822052478790283 0.68717736005783081
0.25154197216033936 0.27651113271713257 0.68748486042022705
0.52836495637893677 0.28313657641410828 0.69258368015289307
0.79207366704940796 0.27646943926811218 0.69114977121353149
0.96459466218948364 0.28041574358940125 0.69367343187332153
0.94467806816101074 0.29163253307342529 0.70533627271652222
0.048412278294563293 0.50685769319534302 0.67652302980422974
0.090269081294536591 0.5132489800453186 0.68879812955856323
0.25776514410972595 0.51826375722885132 0.69419366121292114
0.53512787818908691 0.50558191537857056 0.69762915372848511
0.78902238607406616 0.51136964559555054 0.69238358736038208
0.96312624216079712 0.51297610998153687 0.69571018218994141
0.94685167074203491 0.51491576433181763 0.70708703994750977
0.048935431987047195 0.75629270076751709 0.67624294757843018
0.091049700975418091 0.75494188070297241 0.6924017071723938
0.25738683342933655 0.76135170459747314 0.69193488359451294
0.52318835258483887 0.76291388273239136 0.69251680374145508
0.79771226644515991 0.76076114177703857 0.69791889190673828
0.96336513757705688 0.75076425075531006 0.69646584987640381
0.94981777667999268 0.77682161331176758 0.7094917893409729
0.036467131227254868 0.92799049615859985 0.68031138181686401
0.091020174324512482 0.92218893766403198 0.69012546539306641
0.25821641087532043 0.92836123704910278 0.68796241283416748
0.52965492010116577 0.92813265323638916 0.68552345037460327
0.79009526968002319 0.92158836126327515 0.6911996603012085
0.9735444188117981 0.92738550901412964 0.69546294212341309
0.94571906328201294 0.94968068599700928 0.70319908857345581
0.076496556401252747 0.93940216302871704 0.70777207612991333
0.10078355669975281 0.94882106781005859 0.7209237813949585
0.28995722532272339 0.93806058168411255 0.72550910711288452
0.55640310049057007 0.94530713558197021 0.72380757331848145
0.83477389812469482 0.94847953319549561 0.7240789532661438
0.98278951644897461 0.94859260320663452 0.72348791360855103
0.94703906774520874 0.95724868774414062 0.73542135953903198
0.051686648279428482 0.058849964290857315 0.70041638612747192
0.063558243215084076 0.066777653992176056 0.71907615661621094
0.22553296387195587 0.075635083019733429 0.71459656953811646
0.50612163543701172 0.069210991263389587 0.71777141094207764
0.77634036540985107 0.075655393302440643 0.71513956785202026
0.95168769359588623 0.065105468034744263 0.72633105516433716
0.93112927675247192 0.07063477486371994 0.74041128158569336
0.052500363439321518 0.10463285446166992 0.73096358776092529
0.088842324912548065 0.12815883755683899 0.73867267370223999
0.25846371054649353 0.12428635358810425 0.73888897895812988
0.52390605211257935 0.12546463310718536 0.73403465747833252
0.80225217342376709 0.12644205987453461 0.74326306581497192
0.96467870473861694 0.12461841106414795 0.74420779943466187
0.95831865072250366 0.12573090195655823 0.75289762020111084
0.051473446190357208 0.25845763087272644 0.72917687892913818
0.084658242762088776 0.2846795916557312 0.73996758460998535
0.25855627655982971 0.27900192141532898 0.74561458826065063
0.51781123876571655 0.27681523561477661 0.74501395225524902
0.79588526487350464 0.28033038973808289 0.74788892269134521
0.97022390365600586 0.27964627742767334 0.74735766649246216
0.94782322645187378 0.28231596946716309 0.75861990451812744
0.04386475682258606 0.50110524892807007 0.73336696624755859
0.078252188861370087 0.51203691959381104 0.74108803272247314
0.25266656279563904 0.51690894365310669 0.74641287326812744
0.51909953355789185 0.5149109959602356 0.74201023578643799
0.79885298013687134 0.50912165641784668 0.74336701631546021
0.96429771184921265 0.50871837139129639 0.74681991338729858
0.95283609628677368 0.53097295761108398 0.76034843921661377
0.052210833877325058 0.7552567720413208 0.73120790719985962
0.079094424843788147 0.76032280921936035 0.74158495664596558
0.25722405314445496 0.75450605154037476 0.74208647012710571
0.5326729416847229 0.75672358274459839 0.74639350175857544
0.81247466802597046 0.75684475898742676 0.75000053644180298
0.97509545087814331 0.7622409462928772 0.74560672044754028
0.94611549377441406 0.77049988508224487 0.75544726848602295
0.041714731603860855 0.92634677886962891 0.736855149269104
0.091126054525375366 0.92280638217926025 0.74374616146087646
0.26274159550666809 0.92474448680877686 0.74228537082672119
0.51058578491210938 0.9263540506362915 0.74016427993774414
0.78465205430984497 0.92638224363327026 0.74216091632843018
0.96985048055648804 0.9246220588684082 0.74186080694198608
0.95099711418151855 0.94318020343780518 0.7600589394569397
0.054227776825428009 0.97311884164810181 0.73710572719573975
0.087389089167118073 0.98181140422821045 0.74548518657684326
0.25994861125946045 0.98403388261795044 0.74317008256912231
0.52845209836959839 0.97878760099411011 0.74508154392242432
0.81465226411819458 0.97213417291641235 0.73856633901596069
0.96518087387084961 0.97928249835968018 0.7383919358253479
0.95491927862167358 0.9907345175743103 0.75750571489334106
