assets/lut/picturefx faux infrared color p2.cube
# Created by: G'MIC (https://gmic.eu)
TITLE "faux_infrared_color_p2"
# LUT size
LUT_3D_SIZE 5
# Data domain
DOMAIN_MIN 0.0 0.0 0.0
DOMAIN_MAX 1.0 1.0 1.0
# LUT data points
0.084002293646335602 0.063137665390968323 0.088491536676883698
0.57379132509231567 0.45777440071105957 0.26327282190322876
0.98129409551620483 0.85424762964248657 0.48029091954231262
1 0.94616407155990601 0.77140462398529053
1 0.9686274528503418 0.86477440595626831
0.35604086518287659 0.011621378362178802 0.23786911368370056
0.72003716230392456 0.20174938440322876 0.35801571607589722
0.9890480637550354 0.75253039598464966 0.52697688341140747
1 0.92443752288818359 0.79312384128570557
1 0.95575666427612305 0.87510967254638672
0.64014238119125366 0.01129443570971489 0.40565046668052673
0.89361590147018433 0.081602700054645538 0.51560986042022705
0.9994804859161377 0.36540904641151428 0.64242053031921387
1 0.8915674090385437 0.85918974876403809
1 0.9560045599937439 0.9188849925994873
0.93103694915771484 0.0094605991616845131 0.58721393346786499
0.97955334186553955 0.047768805176019669 0.6438521146774292
0.99808651208877563 0.080735102295875549 0.69237208366394043
1 0.79590922594070435 0.87428963184356689
1 0.98665869235992432 0.98640972375869751
0.99443376064300537 0.0039258319884538651 0.74542480707168579
0.99540287256240845 0.054242450743913651 0.72721761465072632
0.99973738193511963 0.092737697064876556 0.71628522872924805
1 0.11605915427207947 0.71253913640975952
1 0.23762625455856323 0.73133963346481323
0.00079466874012723565 0.24012961983680725 0.23494139313697815
0.26484772562980652 0.52671533823013306 0.33577299118041992
0.93166261911392212 0.8865206241607666 0.5087888240814209
0.99394470453262329 0.97233015298843384 0.78616732358932495
1 0.98216241598129272 0.89279931783676147
0.031052771955728531 0.017938187345862389 0.32353484630584717
0.49829086661338806 0.31746295094490051 0.41140112280845642
0.97738409042358398 0.8007320761680603 0.56205660104751587
0.99683117866516113 0.94287765026092529 0.81783920526504517
1 0.97087568044662476 0.90092331171035767
0.42172139883041382 0.0030066545587033033 0.45974457263946533
0.75393021106719971 0.063103422522544861 0.54251152276992798
0.9951586127281189 0.45919638872146606 0.67364943027496338
1 0.91356474161148071 0.86739999055862427
1 0.96420741081237793 0.93137252330780029
0.80190032720565796 0.0037861992605030537 0.62430983781814575
0.96195495128631592 0.018380377441644669 0.67073988914489746
0.9928666353225708 0.088432177901268005 0.71789336204528809
1 0.82689690589904785 0.89401185512542725
1 0.98704773187637329 0.98717713356018066
0.97740340232849121 0 0.74575155973434448
0.97809690237045288 0.037831265479326248 0.7200356125831604
0.99118268489837646 0.091315217316150665 0.72923785448074341
1 0.078512616455554962 0.72121137380599976
1 0.30774614214897156 0.75667232275009155
0.00023803711519576609 0.43415409326553345 0.40507945418357849
0.019482916221022606 0.65744376182556152 0.47705826163291931
0.55805295705795288 0.95668011903762817 0.59833037853240967
0.97014844417572021 0.99703770875930786 0.85917049646377563
0.99451977014541626 0.9966922402381897 0.9315335750579834
0.0017830493161454797 0.13647541403770447 0.46826022863388062
0.0062676821835339069 0.52138334512710571 0.5210382342338562
0.70949321985244751 0.89317613840103149 0.64569675922393799
0.98542016744613647 0.9849393367767334 0.87612366676330566
0.99995243549346924 0.9908260703086853 0.94453823566436768
0.045539900660514832 0.02101530134677887 0.58111876249313354
0.19397625327110291 0.034082017838954926 0.63289225101470947
0.93265509605407715 0.58975285291671753 0.73842668533325195
0.99995654821395874 0.95364099740982056 0.91448283195495605
1 0.98148036003112793 0.96404993534088135
0.24779266119003296 0.003241176251322031 0.69847071170806885
0.67539739608764648 0.00088870478793978691 0.74951630830764771
0.97870063781738281 0.087671257555484772 0.81644153594970703
1 0.88571345806121826 0.9356505274772644
1 0.99300187826156616 0.9915621280670166
0.8356480598449707 0 0.83513540029525757
0.95901530981063843 0.0074658263474702835 0.8402894139289856
0.98055654764175415 0.059063468128442764 0.82987582683563232
0.99878615140914917 0.14120538532733917 0.78415608406066895
1 0.37294861674308777 0.80292975902557373
0 0.64090049266815186 0.59183257818222046
0.0079737342894077301 0.82040220499038696 0.64929360151290894
0.045380417257547379 0.98605221509933472 0.71866542100906372
0.94555968046188354 1 0.94982343912124634
0.98869949579238892 1 0.98393809795379639
0 0.49456366896629333 0.63090282678604126
0.0030741372611373663 0.6922493577003479 0.67131716012954712
0.095937110483646393 0.972584068775177 0.75647068023681641
0.95518666505813599 1 0.9610169529914856
0.99517273902893066 1 0.99192798137664795
0.012647830881178379 0.052067145705223083 0.72091913223266602
0.0010613235644996166 0.22690851986408234 0.75807976722717285
0.20649883151054382 0.8153376579284668 0.84287059307098389
0.99309819936752319 0.99917018413543701 0.98757314682006836
0.99607843160629272 0.9960816502571106 0.99215686321258545
0.074829429388046265 0.030200958251953125 0.82411092519760132
0.077667862176895142 0.024469189345836639 0.86545330286026001
0.79280650615692139 0.13164080679416656 0.95759040117263794
0.99998944997787476 0.95602405071258545 0.98523664474487305
0.9974590539932251 0.99607843160629272 0.99607843160629272
0.087461136281490326 0.0098450453951954842 0.93391901254653931
0.39286613464355469 0.00043650608859024942 0.96879482269287109
0.9719664454460144 0.020590569823980331 0.97270888090133667
0.99973046779632568 0.19359876215457916 0.88911193609237671
1 0.59874087572097778 0.89608085155487061
0 0.82982474565505981 0.76290512084960938
0.0025179844815284014 0.92087608575820923 0.79358232021331787
0.036018867045640945 0.98488181829452515 0.77642178535461426
0.5460822582244873 1 0.86902070045471191
0.97261732816696167 1 0.98587214946746826
0 0.73260748386383057 0.78997433185577393
0 0.85715204477310181 0.81919848918914795
0.043389741331338882 0.97671222686767578 0.81276458501815796
0.55538272857666016 1 0.89051634073257446
0.98170560598373413 1 0.99029165506362915
5.7175580877810717e-05 0.30639404058456421 0.86807304620742798
0 0.58973371982574463 0.89324408769607544
0.032025177031755447 0.95431280136108398 0.93840271234512329
0.72205305099487305 1 0.94596987962722778
0.99094760417938232 1 0.99598485231399536
0.013253425247967243 0.08486417680978775 0.92730122804641724
0.017979670315980911 0.072452276945114136 0.97893130779266357
0.0047771679237484932 0.48306518793106079 1
0.93895512819290161 0.98913609981536865 0.99993181228637695
0.99659126996994019 0.99825751781463623 0.9999159574508667
0.016249040141701698 0.067780844867229462 0.98591256141662598
0.078400269150733948 0.018859099596738815 0.99422776699066162
0.28811141848564148 0.0063215517438948154 1
0.99646735191345215 0.45887139439582825 0.9995080828666687
1 0.81615591049194336 0.99086970090866089
