assets/lut/picturefx goldfx perfect sunset 05min.cube
# Created by: G'MIC (https://gmic.eu)
TITLE "goldfx_perfect_sunset_05min"
# LUT size
LUT_3D_SIZE 13
# Data domain
DOMAIN_MIN 0.0 0.0 0.0
DOMAIN_MAX 1.0 1.0 1.0
# LUT data points
0.00013786765339318663 0.00069113337667658925 0.00049043545732274652
0.011227910406887531 0.0063087013550102711 0.005594171117991209
0.056385040283203125 0.0075222835876047611 0.0083015291020274162
0.1174713596701622 0.0032917098142206669 0.0050336052663624287
0.18382871150970459 0.00071631040191277862 0.0017956303199753165
0.25471466779708862 4.2006548028439283e-05 8.7782915215939283e-05
0.32766807079315186 0 0
0.40357759594917297 4.2006548028439283e-05 0
0.48322620987892151 0.00026487463037483394 0
0.56964397430419922 0.00034538717591203749 0
0.6668083667755127 0 0
0.76679110527038574 0 0
0.86130315065383911 0 0
0.0049734227359294891 0.02497933991253376 0.00405146274715662
0.028521070256829262 0.033111274242401123 0.0089477542787790298
0.076300829648971558 0.036849241703748703 0.0088126389309763908
0.1319199800491333 0.034199807792901993 0.0030759773217141628
0.19238573312759399 0.025371521711349487 0.00045619290904141963
0.2588658332824707 0.016828574240207672 8.9757583054961287e-07
0.33085277676582336 0.0080678751692175865 0
0.4089677631855011 0.001257473835721612 0
0.49061411619186401 8.9847337221726775e-05 0
0.57833766937255859 0 0
0.67558568716049194 0 0
0.77594560384750366 0 0
0.87187081575393677 0 0
0.004171962384134531 0.082891039550304413 0.00054342229850590229
0.030751410871744156 0.0852646604180336 0.0013814739650115371
0.086933955550193787 0.088040955364704132 0.0020779627375304699
0.14475342631340027 0.088302209973335266 0.00022852281108498573
0.20229706168174744 0.084162361919879913 0
0.26739668846130371 0.07660984992980957 0
0.33977150917053223 0.06045035645365715 0
0.41770923137664795 0.034571181982755661 0
0.49786844849586487 0.020992683246731758 0
0.58452111482620239 0.0048460420221090317 0
0.68080753087997437 0 0
0.78244960308074951 0 0
0.88040632009506226 0 0
0.00024173212295863777 0.14789310097694397 0
0.015424301847815514 0.14833086729049683 0
0.072833120822906494 0.14737831056118011 0
0.14336578547954559 0.1483997255563736 0
0.20926371216773987 0.148096963763237 0.00016316432447638363
0.27726069092750549 0.1457025557756424 0.00047646317398175597
0.35105776786804199 0.13864065706729889 0
0.42792075872421265 0.12224308401346207 0
0.50653159618377686 0.10406583547592163 0.00021820068650413305
0.59154456853866577 0.070607729256153107 0.00078042724635452032
0.68588733673095703 0.027621520683169365 0
0.7885206937789917 0.0049146316014230251 0
0.88819438219070435 0.00012952019460499287 0
0 0.2159925252199173 0
0.00099910655990242958 0.21611970663070679 0
0.035552274435758591 0.21454548835754395 0
0.12537969648838043 0.2141592800617218 0
0.20905426144599915 0.21602712571620941 0.0001427444803994149
0.28340065479278564 0.2165742814540863 0.00017074884090106934
0.36178562045097351 0.21536742150783539 0
0.43954795598983765 0.21043607592582703 0.00043309529428370297
0.51943278312683105 0.20076031982898712 0.0018134771380573511
0.60500538349151611 0.1797434538602829 0.0010678608668968081
0.69594818353652954 0.14216078817844391 0
0.79570329189300537 0.07615979015827179 0
0.89533722400665283 0.026193775236606598 0
0 0.29111313819885254 0
0 0.29145908355712891 0
0.0079183988273143768 0.28927299380302429 0
0.096825093030929565 0.28793591260910034 0
0.20096592605113983 0.29101729393005371 0
0.28158324956893921 0.29459735751152039 0
0.36467453837394714 0.29401025176048279 0
0.44664067029953003 0.29000639915466309 0.0010029063560068607
0.52875018119812012 0.2839057445526123 0.0013029809342697263
0.61708647012710571 0.2685818076133728 0.00014845904661342502
0.70704782009124756 0.2484205961227417 0.00082973408279940486
0.80215400457382202 0.19939130544662476 0.00095069734379649162
0.89860236644744873 0.1394544243812561 1.5079273907758761e-05
0 0.37214905023574829 0
0 0.37383535504341125 0
0.00011399212962714955 0.37330734729766846 0
0.045059576630592346 0.37253668904304504 3.3255182643188164e-05
0.16480948030948639 0.37343904376029968 0.00037553076981566846
0.26948955655097961 0.37738263607025146 0.00012465832696761936
0.35712730884552002 0.37745097279548645 0
0.44265502691268921 0.37223917245864868 0
0.52938145399093628 0.36548197269439697 0
0.6189950704574585 0.35760432481765747 0.0018653719453141093
0.70997750759124756 0.34792360663414001 0.0040661529637873173
0.80255180597305298 0.32412964105606079 0.003765973960980773
0.89403504133224487 0.28588786721229553 0.00031756231328472495
0 0.45931783318519592 0
0 0.46224617958068848 0
0 0.46290144324302673 2.2364598407875746e-05
0.015923488885164261 0.46162152290344238 0.00062795903068035841
0.11367106437683105 0.46052125096321106 0.0015898161800578237
0.23473286628723145 0.46126392483711243 0.00084798474563285708
0.33213719725608826 0.46207177639007568 3.4556669561425224e-05
0.42450305819511414 0.45828342437744141 0
0.5193789005279541 0.4513755738735199 6.1932732933200896e-05
0.61492258310317993 0.44507178664207458 0.0032131420448422432
0.70703858137130737 0.43919330835342407 0.0051754522137343884
0.79479372501373291 0.42641636729240417 0.0046644769608974457
0.87846177816390991 0.40153437852859497 0.00063591753132641315
0.0020574084483087063 0.54895484447479248 0.00084635417442768812
1.3942344594397582e-05 0.55298930406570435 0.0011421502567827702
0 0.55441659688949585 0.0015242781955748796
0.0031355763785541058 0.55352663993835449 0.0037209903821349144
0.058056041598320007 0.55151212215423584 0.0054452335461974144
0.16543363034725189 0.55010104179382324 0.0038512584287673235
0.28393164277076721 0.54891550540924072 0.001195750548504293
0.39732947945594788 0.54594171047210693 3.7698184314649552e-05
0.49988001585006714 0.54096418619155884 5.7444854064669926e-06
0.59973794221878052 0.5335199236869812 0.0011130986968055367
0.69573742151260376 0.525970458984375 0.0025477390736341476
0.78104078769683838 0.51775985956192017 0.0037059709429740906
0.85734742879867554 0.50350964069366455 0.00098052679095417261
0.0073607051745057106 0.63874465227127075 0.003355362918227911
0.00144258385989815 0.64316117763519287 0.006083260290324688
0 0.64474403858184814 0.0065365959890186787
7.0010915806051344e-05 0.64434534311294556 0.0080383894965052605
0.018417447805404663 0.64224684238433838 0.0081908730790019035
0.099678054451942444 0.63911855220794678 0.0043776868842542171
0.23024167120456696 0.6341482400894165 0.001218638732098043
0.37367117404937744 0.62878608703613281 2.7645335649140179e-05
0.48154202103614807 0.62572485208511353 0
0.57535338401794434 0.61960631608963013 0
0.67570298910140991 0.60999566316604614 0
0.76656585931777954 0.60137557983398438 0.00036470001214183867
0.84477365016937256 0.59140199422836304 6.1394188378471881e-05
0.0048575308173894882 0.72495537996292114 0.0046759210526943207
0.0011287913657724857 0.72914111614227295 0.010496610775589943
0 0.73065817356109619 0.011357326060533524
0 0.72984939813613892 0.0099960928782820702
0.0021011801436543465 0.72700518369674683 0.0077418009750545025
0.051011089235544205 0.72206968069076538 0.0043667959980666637
0.17433464527130127 0.71426743268966675 0.0014652626123279333
0.34067735075950623 0.7057652473449707 0
0.46459090709686279 0.70286589860916138 0
0.55399852991104126 0.69861477613449097 0
0.65351694822311401 0.68929672241210938 0
0.74800395965576172 0.67952811717987061 0
0.83159166574478149 0.66872429847717285 0
0.0003008225467056036 0.80504363775253296 0.0019289503106847405
1.9746669295273023e-06 0.80799537897109985 0.0078899608924984932
0 0.80844807624816895 0.0086231455206871033
0 0.80699390172958374 0.0063396827317774296
0 0.80352610349655151 0.0040992139838635921
0.013623061589896679 0.79764604568481445 0.0028523763176053762
0.10562647134065628 0.78908771276473999 0.0015820522094145417
0.2776910662651062 0.77914899587631226 1.7592486983630806e-05
0.44794097542762756 0.77244693040847778 0
0.55577278137207031 0.76786988973617554 0
0.63727849721908569 0.7622113823890686 0
0.72241401672363281 0.75339186191558838 0
0.80721557140350342 0.7419506311416626 0
0 0.87721949815750122 2.5850184101727791e-05
0 0.87861800193786621 0.0015763675328344107
0 0.87758904695510864 0.0024252647999674082
0 0.87549084424972534 0.0010208279127255082
0 0.87149173021316528 1.7951517293113284e-05
0.00063995661912485957 0.86570239067077637 8.7423883087467402e-05
0.04602445662021637 0.85767042636871338 0.00065147550776600838
0.2068680077791214 0.84757912158966064 9.4424976850859821e-05
0.41623798012733459 0.83883899450302124 0
0.54641330242156982 0.83377009630203247 0
0.61447399854660034 0.83001691102981567 0
0.69420754909515381 0.82190674543380737 0
0.77931153774261475 0.81127279996871948 0
0.00046708350419066846 0.0016740087885409594 0.0045656990259885788
0.018017906695604324 0.0037356656976044178 0.015671584755182266
0.067855983972549438 0.00281524658203125 0.027365606278181076
0.12912788987159729 0.00037403480382636189 0.030748195946216583
0.19569137692451477 7.1806067580837407e-07 0.028472332283854485
0.26833382248878479 9.3153408670332283e-05 0.019212296232581139
0.34491029381752014 0.0014855926856398582 0.011157017201185226
0.42319777607917786 0.0028879502788186073 0.0058679766952991486
0.50124108791351318 0.0035516177304089069 0.0067753810435533524
0.58933478593826294 0.0036721471697092056 0.0047716326080262661
0.68959248065948486 0.00041170307667925954 0.0005010716849938035
0.78843951225280762 0 0.00013691023923456669
0.88097554445266724 0 0.00013691023923456669
0.0023965872824192047 0.028529088944196701 0.022697838023304939
0.028357876464724541 0.030586078763008118 0.029321962967514992
0.083074174821376801 0.031429830938577652 0.032100498676300049
0.14094120264053345 0.025522911921143532 0.026848573237657547
0.20228342711925507 0.014113930985331535 0.021317679435014725
0.27125981450080872 0.0080932015553116798 0.01313470583409071
0.34735366702079773 0.0023447971325367689 0.0068975561298429966
0.4272407591342926 0 0.0037271687760949135
0.50721544027328491 2.7974447220913135e-06 0.003840083722025156
0.59643101692199707 9.8523909400682896e-05 0.0011988471960648894
0.69634604454040527 0 4.4430002162698656e-05
0.79634493589401245 0 0
0.89047634601593018 0 0
0.00042489744373597205 0.086769163608551025 0.020689437165856361
0.021152796223759651 0.087922342121601105 0.021633297204971313
0.086357817053794861 0.087279915809631348 0.023719457909464836
0.14908081293106079 0.084138654172420502 0.015520761720836163
0.2085537314414978 0.074544332921504974 0.0092664984986186028
0.27641081809997559 0.063944719731807709 0.0049612158909440041
0.35185575485229492 0.041192147880792618 0.004042936023324728
0.43093088269233704 0.015771079808473587 0.0062150545418262482
0.51156538724899292 0.0093288347125053406 0.0042640836909413338
0.60059916973114014 0.0023438099306076765 0.00099620444234460592
0.69905608892440796 0 0.00055915984557941556
0.80072426795959473 0 0
0.89794117212295532 0 0
0 0.15202216804027557 0.0075176311656832695
0.007695815060287714 0.15383248031139374 0.0099605182185769081
0.067080512642860413 0.15104062855243683 0.011209869757294655
0.14429342746734619 0.14935106039047241 0.006747556384652853
0.21275882422924042 0.14706374704837799 0.0032826142851263285
0.28251573443412781 0.14205491542816162 0.0027920443098992109
0.35796549916267395 0.12945252656936646 0.0020961386617273092
0.43675202131271362 0.11123757809400558 0.0010436263401061296
0.51651930809020996 0.089165255427360535 0.00077236397191882133
0.60443621873855591 0.053226873278617859 0.00056901818607002497
0.70136839151382446 0.009146297350525856 0.00043343935976736248
0.80409872531890869 0.00013529459829442203 0
0.90374076366424561 0 0
0 0.21850025653839111 0.00065908994292840362
0.0002012813783949241 0.22053742408752441 0.0038078008219599724
0.028824016451835632 0.21825142204761505 0.0071594240143895149
0.12322551012039185 0.21667458117008209 0.0045007592998445034
0.21150596439838409 0.21803630888462067 0.00077728572068735957
0.28656581044197083 0.21852928400039673 0.00069050508318468928
0.36504805088043213 0.21547827124595642 0.0011511259945109487
0.44520860910415649 0.2070290744304657 7.3720897489693016e-05
0.5256960391998291 0.19549642503261566 0
0.61276835203170776 0.16771148145198822 0
0.70561492443084717 0.11307892203330994 0
0.80738139152526855 0.041459731757640839 0
0.90850663185119629 0.0028811884112656116 0
0 0.29211175441741943 0
0 0.29407417774200439 0.00030719532514922321
0.008057822473347187 0.29259014129638672 0.0015430225757881999
0.095772221684455872 0.29028975963592529 0.00079348694998770952
0.20089133083820343 0.29255995154380798 3.2911113976297202e-06
0.28628978133201599 0.29581692814826965 5.7594447753217537e-06
0.36873263120651245 0.29443049430847168 0.00023235246771946549
0.45066329836845398 0.28933155536651611 2.0734001736855134e-05
0.53272444009780884 0.28442174196243286 0
0.62107694149017334 0.26851621270179749 0.00060858635697513819
0.7111811637878418 0.24642002582550049 0.0018192515708506107
0.8085140585899353 0.18169014155864716 0.00088106043403968215
0.90905416011810303 0.098353788256645203 0.0001109403747250326
0 0.37434506416320801 0
0 0.37697646021842957 0
0.00053226249292492867 0.37633335590362549 0
0.049146868288516998 0.37427815794944763 0
0.16286952793598175 0.3748333752155304 0
0.27661997079849243 0.37796676158905029 0
0.36334961652755737 0.37804871797561646 0
0.4455568790435791 0.37398353219032288 0
0.53215312957763672 0.36849698424339294 0
0.62196868658065796 0.35751870274543762 0.0024611977860331535
0.71267378330230713 0.34717828035354614 0.0064257304184138775
0.80607318878173828 0.32078054547309875 0.0051930444315075874
0.90140867233276367 0.27356681227684021 0.0010248819598928094
0 0.462708979845047 0
0 0.4662628173828125 0
0 0.4662787914276123 0
0.0097198784351348877 0.46398553252220154 0
0.094884611666202545 0.4622139036655426 9.2360554845072329e-05
0.23335647583007812 0.46284681558609009 0.001267661340534687
0.33569592237472534 0.46419593691825867 0.00093341903993859887
0.42699044942855835 0.46084541082382202 0
0.52208733558654785 0.45309093594551086 4.6973134885774925e-05
0.61836975812911987 0.44339945912361145 0.0032376756425946951
0.71083235740661621 0.43656101822853088 0.0071816984564065933
0.79988044500350952 0.42395138740539551 0.0074117323383688927
0.88676935434341431 0.39376118779182434 0.0018457450205460191
0.0037160837091505527 0.55364733934402466 0
0.00010884602670557797 0.55797684192657471 0
0 0.55843168497085571 5.9838390598088154e-07
0.0001207089881063439 0.55637449026107788 0.00069785024970769882
0.025943771004676819 0.55338209867477417 0.0052223806269466877
0.14316655695438385 0.55158227682113647 0.0073783723637461662
0.28094032406806946 0.55007630586624146 0.0047222212888300419
0.39940515160560608 0.54752480983734131 0.00090700038708746433
0.49915975332260132 0.54230290651321411 6.7018995650869329e-06
0.60108131170272827 0.53241246938705444 0.0011269213864579797
0.70076292753219604 0.52373838424682617 0.0025178499054163694
0.7870713472366333 0.516032874584198 0.0046584485098719597
0.86402875185012817 0.49939641356468201 0.0019258685642853379
0.011171722784638405 0.64418232440948486 0.00037737080128863454
0.0051429448649287224 0.64876013994216919 0.0024088541977107525
5.5440268624806777e-05 0.6496461033821106 0.0030329087749123573
0 0.64841115474700928 0.0073810950852930546
0.0035700032021850348 0.64523899555206299 0.0113843884319067
0.073972903192043304 0.64090979099273682 0.0094915656372904778
0.21585862338542938 0.63529759645462036 0.0049720313400030136
0.3676135241985321 0.63034588098526001 0.0009645798709243536
0.47781097888946533 0.62704217433929443 0
0.5742495059967041 0.61990070343017578 0
0.67900824546813965 0.60998439788818359 2.4563658371334895e-05
0.76879048347473145 0.60311484336853027 0.0026369879487901926
0.84394121170043945 0.59263080358505249 0.00093000824563205242
0.010612592101097107 0.72989493608474731 0.0042456085793673992
0.0056054508313536644 0.73427706956863403 0.01192683819681406
6.6300934122409672e-05 0.73515468835830688 0.011216421611607075
0 0.73409569263458252 0.010824539698660374
9.3856513558421284e-05 0.73063695430755615 0.010330977849662304
0.030696839094161987 0.72533917427062988 0.0078544169664382935
0.15184104442596436 0.71727836132049561 0.0041151158511638641
0.33133146166801453 0.70742988586425781 0.0004939808277413249
0.46805828809738159 0.70249217748641968 0
0.55891400575637817 0.69800221920013428 0
0.65572428703308105 0.69124466180801392 3.2911113976297202e-06
0.74721115827560425 0.68319201469421387 0.00049407064216211438
0.82712364196777344 0.67155992984771729 4.308364077587612e-05
0.0040185367688536644 0.80915117263793945 0.0044722612947225571
0.0011056787334382534 0.8113023042678833 0.012987563386559486
0 0.8116878867149353 0.011209450662136078
0 0.80995869636535645 0.0067177568562328815
0 0.80644476413726807 0.0052977167069911957
0.010253741405904293 0.80111664533615112 0.0044823139905929565
0.10308383405208588 0.79235833883285522 0.0040378645062446594
0.29031449556350708 0.78044658899307251 0.0016088448464870453
0.46179381012916565 0.77119332551956177 1.3164445817892556e-06
0.56021416187286377 0.76603460311889648 0
0.63601303100585938 0.76349258422851562 0
0.71940058469772339 0.75583082437515259 0
0.80308979749679565 0.7435230016708374 0
0 0.8802945613861084 0.0013186885043978691
0 0.87940871715545654 0.007967301644384861
0 0.87781339883804321 0.0075042876414954662
0 0.87572646141052246 0.0026443032547831535
0.000247955322265625 0.87237292528152466 0.00027178594609722495
0.0078155221417546272 0.86734741926193237 0.0021960688754916191
0.077839888632297516 0.85879141092300415 0.00464655552059412
0.24557620286941528 0.84761309623718262 0.0032682232558727264
0.43016716837882996 0.83822500705718994 0.0002536399697419256
0.54199093580245972 0.83296108245849609 0
0.60953587293624878 0.83035314083099365 0
0.68893265724182129 0.82231968641281128 0
0.77559107542037964 0.81143927574157715 0
0.005815842654556036 0.0043351566419005394 0.037567079067230225
0.030923686921596527 0.00247217807918787 0.057489730417728424
0.079000197350978851 0.0016431321855634451 0.073670975863933563
0.13879367709159851 0.00018382353300694376 0.082734934985637665
0.20336146652698517 0 0.085071995854377747
0.27327209711074829 0.00047004548832774162 0.078687377274036407
0.35043379664421082 0.0033332973252981901 0.077639274299144745
0.43333190679550171 0.0037053276319056749 0.064479663968086243
0.51062262058258057 0.0054628560319542885 0.055829513818025589
0.59849733114242554 0.0070517295971512794 0.04539826512336731
0.69991248846054077 0.0030893811490386724 0.032088454812765121
0.80036693811416626 0.00010726031177910045 0.02877197228372097
0.89484530687332153 0 0.027693595737218857
0.0027166029904037714 0.031471733003854752 0.071697846055030823
0.028238169848918915 0.030063435435295105 0.079660288989543915
0.08660271018743515 0.026812085881829262 0.085594162344932556
0.15035946667194366 0.018203943967819214 0.084328442811965942
0.21249307692050934 0.0057321288622915745 0.079873405396938324
0.28019547462463379 0.0019166385754942894 0.0710601806640625
0.35584315657615662 0.00030541513115167618 0.0703154057264328
0.43695157766342163 0 0.055451679974794388
0.51656109094619751 0.0003081826725974679 0.052156995981931686
0.60758256912231445 0.0025168922729790211 0.041177216917276382
0.70700937509536743 0.0013768513454124331 0.031930182129144669
0.80629950761795044 0.00045972337829880416 0.024476908147335052
0.90051943063735962 0.0016498340992256999 0.017917811870574951
3.8835114537505433e-05 0.08679468184709549 0.08315742015838623
0.015607871115207672 0.08791428804397583 0.083871848881244659
0.08014514297246933 0.084531091153621674 0.084443487226963043
0.15410557389259338 0.075627058744430542 0.076325632631778717
0.21916913986206055 0.059810534119606018 0.065928138792514801
0.28716346621513367 0.044504366815090179 0.055724680423736572
0.36158958077430725 0.026312913745641708 0.051164440810680389
0.43885797262191772 0.0097093768417835236 0.053193636238574982
0.52223438024520874 0.0017972759669646621 0.047385197132825851
0.61339402198791504 0.00017308253154624254 0.039361827075481415
0.71080935001373291 4.3831620132550597e-05 0.033148236572742462
0.80993133783340454 3.8221769500523806e-05 0.020681194961071014
0.90629392862319946 0.0022863349877297878 0.010535296052694321
0.00077887141378596425 0.15300020575523376 0.070673428475856781
0.003832588903605938 0.15724621713161469 0.072731554508209229
0.054235212504863739 0.155874103307724 0.069652095437049866
0.14454765617847443 0.14896422624588013 0.061448473483324051
0.22197930514812469 0.14168383181095123 0.050306476652622223
0.29159790277481079 0.13089147210121155 0.043141324073076248
0.36527562141418457 0.11672233045101166 0.038316600024700165
0.4438946545124054 0.096776075661182404 0.034204371273517609
0.52610152959823608 0.062864981591701508 0.030606109648942947
0.61665147542953491 0.033132337033748627 0.02758292481303215
0.71209156513214111 0.0052934982813894749 0.02120736800134182
0.81221866607666016 1.4810000720899552e-05 0.01419353112578392
0.90948891639709473 3.2671759981894866e-05 0.0084785157814621925
0.00066840974614024162 0.22033025324344635 0.042604394257068634
4.5417335059028119e-05 0.22491566836833954 0.052321773022413254
0.025905594229698181 0.22417877614498138 0.051613856106996536
0.11981097608804703 0.22007495164871216 0.042641300708055496
0.21479818224906921 0.21880336105823517 0.028841804713010788
0.29257798194885254 0.21662996709346771 0.026960574090480804
0.36880761384963989 0.21014890074729919 0.029548570513725281
0.4483705461025238 0.20198008418083191 0.017638098448514938
0.53109002113342285 0.18649473786354065 0.0082370983436703682
0.62074381113052368 0.15449388325214386 0.0053424159996211529
0.71364402770996094 0.097892925143241882 0.0018881703726947308
0.81336218118667603 0.038709137588739395 0.0031015882268548012
0.91093474626541138 0.0083657810464501381 0.00427271518856287
9.7237380032311194e-06 0.29300826787948608 0.018857769668102264
0 0.29659819602966309 0.025240115821361542
0.0073955310508608818 0.29756984114646912 0.025019941851496696
0.083304941654205322 0.29546201229095459 0.015644731000065804
0.18994462490081787 0.29563066363334656 0.0061263889074325562
0.28590431809425354 0.29622861742973328 0.0089956093579530716
0.37062382698059082 0.29250314831733704 0.016180509701371193
0.45395660400390625 0.28759881854057312 0.009293784387409687
0.53919261693954468 0.28115522861480713 0.003453168785199523
0.62744200229644775 0.26072210073471069 0.00081867893459275365
0.7173922061920166 0.23330812156200409 1.6485475498484448e-05
0.81202787160873413 0.17803491652011871 0
0.9071541428565979 0.10960416495800018 6.1259546782821417e-05
0 0.37521609663963318 0.0018780577229335904
0 0.37900638580322266 0.0028619056101888418
0.00044091916061006486 0.37961211800575256 0.0023707670625299215
0.036686930805444717 0.37833824753761292 0.00042196534923277795
0.14445571601390839 0.37806951999664307 5.7444853155175224e-05
0.26853048801422119 0.37894874811172485 0.00084841856732964516
0.36295658349990845 0.37691357731819153 0.0028770447243005037
0.45137250423431396 0.37211787700653076 0.0010341719025745988
0.53940927982330322 0.36453205347061157 0.0001977359497686848
0.62694728374481201 0.35000073909759521 6.4475862018298358e-05
0.71451377868652344 0.33834949135780334 0.0010717803379520774
0.80276799201965332 0.31707483530044556 0.0011602813610807061
0.89471274614334106 0.26967975497245789 0.00027461332501843572
6.0287176893325523e-05 0.4647916853427887 0
0 0.46873575448989868 0
0 0.46828019618988037 0
0.003532349830493331 0.46573367714881897 0
0.066478133201599121 0.46448338031768799 1.1967678119617631e-06
0.21400800347328186 0.46546283364295959 0.0003135381848551333
0.33605420589447021 0.46370819211006165 0.00028463624767027795
0.4354388415813446 0.45954799652099609 0
0.52774983644485474 0.45136499404907227 0
0.62042838335037231 0.43893641233444214 6.5059284679591656e-05
