assets/lut/picturefx analogfx old style i.cube
# Created by: G'MIC (https://gmic.eu)
TITLE "analogfx_old_style_i"
# LUT size
LUT_3D_SIZE 13
# Data domain
DOMAIN_MIN 0.0 0.0 0.0
DOMAIN_MAX 1.0 1.0 1.0
# LUT data points
0.0072534899227321148 0.0053709889762103558 0.0039215688593685627
0.0082763973623514175 0.0071167591959238052 0.0042552873492240906
0.010757132433354855 0.0079088695347309113 0.0066081928089261055
0.012087549082934856 0.0083437897264957428 0.0071032955311238766
0.024265468120574951 0.014668902382254601 0.012508108280599117
0.039304442703723907 0.022633811458945274 0.018805291503667831
0.070287443697452545 0.040450375527143478 0.029755866155028343
0.10397834330797195 0.061023890972137451 0.041731007397174835
0.14909633994102478 0.087602309882640839 0.062755584716796875
0.20518851280212402 0.11989858001470566 0.088986009359359741
0.27076372504234314 0.16006262600421906 0.11974924057722092
0.37680456042289734 0.22758336365222931 0.17204439640045166
0.55678564310073853 0.34568649530410767 0.27159944176673889
0.0083374325186014175 0.0075249318033456802 0.0041786343790590763
0.010584438219666481 0.008296712301671505 0.005880946759134531
0.016268651932477951 0.012092919088900089 0.0081660402938723564
0.032209686934947968 0.021209701895713806 0.016228619962930679
0.044630013406276703 0.027979668229818344 0.022136673331260681
0.066212840378284454 0.041373744606971741 0.03195687010884285
0.09360707551240921 0.057515956461429596 0.043141815811395645
0.1291106790304184 0.078379519283771515 0.058077584952116013
0.18714073300361633 0.11198147386312485 0.084908455610275269
0.2431255578994751 0.14638030529022217 0.11139713227748871
0.3105103075504303 0.18876951932907104 0.14357717335224152
0.42578321695327759 0.2619202733039856 0.20190706849098206
0.60381066799163818 0.37760457396507263 0.30008551478385925
0.03804328665137291 0.024644261226058006 0.01883341558277607
0.049621656537055969 0.030589697882533073 0.023983435705304146
0.061183854937553406 0.038153570145368576 0.028244033455848694
0.080138139426708221 0.049822323024272919 0.037954740226268768
0.095164522528648376 0.059346530586481094 0.046796087175607681
0.11122038960456848 0.069224432110786438 0.054317831993103027
0.13982515037059784 0.085690684616565704 0.066320367157459259
0.18871212005615234 0.11452162265777588 0.087733171880245209
0.25136557221412659 0.15455566346645355 0.11871272325515747
0.31302735209465027 0.1957295686006546 0.1519787609577179
0.39769837260246277 0.24909448623657227 0.19472615420818329
0.52524858713150024 0.32932344079017639 0.2610316276550293
0.67845529317855835 0.42751100659370422 0.34376388788223267
0.1139022558927536 0.070350274443626404 0.054094981402158737
0.12099658697843552 0.076240569353103638 0.057928331196308136
0.13241653144359589 0.080761358141899109 0.062915891408920288
0.15210598707199097 0.091900646686553955 0.070854499936103821
0.16889157891273499 0.103318952023983 0.080116793513298035
0.19636979699134827 0.11946970969438553 0.093158215284347534
0.2322496771812439 0.14274294674396515 0.11140192300081253
0.27933278679847717 0.17466017603874207 0.13539586961269379
0.3449874222278595 0.21778368949890137 0.17138299345970154
0.41825217008590698 0.26639086008071899 0.21088883280754089
0.51835066080093384 0.33045145869255066 0.26232537627220154
0.64737492799758911 0.40937772393226624 0.32904866337776184
0.77368921041488647 0.48965728282928467 0.39922839403152466
0.22830148041248322 0.14097873866558075 0.10910225659608841
0.23893347382545471 0.14868947863578796 0.11518213897943497
0.24583570659160614 0.15128560364246368 0.11810963600873947
0.26701068878173828 0.16581213474273682 0.12898924946784973
0.28917109966278076 0.18079115450382233 0.14046259224414825
0.31374707818031311 0.19748584926128387 0.15446987748146057
0.35239318013191223 0.22370070219039917 0.1755833625793457
0.40865686535835266 0.26039382815361023 0.20541749894618988
0.4660702645778656 0.29789349436759949 0.2377856969833374
0.55821388959884644 0.35647737979888916 0.28663304448127747
0.67667561769485474 0.43106615543365479 0.34868279099464417
0.79243671894073486 0.50232648849487305 0.40915635228157043
0.88807803392410278 0.56545901298522949 0.46442818641662598
0.39734116196632385 0.25165849924087524 0.19801509380340576
0.40605419874191284 0.25826475024223328 0.20360969007015228
0.41527661681175232 0.26504230499267578 0.20870387554168701
0.44113823771476746 0.28182971477508545 0.22278054058551788
0.45604720711708069 0.29167395830154419 0.23082634806632996
0.48798304796218872 0.31175047159194946 0.24760955572128296
0.53672295808792114 0.34266194701194763 0.27279162406921387
0.61012476682662964 0.38862276077270508 0.31194457411766052
0.67367660999298096 0.42918264865875244 0.34626775979995728
0.77051043510437012 0.48894825577735901 0.39675760269165039
0.86876004934310913 0.55134892463684082 0.45044177770614624
0.94063514471054077 0.61091810464859009 0.50567150115966797
0.98184490203857422 0.67245227098464966 0.56561994552612305
0.65932202339172363 0.4155120849609375 0.33568498492240906
0.66946238279342651 0.42347908020019531 0.34208044409751892
0.68401497602462769 0.43306851387023926 0.34998542070388794
0.71012669801712036 0.44965499639511108 0.36385086178779602
0.72764712572097778 0.46172252297401428 0.37355673313140869
0.75750303268432617 0.4796595573425293 0.38851308822631836
0.80985563993453979 0.51247179508209229 0.4167276918888092
0.87042367458343506 0.55183500051498413 0.45111280679702759
0.9202190637588501 0.59736573696136475 0.49365592002868652
0.95980852842330933 0.64230614900588989 0.53707772493362427
0.98440361022949219 0.69403785467147827 0.59424632787704468
0.99482071399688721 0.74789810180664062 0.65610200166702271
0.99784934520721436 0.80533015727996826 0.7278435230255127
0.92446213960647583 0.60017937421798706 0.49595075845718384
0.94037783145904541 0.61479920148849487 0.50774824619293213
0.95149773359298706 0.62685090303421021 0.51978045701980591
0.95739024877548218 0.63626337051391602 0.52968901395797729
0.96077829599380493 0.64758926630020142 0.54128080606460571
0.96789968013763428 0.65997451543807983 0.55627834796905518
0.98050236701965332 0.68703669309616089 0.5844956636428833
0.99147802591323853 0.72164160013198853 0.62609684467315674
0.9959222674369812 0.76914101839065552 0.68558233976364136
0.99889504909515381 0.80861270427703857 0.7345234751701355
0.99945104122161865 0.84232014417648315 0.7778589129447937
1 0.87729859352111816 0.82263541221618652
1 0.91545182466506958 0.87022709846496582
0.99816006422042847 0.75203818082809448 0.65871071815490723
0.99797892570495605 0.76700335741043091 0.67267805337905884
0.99798774719238281 0.77537524700164795 0.68513590097427368
0.99842745065689087 0.78965097665786743 0.70456302165985107
0.99903345108032227 0.80497914552688599 0.72638869285583496
0.99866050481796265 0.822060227394104 0.74771648645401001
0.99923580884933472 0.84382688999176025 0.77659898996353149
0.99987483024597168 0.86820411682128906 0.80965197086334229
1 0.89201712608337402 0.83920383453369141
1 0.91477131843566895 0.86947566270828247
1 0.93748974800109863 0.89849084615707397
1 0.95789176225662231 0.92543303966522217
1 0.97204470634460449 0.9529985785484314
1 0.87122350931167603 0.8088911771774292
1 0.88272374868392944 0.81895256042480469
1 0.89406281709671021 0.83393609523773193
1 0.90184497833251953 0.8449321985244751
1 0.91167372465133667 0.85776251554489136
1 0.9244232177734375 0.87375527620315552
1 0.936817467212677 0.89175397157669067
1 0.95132261514663696 0.91128557920455933
1 0.96016579866409302 0.92514342069625854
1 0.96636658906936646 0.93722456693649292
1 0.97799724340438843 0.95815449953079224
1 0.98217087984085083 0.97378557920455933
1 0.98415696620941162 0.98643094301223755
1 0.94330406188964844 0.89285945892333984
1 0.95121097564697266 0.90257745981216431
1 0.95653504133224487 0.91214734315872192
1 0.96096706390380859 0.91666853427886963
1 0.9637991189956665 0.92459791898727417
1 0.96885830163955688 0.93235421180725098
1 0.97462141513824463 0.94033682346343994
1 0.97894656658172607 0.95117843151092529
1 0.98093098402023315 0.95933938026428223
1 0.98293858766555786 0.96614694595336914
1 0.98425537347793579 0.97879725694656372
1 0.9843137264251709 0.99144512414932251
1 0.9843137264251709 0.99796700477600098
1 0.9661867618560791 0.92572915554046631
1 0.97853642702102661 0.93990767002105713
1 0.9810795783996582 0.94225418567657471
1 0.98065704107284546 0.9461175799369812
1 0.98065930604934692 0.9480518102645874
1 0.98041057586669922 0.94880813360214233
1 0.98168790340423584 0.95219850540161133
1 0.9830702543258667 0.95513147115707397
1 0.98399502038955688 0.96064764261245728
1 0.9843137264251709 0.97013700008392334
1 0.9843137264251709 0.97932761907577515
1 0.9843137264251709 0.99141198396682739
1 0.9843137264251709 0.99968910217285156
1 0.97613084316253662 0.94044482707977295
1 0.98040169477462769 0.94732654094696045
1 0.98140650987625122 0.95176666975021362
1 0.98251211643218994 0.95247381925582886
1 0.98366475105285645 0.94959145784378052
1 0.98345160484313965 0.95363700389862061
1 0.9837489128112793 0.95616281032562256
1 0.98378831148147583 0.96056669950485229
1 0.9843137264251709 0.96384602785110474
1 0.9843137264251709 0.97025555372238159
1 0.9843137264251709 0.97681957483291626
1 0.9843137264251709 0.98752158880233765
1 0.9843137264251709 0.99815207719802856
0.0062209931202232838 0.0052391053177416325 0.0038381388876587152
0.0084692109376192093 0.0076438155956566334 0.0039215688593685627
0.013067642226815224 0.0093091931194067001 0.0070518944412469864
0.021944517269730568 0.013343512080609798 0.011197228915989399
0.038121495395898819 0.022604160010814667 0.017878707498311996
0.05729428306221962 0.033525429666042328 0.025205934420228004
0.080299064517021179 0.046772483736276627 0.033613599836826324
0.11038368195295334 0.064119867980480194 0.044263444840908051
0.15772891044616699 0.090322487056255341 0.065403059124946594
0.21492749452590942 0.12432153522968292 0.092243984341621399
0.28404095768928528 0.16787435114383698 0.12597891688346863
0.39287000894546509 0.23645643889904022 0.17990368604660034
0.57045644521713257 0.35316789150238037 0.27845156192779541
0.013603015802800655 0.0098964618518948555 0.0069351946003735065
0.01685778982937336 0.011936740949749947 0.0081483284011483192
0.025510929524898529 0.017601970583200455 0.012322982773184776
0.042698055505752563 0.027693744748830795 0.021122606471180916
0.056190133094787598 0.034993607550859451 0.027280621230602264
0.076812952756881714 0.047449536621570587 0.036223765462636948
0.10274089872837067 0.062567032873630524 0.046565186232328415
0.14018437266349792 0.082296542823314667 0.061902768909931183
0.19318124651908875 0.1133023127913475 0.08683311939239502
0.25062701106071472 0.15044339001178741 0.11478722095489502
0.32034730911254883 0.19445529580116272 0.14863292872905731
0.44119387865066528 0.27057439088821411 0.20872603356838226
0.61617815494537354 0.38668936491012573 0.30844080448150635
0.047033645212650299 0.029848555102944374 0.022647587582468987
0.059669032692909241 0.036924831569194794 0.028496820479631424
0.075463391840457916 0.047320779412984848 0.035484775900840759
0.087866932153701782 0.056006845086812973 0.042614072561264038
0.10210695117712021 0.064401187002658844 0.05001131072640419
0.12185182422399521 0.075413674116134644 0.058899465948343277
0.15146388113498688 0.092305608093738556 0.071911558508872986
0.19907121360301971 0.12116986513137817 0.093767695128917694
0.25767943263053894 0.15964251756668091 0.12190365046262741
0.32727277278900146 0.20453767478466034 0.15830472111701965
0.40947523713111877 0.25620576739311218 0.20032677054405212
0.53833317756652832 0.33707305788993835 0.26693430542945862
0.68516206741333008 0.43257418274879456 0.34889909625053406
0.12332075834274292 0.076970823109149933 0.058734819293022156
0.13628529012203217 0.085329718887805939 0.066050782799720764
0.14417070150375366 0.087784349918365479 0.069208674132823944
0.16238947212696075 0.099590450525283813 0.077588066458702087
0.17988003790378571 0.11052068322896957 0.085585609078407288
0.2091558426618576 0.12787435948848724 0.099681034684181213
0.24696910381317139 0.15276414155960083 0.11968161165714264
0.29291489720344543 0.18369743227958679 0.1435810923576355
0.35651826858520508 0.22551716864109039 0.17682226002216339
0.43430700898170471 0.27655759453773499 0.21782560646533966
0.52558422088623047 0.33499497175216675 0.26501977443695068
0.65801173448562622 0.41509279608726501 0.33337366580963135
0.77653497457504272 0.49061977863311768 0.40019533038139343
0.24170716106891632 0.14976832270622253 0.11666855216026306
0.25352028012275696 0.1589491218328476 0.12409619987010956
0.26591920852661133 0.16668009757995605 0.13080768287181854
0.28239056468009949 0.17730127274990082 0.13873669505119324
0.29974812269210815 0.18824726343154907 0.14764146506786346
0.32929527759552002 0.20887884497642517 0.1637822687625885
0.36418899893760681 0.23164092004299164 0.18225659430027008
0.41142237186431885 0.26276826858520508 0.20816060900688171
0.48925796151161194 0.3131864070892334 0.24923302233219147
0.5818139910697937 0.37149849534034729 0.29737314581871033
0.68198281526565552 0.43358516693115234 0.35031032562255859
0.79882144927978516 0.50564050674438477 0.4117254912853241
0.89105063676834106 0.5698857307434082 0.46718588471412659
0.40458038449287415 0.25644576549530029 0.20180511474609375
0.4160468578338623 0.26586705446243286 0.20960325002670288
0.42611563205718994 0.27206850051879883 0.21484890580177307
0.4481683075428009 0.28619599342346191 0.22657828032970428
0.46601128578186035 0.29861986637115479 0.23632772266864777
0.50147217512130737 0.32195723056793213 0.25517275929450989
0.54567331075668335 0.34909847378730774 0.27856528759002686
0.60641694068908691 0.38826668262481689 0.31116566061973572
0.68809682130813599 0.44017419219017029 0.35456961393356323
0.78088670969009399 0.49713602662086487 0.40351441502571106
0.87010717391967773 0.55441510677337646 0.45333215594291687
0.94294863939285278 0.61259537935256958 0.50543779134750366
0.98107826709747314 0.67229366302490234 0.56300908327102661
0.66907030344009399 0.42262974381446838 0.3411652147769928
0.68056297302246094 0.43156951665878296 0.3487694263458252
0.69400054216384888 0.43919733166694641 0.3556256890296936
0.72042781114578247 0.45595067739486694 0.36961120367050171
0.73490071296691895 0.46741482615470886 0.37897393107414246
0.7702631950378418 0.4879705011844635 0.39653864502906799
0.81846016645431519 0.51840478181838989 0.42274123430252075
0.87419408559799194 0.55805397033691406 0.45641240477561951
0.92755317687988281 0.60372436046600342 0.49777573347091675
0.96462815999984741 0.6520695686340332 0.54722034931182861
0.98915517330169678 0.69674563407897949 0.59442043304443359
0.99806332588195801 0.74747854471206665 0.65645748376846313
0.99884259700775146 0.80436265468597412 0.72631490230560303
0.94269478321075439 0.61761569976806641 0.51087319850921631
0.94451236724853516 0.62154793739318848 0.51399117708206177
0.95512509346008301 0.63310509920120239 0.52603161334991455
0.96399474143981934 0.64375764131546021 0.53558123111724854
0.96979695558547974 0.65592008829116821 0.54682284593582153
0.97531181573867798 0.67196941375732422 0.5647890567779541
0.98145031929016113 0.68438929319381714 0.58295518159866333
0.99171990156173706 0.73128479719161987 0.6370842456817627
0.998432457447052 0.77488911151885986 0.68987941741943359
0.99910855293273926 0.81360787153244019 0.73998767137527466
0.99990475177764893 0.84639638662338257 0.78276687860488892
1 0.87751543521881104 0.82378870248794556
1 0.91336899995803833 0.86660099029541016
0.9971126914024353 0.76351708173751831 0.67097717523574829
0.99831980466842651 0.76928514242172241 0.6762654185295105
0.99822515249252319 0.78475481271743774 0.6966545581817627
0.99906927347183228 0.79979044198989868 0.71581530570983887
0.99964934587478638 0.80714255571365356 0.72803080081939697
0.99878448247909546 0.82520890235900879 0.75137722492218018
0.9984966516494751 0.84758681058883667 0.78164875507354736
0.99949830770492554 0.87376278638839722 0.81541818380355835
1 0.89743548631668091 0.84621351957321167
1 0.9179571270942688 0.87528765201568604
1 0.93974697589874268 0.90182018280029297
1 0.96045559644699097 0.93015426397323608
1 0.97451591491699219 0.95813208818435669
1 0.87381958961486816 0.81183558702468872
1 0.89007085561752319 0.8303946852684021
1 0.90114760398864746 0.84213125705718994
1 0.91100573539733887 0.85552114248275757
1 0.92006754875183105 0.86832493543624878
1 0.93214857578277588 0.88252079486846924
1 0.94415199756622314 0.89968019723892212
1 0.95376133918762207 0.91610813140869141
1 0.96273624897003174 0.93252336978912354
1 0.96931105852127075 0.94690197706222534
1 0.97828668355941772 0.96458315849304199
1 0.98238140344619751 0.9762876033782959
1 0.9843137264251709 0.98665529489517212
1 0.94575321674346924 0.90010339021682739
1 0.95812195539474487 0.91176855564117432
1 0.96268767118453979 0.92083579301834106
1 0.96734762191772461 0.92684996128082275
1 0.96850717067718506 0.93336516618728638
1 0.97400462627410889 0.94155550003051758
1 0.97805553674697876 0.94983130693435669
1 0.98193943500518799 0.95818513631820679
1 0.98401802778244019 0.96711558103561401
1 0.9840928316116333 0.9754520058631897
1 0.9843137264251709 0.98609018325805664
1 0.9843137264251709 0.99425739049911499
1 0.9843137264251709 0.99633747339248657
1 0.97159332036972046 0.93723875284194946
1 0.98007184267044067 0.94812697172164917
1 0.98262113332748413 0.95197182893753052
1 0.98240131139755249 0.95456957817077637
1 0.98167204856872559 0.95502966642379761
1 0.98191022872924805 0.95692020654678345
1 0.98301959037780762 0.96087920665740967
1 0.98424625396728516 0.96525424718856812
1 0.9843137264251709 0.9727669358253479
1 0.9843137264251709 0.98188883066177368
1 0.9843137264251709 0.99034017324447632
1 0.9843137264251709 0.99480545520782471
1 0.9843137264251709 0.99966084957122803
1 0.9812847375869751 0.95270067453384399
1 0.98311793804168701 0.96365261077880859
1 0.98415988683700562 0.9670330286026001
1 0.98429411649703979 0.96700561046600342
1 0.9842228889465332 0.96646654605865479
1 0.98412877321243286 0.96718508005142212
1 0.98431265354156494 0.9687725305557251
1 0.9843137264251709 0.97110682725906372
1 0.9843137264251709 0.97727632522583008
1 0.9843137264251709 0.98498344421386719
1 0.9843137264251709 0.98860591650009155
1 0.9843137264251709 0.99171978235244751
1 0.9843137264251709 0.99936366081237793
0.010862014256417751 0.0072545669972896576 0.0051700067706406116
0.014785976149141788 0.01071243267506361 0.0070914174430072308
0.021122680976986885 0.013726597651839256 0.010085655376315117
0.030351346358656883 0.016905780881643295 0.014611023478209972
0.056396946310997009 0.032545395195484161 0.024738207459449768
0.079357951879501343 0.046618308871984482 0.032925192266702652
0.097668714821338654 0.057344518601894379 0.039502475410699844
0.1298072338104248 0.074664220213890076 0.05242488905787468
0.18067054450511932 0.10387814044952393 0.075713932514190674
0.23629508912563324 0.13791997730731964 0.10219509899616241
0.31115809082984924 0.18456222116947174 0.13876201212406158
0.42839589715003967 0.25911206007003784 0.19842354953289032
0.60508990287780762 0.37482869625091553 0.29629600048065186
0.027879318222403526 0.018525769934058189 0.013332710601389408
0.033212415874004364 0.022255167365074158 0.015589335933327675
0.040653813630342484 0.026669220998883247 0.019156018272042274
0.060666430741548538 0.037928592413663864 0.029258549213409424
0.07962317019701004 0.04873206838965416 0.037560258060693741
0.10106811672449112 0.061442162841558456 0.045978844165802002
0.12268815934658051 0.073746398091316223 0.054361306130886078
0.15994495153427124 0.093409746885299683 0.070524640381336212
0.21375402808189392 0.12644936144351959 0.095952264964580536
0.2707689106464386 0.16254565119743347 0.12355693429708481
0.35133081674575806 0.21381103992462158 0.16399857401847839
0.48407050967216492 0.29857745766639709 0.23328118026256561
0.6478952169418335 0.40627837181091309 0.32574379444122314
0.074150756001472473 0.047221988439559937 0.035080313682556152
0.080669105052947998 0.050932910293340683 0.038065847009420395
0.089069738984107971 0.05702577531337738 0.042432360351085663
0.10480892658233643 0.065607570111751556 0.050335153937339783
0.1198568269610405 0.074606545269489288 0.05846799910068512
0.14689017832279205 0.090227328240871429 0.070723108947277069
0.17732627689838409 0.10758882761001587 0.083864174783229828
0.22543953359127045 0.13752667605876923 0.107352614402771
0.28208491206169128 0.17411980032920837 0.13493773341178894
0.34571215510368347 0.21485468745231628 0.16796217858791351
0.43430516123771667 0.27131521701812744 0.21246281266212463
0.57161885499954224 0.3582724928855896 0.28513225913047791
0.70980066061019897 0.44691160321235657 0.36190548539161682
0.14941695332527161 0.091844372451305389 0.070635505020618439
0.15371933579444885 0.093926958739757538 0.072846099734306335
0.16331718862056732 0.099700972437858582 0.078096084296703339
0.1881679892539978 0.11492424458265305 0.090483739972114563
0.2063622772693634 0.12628085911273956 0.099145852029323578
0.23458892107009888 0.14533291757106781 0.11353752017021179
0.26479148864746094 0.16440807282924652 0.12944531440734863
0.3092876672744751 0.19381226599216461 0.15285299718379974
0.3724401593208313 0.23489326238632202 0.18582990765571594
0.45054185390472412 0.28592750430107117 0.22584652900695801
0.55344873666763306 0.35102006793022156 0.27814012765884399
0.68069362640380859 0.42951864004135132 0.34445685148239136
0.79420888423919678 0.5005573034286499 0.40803924202919006
0.27756619453430176 0.17180772125720978 0.13482676446437836
0.26947835087776184 0.16762688755989075 0.1313239187002182
0.2872374951839447 0.18024320900440216 0.14171253144741058
0.30888339877128601 0.19461965560913086 0.15372338891029358
0.32340472936630249 0.20353764295578003 0.16083510220050812
0.34504145383834839 0.21852238476276398 0.1717609167098999
0.38529291749000549 0.24517697095870972 0.19333286583423615
0.43924698233604431 0.28081905841827393 0.22235645353794098
0.52071583271026611 0.33261421322822571 0.26532256603240967
0.61111372709274292 0.38978204131126404 0.31201416254043579
0.70897752046585083 0.45035767555236816 0.36361441016197205
0.81519836187362671 0.51566934585571289 0.41937023401260376
0.90652430057525635 0.57769489288330078 0.47362309694290161
0.43968841433525085 0.27894774079322815 0.22009709477424622
0.43606677651405334 0.27858230471611023 0.22058282792568207
0.45003759860992432 0.2879488468170166 0.22834794223308563
0.48038524389266968 0.30635443329811096 0.24420584738254547
0.50476109981536865 0.32210865616798401 0.25681871175765991
0.52651357650756836 0.33667007088661194 0.26928353309631348
0.57589846849441528 0.36783453822135925 0.29567068815231323
0.63276857137680054 0.40403121709823608 0.32523590326309204
0.71590816974639893 0.45678284764289856 0.36862489581108093
0.81836038827896118 0.51941204071044922 0.42273750901222229
0.89461582899093628 0.56986385583877563 0.46654224395751953
0.95514291524887085 0.62232160568237305 0.51450580358505249
0.98487931489944458 0.68292617797851562 0.57315975427627563
0.6948428750038147 0.43945255875587463 0.35407611727714539
0.70295333862304688 0.44635269045829773 0.36124375462532043
0.71788746118545532 0.45590734481811523 0.36904457211494446
0.74920827150344849 0.47440353035926819 0.38466516137123108
0.76271843910217285 0.48394313454627991 0.39285498857498169
0.79669851064682007 0.50612545013427734 0.41200047731399536
0.84370428323745728 0.53477722406387329 0.43664160370826721
0.8950844407081604 0.57166725397109985 0.46918141841888428
0.94314652681350708 0.61644864082336426 0.50988411903381348
0.97003042697906494 0.6651078462600708 0.56286334991455078
0.98967593908309937 0.71069663763046265 0.61483180522918701
0.99873644113540649 0.76005440950393677 0.67278683185577393
0.99868500232696533 0.81375503540039062 0.73874378204345703
0.95281326770782471 0.62728846073150635 0.52018886804580688
