assets/lut/picturefx faux infrared color yp1.cube
# Created by: G'MIC (https://gmic.eu)
TITLE "faux_infrared_color_yp1"
# LUT size
LUT_3D_SIZE 7
# Data domain
DOMAIN_MIN 0.0 0.0 0.0
DOMAIN_MAX 1.0 1.0 1.0
# LUT data points
0.12004391849040985 0.094172969460487366 0.087490424513816833
0.51798677444458008 0.37681704759597778 0.11927786469459534
0.8704988956451416 0.639701247215271 0.14604020118713379
0.98960858583450317 0.86938691139221191 0.20740532875061035
1 0.92123329639434814 0.29594731330871582
1 0.93015879392623901 0.38564619421958923
1 0.94144308567047119 0.4587731659412384
0.30940228700637817 0.082199394702911377 0.17385764420032501
0.59719902276992798 0.25378462672233582 0.21048355102539062
0.89857989549636841 0.58593893051147461 0.21713875234127045
0.98675638437271118 0.82444846630096436 0.25337529182434082
1 0.89365881681442261 0.33242535591125488
1 0.92007029056549072 0.41922086477279663
1 0.93606936931610107 0.46768331527709961
0.52471745014190674 0.12053143233060837 0.24964265525341034
0.74502980709075928 0.17584605515003204 0.30002632737159729
0.96874010562896729 0.44248872995376587 0.32334139943122864
0.99933075904846191 0.77129906415939331 0.32238692045211792
1 0.88613432645797729 0.39468958973884583
1 0.92577141523361206 0.4621182382106781
1 0.93425887823104858 0.48253574967384338
0.72315782308578491 0.1604912132024765 0.32535383105278015
0.89107662439346313 0.19997939467430115 0.36842754483222961
0.98880457878112793 0.27544298768043518 0.42683267593383789
1 0.62712621688842773 0.42792490124702454
1 0.86079275608062744 0.44840225577354431
1 0.92835867404937744 0.49764195084571838
1 0.93675225973129272 0.50196081399917603
0.92014616727828979 0.20531277358531952 0.41882067918777466
0.97951525449752808 0.22917358577251434 0.4321761429309845
0.99247586727142334 0.27813497185707092 0.47753560543060303
1 0.33665281534194946 0.51151853799819946
1 0.78883892297744751 0.48019894957542419
1 0.9212995171546936 0.51197934150695801
1 0.94522291421890259 0.52315604686737061
0.99336093664169312 0.2442249208688736 0.49387255311012268
0.99043005704879761 0.26298516988754272 0.49512591958045959
0.99724817276000977 0.29645338654518127 0.51769888401031494
1 0.31042778491973877 0.52304178476333618
1 0.44890972971916199 0.50627976655960083
1 0.87905555963516235 0.5118175745010376
1 0.87952786684036255 0.51551371812820435
0.9980124831199646 0.28196266293525696 0.55739271640777588
0.99938368797302246 0.29270645976066589 0.54861223697662354
1 0.30425843596458435 0.53782325983047485
1 0.32903257012367249 0.52597278356552124
1 0.32567122578620911 0.51811426877975464
1 0.50923836231231689 0.50582170486450195
1 0.52870523929595947 0.50554734468460083
0.02918536588549614 0.21143347024917603 0.15467554330825806
0.35085254907608032 0.41681590676307678 0.15696123242378235
0.80370050668716431 0.65525412559509277 0.16545040905475616
0.9884335994720459 0.88078069686889648 0.21552129089832306
1 0.9295772910118103 0.32559648156166077
1 0.93929600715637207 0.43972796201705933
1 0.94429343938827515 0.46703964471817017
0.13594833016395569 0.13010111451148987 0.22946359217166901
0.46086648106575012 0.28428056836128235 0.22448472678661346
0.84319472312927246 0.59788519144058228 0.22943252325057983
0.98500555753707886 0.84987133741378784 0.26210376620292664
1 0.90794354677200317 0.35978326201438904
1 0.92694652080535889 0.43951112031936646
1 0.93573373556137085 0.46473029255867004
0.35047507286071777 0.15217927098274231 0.28829360008239746
0.64156842231750488 0.16640922427177429 0.3188357949256897
0.92281651496887207 0.45582428574562073 0.33045580983161926
0.99848061800003052 0.78981250524520874 0.3320544958114624
1 0.89432346820831299 0.39968743920326233
1 0.92020440101623535 0.45120492577552795
1 0.93333333730697632 0.47731024026870728
0.61134755611419678 0.16872289776802063 0.3557182252407074
0.80400460958480835 0.19181698560714722 0.38514283299446106
0.98208552598953247 0.28300288319587708 0.43450915813446045
0.99998831748962402 0.64781862497329712 0.43341776728630066
1 0.8651013970375061 0.45282632112503052
1 0.92434811592102051 0.49442002177238464
1 0.93742531538009644 0.50411784648895264
0.86167722940444946 0.21242634952068329 0.43546438217163086
0.95311516523361206 0.22492079436779022 0.45410493016242981
0.98448532819747925 0.27379873394966125 0.49234965443611145
0.99976170063018799 0.34248644113540649 0.52624130249023438
1 0.79844492673873901 0.48553067445755005
1 0.92915022373199463 0.51721620559692383
1 0.94407361745834351 0.5228152871131897
0.98658239841461182 0.24014268815517426 0.49780270457267761
0.9833749532699585 0.25332945585250854 0.50563508272171021
0.99260377883911133 0.28475072979927063 0.52418136596679688
0.99946707487106323 0.31582063436508179 0.53230077028274536
1 0.45614463090896606 0.51285326480865479
1 0.88431864976882935 0.51511985063552856
1 0.88670361042022705 0.52002406120300293
0.98560398817062378 0.27450597286224365 0.55962955951690674
0.9906688928604126 0.27985504269599915 0.55602991580963135
0.99580812454223633 0.30264052748680115 0.54760187864303589
0.99994254112243652 0.30893826484680176 0.53648507595062256
1 0.31133547425270081 0.52747470140457153
1 0.52445685863494873 0.50977045297622681
1 0.55120480060577393 0.50822561979293823
0.029267674311995506 0.3398345410823822 0.21823777258396149
0.062752380967140198 0.50743651390075684 0.22101840376853943
0.65335547924041748 0.70999014377593994 0.21687963604927063
0.97170776128768921 0.88102596998214722 0.25246092677116394
0.99310857057571411 0.93839877843856812 0.36168560385704041
0.99814713001251221 0.95048540830612183 0.46302056312561035
1 0.95138990879058838 0.47419896721839905
0.16629661619663239 0.2166176438331604 0.29383105039596558
0.14292533695697784 0.40848734974861145 0.2750302255153656
0.69444698095321655 0.65078866481781006 0.25775301456451416
0.97546631097793579 0.87118780612945557 0.27439862489700317
0.99961382150650024 0.9364737868309021 0.35800811648368835
0.99944388866424561 0.93901604413986206 0.45351460576057434
1 0.94420379400253296 0.47577592730522156
0.23104760050773621 0.22233062982559204 0.35293349623680115
0.38854914903640747 0.23195381462574005 0.37528067827224731
0.79870456457138062 0.49490958452224731 0.35236248373985291
0.98837929964065552 0.80322271585464478 0.34441056847572327
1 0.90134769678115845 0.39960074424743652
1 0.93356990814208984 0.47092488408088684
1 0.94133913516998291 0.48861932754516602
0.39475515484809875 0.24310274422168732 0.4082285463809967
0.6242179274559021 0.22186438739299774 0.42580375075340271
0.9115261435508728 0.26819655299186707 0.46180349588394165
0.99735969305038452 0.67231035232543945 0.44622820615768433
1 0.87366402149200439 0.46051523089408875
1 0.93870538473129272 0.50957387685775757
1 0.94117647409439087 0.5103490948677063
0.71780091524124146 0.25203678011894226 0.47479644417762756
0.85621732473373413 0.24135114252567291 0.4889434278011322
0.98128926753997803 0.26272767782211304 0.51484012603759766
0.99918347597122192 0.36941161751747131 0.54991239309310913
1 0.8180842399597168 0.49357515573501587
1 0.93752527236938477 0.52344727516174316
1 0.94409036636352539 0.52432024478912354
0.88939273357391357 0.26693719625473022 0.53413641452789307
0.9389801025390625 0.26479643583297729 0.53963494300842285
0.97450965642929077 0.28281933069229126 0.55035960674285889
0.99669170379638672 0.30993998050689697 0.55913883447647095
1 0.4928639829158783 0.52522414922714233
1 0.8984980583190918 0.51969021558761597
1 0.9008105993270874 0.52198213338851929
0.96995383501052856 0.28118401765823364 0.57890790700912476
0.97588461637496948 0.28066018223762512 0.58428829908370972
0.99406784772872925 0.28900709748268127 0.58903032541275024
1 0.30563318729400635 0.56646806001663208
1 0.31105116009712219 0.54630196094512939
1 0.56795793771743774 0.51708829402923584
1 0.59134113788604736 0.51504379510879517
0.032506022602319717 0.47578603029251099 0.28967174887657166
0.072065703570842743 0.60060250759124756 0.28690573573112488
0.32641568779945374 0.7898285984992981 0.29474577307701111
0.91591531038284302 0.93991917371749878 0.30369725823402405
0.98472779989242554 0.96370339393615723 0.38778847455978394
0.99461579322814941 0.96158516407012939 0.45967406034469604
0.99607843160629272 0.9611821174621582 0.47484943270683289
0.16779759526252747 0.38662853837013245 0.34511050581932068
0.15562744438648224 0.52490800619125366 0.33898818492889404
0.33267855644226074 0.7391090989112854 0.3227788507938385
0.92409354448318481 0.91398727893829346 0.32334885001182556
0.98520892858505249 0.956947922706604 0.38689520955085754
0.99289160966873169 0.95469886064529419 0.45646512508392334
0.99607843160629272 0.95411205291748047 0.48191967606544495
0.29936501383781433 0.28538233041763306 0.43097484111785889
0.28781804442405701 0.35422873497009277 0.43557140231132507
0.46195492148399353 0.61066877841949463 0.39642158150672913
0.95727986097335815 0.84584838151931763 0.36653774976730347
0.99773341417312622 0.93594992160797119 0.41262021660804749
0.99718952178955078 0.94088578224182129 0.47327044606208801
0.99651741981506348 0.94670099020004272 0.49870344996452332
0.35565096139907837 0.32070538401603699 0.48595964908599854
0.38715454936027527 0.32958021759986877 0.50235521793365479
0.73265248537063599 0.3506641685962677 0.51423883438110352
0.98418343067169189 0.70625728368759155 0.46154531836509705
1 0.89494234323501587 0.46848472952842712
1 0.92898952960968018 0.50597435235977173
1 0.94117647409439087 0.51633530855178833
0.45469987392425537 0.35374429821968079 0.54218220710754395
0.57376062870025635 0.34425649046897888 0.55442392826080322
0.88100481033325195 0.29608023166656494 0.57057440280914307
0.99781173467636108 0.39044642448425293 0.58521908521652222
1 0.8450394868850708 0.50914674997329712
1 0.93530255556106567 0.52519553899765015
1 0.94365626573562622 0.5277220606803894
0.73613375425338745 0.332588791847229 0.58786690235137939
0.85982233285903931 0.308990478515625 0.59166216850280762
0.96018296480178833 0.29946693778038025 0.60063666105270386
0.99526125192642212 0.30160301923751831 0.61002635955810547
1 0.5431826114654541 0.54806721210479736
1 0.91527634859085083 0.52693694829940796
1 0.91843599081039429 0.5251585841178894
0.95020049810409546 0.30700251460075378 0.61412918567657471
0.96362411975860596 0.30368146300315857 0.63126790523529053
0.99478471279144287 0.27895328402519226 0.64117032289505005
0.99989086389541626 0.29263591766357422 0.61831933259963989
1 0.31341525912284851 0.57943844795227051
1 0.6203535795211792 0.52925127744674683
1 0.64984238147735596 0.52666640281677246
0.079482227563858032 0.60156428813934326 0.37178692221641541
0.11516916751861572 0.71345609426498413 0.36838564276695251
0.20293276011943817 0.87519645690917969 0.37357708811759949
0.60395634174346924 0.98224788904190063 0.37858173251152039
0.99136710166931152 0.98041504621505737 0.43268558382987976
0.99593460559844971 0.96518498659133911 0.48575285077095032
0.99607843160629272 0.9663732647895813 0.48654672503471375
0.1709788590669632 0.55286747217178345 0.40794423222541809
0.17325034737586975 0.6506798267364502 0.41214579343795776
0.15135636925697327 0.82660043239593506 0.39888256788253784
0.68952220678329468 0.96932065486907959 0.39340671896934509
0.98994678258895874 0.97693943977355957 0.44150349497795105
0.99298244714736938 0.9633365273475647 0.48662340641021729
0.99607843160629272 0.96265971660614014 0.49244022369384766
0.33926504850387573 0.4033624529838562 0.49386763572692871
0.28011354804039001 0.52258986234664917 0.47899711132049561
0.2251560240983963 0.72915714979171753 0.4530341625213623
0.71729081869125366 0.92577946186065674 0.42584186792373657
0.99151343107223511 0.96284735202789307 0.45346128940582275
0.99607843160629272 0.95012068748474121 0.50330746173858643
0.99607843160629272 0.95091146230697632 0.50965273380279541
0.41472059488296509 0.37629643082618713 0.55673515796661377
0.42540332674980164 0.39085721969604492 0.57192540168762207
0.41625148057937622 0.53933173418045044 0.56771266460418701
0.87075835466384888 0.79674917459487915 0.492156982421875
0.99774372577667236 0.93988931179046631 0.48381525278091431
0.99810576438903809 0.93887341022491455 0.51298379898071289
0.99607843160629272 0.94266974925994873 0.51953941583633423
0.46492147445678711 0.41222384572029114 0.60796689987182617
0.47465083003044128 0.42206653952598572 0.62039464712142944
0.64073538780212402 0.41365355253219604 0.64297860860824585
0.96963012218475342 0.49762466549873352 0.61955058574676514
0.99995917081832886 0.88480949401855469 0.52900290489196777
0.99908864498138428 0.94174009561538696 0.52870070934295654
0.99765008687973022 0.94035947322845459 0.5257532000541687
0.51659512519836426 0.44370728731155396 0.65477007627487183
0.57632827758789062 0.44033300876617432 0.6636124849319458
0.85714513063430786 0.39040729403495789 0.67036700248718262
0.98859333992004395 0.32453227043151855 0.68207597732543945
1 0.62370198965072632 0.58193773031234741
1 0.93081343173980713 0.53184515237808228
1 0.93576622009277344 0.53080815076828003
0.76134556531906128 0.43351548910140991 0.68822139501571655
0.87233036756515503 0.41167250275611877 0.69148296117782593
0.96448135375976562 0.36050233244895935 0.6966632604598999
0.99651134014129639 0.30498462915420532 0.69560587406158447
1 0.31452080607414246 0.63376343250274658
1 0.70006155967712402 0.54517835378646851
1 0.71944421529769897 0.54156458377838135
0.084129184484481812 0.72587293386459351 0.43733122944831848
0.098849080502986908 0.82748246192932129 0.43639680743217468
0.088827870786190033 0.93098253011703491 0.43599915504455566
0.18397045135498047 0.99076837301254272 0.42129477858543396
0.95098936557769775 0.98615986108779907 0.45047110319137573
0.99626362323760986 0.96361058950424194 0.51278340816497803
0.99607843160629272 0.9686274528503418 0.49702081084251404
0.17323689162731171 0.68920433521270752 0.46923524141311646
0.14703547954559326 0.75869506597518921 0.46844872832298279
0.15826742351055145 0.88241642713546753 0.45481431484222412
0.30108395218849182 0.98367083072662354 0.43887656927108765
0.95039659738540649 0.98644864559173584 0.4545573890209198
0.99607783555984497 0.96263062953948975 0.51394140720367432
0.99232381582260132 0.96838581562042236 0.50171273946762085
0.32135489583015442 0.58677351474761963 0.5296175479888916
0.28023838996887207 0.66082274913787842 0.52246010303497314
0.18238246440887451 0.80821818113327026 0.50230348110198975
0.25208249688148499 0.97065168619155884 0.48083955049514771
0.97226762771606445 0.98180180788040161 0.47337013483047485
0.9960472583770752 0.96368229389190674 0.50815343856811523
0.99231135845184326 0.96114403009414673 0.5098070502281189
0.46791145205497742 0.43194001913070679 0.62103903293609619
0.46168512105941772 0.47623372077941895 0.62318891286849976
0.36903387308120728 0.66272509098052979 0.59606456756591797
0.35608091950416565 0.90093648433685303 0.54181432723999023
0.97869205474853516 0.97459280490875244 0.5032615065574646
0.99453079700469971 0.96264684200286865 0.50758832693099976
0.99274307489395142 0.95530515909194946 0.51714092493057251
0.51231962442398071 0.45648154616355896 0.66331976652145386
0.51981222629547119 0.4699065089225769 0.67684447765350342
0.54171657562255859 0.49020648002624512 0.70221400260925293
0.74627244472503662 0.69553858041763306 0.654011070728302
0.9927484393119812 0.9210129976272583 0.55278944969177246
0.99260890483856201 0.94796133041381836 0.52955669164657593
0.99279940128326416 0.95273464918136597 0.52690327167510986
0.55555218458175659 0.48599767684936523 0.70385360717773438
0.55922752618789673 0.49397662281990051 0.71563446521759033
0.60862910747528076 0.50452315807342529 0.7356264591217041
0.9323241114616394 0.44168925285339355 0.73736786842346191
0.9996265172958374 0.72015643119812012 0.61970287561416626
0.99896985292434692 0.93673586845397949 0.53566557168960571
0.99770545959472656 0.95107179880142212 0.53555214405059814
0.58292782306671143 0.51106363534927368 0.74091702699661255
0.59999954700469971 0.51667642593383789 0.74970835447311401
0.80127370357513428 0.48881837725639343 0.75741922855377197
0.96997076272964478 0.41121622920036316 0.74089568853378296
0.99743348360061646 0.33551210165023804 0.69825512170791626
1 0.77343177795410156 0.56143069267272949
1 0.78888165950775146 0.55701649188995361
0.032086554914712906 0.85367214679718018 0.48262697458267212
0.028639819473028183 0.91396254301071167 0.48313358426094055
0.04212912917137146 0.97302019596099854 0.48226478695869446
0.10727250576019287 0.99634444713592529 0.44096294045448303
0.50186312198638916 0.99971204996109009 0.42551809549331665
0.99233675003051758 0.97636032104492188 0.48523786664009094
0.99651581048965454 0.96435284614562988 0.51271504163742065
0.13641950488090515 0.81406319141387939 0.51127982139587402
0.094727054238319397 0.86924201250076294 0.5066719651222229
0.03775622695684433 0.96614301204681396 0.49707186222076416
0.14675202965736389 0.99569076299667358 0.45909133553504944
0.53303778171539307 0.99925577640533447 0.43744757771492004
0.99570876359939575 0.97020769119262695 0.5031580924987793
0.99340325593948364 0.96470588445663452 0.51549828052520752
0.27739870548248291 0.73816472291946411 0.56099188327789307
0.2242741733789444 0.79969698190689087 0.55191928148269653
0.0784187912940979 0.90204340219497681 0.53527694940567017
0.1693812757730484 0.97426223754882812 0.49560654163360596
0.59403103590011597 0.99840319156646729 0.46158534288406372
0.99505805969238281 0.96872931718826294 0.50919663906097412
0.99576729536056519 0.96470588445663452 0.51719343662261963
0.48423779010772705 0.558665931224823 0.66038209199905396
0.44979271292686462 0.6401057243347168 0.64549469947814941
0.31764465570449829 0.77987432479858398 0.62052690982818604
0.22965528070926666 0.94303935766220093 0.56787049770355225
0.73601227998733521 0.99530452489852905 0.50671303272247314
0.9897037148475647 0.96960854530334473 0.51489734649658203
0.98760682344436646 0.96533423662185669 0.52018934488296509
0.55298662185668945 0.49976873397827148 0.71407544612884521
0.5651174783706665 0.50727617740631104 0.72830331325531006
0.56167823076248169 0.56611663103103638 0.73506540060043335
0.42586454749107361 0.81602364778518677 0.67377489805221558
0.89084148406982422 0.96358668804168701 0.56698006391525269
0.99170291423797607 0.96544677019119263 0.53274023532867432
0.98336571455001831 0.96364790201187134 0.52829229831695557
0.58066141605377197 0.51825600862503052 0.74325031042098999
0.59025841951370239 0.52270478010177612 0.75231140851974487
0.60547477006912231 0.53742265701293945 0.77053451538085938
0.66299021244049072 0.57361060380935669 0.77415579557418823
0.98972272872924805 0.83347731828689575 0.61553055047988892
0.99523442983627319 0.95013904571533203 0.5380631685256958
0.99183505773544312 0.95714443922042847 0.53433120250701904
0.60957938432693481 0.53787046670913696 0.77636092901229858
0.61193192005157471 0.53624612092971802 0.7744600772857666
0.62621819972991943 0.54340392351150513 0.78500759601593018
0.8014104962348938 0.50752359628677368 0.77601665258407593
0.99704265594482422 0.45547989010810852 0.72481918334960938
1 0.84904897212982178 0.575225830078125
1 0.85601115226745605 0.57048881053924561
