assets/lut/picturefx goldfx bright summer heat.cube
# Created by: G'MIC (https://gmic.eu)
TITLE "goldfx_bright_summer_heat"
# LUT size
LUT_3D_SIZE 7
# Data domain
DOMAIN_MIN 0.0 0.0 0.0
DOMAIN_MAX 1.0 1.0 1.0
# LUT data points
0.024966714903712273 0.036705944687128067 0.046070441603660583
0.1030438169836998 0.049695033580064774 0.055011659860610962
0.26721477508544922 0.043599911034107208 0.077512018382549286
0.56212019920349121 0.035190865397453308 0.091111607849597931
0.81612789630889893 0.14818161725997925 0.073660217225551605
0.96696567535400391 0.36856773495674133 0.07027704268693924
1 0.54641765356063843 0.16985698044300079
0.03568599745631218 0.13347847759723663 0.09504593163728714
0.11887500435113907 0.14568749070167542 0.094780653715133667
0.33257949352264404 0.15402105450630188 0.100174680352211
0.61093151569366455 0.16296665370464325 0.085467472672462463
0.83475250005722046 0.26106023788452148 0.053211033344268799
0.96424382925033569 0.43022885918617249 0.067098461091518402
1 0.58775937557220459 0.18079636991024017
0.058023490011692047 0.33981978893280029 0.13096791505813599
0.091350749135017395 0.35679537057876587 0.1430056244134903
0.36702519655227661 0.3856680691242218 0.11828457564115524
0.671142578125 0.41303735971450806 0.082971058785915375
0.85549819469451904 0.44926679134368896 0.065894074738025665
0.96739017963409424 0.54022032022476196 0.065356127917766571
0.99978995323181152 0.65720081329345703 0.17407327890396118
0.1089908704161644 0.61252957582473755 0.13798911869525909
0.15023922920227051 0.62577682733535767 0.15271607041358948
0.36636832356452942 0.6368592381477356 0.15019893646240234
0.67874318361282349 0.65354043245315552 0.13105954229831696
0.87194931507110596 0.66335779428482056 0.12559013068675995
0.97689777612686157 0.68259751796722412 0.11038264632225037
1 0.72508639097213745 0.14437903463840485
0.32217690348625183 0.82361018657684326 0.24878402054309845
0.39401236176490784 0.83144015073776245 0.27238988876342773
0.53984218835830688 0.82807868719100952 0.28238940238952637
0.72507369518280029 0.83288764953613281 0.27068236470222473
0.88531512022018433 0.84210187196731567 0.24273958802223206
0.99019324779510498 0.83912408351898193 0.22634702920913696
0.99995023012161255 0.85755926370620728 0.26971286535263062
0.65932005643844604 0.95848208665847778 0.44359660148620605
0.69321107864379883 0.96860438585281372 0.45916593074798584
0.74455887079238892 0.96766895055770874 0.47147640585899353
0.82041078805923462 0.97165441513061523 0.469758540391922
0.91304314136505127 0.97544223070144653 0.44841650128364563
0.98570358753204346 0.96758311986923218 0.43731001019477844
0.99994629621505737 0.97130513191223145 0.46507394313812256
0.96551364660263062 0.99990898370742798 0.70432162284851074
0.98796230554580688 1 0.73521512746810913
0.99201697111129761 0.99822467565536499 0.74615037441253662
0.9923139214515686 0.98827749490737915 0.75734531879425049
0.99736708402633667 0.98613369464874268 0.75098204612731934
0.99931412935256958 0.97433376312255859 0.73957598209381104
1 0.98207628726959229 0.74221175909042358
0.022687321528792381 0.047572657465934753 0.12075681239366531
0.092198356986045837 0.0669570192694664 0.12672555446624756
0.25993651151657104 0.065494999289512634 0.15319302678108215
0.58239305019378662 0.072732932865619659 0.17355762422084808
0.83459764719009399 0.23662009835243225 0.18411979079246521
0.96459817886352539 0.42474621534347534 0.19554942846298218
0.99891120195388794 0.57721507549285889 0.27336317300796509
0.032094888389110565 0.14717404544353485 0.16715705394744873
0.13191916048526764 0.15414740145206451 0.17576640844345093
0.35157015919685364 0.16482940316200256 0.18060021102428436
0.6380077600479126 0.18894578516483307 0.17661093175411224
0.84606671333312988 0.30260857939720154 0.16573514044284821
0.96930158138275146 0.44996282458305359 0.18046075105667114
1 0.60086119174957275 0.27218040823936462
0.0764479860663414 0.36348652839660645 0.19046485424041748
0.11516468971967697 0.37194731831550598 0.19470527768135071
0.3961203396320343 0.39037519693374634 0.17422270774841309
0.68148976564407349 0.39847102761268616 0.14109048247337341
0.85786682367324829 0.44734343886375427 0.12802405655384064
0.97823870182037354 0.55276572704315186 0.14697086811065674
1 0.66299819946289062 0.25143313407897949
0.14794418215751648 0.62466144561767578 0.19369027018547058
0.16655786335468292 0.6340222954750061 0.19879542291164398
0.40988299250602722 0.64274221658706665 0.19704146683216095
0.68941986560821533 0.6571953296661377 0.15459781885147095
0.87364697456359863 0.66297262907028198 0.13717994093894958
0.98342382907867432 0.68075942993164062 0.13896000385284424
0.99860876798629761 0.72732317447662354 0.19472682476043701
0.32697954773902893 0.82102984189987183 0.27412527799606323
0.39646404981613159 0.83406740427017212 0.29437404870986938
0.56995856761932373 0.83172404766082764 0.31523033976554871
0.72863876819610596 0.83155381679534912 0.29958003759384155
0.88579255342483521 0.84077191352844238 0.27095022797584534
0.99215424060821533 0.83641284704208374 0.24206468462944031
0.9988868236541748 0.85490643978118896 0.27919992804527283
0.66648167371749878 0.96495890617370605 0.45199784636497498
0.67714005708694458 0.97183531522750854 0.45951062440872192
0.74434429407119751 0.9700583815574646 0.48296082019805908
0.82215273380279541 0.97247642278671265 0.48896098136901855
0.92693853378295898 0.97550636529922485 0.47985303401947021
0.99350500106811523 0.96928280591964722 0.45193806290626526
0.99694812297821045 0.96573644876480103 0.47111991047859192
0.97431999444961548 1 0.71184360980987549
0.98086154460906982 1 0.73265528678894043
0.99473637342453003 0.99776178598403931 0.75317680835723877
0.99956268072128296 0.99205440282821655 0.76441603899002075
0.99652594327926636 0.98264861106872559 0.7496953010559082
0.99988508224487305 0.97994357347488403 0.7394784688949585
0.99912387132644653 0.98021721839904785 0.74848753213882446
0.034509293735027313 0.083880268037319183 0.2404029369354248
0.17283061146736145 0.11126008629798889 0.24774965643882751
0.32169204950332642 0.15858794748783112 0.25338590145111084
0.55444794893264771 0.069532804191112518 0.26866576075553894
0.82663136720657349 0.11147832125425339 0.28473374247550964
0.96269685029983521 0.45260581374168396 0.34644195437431335
0.99926865100860596 0.66071349382400513 0.44000017642974854
0.057722292840480804 0.17855754494667053 0.28613713383674622
0.17717902362346649 0.18352781236171722 0.28953808546066284
0.39326298236846924 0.24280278384685516 0.29099994897842407
0.62833589315414429 0.17535458505153656 0.29229831695556641
0.86239767074584961 0.25069704651832581 0.30033072829246521
0.97912728786468506 0.478759765625 0.34462693333625793
0.99996697902679443 0.66574043035507202 0.43250823020935059
0.079033821821212769 0.39043518900871277 0.3136838972568512
0.12022754549980164 0.39587056636810303 0.31869980692863464
0.45619702339172363 0.41591024398803711 0.33041208982467651
0.72441035509109497 0.41985490918159485 0.31294736266136169
0.89126813411712646 0.51031267642974854 0.32011276483535767
0.98094511032104492 0.59941476583480835 0.34917357563972473
0.99816882610321045 0.69767707586288452 0.41481992602348328
0.29710155725479126 0.64438647031784058 0.34117719531059265
0.29417777061462402 0.64975935220718384 0.33528688549995422
0.48208990693092346 0.65845388174057007 0.33903065323829651
0.71796494722366333 0.66913038492202759 0.31124380230903625
0.88892209529876709 0.65988945960998535 0.28640863299369812
0.98402613401412964 0.68475830554962158 0.29592201113700867
0.99840688705444336 0.74192303419113159 0.35472860932350159
0.50460571050643921 0.83019107580184937 0.39156928658485413
0.49384802579879761 0.83485645055770874 0.38805258274078369
0.60239177942276001 0.83866435289382935 0.40250149369239807
0.74482554197311401 0.8403627872467041 0.40478163957595825
0.88768714666366577 0.84344494342803955 0.37986862659454346
0.98743218183517456 0.83029186725616455 0.3456384539604187
0.99712800979614258 0.83943301439285278 0.37027415633201599
0.72250217199325562 0.96518760919570923 0.51374030113220215
0.7093542218208313 0.97072422504425049 0.51343566179275513
0.76585042476654053 0.96945464611053467 0.53213512897491455
0.83145403861999512 0.97311997413635254 0.54191869497299194
0.92212080955505371 0.96951156854629517 0.53241175413131714
0.99417710304260254 0.95985507965087891 0.50386667251586914
0.99575173854827881 0.96231317520141602 0.51613521575927734
0.98426622152328491 0.99995100498199463 0.73576146364212036
0.99103093147277832 0.99906498193740845 0.76064944267272949
0.99695539474487305 0.99791675806045532 0.77066820859909058
0.99981868267059326 0.99306297302246094 0.77991610765457153
0.99645435810089111 0.98062592744827271 0.76676076650619507
0.99994611740112305 0.97630530595779419 0.76027703285217285
0.99964648485183716 0.97764337062835693 0.76599347591400146
0.1686897873878479 0.13943354785442352 0.39108848571777344
0.31719642877578735 0.15988445281982422 0.39968523383140564
0.51136291027069092 0.23855514824390411 0.39908751845359802
0.65814924240112305 0.3481147289276123 0.4051365852355957
0.80324625968933105 0.30439764261245728 0.42475020885467529
0.95004570484161377 0.42494043707847595 0.45211121439933777
0.99900829792022705 0.62837934494018555 0.52170711755752563
0.17794141173362732 0.2258618026971817 0.43283101916313171
0.29887616634368896 0.2428271621465683 0.43683105707168579
0.54818880558013916 0.32141280174255371 0.42687013745307922
0.68171578645706177 0.40981721878051758 0.42496839165687561
0.82708775997161865 0.34977653622627258 0.43352147936820984
0.96676218509674072 0.44450178742408752 0.45289242267608643
0.99358528852462769 0.6193464994430542 0.51125514507293701
0.14687520265579224 0.42222785949707031 0.44885796308517456
0.18706877529621124 0.42121461033821106 0.45798173546791077
0.52001595497131348 0.44462057948112488 0.46435061097145081
0.74469196796417236 0.54407477378845215 0.47098541259765625
0.87515407800674438 0.51304870843887329 0.47108298540115356
0.98286551237106323 0.60444623231887817 0.4950595498085022
0.99963974952697754 0.7344285249710083 0.55967670679092407
0.3208363950252533 0.65370398759841919 0.46931764483451843
0.31745859980583191 0.66132670640945435 0.4748615026473999
0.4941292405128479 0.65387886762619019 0.47812932729721069
0.74556887149810791 0.67592281103134155 0.48974040150642395
0.90234661102294922 0.6909298300743103 0.48725160956382751
0.99145662784576416 0.74312347173690796 0.50649648904800415
0.99886465072631836 0.80782628059387207 0.55827987194061279
0.60618740320205688 0.83300209045410156 0.51768845319747925
0.62410640716552734 0.84434729814529419 0.52507418394088745
0.66700339317321777 0.84466326236724854 0.51871681213378906
0.77011078596115112 0.84295248985290527 0.52402412891387939
0.90281563997268677 0.84969037771224976 0.51168239116668701
0.99400395154953003 0.83219212293624878 0.48145005106925964
0.99937671422958374 0.85032868385314941 0.50523686408996582
0.79157835245132446 0.96846139430999756 0.60420101881027222
0.77197849750518799 0.97054070234298706 0.59898859262466431
0.7789771556854248 0.96759897470474243 0.59279656410217285
0.83824431896209717 0.96515905857086182 0.59927332401275635
0.92150747776031494 0.9757004976272583 0.60033833980560303
0.98964798450469971 0.96957552433013916 0.58012503385543823
0.99868905544281006 0.95508110523223877 0.58227580785751343
0.97935658693313599 0.99902498722076416 0.76446765661239624
0.99540466070175171 0.99681371450424194 0.7962915301322937
0.99595141410827637 0.99756014347076416 0.79804533720016479
0.99698209762573242 0.99495446681976318 0.80341184139251709
0.99921298027038574 0.98666214942932129 0.8058733344078064
1 0.97616571187973022 0.80428653955459595
0.99971026182174683 0.97721743583679199 0.79812312126159668
0.39165902137756348 0.23761865496635437 0.52459526062011719
0.498727947473526 0.26664337515830994 0.53947430849075317
0.66120308637619019 0.35992076992988586 0.54782986640930176
0.79200708866119385 0.53718507289886475 0.55857175588607788
0.85842931270599365 0.6150132417678833 0.56900423765182495
0.92965543270111084 0.57286041975021362 0.57145875692367554
0.99921876192092896 0.66087615489959717 0.61579596996307373
0.40940353274345398 0.32290983200073242 0.5590893030166626
0.49155837297439575 0.34421190619468689 0.56726223230361938
0.66899782419204712 0.41444182395935059 0.56310486793518066
0.80349230766296387 0.57080239057540894 0.57229417562484741
0.8602941632270813 0.63100183010101318 0.5757020115852356
0.92295157909393311 0.57763755321502686 0.5660322904586792
0.99461358785629272 0.6516527533531189 0.6091916561126709
0.42210745811462402 0.48864689469337463 0.58142471313476562
0.43939772248268127 0.48382538557052612 0.58404248952865601
0.64500343799591064 0.5157439112663269 0.58590948581695557
0.81180661916732788 0.63298052549362183 0.59380918741226196
0.87776714563369751 0.70298212766647339 0.60157555341720581
0.95217025279998779 0.66479110717773438 0.59293287992477417
0.99900102615356445 0.72004389762878418 0.63404566049575806
0.37275299429893494 0.66691696643829346 0.58302617073059082
0.37980249524116516 0.66565120220184326 0.58680731058120728
0.51356273889541626 0.65187394618988037 0.58903557062149048
0.7705007791519165 0.68931472301483154 0.60838794708251953
0.90513956546783447 0.78196030855178833 0.6363060474395752
0.97000837326049805 0.75037091970443726 0.62790864706039429
0.99980473518371582 0.80520170927047729 0.66603416204452515
0.60440349578857422 0.82736665010452271 0.61832493543624878
0.60660487413406372 0.83905774354934692 0.62727952003479004
0.62862092256546021 0.82941591739654541 0.62325793504714966
0.73384326696395874 0.81226509809494019 0.62061601877212524
0.9008139967918396 0.84531313180923462 0.64145249128341675
0.98123013973236084 0.83098363876342773 0.62384653091430664
0.99970942735671997 0.86543512344360352 0.65029597282409668
0.78266239166259766 0.9584430456161499 0.68009579181671143
0.791401207447052 0.96760320663452148 0.69231212139129639
0.79246670007705688 0.96728527545928955 0.68504554033279419
0.83862024545669556 0.95499229431152344 0.67877620458602905
0.91244608163833618 0.96179312467575073 0.67901599407196045
0.98602479696273804 0.95455271005630493 0.66767871379852295
0.99893367290496826 0.9591631293296814 0.67195373773574829
0.99660032987594604 0.99693989753723145 0.85906440019607544
0.99950271844863892 0.99517190456390381 0.87125742435455322
0.99855667352676392 0.99693971872329712 0.86074113845825195
0.9915347695350647 0.99901455640792847 0.83226734399795532
0.99588567018508911 0.99509799480438232 0.83166897296905518
0.99864983558654785 0.97682434320449829 0.84428703784942627
1 0.97426438331604004 0.84665107727050781
0.61744117736816406 0.43565526604652405 0.67130917310714722
0.67929923534393311 0.48196551203727722 0.69204956293106079
0.77833741903305054 0.56377881765365601 0.70431149005889893
0.86356073617935181 0.66459792852401733 0.71208435297012329
0.91427773237228394 0.76815688610076904 0.71757179498672485
0.94700020551681519 0.78585898876190186 0.71961718797683716
0.99579685926437378 0.77547615766525269 0.74044442176818848
0.63126480579376221 0.50014644861221313 0.69052720069885254
0.67772936820983887 0.52414238452911377 0.70218217372894287
0.77515906095504761 0.58736693859100342 0.70821177959442139
0.85894149541854858 0.67379307746887207 0.71394604444503784
0.91401767730712891 0.77340364456176758 0.72115629911422729
0.94003069400787354 0.78361111879348755 0.71564489603042603
0.99274992942810059 0.77673149108886719 0.73819279670715332
0.64439767599105835 0.59870821237564087 0.71450603008270264
0.64956748485565186 0.60044044256210327 0.71410351991653442
0.75675427913665771 0.64704757928848267 0.72161370515823364
0.85652297735214233 0.72057783603668213 0.72808903455734253
0.9223284125328064 0.79758250713348389 0.73981660604476929
0.95247554779052734 0.81888937950134277 0.74165791273117065
0.99570786952972412 0.80208778381347656 0.74968385696411133
0.5878487229347229 0.70820742845535278 0.71248948574066162
0.59124380350112915 0.70868062973022461 0.71835243701934814
0.67662578821182251 0.70905369520187378 0.72618019580841064
0.82256746292114258 0.74760788679122925 0.73695141077041626
0.92447775602340698 0.83154255151748657 0.76065099239349365
0.96690976619720459 0.85675477981567383 0.76761889457702637
0.99829369783401489 0.83264535665512085 0.76785290241241455
0.57343512773513794 0.81627941131591797 0.72140026092529297
0.58922737836837769 0.82433152198791504 0.73403364419937134
0.59533554315567017 0.8085787296295166 0.72176969051361084
0.69601666927337646 0.78721159696578979 0.71374082565307617
0.87255847454071045 0.82424134016036987 0.750316321849823
0.98063606023788452 0.89402830600738525 0.79280084371566772
0.99925321340560913 0.88057023286819458 0.79555326700210571
0.74491435289382935 0.95135480165481567 0.78444826602935791
0.75728064775466919 0.96048688888549805 0.7926410436630249
0.75120699405670166 0.95557200908660889 0.78742289543151855
0.78091675043106079 0.93860483169555664 0.77549010515213013
0.84369724988937378 0.90928852558135986 0.76289409399032593
0.97079801559448242 0.9311259388923645 0.79137498140335083
0.99761027097702026 0.96068644523620605 0.82403147220611572
0.96379119157791138 0.99963808059692383 0.90731132030487061
0.99067980051040649 0.99913376569747925 0.93754160404205322
0.97974127531051636 0.99975669384002686 0.91792333126068115
0.95867085456848145 0.99982768297195435 0.89427822828292847
0.97869384288787842 0.99815791845321655 0.88247108459472656
0.99845105409622192 0.99709391593933105 0.88905429840087891
0.99929708242416382 0.97833049297332764 0.90434849262237549
0.78444099426269531 0.70483434200286865 0.85472667217254639
0.81170487403869629 0.72510987520217896 0.86368483304977417
0.85223746299743652 0.75572174787521362 0.86939132213592529
0.90047520399093628 0.79511785507202148 0.86740601062774658
0.94393306970596313 0.83475053310394287 0.86303555965423584
0.97505146265029907 0.88285762071609497 0.86471426486968994
0.99884599447250366 0.89176696538925171 0.88264709711074829
0.78134703636169434 0.71239054203033447 0.85552430152893066
0.80738276243209839 0.73364174365997314 0.86483794450759888
0.85095065832138062 0.76375001668930054 0.86955082416534424
0.89820820093154907 0.80207884311676025 0.86886036396026611
0.94235438108444214 0.83874166011810303 0.86562293767929077
0.97431492805480957 0.87893247604370117 0.86269217729568481
0.9979444146156311 0.89078027009963989 0.87799924612045288
0.78435415029525757 0.75256848335266113 0.87137669324874878
0.79043340682983398 0.76088380813598633 0.87678265571594238
0.83475226163864136 0.78224897384643555 0.87770551443099976
0.89267909526824951 0.81620979309082031 0.87804198265075684
0.94592010974884033 0.84996789693832397 0.87813091278076172
0.97815477848052979 0.89906150102615356 0.87681180238723755
0.99913507699966431 0.90364831686019897 0.885090172290802
0.76315176486968994 0.78666257858276367 0.87689822912216187
0.77601480484008789 0.79736989736557007 0.88794636726379395
0.80150145292282104 0.80224889516830444 0.88601970672607422
0.86530041694641113 0.82635337114334106 0.8873823881149292
0.93912166357040405 0.86563605070114136 0.88984411954879761
0.98187899589538574 0.90507131814956665 0.88828808069229126
0.99998706579208374 0.92447453737258911 0.89981538057327271
0.6793486475944519 0.84383302927017212 0.88099783658981323
0.69547241926193237 0.85239815711975098 0.8919864296913147
0.69115614891052246 0.83968877792358398 0.88305646181106567
0.77334541082382202 0.83413392305374146 0.88452917337417603
0.89438122510910034 0.8619455099105835 0.8945658802986145
0.98404330015182495 0.92287206649780273 0.91019666194915771
0.99999064207077026 0.95153391361236572 0.92980372905731201
0.72607266902923584 0.9402691125869751 0.92559283971786499
0.74215787649154663 0.95570474863052368 0.93626731634140015
0.73082447052001953 0.94039821624755859 0.92698615789413452
0.73626911640167236 0.92289084196090698 0.90892320871353149
0.80906921625137329 0.90484583377838135 0.89820021390914917
0.93720132112503052 0.9200320839881897 0.91720831394195557
0.9999229907989502 0.9897271990776062 0.96931332349777222
0.8696703314781189 0.99938297271728516 0.99096250534057617
0.90463936328887939 1 0.99833506345748901
0.88576173782348633 1 0.99342519044876099
0.85927397012710571 0.99894320964813232 0.9846685528755188
0.89690583944320679 0.99979138374328613 0.98244678974151611
0.94948744773864746 0.99758034944534302 0.97007304430007935
0.99689912796020508 0.99292641878128052 0.99450546503067017
