assets/lut/picturefx faux infrared color yp1.cube
# Created by: G'MIC (https://gmic.eu)
TITLE "faux_infrared_color_yp1"
# LUT size
LUT_3D_SIZE 13
# Data domain
DOMAIN_MIN 0.0 0.0 0.0
DOMAIN_MAX 1.0 1.0 1.0
# LUT data points
0.12004391849040985 0.094172969460487366 0.087490424513816833
0.3263072669506073 0.23695644736289978 0.1013171598315239
0.51798677444458008 0.37681704759597778 0.11927786469459534
0.70032954216003418 0.50915193557739258 0.13412073254585266
0.8704988956451416 0.639701247215271 0.14604020118713379
0.96748495101928711 0.76089370250701904 0.16981703042984009
0.98960858583450317 0.86938691139221191 0.20740532875061035
0.99988549947738647 0.91535979509353638 0.24901852011680603
1 0.92123329639434814 0.29594731330871582
1 0.92552775144577026 0.34121009707450867
1 0.93015879392623901 0.38564619421958923
1 0.93574470281600952 0.42743322253227234
1 0.94144308567047119 0.4587731659412384
0.20844228565692902 0.058672122657299042 0.13361364603042603
0.37672373652458191 0.16154180467128754 0.14940820634365082
0.5474124550819397 0.33456799387931824 0.15739993751049042
0.72557055950164795 0.48401305079460144 0.16769963502883911
0.87788468599319458 0.61202824115753174 0.18141940236091614
0.95337480306625366 0.73115450143814087 0.20350904762744904
0.98602211475372314 0.84391266107559204 0.23132729530334473
0.99920552968978882 0.89571744203567505 0.26644447445869446
1 0.90855896472930908 0.31089067459106445
1 0.91614025831222534 0.35640934109687805
1 0.92290109395980835 0.39988464117050171
1 0.93109309673309326 0.43788674473762512
1 0.93788379430770874 0.46171030402183533
0.30940228700637817 0.082199394702911377 0.17385764420032501
0.44967395067214966 0.12644197046756744 0.1970960944890976
0.59719902276992798 0.25378462672233582 0.21048355102539062
0.76246035099029541 0.43633818626403809 0.21076728403568268
0.89857989549636841 0.58593893051147461 0.21713875234127045
0.95138591527938843 0.70586234331130981 0.23467215895652771
0.98675638437271118 0.82444846630096436 0.25337529182434082
0.99956262111663818 0.87671381235122681 0.28691154718399048
1 0.89365881681442261 0.33242535591125488
1 0.90881162881851196 0.37961801886558533
1 0.92007029056549072 0.41922086477279663
1 0.93025541305541992 0.4511776864528656
1 0.93606936931610107 0.46768331527709961
0.42006111145019531 0.097858279943466187 0.20937150716781616
0.53450757265090942 0.13308876752853394 0.23660536110401154
0.66737622022628784 0.17991815507411957 0.2611534595489502
0.81242901086807251 0.34152090549468994 0.26555526256561279
0.92868411540985107 0.53035610914230347 0.26483896374702454
0.97452139854431152 0.67721313238143921 0.27062985301017761
0.99352729320526123 0.81135565042495728 0.27804583311080933
1 0.86454939842224121 0.31392928957939148
1 0.88862907886505127 0.36274886131286621
1 0.90844351053237915 0.40574398636817932
1 0.92192167043685913 0.4402887225151062
1 0.93135714530944824 0.46576759219169617
1 0.934856116771698 0.47482591867446899
0.52471745014190674 0.12053143233060837 0.24964265525341034
0.62792015075683594 0.14760588109493256 0.27495834231376648
0.74502980709075928 0.17584605515003204 0.30002632737159729
0.87042516469955444 0.26250126957893372 0.31840419769287109
0.96874010562896729 0.44248872995376587 0.32334139943122864
0.99344563484191895 0.63028043508529663 0.31820657849311829
0.99933075904846191 0.77129906415939331 0.32238692045211792
1 0.84745645523071289 0.35046517848968506
1 0.88613432645797729 0.39468958973884583
1 0.91150635480880737 0.43102407455444336
1 0.92577141523361206 0.4621182382106781
1 0.93310642242431641 0.47961241006851196
1 0.93425887823104858 0.48253574967384338
0.6264459490776062 0.14317470788955688 0.28805917501449585
0.71842300891876221 0.16558870673179626 0.31102609634399414
0.82154744863510132 0.18676318228244781 0.33548811078071594
0.91595554351806641 0.22221070528030396 0.36042732000350952
0.97955042123794556 0.32976743578910828 0.38087940216064453
0.99652343988418579 0.52361124753952026 0.37916505336761475
1 0.71333789825439453 0.37413671612739563
1 0.82134813070297241 0.39045619964599609
1 0.87739318609237671 0.42161127924919128
1 0.9088510274887085 0.45580679178237915
1 0.93044573068618774 0.48454967141151428
1 0.93536370992660522 0.49174079298973083
1 0.93387943506240845 0.4917806088924408
0.72315782308578491 0.1604912132024765 0.32535383105278015
0.79869580268859863 0.17917191982269287 0.34559205174446106
0.89107662439346313 0.19997939467430115 0.36842754483222961
0.96041113138198853 0.23233485221862793 0.39484897255897522
0.98880457878112793 0.27544298768043518 0.42683267593383789
0.99722802639007568 0.38725024461746216 0.44412285089492798
1 0.62712621688842773 0.42792490124702454
1 0.78742414712905884 0.42894557118415833
1 0.86079275608062744 0.44840225577354431
1 0.90111386775970459 0.47733363509178162
1 0.92835867404937744 0.49764195084571838
1 0.93687748908996582 0.50214278697967529
1 0.93675225973129272 0.50196081399917603
0.8261871337890625 0.18296590447425842 0.37133646011352539
0.88918811082839966 0.19816303253173828 0.38636696338653564
0.9550936222076416 0.21461488306522369 0.40112695097923279
0.9819214940071106 0.24105314910411835 0.42536389827728271
0.99080526828765869 0.27253195643424988 0.45746016502380371
0.99772477149963379 0.30974391102790833 0.48979154229164124
1 0.4675908088684082 0.48218652606010437
1 0.71794450283050537 0.45894986391067505
1 0.84201729297637939 0.47072657942771912
1 0.89805316925048828 0.49073541164398193
1 0.92141896486282349 0.50333285331726074
1 0.93545681238174438 0.51045703887939453
1 0.93996816873550415 0.51276934146881104
0.92014616727828979 0.20531277358531952 0.41882067918777466
0.96166151762008667 0.21729490160942078 0.42729148268699646
0.97951525449752808 0.22917358577251434 0.4321761429309845
0.9868810772895813 0.25082963705062866 0.44927963614463806
0.99247586727142334 0.27813497185707092 0.47753560543060303
0.99690425395965576 0.29904726147651672 0.50303572416305542
1 0.33665281534194946 0.51151853799819946
1 0.56785500049591064 0.48423010110855103
1 0.78883892297744751 0.48019894957542419
1 0.8927912712097168 0.50080645084381104
1 0.9212995171546936 0.51197934150695801
1 0.93602943420410156 0.51865404844284058
1 0.94522291421890259 0.52315604686737061
0.97746658325195312 0.22452381253242493 0.4597841203212738
0.98216134309768677 0.23402877151966095 0.46075579524040222
0.98505228757858276 0.24531060457229614 0.46325463056564331
0.98985934257507324 0.26313823461532593 0.47454512119293213
0.9946715235710144 0.28618654608726501 0.49693068861961365
0.99801182746887207 0.30293506383895874 0.51292598247528076
1 0.31549292802810669 0.51808255910873413
1 0.39149743318557739 0.50815701484680176
1 0.65418034791946411 0.4879729151725769
1 0.85352015495300293 0.50337272882461548
1 0.92778104543685913 0.5216529369354248
1 0.93406420946121216 0.52520883083343506
1 0.94205844402313232 0.53018480539321899
0.99336093664169312 0.2442249208688736 0.49387255311012268
0.99074143171310425 0.25220707058906555 0.49389821290969849
0.99043005704879761 0.26298516988754272 0.49512591958045959
0.99346709251403809 0.27738314867019653 0.50245559215545654
0.99724817276000977 0.29645338654518127 0.51769888401031494
0.99994045495986938 0.30790543556213379 0.52401691675186157
1 0.31042778491973877 0.52304178476333618
1 0.31447669863700867 0.51932549476623535
1 0.44890972971916199 0.50627976655960083
1 0.73066264390945435 0.49702686071395874
1 0.87905555963516235 0.5118175745010376
1 0.88060057163238525 0.51343721151351929
1 0.87952786684036255 0.51551371812820435
0.99620658159255981 0.26437196135520935 0.5273246169090271
0.99528330564498901 0.27160069346427917 0.5265083909034729
0.99572193622589111 0.28105929493904114 0.52760165929794312
0.99773985147476196 0.29200601577758789 0.53103053569793701
0.99988490343093872 0.30133602023124695 0.53313696384429932
1 0.30637913942337036 0.53047019243240356
1 0.31671497225761414 0.52541345357894897
1 0.32691553235054016 0.52068167924880981
1 0.33530768752098083 0.51666641235351562
1 0.51822495460510254 0.50400477647781372
1 0.75498408079147339 0.49903392791748047
1 0.77187097072601318 0.49980750679969788
1 0.77060127258300781 0.49997827410697937
0.9980124831199646 0.28196266293525696 0.55739271640777588
0.99793154001235962 0.28644311428070068 0.55303943157196045
0.99938368797302246 0.29270645976066589 0.54861223697662354
1 0.29867485165596008 0.54326492547988892
1 0.30425843596458435 0.53782325983047485
1 0.31432440876960754 0.53171783685684204
1 0.32903257012367249 0.52597278356552124
1 0.33579006791114807 0.52151429653167725
1 0.32567122578620911 0.51811426877975464
1 0.34132558107376099 0.51578032970428467
1 0.50923836231231689 0.50582170486450195
1 0.53212517499923706 0.50506633520126343
1 0.52870523929595947 0.50554734468460083
0.033732127398252487 0.14757464826107025 0.12197020649909973
0.21502865850925446 0.26322409510612488 0.12343171238899231
0.4608214795589447 0.38825690746307373 0.13247354328632355
0.66237854957580566 0.5189284086227417 0.14492304623126984
0.83552676439285278 0.64490485191345215 0.15748105943202972
0.95251357555389404 0.7618175745010376 0.17823222279548645
0.98771554231643677 0.87088280916213989 0.21345676481723785
0.99934589862823486 0.91726875305175781 0.25571691989898682
1 0.92457360029220581 0.30819758772850037
1 0.92900764942169189 0.36358639597892761
1 0.93424057960510254 0.41154807806015015
1 0.93956637382507324 0.44718807935714722
1 0.94310194253921509 0.46419718861579895
0.10432137548923492 0.091132715344429016 0.16505469381809235
0.28180614113807678 0.18756921589374542 0.16232763230800629
0.48609885573387146 0.34702819585800171 0.16370035707950592
0.68211972713470459 0.48731270432472229 0.17655238509178162
0.85572284460067749 0.61811339855194092 0.1896224170923233
0.95190435647964478 0.73748558759689331 0.20960685610771179
0.98531574010848999 0.85143935680389404 0.23537679016590118
0.99837702512741089 0.90123790502548218 0.27337563037872314
1 0.91229784488677979 0.32368931174278259
1 0.91973674297332764 0.37713491916656494
1 0.92769145965576172 0.42038175463676453
1 0.93428713083267212 0.44866901636123657
1 0.93824887275695801 0.46157249808311462
0.20313581824302673 0.09756971150636673 0.19644474983215332
0.36862704157829285 0.12209118157625198 0.21180343627929688
0.53271442651748657 0.26390492916107178 0.21644593775272369
0.71895241737365723 0.44049617648124695 0.21542604267597198
0.887717604637146 0.59260183572769165 0.22208656370639801
0.9562947154045105 0.71867567300796509 0.23842737078666687
0.98683476448059082 0.83943986892700195 0.25701820850372314
0.99931061267852783 0.89019763469696045 0.29462167620658875
1 0.90134835243225098 0.34607237577438354
1 0.91323554515838623 0.39439570903778076
1 0.92278492450714111 0.42810621857643127
1 0.93022960424423218 0.45134204626083374
1 0.93432128429412842 0.46351933479309082
0.34135106205940247 0.1037227138876915 0.22670520842075348
0.46321812272071838 0.13138499855995178 0.24887406826019287
0.61389279365539551 0.19062177836894989 0.26734879612922668
0.78099483251571655 0.35402503609657288 0.26928359270095825
0.91597849130630493 0.54182440042495728 0.26687908172607422
0.96517103910446167 0.6911855936050415 0.27056747674942017
0.99285316467285156 0.82402163743972778 0.28280141949653625
1 0.88198381662368774 0.32055854797363281
1 0.89767462015151978 0.37228038907051086
1 0.91089123487472534 0.41081270575523376
1 0.92017179727554321 0.43748313188552856
1 0.92905288934707642 0.46056509017944336
1 0.93333333730697632 0.46937969326972961
0.45881646871566772 0.12562613189220428 0.26478356122970581
0.56897807121276855 0.14955554902553558 0.28512442111968994
0.70845985412597656 0.18648071587085724 0.30576124787330627
0.83788585662841797 0.26540681719779968 0.3230290412902832
0.93983650207519531 0.44332501292228699 0.3246968686580658
0.98119050264358521 0.63434183597564697 0.31986126303672791
0.99912244081497192 0.78507202863693237 0.32580512762069702
1 0.85947960615158081 0.35715368390083313
1 0.89560908079147339 0.39840537309646606
1 0.91108423471450806 0.42784923315048218
1 0.92147356271743774 0.453794926404953
1 0.93048053979873657 0.47337940335273743
1 0.93333333730697632 0.47767701745033264
0.56907415390014648 0.14428494870662689 0.30148693919181824
0.66160464286804199 0.16436786949634552 0.32127037644386292
0.78071439266204834 0.1875929981470108 0.34214016795158386
0.89066964387893677 0.22881457209587097 0.36552989482879639
0.97115868330001831 0.3222067654132843 0.38630479574203491
0.99545323848724365 0.53632622957229614 0.38177779316902161
0.99999415874481201 0.72637999057769775 0.37695851922035217
1 0.83035838603973389 0.39336824417114258
1 0.88146835565567017 0.42412078380584717
1 0.90740406513214111 0.45221111178398132
1 0.92449647188186646 0.4771239161491394
1 0.93296688795089722 0.48873817920684814
1 0.93333333730697632 0.48998543620109558
0.67382395267486572 0.16264054179191589 0.33944478631019592
0.75291109085083008 0.177808478474617 0.35562223196029663
0.86324703693389893 0.19702029228210449 0.37621167302131653
0.95267504453659058 0.22522459924221039 0.39992478489875793
0.98933559656143188 0.26658850908279419 0.43057543039321899
0.99884366989135742 0.40132099390029907 0.4459327757358551
1 0.63208204507827759 0.43138793110847473
1 0.78975462913513184 0.43120169639587402
1 0.8633798360824585 0.45056602358818054
1 0.90142476558685303 0.47472906112670898
1 0.92364180088043213 0.49356856942176819
1 0.9354357123374939 0.50182139873504639
1 0.93668502569198608 0.50229620933532715
0.79049623012542725 0.18564637005329132 0.38135558366775513
0.85160857439041138 0.19852727651596069 0.39609462022781372
0.93432372808456421 0.21279028058052063 0.41144609451293945
0.97329175472259521 0.23382028937339783 0.42918318510055542
0.9896695613861084 0.26773595809936523 0.45829877257347107
0.99715805053710938 0.31955325603485107 0.4892973005771637
1 0.46900007128715515 0.48841193318367004
1 0.71997618675231934 0.46165952086448669
1 0.84241312742233276 0.47282767295837402
1 0.89454776048660278 0.49005138874053955
1 0.92172694206237793 0.50441634654998779
1 0.93434822559356689 0.51072233915328979
1 0.94048893451690674 0.51339751482009888
0.90462261438369751 0.20505878329277039 0.42210125923156738
0.94269090890884399 0.21661710739135742 0.43272575736045837
0.96653550863265991 0.2272985428571701 0.441682368516922
0.97788006067276001 0.24727421998977661 0.45601052045822144
0.98907101154327393 0.2777923047542572 0.48289787769317627
0.99587917327880859 0.29817056655883789 0.51007241010665894
0.99998670816421509 0.3391706645488739 0.51685750484466553
1 0.57543623447418213 0.48692512512207031
1 0.79175835847854614 0.48445141315460205
1 0.89336299896240234 0.50351214408874512
1 0.92449003458023071 0.51467287540435791
1 0.93628233671188354 0.51947391033172607
1 0.94577193260192871 0.5238499641418457
0.97879159450531006 0.2230328768491745 0.45938035845756531
0.97969430685043335 0.23237842321395874 0.46414592862129211
0.98002511262893677 0.2429625391960144 0.47039794921875
0.98490399122238159 0.25947755575180054 0.48239344358444214
0.99251830577850342 0.28323036432266235 0.5037071704864502
0.99686568975448608 0.29887637495994568 0.51781028509140015
0.9999164342880249 0.31199604272842407 0.52270454168319702
1 0.39572903513908386 0.51208174228668213
1 0.65939289331436157 0.48978906869888306
1 0.85636359453201294 0.50480908155441284
1 0.92965066432952881 0.52267670631408691
1 0.93451899290084839 0.52545404434204102
1 0.94315832853317261 0.53034019470214844
0.99530172348022461 0.24139508605003357 0.49331089854240417
0.99146348237991333 0.24909642338752747 0.49471986293792725
0.98937159776687622 0.25973114371299744 0.49948382377624512
0.99126803874969482 0.27342361211776733 0.50844091176986694
0.9958120584487915 0.29104536771774292 0.52130627632141113
0.99909889698028564 0.30445137619972229 0.52756035327911377
1 0.31320688128471375 0.52686917781829834
1 0.32115441560745239 0.5221562385559082
1 0.45585334300994873 0.50864195823669434
1 0.73610156774520874 0.49817344546318054
1 0.88188230991363525 0.51362794637680054
1 0.88334107398986816 0.51582592725753784
1 0.8828437328338623 0.51711887121200562
0.99502849578857422 0.26018089056015015 0.52700322866439819
0.99493789672851562 0.26512649655342102 0.52596116065979004
0.99455475807189941 0.27489748597145081 0.52713388204574585
0.99586862325668335 0.28740617632865906 0.53212821483612061
0.99829810857772827 0.30030438303947449 0.53516370058059692
0.99989598989486694 0.31032192707061768 0.53297895193099976
1 0.31713670492172241 0.52836388349533081
1 0.31645083427429199 0.52453678846359253
1 0.33281409740447998 0.51985293626785278
1 0.52729320526123047 0.50564748048782349
1 0.75973260402679443 0.50039345026016235
1 0.77668923139572144 0.50138318538665771
1 0.77490079402923584 0.50190144777297974
0.99318194389343262 0.27730250358581543 0.5568394660949707
0.99452692270278931 0.27976727485656738 0.55411249399185181
0.99556314945220947 0.28696104884147644 0.54973435401916504
0.99729067087173462 0.29632622003555298 0.54519611597061157
0.99874097108840942 0.30480620265007019 0.53990393877029419
0.99989169836044312 0.313303142786026 0.5343325138092041
1 0.31835421919822693 0.52940094470977783
1 0.32081729173660278 0.52524095773696899
1 0.32378628849983215 0.52149581909179688
1 0.34540992975234985 0.5169910192489624
1 0.51506340503692627 0.5072740912437439
1 0.5424656867980957 0.50629699230194092
1 0.53996092081069946 0.50602859258651733
0.02918536588549614 0.21143347024917603 0.15467554330825806
0.10175836831331253 0.30563053488731384 0.15724028646945953
0.35085254907608032 0.41681590676307678 0.15696123242378235
0.6105961799621582 0.53695553541183472 0.15722568333148956
0.80370050668716431 0.65525412559509277 0.16545040905475616
0.94710624217987061 0.77151185274124146 0.1812717467546463
0.9884335994720459 0.88078069686889648 0.21552129089832306
0.99980288743972778 0.92512345314025879 0.26317748427391052
1 0.9295772910118103 0.32559648156166077
1 0.93341219425201416 0.38906711339950562
1 0.93929600715637207 0.43972796201705933
1 0.94329780340194702 0.46321165561676025
1 0.94429343938827515 0.46703964471817017
0.078354611992835999 0.14433841407299042 0.19634389877319336
0.12858615815639496 0.24473154544830322 0.18889975547790527
0.39147302508354187 0.36690610647201538 0.18252480030059814
0.62638795375823975 0.49852362275123596 0.18681363761425018
0.81404000520706177 0.62683117389678955 0.19692353904247284
0.93999367952346802 0.74883782863616943 0.21248188614845276
0.98436784744262695 0.86093616485595703 0.23961083590984344
0.99876201152801514 0.90910673141479492 0.28228244185447693
1 0.91826444864273071 0.34041935205459595
1 0.9244503378868103 0.40053954720497131
1 0.93319606781005859 0.44146674871444702
1 0.93825501203536987 0.46011525392532349
1 0.93978261947631836 0.46487641334533691
0.13594833016395569 0.13010111451148987 0.22946359217166901
0.25219953060150146 0.15531894564628601 0.23635740578174591
0.46086648106575012 0.28428056836128235 0.22448472678661346
0.66699886322021484 0.45304438471794128 0.22087028622627258
0.84319472312927246 0.59788519144058228 0.22943252325057983
0.94620829820632935 0.7300112247467041 0.24300307035446167
0.98500555753707886 0.84987133741378784 0.26210376620292664
0.99928879737854004 0.89853781461715698 0.30382856726646423
1 0.90794354677200317 0.35978326201438904
1 0.91813153028488159 0.41037935018539429
1 0.92694652080535889 0.43951112031936646
1 0.93316733837127686 0.45777198672294617
1 0.93573373556137085 0.46473029255867004
0.22184492647647858 0.14169581234455109 0.25714412331581116
0.36389976739883423 0.14157910645008087 0.27103325724601746
0.54775512218475342 0.18739029765129089 0.27944764494895935
0.73093897104263306 0.36584234237670898 0.27526283264160156
0.88369268178939819 0.54816776514053345 0.27275756001472473
0.96127074956893921 0.70034909248352051 0.27688688039779663
0.99117600917816162 0.83283156156539917 0.28937053680419922
1 0.89085513353347778 0.32701992988586426
1 0.90306144952774048 0.37865099310874939
1 0.91386157274246216 0.41762611269950867
1 0.92150723934173584 0.43931141495704651
1 0.92916220426559448 0.45878225564956665
1 0.93335080146789551 0.4685710072517395
0.35047507286071777 0.15217927098274231 0.28829360008239746
0.47612440586090088 0.16086263954639435 0.30373334884643555
0.64156842231750488 0.16640922427177429 0.3188357949256897
0.80049765110015869 0.25895661115646362 0.33207473158836365
0.92281651496887207 0.45582428574562073 0.33045580983161926
0.98139166831970215 0.64543110132217407 0.32550501823425293
0.99848061800003052 0.78981250524520874 0.3320544958114624
1 0.86407220363616943 0.36139014363288879
1 0.89432346820831299 0.39968743920326233
1 0.91061955690383911 0.42870506644248962
1 0.92020440101623535 0.45120492577552795
1 0.92978686094284058 0.47166401147842407
1 0.93333333730697632 0.47731024026870728
0.49238640069961548 0.14705397188663483 0.31567293405532837
0.5820012092590332 0.1584751158952713 0.33114439249038696
0.71723479032516479 0.17850343883037567 0.35015320777893066
0.86866992712020874 0.22569747269153595 0.37385666370391846
0.96621531248092651 0.33243119716644287 0.39162194728851318
0.99492543935775757 0.55214446783065796 0.38603249192237854
0.99991452693939209 0.73634839057922363 0.38025274872779846
1 0.83274227380752563 0.39614367485046387
1 0.87698101997375488 0.42592599987983704
1 0.90506011247634888 0.45150357484817505
1 0.9230533242225647 0.47531759738922119
1 0.93314641714096069 0.48867329955101013
1 0.93407243490219116 0.49034860730171204
0.61134755611419678 0.16872289776802063 0.3557182252407074
0.68347072601318359 0.17295075953006744 0.36673131585121155
0.80400460958480835 0.19181698560714722 0.38514283299446106
0.93026173114776611 0.22494986653327942 0.4074137806892395
0.98208552598953247 0.28300288319587708 0.43450915813446045
0.99788349866867065 0.41780531406402588 0.4478188157081604
0.99998831748962402 0.64781862497329712 0.43341776728630066
1 0.79944974184036255 0.43195691704750061
1 0.8651013970375061 0.45282632112503052
1 0.90227770805358887 0.47549229860305786
1 0.92434811592102051 0.49442002177238464
1 0.93631994724273682 0.50375485420227051
1 0.93742531538009644 0.50411784648895264
0.73681426048278809 0.19605429470539093 0.39817067980766296
0.80679488182067871 0.19987724721431732 0.40814927220344543
0.90335184335708618 0.21179047226905823 0.42286574840545654
0.96269983053207397 0.23099564015865326 0.43829447031021118
0.9840233325958252 0.27513650059700012 0.46484914422035217
0.99466621875762939 0.32813340425491333 0.49467125535011292
0.99994528293609619 0.48542168736457825 0.49257928133010864
1 0.72876125574111938 0.46433281898498535
1 0.84850490093231201 0.4751308262348175
1 0.89962232112884521 0.49244043231010437
1 0.92527955770492554 0.50710403919219971
1 0.93665426969528198 0.51315402984619141
1 0.94110047817230225 0.5144340991973877
0.86167722940444946 0.21242634952068329 0.43546438217163086
0.91529172658920288 0.21745298802852631 0.44476604461669922
0.95311516523361206 0.22492079436779022 0.45410493016242981
0.96939164400100708 0.2421155720949173 0.46695852279663086
0.98448532819747925 0.27379873394966125 0.49234965443611145
0.99431288242340088 0.29638075828552246 0.51945960521697998
0.99976170063018799 0.34248644113540649 0.52624130249023438
1 0.58293455839157104 0.49175214767456055
1 0.79844492673873901 0.48553067445755005
1 0.90053313970565796 0.5070374608039856
1 0.92915022373199463 0.51721620559692383
1 0.93843168020248413 0.52038979530334473
1 0.94407361745834351 0.5228152871131897
0.95798808336257935 0.22534328699111938 0.46787548065185547
0.96985644102096558 0.23035901784896851 0.47449353337287903
0.97426265478134155 0.23893009126186371 0.48217225074768066
0.98020356893539429 0.25298938155174255 0.49287813901901245
0.98983573913574219 0.27692660689353943 0.51081210374832153
0.99566352367401123 0.29835394024848938 0.52416312694549561
0.99925798177719116 0.31366929411888123 0.52882128953933716
1 0.39851224422454834 0.518135666847229
1 0.66594719886779785 0.4940451979637146
1 0.86000186204910278 0.50714606046676636
