assets/lut/picturefx analogfx sepia color.cube
# Created by: G'MIC (https://gmic.eu)
TITLE "analogfx_sepia_color"
# LUT size
LUT_3D_SIZE 13
# Data domain
DOMAIN_MIN 0.0 0.0 0.0
DOMAIN_MAX 1.0 1.0 1.0
# LUT data points
0.053123235702514648 0.012159265577793121 0
0.067881777882575989 0.016816487535834312 0
0.098617404699325562 0.035745643079280853 0
0.13610894978046417 0.067228667438030243 0
0.1789613664150238 0.09594561904668808 0
0.22752311825752258 0.12630876898765564 0
0.28345838189125061 0.16157728433609009 0
0.3615054190158844 0.20001761615276337 0
0.4523213803768158 0.24803173542022705 0
0.5409427285194397 0.30932354927062988 0
0.63726258277893066 0.3777613639831543 0
0.74509298801422119 0.44336223602294922 0
0.84486103057861328 0.5030243992805481 0
0.083366096019744873 0.020433073863387108 0
0.090428926050662994 0.0238010473549366 0
0.11641281843185425 0.041771490126848221 0
0.14768338203430176 0.070082738995552063 0
0.19072084128856659 0.097752407193183899 0
0.23900057375431061 0.12728892266750336 0
0.29600197076797485 0.16234330832958221 0
0.37002861499786377 0.20097540318965912 0
0.4590986967086792 0.24811023473739624 0
0.54789477586746216 0.31036373972892761 0
0.64478945732116699 0.3785763680934906 0
0.7564084529876709 0.44784054160118103 0
0.85752022266387939 0.51005411148071289 0
0.13889998197555542 0.047114130109548569 0
0.13983829319477081 0.047209031879901886 0
0.1525646448135376 0.058883711695671082 0
0.17149388790130615 0.075075618922710419 0
0.20849312841892242 0.098952427506446838 0
0.25154629349708557 0.12698596715927124 0
0.31080323457717896 0.16162978112697601 0
0.38701960444450378 0.20029300451278687 0
0.47182649374008179 0.24823151528835297 0
0.56169217824935913 0.31034359335899353 0
0.66070020198822021 0.37919843196868896 0
0.77096039056777954 0.44960179924964905 0
0.87024128437042236 0.5119280219078064 0
0.203304722905159 0.074814997613430023 0
0.20192065834999084 0.075852520763874054 0
0.2056201845407486 0.079221494495868683 0
0.20945118367671967 0.083163104951381683 0
0.23410725593566895 0.09986337274312973 0
0.27542504668235779 0.12771889567375183 0
0.32899066805839539 0.16307370364665985 0
0.39658492803573608 0.20885397493839264 0
0.48314496874809265 0.25388789176940918 0
0.58252948522567749 0.30949112772941589 0
0.68211990594863892 0.37653699517250061 0
0.78945082426071167 0.44831320643424988 0
0.88392573595046997 0.51083475351333618 0
0.27405568957328796 0.096713058650493622 0
0.27409529685974121 0.097183108329772949 0
0.27399781346321106 0.098994232714176178 0
0.27915531396865845 0.10353031754493713 0
0.28349095582962036 0.11028438061475754 0
0.30523183941841125 0.12641862034797668 0
0.35978212952613831 0.15893171727657318 0
0.41922691464424133 0.20263360440731049 0
0.50553399324417114 0.25491517782211304 0
0.60581260919570923 0.30995857715606689 0
0.70279937982559204 0.37721127271652222 0
0.80463433265686035 0.44300967454910278 0
0.89534670114517212 0.50160157680511475 0
0.36973410844802856 0.12334056198596954 0
0.36429807543754578 0.12117137759923935 0
0.36786434054374695 0.12457024306058884 0
0.36827126145362854 0.12829954922199249 0
0.36684474349021912 0.13292941451072693 0
0.37943455576896667 0.1409013420343399 0
0.41158583760261536 0.15950100123882294 0
0.46316972374916077 0.19367671012878418 0
0.54940372705459595 0.24809488654136658 0
0.64294236898422241 0.30672454833984375 0
0.73151093721389771 0.37039652466773987 0
0.82585990428924561 0.43434029817581177 0
0.91534233093261719 0.49162793159484863 0
0.49012121558189392 0.15147055685520172 0
0.47866904735565186 0.14404281973838806 0
0.48136895895004272 0.14842882752418518 0
0.48400211334228516 0.15439276397228241 0
0.48413315415382385 0.1540885716676712 0
0.49653151631355286 0.16301406919956207 0
0.5010993480682373 0.17163030803203583 0
0.51727908849716187 0.19065223634243011 0
0.59963971376419067 0.24245201051235199 0
0.68607491254806519 0.29967194795608521 0
0.77090287208557129 0.36117702722549438 0
0.85712087154388428 0.42729917168617249 0
0.94541877508163452 0.48513507843017578 0
0.62356066703796387 0.18450874090194702 0
0.6207154393196106 0.18252605199813843 0
0.62322449684143066 0.18270203471183777 0
0.62581419944763184 0.18871124088764191 0
0.62879651784896851 0.19332192838191986 0
0.64041030406951904 0.19964690506458282 0
0.64354526996612549 0.20596402883529663 0
0.63584667444229126 0.2140129953622818 0
0.66039597988128662 0.23879240453243256 0
0.73530411720275879 0.28915029764175415 0
0.81829005479812622 0.34529879689216614 0
0.90594708919525146 0.4062345027923584 0
0.97870320081710815 0.46720108389854431 0
0.7728722095489502 0.2116396576166153 0
0.77372431755065918 0.21372035145759583 0
0.77901250123977661 0.21515864133834839 0
0.77682596445083618 0.21865987777709961 0
0.77764397859573364 0.2237139493227005 0
0.78649431467056274 0.23089748620986938 0
0.79114997386932373 0.23787263035774231 0
0.78711843490600586 0.24525004625320435 0
0.78379911184310913 0.25565522909164429 0
0.80605870485305786 0.27932143211364746 0
0.87832129001617432 0.32510393857955933 0
0.96035295724868774 0.38079306483268738 0
0.99372917413711548 0.43542402982711792 0
0.92770427465438843 0.23379705846309662 0
0.92787092924118042 0.23597255349159241 0
0.93389290571212769 0.23901365697383881 0
0.92786580324172974 0.24093548953533173 0
0.92980712652206421 0.2455669492483139 0
0.93251889944076538 0.25255417823791504 0
0.93600296974182129 0.26032498478889465 0
0.93529582023620605 0.26793792843818665 0
0.93183833360671997 0.27731382846832275 0
0.93488472700119019 0.29026058316230774 0
0.9574926495552063 0.31129559874534607 0
0.98668527603149414 0.35797286033630371 0
0.99613875150680542 0.4075874388217926 0
0.99416214227676392 0.24412433803081512 0
0.99345457553863525 0.24689848721027374 0
0.9947735071182251 0.25888428092002869 0
0.99338823556900024 0.25870597362518311 0
0.99480587244033813 0.25838693976402283 0
0.9943886399269104 0.26592844724655151 0
0.99591255187988281 0.27460053563117981 0
0.99661308526992798 0.28203058242797852 0
0.99494785070419312 0.29411607980728149 0
0.99621248245239258 0.30733254551887512 0
0.99689751863479614 0.3266376256942749 0
0.99703794717788696 0.3539789617061615 0
0.99918907880783081 0.39388576149940491 0
1 0.27426537871360779 0
0.99987810850143433 0.27600851655006409 0
0.99852538108825684 0.29138553142547607 0
0.99901211261749268 0.29262849688529968 0
1 0.29066503047943115 0
1 0.30458647012710571 0
1 0.31238964200019836 0
1 0.32831078767776489 0
1 0.33763164281845093 0
1 0.35387086868286133 0
1 0.36603349447250366 0
1 0.38298431038856506 0
1 0.40121471881866455 0
1 0.40881845355033875 0
1 0.41001006960868835 0
1 0.41309371590614319 0
1 0.41567885875701904 0
1 0.41575577855110168 0
1 0.42004364728927612 0
1 0.42417839169502258 0
1 0.42980602383613586 0
1 0.43391698598861694 0
1 0.43944904208183289 0
1 0.44473764300346375 0
1 0.45541071891784668 0
1 0.46394982933998108 0
0.082011774182319641 0.02512144111096859 0
0.086905494332313538 0.029104480519890785 0
0.10733777284622192 0.041911523789167404 0
0.14518101513385773 0.071235954761505127 0
0.18647441267967224 0.10016293823719025 0
0.24026948213577271 0.13272228837013245 0
0.29585936665534973 0.16652758419513702 0
0.36789947748184204 0.20343898236751556 0
0.46041932702064514 0.252878338098526 0
0.54939448833465576 0.31406524777412415 0
0.647025465965271 0.38053050637245178 0
0.75784653425216675 0.44918221235275269 0
0.85906803607940674 0.51111805438995361 0
0.10266441106796265 0.034448001533746719 0
0.1098947748541832 0.037086516618728638 0
0.12737862765789032 0.0507035031914711 0
0.15998521447181702 0.076837949454784393 0
0.19826184213161469 0.10144717991352081 0
0.24576243758201599 0.13065052032470703 0
0.30298894643783569 0.16571801900863647 0
0.37472102046012878 0.20344007015228271 0
0.46677246689796448 0.25279858708381653 0
0.55670243501663208 0.31441667675971985 0
0.65542614459991455 0.38107010722160339 0
0.7667309045791626 0.45074617862701416 0
0.86628979444503784 0.51304256916046143 0
0.14625133574008942 0.059422601014375687 0
0.15088741481304169 0.061897218227386475 0
0.15982715785503387 0.068533234298229218 0
0.18053002655506134 0.082959510385990143 0
0.21856032311916351 0.10470506548881531 0
0.2605474591255188 0.13102808594703674 0
0.31577897071838379 0.1654265969991684 0
0.39192971587181091 0.20490415394306183 0
0.47890138626098633 0.25310173630714417 0
0.56934612989425659 0.31516927480697632 0
0.66904103755950928 0.38199916481971741 0
0.7786179780960083 0.45114395022392273 0
0.87715733051300049 0.51478606462478638 0
0.21024101972579956 0.085179828107357025 0
0.21199990808963776 0.086944058537483215 0
0.2165500670671463 0.090157151222229004 0
0.22277383506298065 0.094462454319000244 0
0.24911338090896606 0.11030005663633347 0
0.28997313976287842 0.13633373379707336 0
0.33731922507286072 0.16741769015789032 0
0.40396860241889954 0.21395133435726166 0
0.49123510718345642 0.25901830196380615 0
0.58959084749221802 0.31469741463661194 0
0.68987423181533813 0.38061672449111938 0
0.79655206203460693 0.45048657059669495 0
0.88943147659301758 0.51272803544998169 0
0.28361886739730835 0.10823909938335419 0
0.28483107686042786 0.10979688912630081 0
0.28469446301460266 0.11164326220750809 0
0.29230436682701111 0.11631669849157333 0
0.29964780807495117 0.12276051938533783 0
0.32372179627418518 0.13849608600139618 0
0.37166094779968262 0.16572807729244232 0
0.43022006750106812 0.20850707590579987 0
0.51809483766555786 0.25835111737251282 0
0.6156877875328064 0.31398841738700867 0
0.71216732263565063 0.37904611229896545 0
0.81320345401763916 0.44724225997924805 0
0.9047437310218811 0.50918316841125488 0
0.37015429139137268 0.13173867762088776 0
0.37369272112846375 0.13209126889705658 0
0.37416774034500122 0.13408684730529785 0
0.37943258881568909 0.13912947475910187 0
0.38436314463615417 0.14555078744888306 0
0.38454428315162659 0.15029405057430267 0
0.41221576929092407 0.16495795547962189 0
0.47257170081138611 0.20086908340454102 0
0.55952244997024536 0.25310686230659485 0
0.65146815776824951 0.31195434927940369 0
0.74200379848480225 0.3752821683883667 0
0.83778476715087891 0.44116649031639099 0
0.92658597230911255 0.4999183714389801 0
0.49357208609580994 0.15862190723419189 0
0.48736482858657837 0.1537308394908905 0
0.49130553007125854 0.15774720907211304 0
0.49225682020187378 0.16110561788082123 0
0.4922947883605957 0.16458524763584137 0
0.50034946203231812 0.17292845249176025 0
0.50017231702804565 0.17688842117786407 0
0.52812772989273071 0.20038561522960663 0
0.608001708984375 0.24917052686214447 0
0.6985173225402832 0.30556419491767883 0
0.78322160243988037 0.36863654851913452 0
0.87067955732345581 0.43222692608833313 0
0.95557010173797607 0.48949688673019409 0
0.63032823801040649 0.19015136361122131 0
0.63088148832321167 0.1915857344865799 0
0.63266837596893311 0.19276455044746399 0
0.6305924654006958 0.1950535923242569 0
0.63185840845108032 0.19932521879673004 0
0.64226138591766357 0.20688645541667938 0
0.64691668748855591 0.2129339873790741 0
0.63891661167144775 0.22154019773006439 0
0.67263436317443848 0.2467222660779953 0
0.7488904595375061 0.29289495944976807 0
0.83140844106674194 0.34773150086402893 0
0.9233061671257019 0.40424376726150513 0
0.98634147644042969 0.46793857216835022 0
0.78518158197402954 0.21670418977737427 0
0.78545856475830078 0.22011443972587585 0
0.78746169805526733 0.22119420766830444 0
0.78289127349853516 0.22523956000804901 0
0.78444868326187134 0.22961907088756561 0
0.79477924108505249 0.23572167754173279 0
0.799701988697052 0.24345618486404419 0
0.79501360654830933 0.25256508588790894 0
0.80224895477294922 0.26358318328857422 0
0.82243281602859497 0.28492915630340576 0
0.89025503396987915 0.32764759659767151 0
0.96779489517211914 0.38220962882041931 0
0.99570977687835693 0.43703657388687134 0
0.93759232759475708 0.23812691867351532 0
0.93375486135482788 0.23941050469875336 0
0.93979465961456299 0.24166089296340942 0
0.9374692440032959 0.24504254758358002 0
0.93772870302200317 0.24841633439064026 0
0.94010525941848755 0.25422027707099915 0
0.94064372777938843 0.26239475607872009 0
0.94059783220291138 0.2720489501953125 0
0.94134271144866943 0.28322237730026245 0
0.93652826547622681 0.29511189460754395 0
0.96362811326980591 0.31701266765594482 0
0.99034291505813599 0.36281481385231018 0
0.99848687648773193 0.41433903574943542 0
0.99405044317245483 0.2523745596408844 0
0.99258983135223389 0.25719639658927917 0
0.99372011423110962 0.25845348834991455 0
0.99607551097869873 0.26113337278366089 0
0.99685579538345337 0.26493123173713684 0
0.99550968408584595 0.27433955669403076 0
0.99426054954528809 0.2836577296257019 0
0.99518907070159912 0.29338443279266357 0
0.99482929706573486 0.30535650253295898 0
0.99578207731246948 0.31874364614486694 0
0.99826335906982422 0.33828932046890259 0
0.99920707941055298 0.35912752151489258 0
0.99984300136566162 0.39959284663200378 0
0.99994868040084839 0.30216693878173828 0
0.99956786632537842 0.2984517514705658 0
0.99987542629241943 0.30382433533668518 0
0.99995321035385132 0.30472972989082336 0
1 0.31055054068565369 0
1 0.32881087064743042 0
1 0.33720794320106506 0
0.99996745586395264 0.3402915894985199 0
0.99998551607131958 0.35455572605133057 0
1 0.36937117576599121 0
0.99997645616531372 0.37989336252212524 0
1 0.39377602934837341 0
1 0.41086778044700623 0
1 0.42599767446517944 0
1 0.42332929372787476 0
1 0.42639985680580139 0
1 0.42690718173980713 0
1 0.42765644192695618 0
1 0.43434795737266541 0
1 0.43847164511680603 0
1 0.44164064526557922 0
1 0.44748657941818237 0
1 0.45235499739646912 0
1 0.45500627160072327 0
1 0.46432942152023315 0
1 0.47434127330780029 0
0.13517135381698608 0.060146704316139221 0
0.13741423189640045 0.064914509654045105 0
0.13976170122623444 0.067240424454212189 0
0.15474843978881836 0.080367743968963623 0
0.19735635817050934 0.10692185163497925 0
0.24704025685787201 0.13758289813995361 0
0.30419754981994629 0.17054259777069092 0
0.38642102479934692 0.20860669016838074 0
0.47527840733528137 0.25939911603927612 0
0.56596547365188599 0.32066842913627625 0
0.66772997379302979 0.38650047779083252 0
0.77691072225570679 0.45587804913520813 0
0.87536823749542236 0.51893973350524902 0
0.14302067458629608 0.064637891948223114 0
0.14523626863956451 0.066235579550266266 0
0.15158616006374359 0.06937534362077713 0
0.17233659327030182 0.084612272679805756 0
0.21432963013648987 0.10970490425825119 0
0.25965887308120728 0.13771151006221771 0
0.31790953874588013 0.16977380216121674 0
0.39614272117614746 0.2077462375164032 0
0.48414257168769836 0.2596498429775238 0
0.57647442817687988 0.32177931070327759 0
0.67600935697555542 0.38654649257659912 0
0.78315073251724243 0.45518326759338379 0
0.87946069240570068 0.51833629608154297 0
0.15989933907985687 0.071819469332695007 0
0.16521827876567841 0.074403636157512665 0
0.18100585043430328 0.081692054867744446 0
0.20383049547672272 0.092559978365898132 0
0.24236296117305756 0.11393596976995468 0
0.28497087955474854 0.13992853462696075 0
0.33664494752883911 0.17340023815631866 0
0.40891522169113159 0.21547074615955353 0
0.49673157930374146 0.26176553964614868 0
0.58831453323364258 0.32184126973152161 0
0.68842041492462158 0.38605618476867676 0
0.79429179430007935 0.45613977313041687 0
0.88705205917358398 0.51783472299575806 0
0.21484735608100891 0.094620570540428162 0
0.2219015508890152 0.097289472818374634 0
0.23334074020385742 0.10201585292816162 0
0.2485242486000061 0.10919078439474106 0
0.26959702372550964 0.12051918357610703 0
0.31155338883399963 0.14504311978816986 0
0.36135128140449524 0.17637136578559875 0
0.42312732338905334 0.22354279458522797 0
0.51237457990646362 0.26654714345932007 0
0.60676127672195435 0.32399415969848633 0
0.70881587266921997 0.38644996285438538 0
0.810402512550354 0.45467066764831543 0
0.90026497840881348 0.5171927809715271 0
0.29182925820350647 0.12092301249504089 0
0.29410430788993835 0.12252739071846008 0
0.29915356636047363 0.1254824697971344 0
0.3065599799156189 0.12975406646728516 0
0.31178715825080872 0.13342288136482239 0
0.34657913446426392 0.15181542932987213 0
0.39242690801620483 0.17836414277553558 0
0.45457625389099121 0.22116853296756744 0
0.54297029972076416 0.26645711064338684 0
0.63412630558013916 0.32324984669685364 0
0.72974658012390137 0.38588428497314453 0
0.82676386833190918 0.45399320125579834 0
0.91653198003768921 0.51303976774215698 0
0.38310068845748901 0.14729508757591248 0
0.38263797760009766 0.14733125269412994 0
0.38458150625228882 0.14882539212703705 0
0.39487159252166748 0.15464623272418976 0
0.3984643816947937 0.16056342422962189 0
0.41447874903678894 0.17024460434913635 0
0.44047358632087708 0.18558186292648315 0
0.49536862969398499 0.22139467298984528 0
0.57790958881378174 0.26828473806381226 0
0.66700989007949829 0.32310596108436584 0
0.7616162896156311 0.38277801871299744 0
0.85258156061172485 0.44922754168510437 0
0.94000053405761719 0.50723928213119507 0
0.50579917430877686 0.17243547737598419 0
0.50156402587890625 0.16880477964878082 0
0.50802946090698242 0.17313595116138458 0
0.50813347101211548 0.17374904453754425 0
0.50960451364517212 0.18433776497840881 0
0.51399201154708862 0.1910766065120697 0
0.51406675577163696 0.19399949908256531 0
0.54653251171112061 0.21806728839874268 0
0.63082277774810791 0.2648894190788269 0
0.71928608417510986 0.31740394234657288 0
0.80760186910629272 0.37422960996627808 0
0.8885195255279541 0.43917742371559143 0
0.96908152103424072 0.4979933500289917 0
0.64466208219528198 0.20414412021636963 0
0.64543670415878296 0.20510236918926239 0
0.64655774831771851 0.20676931738853455 0
0.64659148454666138 0.20804709196090698 0
0.65084034204483032 0.21562421321868896 0
0.65522593259811401 0.22215215861797333 0
0.65438985824584961 0.22461499273777008 0
0.66260254383087158 0.23764510452747345 0
0.70073121786117554 0.26324883103370667 0
0.77552735805511475 0.30659359693527222 0
0.86214858293533325 0.35450789332389832 0
0.94631457328796387 0.40916004776954651 0
0.99117666482925415 0.47458791732788086 0
0.80090481042861938 0.23036099970340729 0
0.80263334512710571 0.23267342150211334 0
0.80471694469451904 0.23294717073440552 0
0.80303943157196045 0.24107813835144043 0
0.80464017391204834 0.24499024450778961 0
0.80927056074142456 0.25085362792015076 0
0.81008058786392212 0.25840350985527039 0
0.81410390138626099 0.26813000440597534 0
0.82246750593185425 0.27788570523262024 0
0.84706664085388184 0.29593423008918762 0
0.91787266731262207 0.33844771981239319 0
0.97935795783996582 0.39059329032897949 0
0.99784457683563232 0.44555696845054626 0
0.94885373115539551 0.25214788317680359 0
0.95161908864974976 0.25092893838882446 0
0.95447647571563721 0.25290125608444214 0
0.95381313562393188 0.25718072056770325 0
0.95570152997970581 0.26113030314445496 0
0.95311146974563599 0.26906102895736694 0
0.95654422044754028 0.27521097660064697 0
0.95379173755645752 0.28507646918296814 0
0.95564669370651245 0.29930785298347473 0
0.95456653833389282 0.31318190693855286 0
0.97094172239303589 0.3408149778842926 0
0.99225276708602905 0.38202345371246338 0
0.99951756000518799 0.4311080276966095 0
0.99183636903762817 0.28486153483390808 0
0.99529045820236206 0.28574210405349731 0
0.99434536695480347 0.28894242644309998 0
0.9921572208404541 0.29325559735298157 0
0.99295032024383545 0.29807955026626587 0
0.99605846405029297 0.30288064479827881 0
0.99598187208175659 0.31068333983421326 0
0.99530994892120361 0.32073220610618591 0
0.99174213409423828 0.33651161193847656 0
0.99275916814804077 0.35168656706809998 0
0.99527502059936523 0.36985984444618225 0
0.99930936098098755 0.38925006985664368 0
1 0.42580294609069824 0
0.99882817268371582 0.33472543954849243 0.00029370177071541548
0.99928832054138184 0.33495619893074036 0.00034601546940393746
0.99962753057479858 0.34198859333992004 6.0586367908399552e-05
0.99864667654037476 0.34092307090759277 5.2358591347001493e-06
0.99878507852554321 0.34522902965545654 5.2942014008294791e-05
0.9999382495880127 0.35481119155883789 1.9297880498925224e-05
0.99998718500137329 0.36484736204147339 5.6846470215532463e-06
0.99897360801696777 0.37262484431266785 1.0157566066482104e-05
0.99813228845596313 0.38658571243286133 8.4072935351287015e-06
0.99881613254547119 0.39660802483558655 2.202052746724803e-05
0.99951660633087158 0.40936309099197388 1.1518889550643507e-05
1 0.42176476120948792 6.0137579566799104e-05
1 0.44111528992652893 0.00050976325292140245
1 0.44919514656066895 0.0017908732406795025
1 0.45090258121490479 0.0018282124074175954
1 0.45211008191108704 0.00087794882711023092
1 0.45119670033454895 0.0010103113017976284
1 0.45140084624290466 0.0014948826283216476
1 0.45753827691078186 0.0016825507627800107
1 0.4639732837677002 0.0008313347352668643
1 0.46760362386703491 0.0016172071918845177
1 0.4734438955783844 0.0016405442729592323
1 0.47645694017410278 0.0025944430381059647
1 0.48390966653823853 0.0012739592930302024
1 0.49110192060470581 0.0014093137579038739
1 0.49904793500900269 0.0061710281297564507
0.20377609133720398 0.10324359685182571 0
0.20332793891429901 0.10371772944927216 0
0.20123356580734253 0.10382715612649918 0
0.19713295996189117 0.10417960584163666 0
0.21361641585826874 0.11657511442899704 0
0.25850841403007507 0.14429573714733124 0
0.31217169761657715 0.17568755149841309 0
0.39871478080749512 0.21464250981807709 0
0.48887643218040466 0.2660621702671051 0
0.58414876461029053 0.32728558778762817 0
0.69137060642242432 0.39345645904541016 0
0.8005753755569458 0.46225330233573914 0
0.89323526620864868 0.52207410335540771 0
0.20692014694213867 0.10371772944927216 0
0.20620302855968475 0.1038108691573143 0
0.20194396376609802 0.10345767438411713 0
0.20526374876499176 0.1052660197019577 0
0.23235754668712616 0.1203097328543663 0
0.2723529040813446 0.14587606489658356 0
0.32842275500297546 0.17656496167182922 0
0.40900233387947083 0.21513161063194275 0
0.50080966949462891 0.26803895831108093 0
0.59668052196502686 0.32843440771102905 0
0.70050561428070068 0.39302706718444824 0
0.8076624870300293 0.46230116486549377 0
0.90188199281692505 0.52297216653823853 0
0.21151335537433624 0.10371535271406174 0
0.21544167399406433 0.10528852045536041 0
0.22265391051769257 0.1065981537103653 0
0.2389964759349823 0.11189929395914078 0
0.26384779810905457 0.12331372499465942 0
0.30445140600204468 0.14658690989017487 0
0.36185309290885925 0.1799221932888031 0
0.43064963817596436 0.22103399038314819 0
0.52333950996398926 0.27225807309150696 0
0.61835724115371704 0.33060505986213684 0
0.71905303001403809 0.39228221774101257 0
0.81765031814575195 0.46172916889190674 0
0.90305066108703613 0.52048003673553467 0
0.23962000012397766 0.11155276000499725 0
0.24728173017501831 0.11279597878456116 0
0.25720018148422241 0.11340406537055969 0
0.28093421459197998 0.12072750926017761 0
0.30719706416130066 0.13214521110057831 0
0.34624108672142029 0.1516520082950592 0
0.4006895124912262 0.18131695687770844 0
0.46671903133392334 0.22829146683216095 0
0.54705989360809326 0.27785539627075195 0
0.63935244083404541 0.33393308520317078 0
0.74232465028762817 0.39350095391273499 0
0.83384996652603149 0.4633338451385498 0
0.91889506578445435 0.52240514755249023 0
0.30092898011207581 0.13105516135692596 0
0.30861833691596985 0.1327471137046814 0
0.32227471470832825 0.13681143522262573 0
0.33708250522613525 0.14393961429595947 0.00052505196072161198
0.35230717062950134 0.14909538626670837 0.00086738733807578683
0.38351112604141235 0.16357922554016113 0
0.43450412154197693 0.19360710680484772 0
0.50210374593734741 0.22932343184947968 0
0.58000379800796509 0.27984452247619629 0
0.66768848896026611 0.33652248978614807 0
0.76536017656326294 0.39518874883651733 0
0.85288411378860474 0.46383875608444214 0
0.93744677305221558 0.5207902193069458 0
0.40252593159675598 0.1622379869222641 0
0.40239733457565308 0.16374541819095612 0
0.41088089346885681 0.16792199015617371 0
0.42085099220275879 0.17629171907901764 0.00011496450315462425
0.42706996202468872 0.18123829364776611 0.00023703482293058187
0.4447624683380127 0.18790033459663391 0
