assets/lut/picturefx faux infrared color p3.cube
# Created by: G'MIC (https://gmic.eu)
TITLE "faux_infrared_color_p3"
# LUT size
LUT_3D_SIZE 7
# Data domain
DOMAIN_MIN 0.0 0.0 0.0
DOMAIN_MAX 1.0 1.0 1.0
# LUT data points
0.10438568890094757 0.097095683217048645 0.12102895975112915
0.46290558576583862 0.39283695816993713 0.30718261003494263
0.77267599105834961 0.66437691450119019 0.50675308704376221
0.98445504903793335 0.91738468408584595 0.707663893699646
1 0.97000813484191895 0.83208149671554565
1 0.98665457963943481 0.92703258991241455
1 0.98823529481887817 0.93333333730697632
0.28371545672416687 0.085439838469028473 0.22788417339324951
0.5534597635269165 0.27915734052658081 0.3639380931854248
0.8303646445274353 0.62414759397506714 0.5395972728729248
0.98974448442459106 0.88741743564605713 0.7174142599105835
1 0.95462894439697266 0.84183025360107422
1 0.9812171459197998 0.93127715587615967
1 0.98370099067687988 0.93872356414794922
0.48120325803756714 0.15158654749393463 0.35490673780441284
0.69818687438964844 0.2382538914680481 0.46668824553489685
0.9222380518913269 0.49065771698951721 0.60307067632675171
0.99435526132583618 0.82585054636001587 0.75385195016860962
1 0.93830502033233643 0.86314648389816284
1 0.97544348239898682 0.94111162424087524
1 0.98039215803146362 0.94840174913406372
0.66274714469909668 0.21423265337944031 0.48238837718963623
0.81510931253433228 0.28191381692886353 0.58011496067047119
0.96270149946212769 0.36837351322174072 0.69570481777191162
0.99998652935028076 0.6605408787727356 0.79789423942565918
1 0.90778666734695435 0.89240789413452148
1 0.97345399856567383 0.9591526985168457
1 0.98105555772781372 0.9666363000869751
0.83134210109710693 0.2781367301940918 0.61887073516845703
0.90750354528427124 0.3382963240146637 0.69709616899490356
0.9839586615562439 0.40498620271682739 0.78282254934310913
0.99850201606750488 0.45555171370506287 0.826590895652771
1 0.83885669708251953 0.89935320615768433
1 0.97779643535614014 0.9770195484161377
1 0.99208557605743408 0.98681700229644775
0.97476369142532349 0.33834823966026306 0.75701498985290527
0.98315894603729248 0.37661948800086975 0.79338234663009644
0.99347454309463501 0.40936213731765747 0.82717138528823853
0.99929070472717285 0.41944801807403564 0.83551836013793945
1 0.53396517038345337 0.84932750463485718
1 0.92819678783416748 0.95581686496734619
1 0.93747234344482422 0.96120744943618774
0.99770927429199219 0.38757139444351196 0.85761559009552002
0.99747145175933838 0.40316790342330933 0.85573327541351318
0.99948889017105103 0.41759470105171204 0.85081863403320312
1 0.43309354782104492 0.84598034620285034
1 0.42710056900978088 0.837272047996521
1 0.57632821798324585 0.8548353910446167
1 0.5951874852180481 0.86014252901077271
0.0047771227546036243 0.21760883927345276 0.21918229758739471
0.27433866262435913 0.43273371458053589 0.33782503008842468
0.70475691556930542 0.68450319766998291 0.51609426736831665
0.97130656242370605 0.9187740683555603 0.70755970478057861
1 0.97955948114395142 0.83782792091369629
1 0.98901277780532837 0.92846947908401489
1 0.99107050895690918 0.93705767393112183
0.07608427107334137 0.13713295757770538 0.27747070789337158
0.40422552824020386 0.30369362235069275 0.36366486549377441
0.74959546327590942 0.6326865553855896 0.53868943452835083
0.98068344593048096 0.89895069599151611 0.72713923454284668
0.99950861930847168 0.96442365646362305 0.85003435611724854
1 0.98404896259307861 0.9289393424987793
1 0.98506057262420654 0.93380039930343628
0.30303645133972168 0.16023921966552734 0.36836409568786621
0.58452469110488892 0.21052128076553345 0.4590570330619812
0.86253148317337036 0.49199777841567993 0.60321122407913208
0.98986268043518066 0.83385199308395386 0.75882798433303833
1 0.94667309522628784 0.8682970404624939
1 0.96848106384277344 0.91993528604507446
1 0.98039215803146362 0.94204598665237427
0.54288512468338013 0.20798784494400024 0.49300867319107056
0.71644705533981323 0.2575371265411377 0.57235419750213623
0.94613862037658691 0.34854778647422791 0.69374799728393555
0.99831324815750122 0.69304603338241577 0.81230729818344116
1 0.91541963815689087 0.89515239000320435
1 0.97369921207427979 0.95540666580200195
1 0.98039215803146362 0.96283531188964844
0.7757684588432312 0.26721957325935364 0.63243120908737183
0.86747837066650391 0.31192809343338013 0.69529163837432861
0.97475075721740723 0.37839251756668091 0.77321052551269531
0.99767506122589111 0.45643413066864014 0.83826977014541626
1 0.84897243976593018 0.905997633934021
1 0.98264366388320923 0.98094683885574341
1 0.99015611410140991 0.9840514063835144
0.96595233678817749 0.32551807165145874 0.75190591812133789
0.97100639343261719 0.35084113478660583 0.7842223048210144
0.98447674512863159 0.38630598783493042 0.820972740650177
0.9966391921043396 0.41527667641639709 0.8448561429977417
1 0.5359305739402771 0.8564487099647522
1 0.93633532524108887 0.96123635768890381
1 0.94407790899276733 0.96673679351806641
0.99663406610488892 0.37717294692993164 0.85562717914581299
0.99210727214813232 0.38550269603729248 0.85185164213180542
0.99459296464920044 0.40374463796615601 0.86226904392242432
0.99757868051528931 0.41375967860221863 0.85504734516143799
1 0.41950440406799316 0.84339600801467896
1 0.58456289768218994 0.86160415410995483
1 0.60497713088989258 0.86540299654006958
0.0022348889615386724 0.3509332537651062 0.33807682991027832
0.053742829710245132 0.5172501802444458 0.41982188820838928
0.5155060887336731 0.73643368482589722 0.56104755401611328
0.90491032600402832 0.93004882335662842 0.72585266828536987
0.98975646495819092 0.99065703153610229 0.85682493448257446
0.99835091829299927 0.99323159456253052 0.93982577323913574
1 0.99409085512161255 0.94554227590560913
0.06332976371049881 0.22532083094120026 0.37573385238647461
0.048337988555431366 0.41645392775535583 0.42672556638717651
0.56431758403778076 0.6701732873916626 0.56136822700500488
0.92351073026657104 0.90296602249145508 0.73481804132461548
0.99489951133728027 0.98199361562728882 0.86541461944580078
0.99986892938613892 0.98897218704223633 0.93731558322906494
1 0.98879528045654297 0.93958163261413574
0.11940174549818039 0.23288211226463318 0.44257381558418274
0.2990630567073822 0.25051864981651306 0.49184805154800415
0.69755631685256958 0.52905893325805664 0.60131222009658813
0.96721029281616211 0.85097432136535645 0.76613706350326538
0.99992460012435913 0.95738869905471802 0.87791800498962402
1 0.97314685583114624 0.92812836170196533
1 0.98074376583099365 0.94354903697967529
0.29930531978607178 0.26280522346496582 0.53077119588851929
0.54662841558456421 0.26071342825889587 0.58182960748672485
0.86937469244003296 0.32866290211677551 0.69076895713806152
0.99417120218276978 0.72749549150466919 0.82025635242462158
1 0.92868858575820923 0.90755409002304077
1 0.96994674205780029 0.9479174017906189
1 0.98212891817092896 0.96310365200042725
0.63044726848602295 0.28122103214263916 0.6490369439125061
0.77653688192367554 0.28743830323219299 0.68953824043273926
0.95965921878814697 0.34160685539245605 0.77510827779769897
0.99542844295501709 0.45427286624908447 0.86727756261825562
1 0.86149019002914429 0.9199836254119873
1 0.98753261566162109 0.98501396179199219
1 0.98856592178344727 0.98292529582977295
0.84456038475036621 0.33005556464195251 0.7661287784576416
0.94482159614562988 0.33553707599639893 0.79425746202468872
0.98028761148452759 0.36403143405914307 0.83148139715194702
0.99649953842163086 0.41066491603851318 0.87257528305053711
1 0.56111586093902588 0.87533199787139893
1 0.94831913709640503 0.96899068355560303
1 0.95659518241882324 0.97491025924682617
0.98965030908584595 0.34293270111083984 0.83266317844390869
0.98058652877807617 0.36233663558959961 0.85955548286437988
0.99346566200256348 0.39741948246955872 0.90321850776672363
0.9999769926071167 0.41548514366149902 0.89121133089065552
1 0.41781675815582275 0.86217504739761353
1 0.62512832880020142 0.87511783838272095
1 0.64725804328918457 0.87871235609054565
2.6927275030175224e-05 0.4906429648399353 0.46634858846664429
0.025047272443771362 0.60351419448852539 0.51679271459579468
0.17990866303443909 0.8004642128944397 0.63520926237106323
0.74120014905929565 0.9682610034942627 0.77429521083831787
0.96207398176193237 0.99833458662033081 0.88829994201660156
0.99708914756774902 0.99934375286102295 0.96310460567474365
0.99753338098526001 0.99948298931121826 0.96574276685714722
0.0081433169543743134 0.3995870053768158 0.4873390793800354
0.029664715752005577 0.53806209564208984 0.53766483068466187
0.16528978943824768 0.74800568819046021 0.63310503959655762
0.77595102787017822 0.93970495462417603 0.77654755115509033
0.97473800182342529 0.99503904581069946 0.89311039447784424
0.99955576658248901 0.99768418073654175 0.96285426616668701
0.99705034494400024 0.99616283178329468 0.96125286817550659
0.15027086436748505 0.29820531606674194 0.55192959308624268
0.10876748710870743 0.37531474232673645 0.58295851945877075
0.28344348073005676 0.63226360082626343 0.65121984481811523
0.85783988237380981 0.88777148723602295 0.78499788045883179
0.99242651462554932 0.98593378067016602 0.89906412363052368
0.99875903129577637 0.98936003446578979 0.96157300472259521
1 0.9890284538269043 0.96514225006103516
0.18644344806671143 0.33860230445861816 0.62647092342376709
0.22876057028770447 0.35087430477142334 0.65639346837997437
0.64543414115905762 0.38202458620071411 0.72166341543197632
0.95430994033813477 0.74706995487213135 0.83166873455047607
0.99947154521942139 0.95464861392974854 0.92775565385818481
1 0.99174922704696655 0.98021465539932251
1 0.9897763729095459 0.97715127468109131
0.28771683573722839 0.37654447555541992 0.70980578660964966
0.47430956363677979 0.36982050538063049 0.73877894878387451
0.82082468271255493 0.34918788075447083 0.80317574739456177
0.97615903615951538 0.47945719957351685 0.87712085247039795
1 0.89194673299789429 0.9389955997467041
1 0.99311143159866333 0.99064743518829346
1 0.99161499738693237 0.98798203468322754
0.63982075452804565 0.38552364706993103 0.79914486408233643
0.76454311609268188 0.37467804551124573 0.82408297061920166
0.96506637334823608 0.35596615076065063 0.86773061752319336
0.99282795190811157 0.4097352921962738 0.90645891427993774
1 0.61262935400009155 0.90916138887405396
1 0.96652084589004517 0.98011666536331177
1 0.97277402877807617 0.98279672861099243
0.91554522514343262 0.37335014343261719 0.87802612781524658
0.96133995056152344 0.36062285304069519 0.88602918386459351
0.98342800140380859 0.40147805213928223 0.94411104917526245
0.99543702602386475 0.41731733083724976 0.92727327346801758
0.99964970350265503 0.42571273446083069 0.89423733949661255
1 0.67669045925140381 0.89922171831130981
1 0.70228224992752075 0.9024890661239624
0.00051514868391677737 0.63191014528274536 0.59692096710205078
0.0119082136079669 0.71194279193878174 0.634868323802948
0.033001214265823364 0.87730628252029419 0.72800874710083008
0.42389050126075745 0.98378688097000122 0.82820034027099609
0.91650247573852539 1 0.9216839075088501
0.99127370119094849 1 0.98144596815109253
0.99383747577667236 1 0.98125416040420532
0.0014680899912491441 0.57240521907806396 0.61757963895797729
0.0098056122660636902 0.66117012500762939 0.64821118116378784
0.045395299792289734 0.83054298162460327 0.73285770416259766
0.34932872653007507 0.98069053888320923 0.83328557014465332
0.92707574367523193 1 0.92901736497879028
0.99466341733932495 1 0.98683291673660278
0.99273562431335449 1 0.98527354001998901
0.097619436681270599 0.42120897769927979 0.66175001859664917
0.040392346680164337 0.53788071870803833 0.68591195344924927
0.03415699303150177 0.74640333652496338 0.74086141586303711
0.49452793598175049 0.95169955492019653 0.8445742130279541
0.94412398338317871 0.99717831611633301 0.93696516752243042
0.99684441089630127 0.99905753135681152 0.99339067935943604
0.99606907367706299 0.99741381406784058 0.99067360162734985
0.21743907034397125 0.39763322472572327 0.72573858499526978
0.21863968670368195 0.41005596518516541 0.74728202819824219
0.11698839068412781 0.55760771036148071 0.7951856255531311
0.68372982740402222 0.81920695304870605 0.86039167642593384
0.98739928007125854 0.99120217561721802 0.95239150524139404
0.99443203210830688 0.99601912498474121 0.98731237649917603
0.99583762884140015 0.99576711654663086 0.98948061466217041
0.2506243884563446 0.43615111708641052 0.79477542638778687
0.25122034549713135 0.44588193297386169 0.81356382369995117
0.47052410244941711 0.44964349269866943 0.85969001054763794
0.9286380410194397 0.5682404637336731 0.92405784130096436
0.99817174673080444 0.9287564754486084 0.97129762172698975
0.99715131521224976 0.99605327844619751 0.99490559101104736
0.99607843160629272 0.99604576826095581 0.99215686321258545
0.28239256143569946 0.47189927101135254 0.86136144399642944
0.37658855319023132 0.47164618968963623 0.87906086444854736
0.73836243152618408 0.44154813885688782 0.91890197992324829
0.97817617654800415 0.41078171133995056 0.9693000316619873
1 0.68363559246063232 0.95600199699401855
1 0.98527437448501587 0.99281549453735352
1 0.98777133226394653 0.99193954467773438
0.59737032651901245 0.47700798511505127 0.93059682846069336
0.73849880695343018 0.46259748935699463 0.94538897275924683
0.93817466497421265 0.43288132548332214 0.9735640287399292
0.98935127258300781 0.43029999732971191 0.96525931358337402
0.99829697608947754 0.42741233110427856 0.94370400905609131
1 0.75006026029586792 0.93417471647262573
1 0.77192974090576172 0.93718546628952026
0 0.77412748336791992 0.72352361679077148
0.0028749504126608372 0.82278311252593994 0.74243652820587158
0.052495576441287994 0.9398987889289856 0.81320339441299438
0.1816694438457489 0.99050003290176392 0.85373198986053467
0.77692991495132446 1 0.92244237661361694
0.99624156951904297 1 0.99551045894622803
0.99523228406906128 1 0.99174869060516357
3.5903033221984515e-06 0.71196210384368896 0.73493796586990356
0.00067894131643697619 0.77981090545654297 0.7474743127822876
0.026437124237418175 0.90896028280258179 0.81124389171600342
0.18853756785392761 0.9908444881439209 0.86858397722244263
0.79366588592529297 1 0.93055754899978638
0.99433284997940063 1 0.99555641412734985
0.99210828542709351 1 0.99262523651123047
0.031992670148611069 0.60366803407669067 0.76439493894577026
0.010172630660235882 0.69245052337646484 0.77913600206375122
0.0096171507611870766 0.84185993671417236 0.82114726305007935
0.1358693540096283 0.97320234775543213 0.88190525770187378
0.82685333490371704 0.99997317790985107 0.94484990835189819
0.99553066492080688 1 0.99620920419692993
0.99215686321258545 1 0.99607843160629272
0.23641979694366455 0.45343276858329773 0.81600725650787354
0.21254223585128784 0.49587449431419373 0.834786057472229
0.047613151371479034 0.68997049331665039 0.86778515577316284
0.10205771028995514 0.91152369976043701 0.91549605131149292
0.88899600505828857 0.99888414144515991 0.97264450788497925
0.9954456090927124 0.99880629777908325 0.99598914384841919
0.99215686321258545 0.99619847536087036 0.9935489296913147
0.2647857666015625 0.48263892531394958 0.87087595462799072
0.26677244901657104 0.49562078714370728 0.89262431859970093
0.28007066249847412 0.51655417680740356 0.92884701490402222
0.49232757091522217 0.73407882452011108 0.97107869386672974
0.96757811307907104 0.96869844198226929 0.99710595607757568
0.99581950902938843 0.99695658683776855 0.99618703126907349
0.9924662709236145 0.99607843160629272 0.99562966823577881
0.28725147247314453 0.51456642150878906 0.92411720752716064
0.295816570520401 0.52205276489257812 0.94226419925689697
0.33920687437057495 0.53652751445770264 0.97247529029846191
0.85935485363006592 0.49693456292152405 0.99736857414245605
0.98571640253067017 0.76372486352920532 0.99309641122817993
0.99992555379867554 0.99320906400680542 0.99667489528656006
0.99814105033874512 0.99280357360839844 0.99608099460601807
0.30998656153678894 0.54374188184738159 0.97329944372177124
0.33087214827537537 0.54843837022781372 0.98615819215774536
0.60357826948165894 0.5340425968170166 0.99673771858215332
0.95869976282119751 0.4758715033531189 0.99731814861297607
0.99951285123825073 0.44698327779769897 0.99343252182006836
1 0.82072734832763672 0.97001218795776367
1 0.84325635433197021 0.97011798620223999
0 0.87237012386322021 0.8184623122215271
0 0.92070090770721436 0.84059864282608032
0.046278230845928192 0.99050819873809814 0.88005316257476807
0.16761146485805511 0.99906063079833984 0.87882256507873535
0.30315700173377991 1 0.8825833797454834
0.97567331790924072 1 0.98980700969696045
0.98807621002197266 1 0.99476355314254761
0 0.84169304370880127 0.82906037569046021
0.00033225264633074403 0.88282471895217896 0.84216016530990601
0.014032760635018349 0.96571809053421021 0.88559091091156006
0.086949907243251801 0.99859678745269775 0.90450501441955566
0.29475176334381104 1 0.89201480150222778
0.97904759645462036 1 0.99077111482620239
0.98512727022171021 1 0.99318057298660278
0.0028177746571600437 0.75676912069320679 0.85638785362243652
0.00026459040236659348 0.82019031047821045 0.86724025011062622
0.00021655512682627887 0.9353366494178772 0.89819985628128052
0.067962437868118286 0.99274706840515137 0.9212493896484375
0.38939979672431946 1 0.91481506824493408
0.98824155330657959 1 0.99530982971191406
0.99132740497589111 1 0.99582386016845703
0.15873298048973083 0.57644963264465332 0.90422779321670532
0.077732652425765991 0.66163349151611328 0.9126848578453064
0.0075602214783430099 0.81827342510223389 0.93774831295013428
0.026726247742772102 0.97201097011566162 0.95862478017807007
0.41211381554603577 0.99899584054946899 0.95395910739898682
0.99453574419021606 1 0.99881941080093384
0.99433529376983643 1 0.99930483102798462
0.27990290522575378 0.52772396802902222 0.93929249048233032
0.29231423139572144 0.53453469276428223 0.96092963218688965
0.23389028012752533 0.59549814462661743 0.98750418424606323
0.024819811806082726 0.859078049659729 0.99590879678726196
0.65224611759185791 0.98867940902709961 0.99721705913543701
0.99595654010772705 1 0.99977385997772217
0.99371683597564697 0.99964058399200439 0.99882680177688599
0.2972656786441803 0.54697543382644653 0.96341747045516968
0.30909484624862671 0.55260491371154785 0.9819982647895813
0.32302489876747131 0.56772643327713013 0.99490666389465332
0.35352939367294312 0.60864365100860596 1
0.8833128809928894 0.87574118375778198 1
0.99954032897949219 0.99875175952911377 1
0.99727582931518555 0.99908089637756348 1
0.31769838929176331 0.56921035051345825 0.99136173725128174
0.329050213098526 0.56721228361129761 0.99536597728729248
0.33324459195137024 0.57596862316131592 0.9993901252746582
0.59381568431854248 0.55148625373840332 1
0.98360693454742432 0.5227959156036377 1
1 0.89880752563476562 0.99846345186233521
1 0.91198825836181641 0.9967077374458313
