assets/lut/picturefx goldfx perfect sunset 05min.cube
# Created by: G'MIC (https://gmic.eu)
TITLE "goldfx_perfect_sunset_05min"
# LUT size
LUT_3D_SIZE 7
# Data domain
DOMAIN_MIN 0.0 0.0 0.0
DOMAIN_MAX 1.0 1.0 1.0
# LUT data points
0.00013786765339318663 0.00069113337667658925 0.00049043545732274652
0.056385040283203125 0.0075222835876047611 0.0083015291020274162
0.18382871150970459 0.00071631040191277862 0.0017956303199753165
0.32766807079315186 0 0
0.48322620987892151 0.00026487463037483394 0
0.6668083667755127 0 0
0.86130315065383911 0 0
0.004171962384134531 0.082891039550304413 0.00054342229850590229
0.086933955550193787 0.088040955364704132 0.0020779627375304699
0.20229706168174744 0.084162361919879913 0
0.33977150917053223 0.06045035645365715 0
0.49786844849586487 0.020992683246731758 0
0.68080753087997437 0 0
0.88040632009506226 0 0
0 0.2159925252199173 0
0.035552274435758591 0.21454548835754395 0
0.20905426144599915 0.21602712571620941 0.0001427444803994149
0.36178562045097351 0.21536742150783539 0
0.51943278312683105 0.20076031982898712 0.0018134771380573511
0.69594818353652954 0.14216078817844391 0
0.89533722400665283 0.026193775236606598 0
0 0.37214905023574829 0
0.00011399212962714955 0.37330734729766846 0
0.16480948030948639 0.37343904376029968 0.00037553076981566846
0.35712730884552002 0.37745097279548645 0
0.52938145399093628 0.36548197269439697 0
0.70997750759124756 0.34792360663414001 0.0040661529637873173
0.89403504133224487 0.28588786721229553 0.00031756231328472495
0.0020574084483087063 0.54895484447479248 0.00084635417442768812
0 0.55441659688949585 0.0015242781955748796
0.058056041598320007 0.55151212215423584 0.0054452335461974144
0.28393164277076721 0.54891550540924072 0.001195750548504293
0.49988001585006714 0.54096418619155884 5.7444854064669926e-06
0.69573742151260376 0.525970458984375 0.0025477390736341476
0.85734742879867554 0.50350964069366455 0.00098052679095417261
0.0048575308173894882 0.72495537996292114 0.0046759210526943207
0 0.73065817356109619 0.011357326060533524
0.0021011801436543465 0.72700518369674683 0.0077418009750545025
0.17433464527130127 0.71426743268966675 0.0014652626123279333
0.46459090709686279 0.70286589860916138 0
0.65351694822311401 0.68929672241210938 0
0.83159166574478149 0.66872429847717285 0
0 0.87721949815750122 2.5850184101727791e-05
0 0.87758904695510864 0.0024252647999674082
0 0.87149173021316528 1.7951517293113284e-05
0.04602445662021637 0.85767042636871338 0.00065147550776600838
0.41623798012733459 0.83883899450302124 0
0.61447399854660034 0.83001691102981567 0
0.77931153774261475 0.81127279996871948 0
0.005815842654556036 0.0043351566419005394 0.037567079067230225
0.079000197350978851 0.0016431321855634451 0.073670975863933563
0.20336146652698517 0 0.085071995854377747
0.35043379664421082 0.0033332973252981901 0.077639274299144745
0.51062262058258057 0.0054628560319542885 0.055829513818025589
0.69991248846054077 0.0030893811490386724 0.032088454812765121
0.89484530687332153 0 0.027693595737218857
3.8835114537505433e-05 0.08679468184709549 0.08315742015838623
0.08014514297246933 0.084531091153621674 0.084443487226963043
0.21916913986206055 0.059810534119606018 0.065928138792514801
0.36158958077430725 0.026312913745641708 0.051164440810680389
0.52223438024520874 0.0017972759669646621 0.047385197132825851
0.71080935001373291 4.3831620132550597e-05 0.033148236572742462
0.90629392862319946 0.0022863349877297878 0.010535296052694321
0.00066840974614024162 0.22033025324344635 0.042604394257068634
0.025905594229698181 0.22417877614498138 0.051613856106996536
0.21479818224906921 0.21880336105823517 0.028841804713010788
0.36880761384963989 0.21014890074729919 0.029548570513725281
0.53109002113342285 0.18649473786354065 0.0082370983436703682
0.71364402770996094 0.097892925143241882 0.0018881703726947308
0.91093474626541138 0.0083657810464501381 0.00427271518856287
0 0.37521609663963318 0.0018780577229335904
0.00044091916061006486 0.37961211800575256 0.0023707670625299215
0.14445571601390839 0.37806951999664307 5.7444853155175224e-05
0.36295658349990845 0.37691357731819153 0.0028770447243005037
0.53940927982330322 0.36453205347061157 0.0001977359497686848
0.71451377868652344 0.33834949135780334 0.0010717803379520774
0.89471274614334106 0.26967975497245789 0.00027461332501843572
0.0027966219931840897 0.55606919527053833 0
0 0.55968558788299561 0
0.0060354643501341343 0.55478322505950928 0.0021099613513797522
0.28003221750259399 0.54912650585174561 0.0018845502054318786
0.50876849889755249 0.53947269916534424 0
0.70181214809417725 0.52176827192306519 0.00058079138398170471
0.86296635866165161 0.50008970499038696 0.0018214805750176311
0.0077260034158825874 0.73098921775817871 0.0028637903742492199
0.00010815788846230134 0.73512858152389526 0.0061758751980960369
0 0.73072046041488647 0.0068975412286818027
0.1115148663520813 0.71844804286956787 0.0014458001824095845
0.47200858592987061 0.70101618766784668 0.001478980528190732
0.65872657299041748 0.69225513935089111 0.0011270709801465273
0.82739889621734619 0.66862630844116211 0.00036070580244995654
0.00083600211655721068 0.87672114372253418 0.0068450029939413071
0.00024354223569389433 0.87250256538391113 0.012048354372382164
0.0032187518663704395 0.86996918916702271 0.0021958444267511368
0.072090893983840942 0.85826051235198975 0.0092244017869234085
0.42617923021316528 0.84004080295562744 0.001566030434332788
0.60849970579147339 0.83089405298233032 0.0010720347054302692
0.77558565139770508 0.80947762727737427 0
0.0011538187973201275 0.0055415136739611626 0.19117000699043274
0.07339024543762207 0.0011339224874973297 0.20668090879917145
0.21280686557292938 0 0.21763511002063751
0.36822313070297241 0.0016261979471892118 0.22017617523670197
0.53059548139572144 0.00085438747191801667 0.21604986488819122
0.71877062320709229 5.7744044170249254e-05 0.19225144386291504
0.93042027950286865 0.00026079066446982324 0.16431581974029541
0 0.083232536911964417 0.22274810075759888
0.058818276971578598 0.072860807180404663 0.22797583043575287
0.22725816071033478 0.045814275741577148 0.22714738547801971
0.38062006235122681 0.0085379062220454216 0.2187642902135849
0.5456734299659729 2.908145688707009e-05 0.19986404478549957
0.73164516687393188 0.00045089720515534282 0.180983766913414
0.92913812398910522 0.0015169779071584344 0.1584484875202179
0.00096420588670298457 0.21739725768566132 0.22106897830963135
0.0051535661332309246 0.22418759763240814 0.22048300504684448
0.20846951007843018 0.21443186700344086 0.2159094512462616
0.39418765902519226 0.18618664145469666 0.18916691839694977
0.56109291315078735 0.11446867138147354 0.17274764180183411
0.75039803981781006 0.022053662687540054 0.15445759892463684
0.93528169393539429 0.0036297517362982035 0.12994039058685303
0.00065757898846641183 0.3893093466758728 0.1615520566701889
0.00048567829071544111 0.38882797956466675 0.16106243431568146
0.073664568364620209 0.38794064521789551 0.12385434657335281
0.37855234742164612 0.38172492384910583 0.12267224490642548
0.5600164532661438 0.35897150635719299 0.11413697153329849
0.74107378721237183 0.31894931197166443 0.082678638398647308
0.90569150447845459 0.27769955992698669 0.028844570741057396
0.00042347627459093928 0.56533747911453247 0.046086300164461136
0.0058339736424386501 0.56416016817092896 0.026297999545931816
0.0050246743485331535 0.56884664297103882 0.020421780645847321
0.25145834684371948 0.55737054347991943 0.0063648149371147156
0.51776587963104248 0.54289865493774414 0.021544722840189934
0.71474140882492065 0.5202866792678833 0.011311130598187447
0.88585299253463745 0.50032943487167358 0.00034646427957341075
0.00013224284339230508 0.75124663114547729 4.6673943870700896e-05
0.0064000147394835949 0.74762141704559326 0
0.0009923598263412714 0.73784327507019043 0
0.12361253052949905 0.73359924554824829 0
0.46736973524093628 0.71284675598144531 0.00045972337829880416
0.66987746953964233 0.69582253694534302 0
0.85121005773544312 0.67420786619186401 0.00017055436910595745
0 0.88154023885726929 0.0032881791703402996
0.0035842745564877987 0.88268685340881348 0.0017712312983348966
0.0012668684357777238 0.87491863965988159 0.00068416219437494874
0.012556008994579315 0.86311686038970947 0.0031384637113660574
0.39964604377746582 0.84792518615722656 0.00029093425837345421
0.6186898946762085 0.83250904083251953 0.0063387854024767876
0.81072449684143066 0.82732534408569336 0
0.0011028663720935583 0.0068694916553795338 0.57401841878890991
0.057365044951438904 0.00039443970308639109 0.56045597791671753
0.29842224717140198 0 0.57292509078979492
0.52086794376373291 0 0.56474381685256958
0.76749271154403687 0 0.55187022686004639
0.96686917543411255 0.00042844287236221135 0.50535768270492554
0.99912667274475098 0.0094219734892249107 0.47252944111824036
0 0.11243490874767303 0.59174042940139771
0.012498204596340656 0.091341026127338409 0.58780586719512939
0.30437564849853516 0.039211858063936234 0.57763671875
0.53947192430496216 0.011505695059895515 0.57192754745483398
0.78417468070983887 0 0.54601871967315674
0.97673434019088745 0.00097514135995879769 0.49806451797485352
0.99999785423278809 0.016117798164486885 0.4652346670627594
0 0.30436745285987854 0.59933894872665405
0.002572676632553339 0.29803723096847534 0.603252112865448
0.23472942411899567 0.26783803105354309 0.58948510885238647
0.55335724353790283 0.20870871841907501 0.56306391954421997
0.79916423559188843 0.0826873779296875 0.51939302682876587
0.97416013479232788 0.0146687226369977 0.47345453500747681
1 0.014718014746904373 0.42779234051704407
7.880715565988794e-05 0.53681635856628418 0.54894047975540161
0.00033217784948647022 0.53444933891296387 0.55154472589492798
0.023176290094852448 0.52688860893249512 0.53308606147766113
0.48587679862976074 0.4947378933429718 0.4958149790763855
0.77649593353271484 0.4234689474105835 0.43771874904632568
0.9523618221282959 0.36102747917175293 0.39617395401000977
0.99926543235778809 0.31463614106178284 0.36132785677909851
0 0.74006658792495728 0.44681808352470398
1.1369294043106493e-05 0.74136984348297119 0.42710605263710022
0.00096604588907212019 0.73786842823028564 0.39343243837356567
0.28258687257766724 0.72076767683029175 0.34051612019538879
0.67820978164672852 0.68758118152618408 0.31736487150192261
0.89923125505447388 0.64193165302276611 0.29288715124130249
0.99778604507446289 0.60972940921783447 0.27851375937461853
0 0.90911287069320679 0.28761753439903259
8.6047599324956536e-05 0.90621662139892578 0.2684626579284668
0 0.89465045928955078 0.22843684256076813
0.1637885570526123 0.87989282608032227 0.18464596569538116
0.59078794717788696 0.85459935665130615 0.16993139684200287
0.82302165031433105 0.82647711038589478 0.10698928683996201
0.97654467821121216 0.79551094770431519 0.15070123970508575
0 0.99470645189285278 0.10501980036497116
0.0071975109167397022 0.99042922258377075 0.12860850989818573
0.0045028235763311386 0.98091399669647217 0.14077509939670563
0.086318552494049072 0.97951328754425049 0.086857602000236511
0.51452946662902832 0.97097814083099365 0.072979241609573364
0.74409466981887817 0.94964396953582764 0.088592305779457092
0.93611520528793335 0.93295168876647949 0.016062702983617783
0 0 0.99913918972015381
0 0 0.99045038223266602
0.28203228116035461 0.002789665712043643 0.99036157131195068
0.67402207851409912 0.0031127780675888062 0.9619486927986145
0.94454675912857056 0.00053064682288095355 0.94090217351913452
1 0.0001509124122094363 0.91818159818649292
1 0.002735137939453125 0.8704952597618103
0.00072928034933283925 0.085525691509246826 0.99760586023330688
0.0053029377013444901 0.034924287348985672 0.99383735656738281
0.33888012170791626 0.0047567030414938927 0.98831212520599365
0.68451523780822754 0.0012259689392521977 0.96515959501266479
0.95114594697952271 0 0.93406695127487183
1 0 0.89885950088500977
0.99973422288894653 0.00097427365835756063 0.86122053861618042
0.00096552231116220355 0.36881604790687561 0.99481892585754395
0.0010755052790045738 0.34545376896858215 0.98841923475265503
0.26768845319747925 0.29400309920310974 0.9821019172668457
0.65090352296829224 0.2054097056388855 0.95668363571166992
0.92351645231246948 0.081191718578338623 0.91413891315460205
1 0.0044600991532206535 0.87325936555862427
0.99901360273361206 0 0.81382644176483154
0 0.61995589733123779 0.95653116703033447
0 0.61383682489395142 0.94792354106903076
0.028797045350074768 0.57973825931549072 0.93185043334960938
0.52840274572372437 0.52364057302474976 0.91280806064605713
0.8690827488899231 0.46967586874961853 0.85910069942474365
0.99973320960998535 0.38926839828491211 0.7946552038192749
0.99993699789047241 0.29572790861129761 0.72937577962875366
0 0.83594191074371338 0.84992235898971558
0.00035042857052758336 0.83864080905914307 0.83921784162521362
0.00073960248846560717 0.82416766881942749 0.82925838232040405
0.2571919858455658 0.79411172866821289 0.79567784070968628
0.7495499849319458 0.74958318471908569 0.74326330423355103
0.98564183712005615 0.68049389123916626 0.68086636066436768
0.99741309881210327 0.62756228446960449 0.62774640321731567
0 0.98147177696228027 0.73722851276397705
0.00016633575432933867 0.98479610681533813 0.73035883903503418
2.5132123937510187e-06 0.97824227809906006 0.70675671100616455
0.15048189461231232 0.96131044626235962 0.65911614894866943
0.60152643918991089 0.93763953447341919 0.59865063428878784
0.89992570877075195 0.894767165184021 0.55260515213012695
1 0.84924733638763428 0.52894628047943115
9.3347889560391195e-06 0.99914801120758057 0.60834938287734985
0.0059005138464272022 1 0.5801805853843689
0.00072346109664067626 1 0.57827299833297729
0.045845735818147659 1 0.53562510013580322
0.53870284557342529 1 0.50813615322113037
0.80505222082138062 0.99931341409683228 0.46590098738670349
0.98334395885467529 0.98466026782989502 0.37270715832710266
0 0 1
0.015232236124575138 0 1
0.36572626233100891 0.0055447597987949848 0.99900954961776733
0.69578975439071655 0.0069125904701650143 0.99987298250198364
0.93410515785217285 0.0054438123479485512 1
1 0 1
1 0 1
0.00021761725656688213 0.018150463700294495 0.99983304738998413
0.015651402994990349 0.0043016769923269749 1
0.39262175559997559 0 0.99576044082641602
0.70442324876785278 0.00011010263551725075 0.99999302625656128
0.93673765659332275 1.4839920368103776e-05 1
1 0 1
1 0 1
0.00064233515877276659 0.31051716208457947 0.99462854862213135
0.05218779668211937 0.28469634056091309 0.99551689624786377
0.28931394219398499 0.23166744410991669 0.99860340356826782
0.62603795528411865 0.14180335402488708 0.99961978197097778
0.88798350095748901 0.021662767976522446 0.9999154806137085
1 0.0037246106658130884 0.99960088729858398
1 4.9785539886215702e-05 0.99223077297210693
0.0036179188173264265 0.5722275972366333 1
3.5903033790418704e-07 0.55913734436035156 0.99965989589691162
0.015362324193120003 0.52689749002456665 1
0.53542739152908325 0.47424203157424927 1
0.80996763706207275 0.41595369577407837 0.99926042556762695
0.99266523122787476 0.34600856900215149 0.99176031351089478
1 0.26740542054176331 0.96054375171661377
0.0014061721740290523 0.78900444507598877 0.99932235479354858
0.0074390936642885208 0.78024208545684814 0.99871367216110229
0.00035632264916785061 0.75782316923141479 0.99730867147445679
0.24059571325778961 0.71972167491912842 0.99380552768707275
0.67326360940933228 0.6738133430480957 0.98365652561187744
0.95852130651473999 0.62256830930709839 0.94706690311431885
1 0.56074416637420654 0.89751064777374268
0 0.94775938987731934 0.95023816823959351
0.0015850440831854939 0.94322258234024048 0.9393419623374939
0.00051332364091649652 0.93487131595611572 0.93883860111236572
0.081364423036575317 0.91762173175811768 0.91827839612960815
0.52850461006164551 0.89283138513565063 0.89043182134628296
0.85221570730209351 0.85126727819442749 0.84613215923309326
0.9997718334197998 0.79361206293106079 0.79778850078582764
0 1 0.84213501214981079
0.0036164377816021442 1 0.83735185861587524
1.6994103134493344e-05 0.99998921155929565 0.83315098285675049
0.013300787657499313 0.99998849630355835 0.80591201782226562
0.35427898168563843 0.99817758798599243 0.75901174545288086
0.72843784093856812 0.99121153354644775 0.71993732452392578
0.96111893653869629 0.95959603786468506 0.67317146062850952
0 0 1
0.059142664074897766 4.6673943870700896e-05 1
0.38150167465209961 0.0056630154140293598 0.99892497062683105
0.63936585187911987 0.00068084115628153086 1
0.86616331338882446 0.0013528113486245275 0.9984973669052124
0.99997472763061523 0 1
1 0 1
0 0.0040850173681974411 1
0.098521076142787933 0.0042300205677747726 0.99858534336090088
0.42320507764816284 3.1115963793126866e-05 0.99955642223358154
0.65994787216186523 0 1
0.87630325555801392 1.5318628356908448e-05 0.99831569194793701
0.99995523691177368 0 1
1 0 1
0.00036411659675650299 0.26348128914833069 1
0.13462038338184357 0.25002339482307434 1
0.40457040071487427 0.22073863446712494 1
0.63345068693161011 0.14196720719337463 1
0.8545803427696228 0.02165648527443409 1
0.99855822324752808 0.0014876421773806214 1
1 0.0031300713308155537 1
0.0012579525355249643 0.50860023498535156 1
0.018793009221553802 0.5033755898475647 0.99908983707427979
0.22528535127639771 0.48304998874664307 0.998798668384552
0.57393819093704224 0.44252750277519226 1
0.79910123348236084 0.3814246654510498 0.99999064207077026
0.98217540979385376 0.29664558172225952 0.99744981527328491
1 0.24973329901695251 1
0.00031750247580930591 0.72941195964813232 1
0.012888784520328045 0.72040992975234985 1
0.019844414666295052 0.70297086238861084 1
0.24845999479293823 0.66301125288009644 0.99927246570587158
0.66563951969146729 0.61334580183029175 0.99939131736755371
0.90703088045120239 0.57181930541992188 1
0.99999064207077026 0.52178585529327393 1
0 0.89916312694549561 1
0 0.89505660533905029 1
0 0.88404995203018188 1
0.078530378639698029 0.85655581951141357 1
0.49661830067634583 0.818511962890625 0.99993878602981567
0.79644948244094849 0.78089225292205811 0.99877196550369263
0.99294054508209229 0.73861461877822876 0.99294710159301758
0 0.99840044975280762 0.9794500470161438
0.00021523868781514466 0.99882346391677856 0.98407083749771118
0.0016184189589694142 0.99264794588088989 0.99274313449859619
0.077530413866043091 0.98764675855636597 0.9858439564704895
0.35765016078948975 0.97668999433517456 0.97213870286941528
0.66810518503189087 0.95506167411804199 0.95226627588272095
0.92639976739883423 0.92619401216506958 0.9249538779258728
