assets/lut/picturefx technicalfx backlight filter.cube
# Created by: G'MIC (https://gmic.eu)
TITLE "technicalfx_backlight_filter"
# LUT size
LUT_3D_SIZE 13
# Data domain
DOMAIN_MIN 0.0 0.0 0.0
DOMAIN_MAX 1.0 1.0 1.0
# LUT data points
0.062170829623937607 0.065145902335643768 0.064721174538135529
0.18222323060035706 0.065414503216743469 0.064467020332813263
0.30259999632835388 0.06111571192741394 0.060715679079294205
0.43692284822463989 0.037787195295095444 0.054615125060081482
0.5952875018119812 0.0080414116382598877 0.047532442957162857
0.77100843191146851 0.00078286562347784638 0.043024323880672455
0.92377734184265137 7.3511459049768746e-05 0.031752657145261765
0.99585169553756714 0.0033089881762862206 0.012014470994472504
1 0.00069796992465853691 0.0035873113665729761
1 0 0.00046045638737268746
1 0 0.00028399299480952322
1 0 0.0019768211059272289
1 0 0.0048709646798670292
0.050365671515464783 0.18253126740455627 0.054388068616390228
0.1786196231842041 0.18322545289993286 0.051457423716783524
0.30636110901832581 0.18232692778110504 0.048179700970649719
0.44235688447952271 0.16447286307811737 0.039414171129465103
0.59749066829681396 0.12329794466495514 0.027207633480429649
0.77213418483734131 0.084425650537014008 0.022457467392086983
0.92444407939910889 0.040847957134246826 0.017163923010230064
0.99428755044937134 0.00605036411434412 0.0068651982583105564
0.99990886449813843 0.0060933730565011501 0.0022533789742738008
0.99933940172195435 0.011662173084914684 0.00011830049334093928
0.99974668025970459 0.0043106377124786377 0.00028866037609986961
1 0.0001757453428581357 0.0021112628746777773
1 0.00074050005059689283 0.0056729186326265335
0.023848081007599831 0.31428596377372742 0.030312631279230118
0.14360080659389496 0.31763869524002075 0.033732648938894272
0.30437716841697693 0.31919082999229431 0.033835869282484055
0.45909303426742554 0.31512165069580078 0.026880212128162384
0.61178100109100342 0.29904055595397949 0.015807133167982101
0.78014415502548218 0.26739537715911865 0.0065557141788303852
0.9359467625617981 0.2210380882024765 0.0029501074459403753
0.99862390756607056 0.15713569521903992 0.0016794241964817047
0.99883353710174561 0.14466133713722229 0.00095231301384046674
0.99663853645324707 0.15236878395080566 0
0.99781125783920288 0.12304119020700455 1.5438305126735941e-05
1 0.078846052289009094 0.0015217799227684736
1 0.076620407402515411 0.0050832862034440041
0.017329854890704155 0.46561944484710693 0.0050911847501993179
0.10441433638334274 0.46871486306190491 0.011672405526041985
0.26947405934333801 0.47031152248382568 0.016214214265346527
0.44898903369903564 0.46854650974273682 0.012519671581685543
0.61124002933502197 0.45760539174079895 0.0087934760376811028
0.77424514293670654 0.43677857518196106 0.0037795123644173145
0.928885817527771 0.41784146428108215 0.00077837775461375713
0.9981842041015625 0.39118033647537231 0.00062864716164767742
0.9991147518157959 0.37317857146263123 0.00069669837830588222
0.9963344931602478 0.36372119188308716 7.7012009569443762e-05
0.99793136119842529 0.34696319699287415 3.5005457448278321e-06
1 0.31099802255630493 6.5298641857225448e-05
1 0.26231378316879272 0.00034134808811359107
0.020516758784651756 0.62870228290557861 8.6167283370741643e-06
0.068154595792293549 0.62923544645309448 0.00048283595242537558
0.19308780133724213 0.62714308500289917 0.0014318429166451097
0.38852733373641968 0.62179446220397949 0.00020104202849324793
0.58409816026687622 0.6069977879524231 0.00036088531487621367
0.7496485710144043 0.58555340766906738 0.00042467305320315063
0.90062308311462402 0.56841164827346802 3.814697265625e-05
0.99140453338623047 0.55293852090835571 0.002336898585781455
1 0.54117411375045776 0.004681695718318224
0.99974113702774048 0.5373726487159729 0.0011872684117406607
0.99987339973449707 0.52105033397674561 0.00069991464260965586
1 0.47480139136314392 0.0026569142937660217
1 0.42440903186798096 0
0.012204667553305626 0.78557723760604858 0
0.032727349549531937 0.78138083219528198 0
0.119233138859272 0.77332043647766113 0.0016699547413736582
0.32425948977470398 0.76479470729827881 0.0009669284918345511
0.55318266153335571 0.75195235013961792 0
0.72440016269683838 0.73520016670227051 0
0.86786657571792603 0.71587675809860229 0.00059470382984727621
0.97621053457260132 0.69639575481414795 0.0039678686298429966
1 0.68674463033676147 0.0029968561138957739
1 0.68036109209060669 0.00028043260681442916
1 0.65488737821578979 0.00033449658076278865
1 0.60417354106903076 0.0013650183100253344
1 0.55200660228729248 0
0.005044854711741209 0.91449326276779175 0
0.030267514288425446 0.90452325344085693 0
0.12686660885810852 0.89345645904541016 0.0011186188785359263
0.318174809217453 0.88785451650619507 0.00054491829359903932
0.53059136867523193 0.88129335641860962 9.3347889560391195e-06
0.70357918739318848 0.86709409952163696 0.00082593434490263462
0.84806215763092041 0.84702169895172119 0.0042426614090800285
0.96171575784683228 0.82638227939605713 0.0066840974614024162
0.9998708963394165 0.81490641832351685 0.0022870232351124287
1 0.80368030071258545 0
1 0.7727474570274353 0
1 0.71960026025772095 0
1 0.66329050064086914 0
0.0011130837956443429 0.9893450140953064 0.00036561256274580956
0.042946521192789078 0.97990614175796509 0.00048190847155638039
0.17264080047607422 0.97079414129257202 0.00029774085851386189
0.35529792308807373 0.97151488065719604 0
0.53157180547714233 0.97226136922836304 0.0006160960765555501
0.6902344822883606 0.96107339859008789 0.0053758658468723297
0.83367908000946045 0.94554769992828369 0.011379496194422245
0.95191961526870728 0.93045139312744141 0.0061597935855388641
0.99938416481018066 0.92154395580291748 0.00087124691344797611
1 0.90963202714920044 0
1 0.87641561031341553 0
1 0.82160681486129761 0.00022442387125920504
1 0.76172345876693726 0.00074639415834099054
0 1 1.8669577912078239e-05
0.038244254887104034 0.99982279539108276 0.00062387506477534771
0.19988711178302765 0.99850237369537354 0.00017658308206591755
0.39401254057884216 0.9992796778678894 0.00021372776245698333
0.54262566566467285 0.99983662366867065 0.0030822304543107748
0.67661279439926147 0.99845927953720093 0.011673541739583015
0.81188333034515381 0.99508887529373169 0.012563458643853664
0.93317770957946777 0.99158096313476562 0.0026429120916873217
0.99392837285995483 0.98931169509887695 5.2897135901730508e-05
0.99986445903778076 0.98333662748336792 0
1 0.95530402660369873 0.00017852782912086695
1 0.90431839227676392 0.0013041477650403976
1 0.84693622589111328 0.0044299405999481678
0.0018119362648576498 1 0
0.039459690451622009 1 4.2006548028439283e-05
0.1997043639421463 0.99994432926177979 3.5005457448278321e-06
0.38738533854484558 1 0.00050719018327072263
0.5252806544303894 0.99999535083770752 0.0057296152226626873
0.64332067966461182 0.99998944997787476 0.01450373325496912
0.76611459255218506 1 0.0090323807671666145
0.87852942943572998 1 0.0013969122665002942
0.95322787761688232 1 0
0.99049150943756104 0.99999517202377319 0
0.99999415874481201 0.99336302280426025 0.0002563177258707583
1 0.96267551183700562 0.0012454163515940309
1 0.91972959041595459 0.0030396406073123217
0.055332738906145096 1 0
0.10710760205984116 0.99994432926177979 0
0.22756356000900269 0.99911642074584961 0
0.37259906530380249 0.99917078018188477 0.00023978737590368837
0.49358031153678894 0.99715948104858398 0.0035997277591377497
0.59930306673049927 0.99718433618545532 0.0089415609836578369
0.70539146661758423 0.9992903470993042 0.0053315255790948868
0.80480468273162842 0.99976074695587158 0.0011242586188018322
0.89041990041732788 0.99986428022384644 0
0.96276253461837769 1 0
0.99841052293777466 0.99994665384292603 0
1 0.99474269151687622 0.00017133227083832026
1 0.97176885604858398 0.00028626684797927737
0.15046070516109467 1 0
0.19945596158504486 1 0
0.27966958284378052 0.99995458126068115 0
0.37739476561546326 0.99927681684494019 0
0.47233077883720398 0.99679303169250488 0.00044320797314867377
0.5624738335609436 0.99607843160629272 0.0011234807316213846
0.6535332202911377 0.99609029293060303 0.00097198487492278218
0.74438083171844482 0.99612158536911011 0.0001538295327918604
0.83384716510772705 0.99669671058654785 0
0.91747742891311646 0.99848675727844238 0.00012251909356564283
0.97492885589599609 1 0.00040625777910463512
0.99602514505386353 1 3.2477284548804164e-05
0.99999064207077026 0.99427133798599243 0
0.23298360407352448 1 0.0050456477329134941
0.27442848682403564 1 0.0056080687791109085
0.32841682434082031 1 0.0063641867600381374
0.39416322112083435 1 0.002514753257855773
0.46540671586990356 0.99988007545471191 1.0112687959917821e-05
0.54080116748809814 0.99788331985473633 0
0.62036663293838501 0.99620115756988525 0
0.70300501585006714 0.99585533142089844 0
0.78617411851882935 0.99583381414413452 6.3204301113728434e-05
0.86349588632583618 0.9970514178276062 0.0025429520756006241
0.92712312936782837 1 0.0055590611882507801
0.97272568941116333 1 0.0022154564503580332
0.99706709384918213 0.9992716908454895 0.00035141588887199759
0.051573526114225388 0.06192740797996521 0.18430426716804504
0.17652671039104462 0.055172864347696304 0.18518346548080444
0.30672839283943176 0.049755681306123734 0.18023340404033661
0.44077879190444946 0.034278389066457748 0.1707913875579834
0.59889388084411621 0.011464825831353664 0.15999715030193329
0.7720065712928772 0.0011064268182963133 0.14936596155166626
0.91813945770263672 7.5845156970899552e-05 0.13110126554965973
0.99082779884338379 0.0033739425707608461 0.10703565180301666
0.99988943338394165 0.00090119603555649519 0.094580858945846558
0.99776291847229004 0.00040606330730952322 0.075147457420825958
0.99961197376251221 0.0010359670268371701 0.074230223894119263
1 0.0001026826721499674 0.07749813050031662
1 0 0.07985369861125946
0.038046218454837799 0.18008925020694733 0.17915049195289612
0.17080749571323395 0.17567217350006104 0.17457309365272522
0.31738013029098511 0.1659695953130722 0.16803903877735138
0.45426768064498901 0.1475445032119751 0.15906362235546112
0.60672056674957275 0.11455430835485458 0.14322094619274139
0.77635675668716431 0.066193632781505585 0.133156418800354
0.92513954639434814 0.023999696597456932 0.11986692994832993
0.99431049823760986 0.0044817458838224411 0.098812520503997803
0.99863016605377197 0.00065509573323652148 0.084604822099208832
0.99613946676254272 0.0045931348577141762 0.065078288316726685
0.9980042576789856 0.0044355355203151703 0.065180592238903046
1 0.0015657013282179832 0.071833588182926178
1 0.0036309785209596157 0.078297242522239685
0.0057936427183449268 0.31478959321975708 0.15442948043346405
0.11747734248638153 0.31795188784599304 0.15111517906188965
0.30750823020935059 0.31241253018379211 0.14329952001571655
0.47332960367202759 0.30414244532585144 0.13886204361915588
0.62210732698440552 0.28387171030044556 0.12670087814331055
0.7842298150062561 0.23864229023456573 0.10705935955047607
0.93450546264648438 0.19142267107963562 0.092090830206871033
0.99805402755737305 0.14471791684627533 0.077424831688404083
0.99847018718719482 0.11170180141925812 0.061328902840614319
0.99724340438842773 0.13494080305099487 0.03484904021024704
0.99928468465805054 0.12772715091705322 0.037311717867851257
1 0.090574108064174652 0.05727875605225563
1 0.084801755845546722 0.069299973547458649
0.00087687175255268812 0.46702694892883301 0.10233598947525024
0.064738482236862183 0.47130241990089417 0.10804847627878189
0.26293793320655823 0.4712945818901062 0.1079573854804039
0.46202349662780762 0.46952915191650391 0.098892122507095337
0.61913233995437622 0.45569023489952087 0.096331879496574402
0.77846521139144897 0.42927119135856628 0.082010693848133087
0.9272390604019165 0.4079132080078125 0.064625836908817291
0.99677878618240356 0.38820484280586243 0.051518969237804413
0.99991071224212646 0.36661475896835327 0.033389657735824585
0.99888163805007935 0.36570084095001221 0.01798146590590477
0.9997747540473938 0.34745216369628906 0.02161489799618721
1 0.30535015463829041 0.030909938737750053
1 0.265114426612854 0.039758361876010895
0.0096727712079882622 0.63205558061599731 0.041708029806613922
0.038367357105016708 0.63394248485565186 0.042984981089830399
0.1779768317937851 0.63267308473587036 0.047089908272027969
0.39783802628517151 0.62863290309906006 0.027981119230389595
0.59147536754608154 0.61227929592132568 0.035402890294790268
0.75381088256835938 0.5896262526512146 0.030546974390745163
0.90012240409851074 0.57014763355255127 0.020269954577088356
0.99137836694717407 0.55547749996185303 0.03083832748234272
1 0.54350954294204712 0.023093145340681076
0.99983042478561401 0.53538358211517334 0.009140687994658947
0.99995583295822144 0.51177704334259033 0.012085574679076672
1 0.47097572684288025 0.025347033515572548
1 0.42909127473831177 0.026879195123910904
0.0084547307342290878 0.78916347026824951 0.0046260161325335503
0.013885438442230225 0.78540658950805664 0.0049984501674771309
0.10201843827962875 0.77719521522521973 0.009577777236700058
0.33086535334587097 0.76739299297332764 0.0021088393405079842
0.5603911280632019 0.75412774085998535 0.0023928922601044178
0.72980540990829468 0.73673456907272339 0.0018325955606997013
0.87455660104751587 0.71639221906661987 0.0010708976769819856
0.98173576593399048 0.69700580835342407 0.0051727895624935627
1 0.68641954660415649 0.0022876067087054253
1 0.6768496036529541 1.4810000720899552e-05
1 0.65014082193374634 0.00015173519204836339
1 0.60370469093322754 0.0047768834047019482
1 0.55600911378860474 0.010582105256617069
0.00081817025784403086 0.91461795568466187 0
0.013867695815861225 0.90630322694778442 6.8948786065448076e-05
0.10596869885921478 0.89535647630691528 0.00030327591230161488
0.31281128525733948 0.88811910152435303 0
0.53556400537490845 0.88041800260543823 0
0.7087065577507019 0.86689996719360352 0
0.85290473699569702 0.84761577844619751 0
0.96662652492523193 0.82727783918380737 0
1 0.81377243995666504 0
1 0.80069661140441895 0
1 0.77122139930725098 0
1 0.72149032354354858 0
1 0.66670876741409302 0.00015830245683901012
0.00030804803827777505 0.98838162422180176 0
0.035087183117866516 0.98124569654464722 0
0.15319743752479553 0.97398471832275391 0
0.34159204363822937 0.97408771514892578 0
0.5327765941619873 0.97270429134368896 0
0.68998557329177856 0.96332359313964844 0
0.82796174287796021 0.94829481840133667 3.481098246993497e-05
0.94757455587387085 0.93053567409515381 0
0.99897819757461548 0.91784262657165527 0
1 0.90405631065368652 0
1 0.87330085039138794 0
1 0.82123333215713501 0
1 0.76259392499923706 0.00095681584207341075
0.00072953465860337019 1 0
0.047336578369140625 1 0
0.18820680677890778 0.99974673986434937 0
0.37426453828811646 0.99999344348907471 0
0.53771311044692993 1 0
0.67302227020263672 0.99945628643035889 1.3613233704745653e-06
0.80225926637649536 0.99662727117538452 1.1862960491271224e-05
0.92113363742828369 0.99037128686904907 0
0.99049729108810425 0.98463374376296997 0
1 0.97514444589614868 0
1 0.94817286729812622 0
1 0.90052634477615356 0
1 0.84438824653625488 0.0035583046264946461
0.011270994320511818 1 0
0.065950505435466766 1 0
0.20849092304706573 1 0
0.38270580768585205 1 0
0.52392357587814331 1 0
0.64220315217971802 1 0
0.76134675741195679 1 0
0.87336051464080811 1 0
0.95537227392196655 0.99999409914016724 0
0.99527281522750854 0.99946635961532593 0
1 0.98958295583724976 0
1 0.95849442481994629 0
1 0.91630369424819946 0.00041714837425388396
0.070119835436344147 1 0
0.12898953258991241 1 0
0.24490076303482056 0.99932372570037842 0
0.38362240791320801 0.99857467412948608 0
0.49858176708221436 0.99845039844512939 0
0.59920895099639893 0.99870103597640991 1.0860667316592298e-05
0.70242005586624146 0.99989056587219238 1.0531556654314045e-05
0.805824875831604 1 0
0.89688420295715332 1 0
0.96495950222015381 1 0
0.99737900495529175 0.99981498718261719 0
1 0.9921337366104126 0
1 0.96889102458953857 0
0.15684475004673004 1 0.0006452223751693964
0.21532556414604187 1 0.00044781554606743157
0.29423701763153076 0.99857598543167114 0.0017554638907313347
0.3879668116569519 0.99676245450973511 0.0011459051165729761
0.47577071189880371 0.99618935585021973 0.0001309413491981104
0.56023657321929932 0.99615216255187988 0.0013669631443917751
0.64868128299713135 0.996848464012146 0.0019415162969380617
0.74189162254333496 0.99870556592941284 4.9366670282324776e-05
0.83364039659500122 0.99965441226959229 0
0.9128488302230835 0.99999088048934937 0
0.97028172016143799 1 0
0.99713504314422607 0.99993616342544556 0
1 0.99444335699081421 0
0.22849474847316742 1 0.027183922007679939
0.27934104204177856 1 0.029028918594121933
0.33510258793830872 1 0.03420797735452652
0.39876025915145874 1 0.02005787193775177
0.46486619114875793 0.99990987777709961 0.0036152258981019258
0.53621369600296021 0.99909532070159912 0.0044052721932530403
0.61437976360321045 0.99780130386352539 0.0072014899924397469
0.69713085889816284 0.997550368309021 0.0012606153031811118
0.77997016906738281 0.99793428182601929 1.7113779904320836e-05
0.85576832294464111 0.99934631586074829 0.0019577774219214916
0.92307436466217041 1 0.0037595860194414854
0.97574645280838013 1 0.00032807892421260476
0.99819201231002808 0.9998481273651123 0
0.024370679631829262 0.057094961404800415 0.31014689803123474
0.14795079827308655 0.048875384032726288 0.31440091133117676
0.30251726508140564 0.038859453052282333 0.31580552458763123
0.44832059741020203 0.021637590602040291 0.31104716658592224
0.60679781436920166 0.0066351196728646755 0.3011622428894043
0.77712535858154297 0.0004212921776343137 0.28740143775939941
0.92244470119476318 0.00047179576358757913 0.26766100525856018
0.99372619390487671 0.0034079756587743759 0.24957014620304108
0.99984610080718994 0.0023053039330989122 0.23797044157981873
0.99633723497390747 0.0026119905523955822 0.22285306453704834
0.99793726205825806 0.0028404984623193741 0.22056002914905548
1 0.00036113962414674461 0.21294686198234558
1 0 0.19992348551750183
0.010060957632958889 0.17144308984279633 0.31384745240211487
0.1313207596540451 0.16196918487548828 0.31395813822746277
0.31263494491577148 0.14730894565582275 0.3123529851436615
0.46582499146461487 0.12319695204496384 0.30604955554008484
0.61995172500610352 0.090391896665096283 0.29336169362068176
0.78902143239974976 0.049291335046291351 0.27970850467681885
0.9386025071144104 0.021940208971500397 0.26176765561103821
0.99903291463851929 0.0045187408104538918 0.24397577345371246
0.99999153614044189 0 0.23325160145759583
0.99821537733078003 6.1708335124421865e-05 0.21370641887187958
0.99915963411331177 0.00053645117441192269 0.20713351666927338
1 0.00095144531223922968 0.20756435394287109
1 0.0034878749866038561 0.20198582112789154
0.00043652104795910418 0.30860593914985657 0.30803462862968445
0.078480198979377747 0.30670663714408875 0.30585697293281555
0.29503214359283447 0.30275166034698486 0.30255785584449768
0.48795348405838013 0.28901085257530212 0.2967437207698822
0.63902854919433594 0.25796923041343689 0.28007254004478455
0.79970419406890869 0.21038119494915009 0.26286065578460693
0.94736641645431519 0.17219306528568268 0.24735136330127716
0.99962586164474487 0.12291122227907181 0.22998300194740295
0.99999666213989258 0.069078527390956879 0.21563336253166199
0.99990576505661011 0.082018248736858368 0.1907740980386734
0.99999940395355225 0.098010703921318054 0.18460817635059357
1 0.084901563823223114 0.19542840123176575
1 0.086293086409568787 0.19619536399841309
0 0.46570372581481934 0.27869489789009094
0.019738305360078812 0.47154313325881958 0.2719627320766449
0.21751482784748077 0.47466060519218445 0.2723337709903717
0.46387380361557007 0.46910503506660461 0.2643950879573822
0.6337246298789978 0.44636824727058411 0.24888055026531219
0.79415607452392578 0.41310179233551025 0.23020881414413452
0.93933320045471191 0.38518336415290833 0.21457630395889282
0.99895775318145752 0.35920768976211548 0.19902567565441132
0.99964064359664917 0.33085265755653381 0.17853944003582001
0.99957370758056641 0.33325713872909546 0.15979130566120148
1 0.32941937446594238 0.1588650643825531
1 0.30225339531898499 0.16649442911148071
1 0.27193590998649597 0.16941574215888977
0.0020998935215175152 0.63326466083526611 0.21053275465965271
0.0042006997391581535 0.63749492168426514 0.19802330434322357
0.12489610910415649 0.63742721080780029 0.20027267932891846
0.38433089852333069 0.62943971157073975 0.19343379139900208
0.59916192293167114 0.61010783910751343 0.1903110146522522
0.76464599370956421 0.58475697040557861 0.1649535596370697
0.90586370229721069 0.56025397777557373 0.1439489871263504
0.991435706615448 0.5444033145904541 0.15237276256084442
0.99996882677078247 0.53153979778289795 0.1376531720161438
0.9999009370803833 0.52501314878463745 0.1087334007024765
1 0.5087781548500061 0.11548452824354172
1 0.47586759924888611 0.14048765599727631
1 0.43471688032150269 0.15283659100532532
0.0031713447533547878 0.7882688045501709 0.11724059283733368
0.00063057692022994161 0.78425925970077515 0.11795860528945923
0.060318127274513245 0.77505236864089966 0.12771056592464447
0.30850273370742798 0.7621951699256897 0.10786865651607513
0.55698531866073608 0.74741196632385254 0.10336201637983322
0.72864294052124023 0.72977197170257568 0.10010133683681488
0.87112587690353394 0.70996683835983276 0.087769635021686554
0.97593694925308228 0.69150841236114502 0.088379174470901489
1 0.67710310220718384 0.07475917786359787
0.99996793270111084 0.66675305366516113 0.039085119962692261
1 0.64549309015274048 0.042441319674253464
1 0.60412532091140747 0.086694680154323578
1 0.5566985011100769 0.1081533208489418
0.00052430393407121301 0.9084627628326416 0.047158632427453995
0.0032812529243528843 0.89903467893600464 0.067382529377937317
0.066000752151012421 0.88729214668273926 0.070090241730213165
0.2727561891078949 0.87854516506195068 0.042759090662002563
0.5142817497253418 0.86853665113449097 0.03046448715031147
0.69808739423751831 0.85386776924133301 0.047579299658536911
0.84389179944992065 0.83604305982589722 0.052934084087610245
0.96034950017929077 0.81747716665267944 0.028187889605760574
0.99984931945800781 0.8011709451675415 0.017620788887143135
1 0.78753852844238281 0.01088027935475111
1 0.76426512002944946 0.010635435581207275
1 0.71864050626754761 0.035059552639722824
1 0.66492313146591187 0.057571936398744583
0.00090445723617449403 0.98309427499771118 0.031356018036603928
0.026367336511611938 0.97411537170410156 0.041505776345729828
0.11683804541826248 0.96700596809387207 0.03307463601231575
0.29809322953224182 0.96765559911727905 0.012825895100831985
0.50645190477371216 0.96393901109695435 0.0098585542291402817
0.67440855503082275 0.95081949234008789 0.028006101027131081
0.81444990634918213 0.93369024991989136 0.031296029686927795
0.93464004993438721 0.91643959283828735 0.0071356678381562233
0.9961552619934082 0.90223091840744019 0.0010283227311447263
1 0.88852405548095703 0.00060077739180997014
1 0.86430066823959351 0.00098664523102343082
1 0.81764727830886841 0.015404211357235909
1 0.7609296441078186 0.050184376537799835
0.0022415909916162491 1 0.024670904502272606
0.041118994355201721 0.99964731931686401 0.025540878996253014
0.15643231570720673 0.99908912181854248 0.014622094109654427
0.33538681268692017 0.99975836277008057 0.003900251118466258
0.51321923732757568 0.99970197677612305 0.0051395040936768055
0.65817916393280029 0.99722731113433838 0.014157328754663467
0.78885680437088013 0.98956620693206787 0.0079598966985940933
0.90558230876922607 0.97873276472091675 0.00063217763090506196
0.98393970727920532 0.97011047601699829 0
1 0.95909929275512695 0
1 0.93665844202041626 0.00046913296682760119
1 0.89555728435516357 0.011297188699245453
1 0.84395623207092285 0.043746110051870346
0.011258518323302269 1 0.015607258304953575
0.052617751061916351 1 0.019152577966451645
0.18503609299659729 1 0.0092222029343247414
0.36021944880485535 1 0.0026912465691566467
0.50964009761810303 1 0.0058004790917038918
0.63584429025650024 1 0.0066716959699988365
0.75616157054901123 0.99996387958526611 0.00037859746953472495
0.86712539196014404 0.99942195415496826 0
0.95573192834854126 0.99851548671722412 0
