assets/lut/picturefx faux infrared color p2.cube
# Created by: G'MIC (https://gmic.eu)
TITLE "faux_infrared_color_p2"
# LUT size
LUT_3D_SIZE 13
# Data domain
DOMAIN_MIN 0.0 0.0 0.0
DOMAIN_MAX 1.0 1.0 1.0
# LUT data points
0.084002293646335602 0.063137665390968323 0.088491536676883698
0.25566938519477844 0.19695180654525757 0.13579949736595154
0.4179530143737793 0.32901227474212646 0.197050541639328
0.57379132509231567 0.45777440071105957 0.26327282190322876
0.73676550388336182 0.58721315860748291 0.32618868350982666
0.89385181665420532 0.71831995248794556 0.39597395062446594
0.98129409551620483 0.85424762964248657 0.48029091954231262
0.99956327676773071 0.91462624073028564 0.57510972023010254
1 0.92955201864242554 0.67329156398773193
1 0.94616407155990601 0.77140462398529053
1 0.96416735649108887 0.85127896070480347
1 0.96818137168884277 0.86555641889572144
1 0.9686274528503418 0.86477440595626831
0.15853947401046753 0.011745467782020569 0.13331042230129242
0.31951656937599182 0.092725984752178192 0.17450381815433502
0.46365934610366821 0.26676797866821289 0.22556623816490173
0.61202794313430786 0.42076230049133301 0.28204980492591858
0.76228576898574829 0.55411499738693237 0.34287276864051819
0.91016781330108643 0.69665259122848511 0.40859133005142212
0.98586905002593994 0.83090555667877197 0.49038171768188477
0.99918568134307861 0.89342862367630005 0.58306139707565308
1 0.9136773943901062 0.68137520551681519
1 0.93552237749099731 0.77543234825134277
1 0.9570009708404541 0.84780347347259521
1 0.96406924724578857 0.86756479740142822
1 0.9648401141166687 0.86847484111785889
0.23902091383934021 0.0095138698816299438 0.1893465518951416
0.38978978991508484 0.023718740791082382 0.22501486539840698
0.52587205171585083 0.12940314412117004 0.26607874035835266
0.65993046760559082 0.33645209670066833 0.31320053339004517
0.7993171215057373 0.50639259815216064 0.36877310276031494
0.92614251375198364 0.65847039222717285 0.43117514252662659
0.98811584711074829 0.79987829923629761 0.5002325177192688
0.9999890923500061 0.86760169267654419 0.59355765581130981
1 0.90249311923980713 0.69361257553100586
1 0.92810666561126709 0.77868670225143433
1 0.95060229301452637 0.84823638200759888
1 0.95900529623031616 0.86955201625823975
1 0.96059995889663696 0.87203258275985718
0.35604086518287659 0.011621378362178802 0.23786911368370056
0.47524550557136536 0.032702174037694931 0.27766263484954834
0.59527409076690674 0.088158629834651947 0.31791892647743225
0.72003716230392456 0.20174938440322876 0.35801571607589722
0.84004056453704834 0.41245990991592407 0.40676987171173096
0.93521958589553833 0.59344065189361572 0.4623141884803772
0.9890480637550354 0.75253039598464966 0.52697688341140747
1 0.84162056446075439 0.61706358194351196
1 0.89377260208129883 0.70976483821868896
1 0.92443752288818359 0.79312384128570557
1 0.94746285676956177 0.85850626230239868
1 0.95455610752105713 0.87345033884048462
1 0.95575666427612305 0.87510967254638672
0.45920601487159729 0.016880305483937263 0.29333716630935669
0.55461090803146362 0.050062801688909531 0.33304455876350403
0.66560196876525879 0.090629816055297852 0.37215837836265564
0.77921855449676514 0.13488803803920746 0.40972349047660828
0.88812005519866943 0.24615380167961121 0.45109790563583374
0.97037804126739502 0.48193210363388062 0.49973815679550171
0.99637776613235474 0.68265581130981445 0.5634123682975769
1 0.80342692136764526 0.64752823114395142
1 0.86855173110961914 0.73373037576675415
1 0.92009997367858887 0.81722283363342285
1 0.94683355093002319 0.8717188835144043
1 0.95041012763977051 0.87780636548995972
1 0.95068359375 0.87859731912612915
0.55160188674926758 0.015447204932570457 0.35091158747673035
0.6343235969543457 0.046760663390159607 0.38749781250953674
0.73291528224945068 0.080470077693462372 0.42616599798202515
0.83957242965698242 0.10026036947965622 0.46361112594604492
0.94218575954437256 0.10181321948766708 0.50171107053756714
0.99184924364089966 0.27615213394165039 0.54462319612503052
0.99889236688613892 0.56840109825134277 0.60373377799987793
1 0.74827933311462402 0.67688924074172974
1 0.83794331550598145 0.75849497318267822
1 0.90318286418914795 0.83859008550643921
1 0.94453710317611694 0.88563364744186401
1 0.94955337047576904 0.89133530855178833
1 0.9499090313911438 0.89197880029678345
0.64014238119125366 0.01129443570971489 0.40565046668052673
0.70652228593826294 0.037825431674718857 0.44002553820610046
0.79520517587661743 0.0651216059923172 0.47827833890914917
0.89361590147018433 0.081602700054645538 0.51560986042022705
0.96696251630783081 0.10451577603816986 0.5521167516708374
0.99064546823501587 0.16072949767112732 0.59334886074066162
0.9994804859161377 0.36540904641151428 0.64242053031921387
1 0.67500007152557373 0.71091479063034058
1 0.80973917245864868 0.78631889820098877
1 0.8915674090385437 0.85918974876403809
1 0.94446921348571777 0.90829050540924072
1 0.95505905151367188 0.91862261295318604
1 0.9560045599937439 0.9188849925994873
0.73705005645751953 0.012379605323076248 0.46794247627258301
0.7892148494720459 0.035765226930379868 0.49569442868232727
0.86222380399703979 0.061259835958480835 0.53054732084274292
0.94028466939926147 0.085121795535087585 0.56622147560119629
0.97599869966506958 0.12129290401935577 0.60085016489028931
0.99117374420166016 0.12976923584938049 0.63472497463226318
0.99877357482910156 0.12013612687587738 0.66314131021499634
1 0.49721366167068481 0.72351092100143433
1 0.77644622325897217 0.80997931957244873
1 0.88836324214935303 0.88359910249710083
1 0.95157372951507568 0.93673956394195557
1 0.96523481607437134 0.94588840007781982
1 0.96764570474624634 0.94517403841018677
0.83753460645675659 0.012478398159146309 0.53119039535522461
0.88453406095504761 0.034593768417835236 0.55572521686553955
0.93481332063674927 0.057353418320417404 0.58397996425628662
0.96762198209762573 0.077064618468284607 0.61136746406555176
0.98434138298034668 0.087784379720687866 0.63755160570144653
0.99317920207977295 0.075305625796318054 0.65973913669586182
0.99787062406539917 0.071609660983085632 0.67653524875640869
1 0.24568811058998108 0.70545989274978638
1 0.66720563173294067 0.79775881767272949
1 0.88156545162200928 0.90164303779602051
1 0.96305346488952637 0.95955276489257812
1 0.97973847389221191 0.97052627801895142
1 0.98205083608627319 0.97006940841674805
0.93103694915771484 0.0094605991616845131 0.58721393346786499
0.95475262403488159 0.025723701342940331 0.60577547550201416
0.96918207406997681 0.038969434797763824 0.62468838691711426
0.97955334186553955 0.047768805176019669 0.6438521146774292
0.98831349611282349 0.051236934959888458 0.66330623626708984
0.99444305896759033 0.057231485843658447 0.68087476491928101
0.99808651208877563 0.080735102295875549 0.69237208366394043
1 0.096427500247955322 0.69620925188064575
1 0.39650377631187439 0.74713820219039917
1 0.79590922594070435 0.87428963184356689
1 0.96991461515426636 0.97546422481536865
1 0.98527121543884277 0.98547649383544922
1 0.98665869235992432 0.98640972375869751
0.97964268922805786 0.0040860795415937901 0.63595998287200928
0.97722363471984863 0.015583247877657413 0.64408457279205322
0.97909224033355713 0.026953110471367836 0.65663212537765503
0.98482191562652588 0.036872431635856628 0.67264789342880249
0.9916190505027771 0.047891490161418915 0.68903195858001709
0.99586600065231323 0.06490827351808548 0.69906443357467651
0.99829965829849243 0.076477229595184326 0.7025875449180603
1 0.0866432785987854 0.7041047215461731
1 0.15375110507011414 0.71390646696090698
1 0.55430269241333008 0.7967216968536377
1 0.85487109422683716 0.90945392847061157
1 0.87077367305755615 0.92394375801086426
1 0.87642955780029297 0.92572605609893799
0.98829638957977295 0.0039713392034173012 0.69283264875411987
0.98706793785095215 0.015629427507519722 0.69482362270355225
0.98804044723510742 0.02903379499912262 0.6992301344871521
0.99102944135665894 0.043142788112163544 0.70560503005981445
0.99458760023117065 0.059723198413848877 0.71099567413330078
0.99629491567611694 0.077281668782234192 0.71268916130065918
0.99940019845962524 0.092337422072887421 0.71282213926315308
1 0.09536394476890564 0.71078687906265259
1 0.080788679420948029 0.70602047443389893
1 0.20789386332035065 0.72841846942901611
1 0.60205036401748657 0.80775004625320435
1 0.63620400428771973 0.82172858715057373
1 0.64015024900436401 0.82229804992675781
0.99443376064300537 0.0039258319884538651 0.74542480707168579
0.99416637420654297 0.018075920641422272 0.73815596103668213
0.99462121725082397 0.035500679165124893 0.73213189840316772
0.99540287256240845 0.054242450743913651 0.72721761465072632
0.99602311849594116 0.07216925173997879 0.72306942939758301
0.99669885635375977 0.086713798344135284 0.71988570690155029
0.99973738193511963 0.092737697064876556 0.71628522872924805
1 0.091031000018119812 0.71228396892547607
1 0.088505826890468597 0.709422767162323
1 0.11605915427207947 0.71253913640975952
1 0.20643125474452972 0.72321462631225586
1 0.22431370615959167 0.73259574174880981
1 0.23762625455856323 0.73133963346481323
0.006466166116297245 0.11345472186803818 0.13147851824760437
0.11792128533124924 0.23486332595348358 0.16720116138458252
0.33713504672050476 0.35201165080070496 0.22004643082618713
0.50594252347946167 0.47174108028411865 0.28232204914093018
0.68239063024520874 0.59455293416976929 0.34409224987030029
0.85938668251037598 0.72427654266357422 0.40992617607116699
0.97239232063293457 0.86169975996017456 0.49022981524467468
0.99837195873260498 0.92387324571609497 0.58201843500137329
0.9991225004196167 0.9379432201385498 0.67637842893600464
0.99839407205581665 0.95346277952194214 0.77202081680297852
0.99981880187988281 0.96799474954605103 0.85288804769515991
1 0.97206652164459229 0.87309771776199341
1 0.97255384922027588 0.87363380193710327
0.045657377690076828 0.028164882212877274 0.16673427820205688
0.20722173154354095 0.13345329463481903 0.19834417104721069
0.38931310176849365 0.2955901026725769 0.24436298012733459
0.55660754442214966 0.43601703643798828 0.29843863844871521
0.72258460521697998 0.5682409405708313 0.35724943876266479
0.88444465398788452 0.70921427011489868 0.41840651631355286
0.97900986671447754 0.84908205270767212 0.49705991148948669
0.99908590316772461 0.90830355882644653 0.58758246898651123
0.99833893775939941 0.92260825634002686 0.68093341588973999
0.99934011697769165 0.94164693355560303 0.7760387659072876
0.99999833106994629 0.96246671676635742 0.85367900133132935
1 0.9683152437210083 0.87496471405029297
1 0.96909558773040771 0.87653243541717529
0.12030746042728424 0.01068567018955946 0.20982638001441956
0.30758726596832275 0.034757323563098907 0.24292145669460297
0.4689752459526062 0.15654794871807098 0.28240042924880981
0.61699831485748291 0.35845869779586792 0.32721683382987976
0.77062618732452393 0.52400445938110352 0.3798007071018219
0.90367579460144043 0.67067152261734009 0.44037386775016785
0.98138368129730225 0.81171286106109619 0.51156240701675415
0.99983596801757812 0.88040518760681152 0.59967857599258423
1 0.90735048055648804 0.69358998537063599
1 0.93381983041763306 0.7843744158744812
1 0.95693761110305786 0.85747194290161133
1 0.96404117345809937 0.87854963541030884
1 0.96484613418579102 0.8806149959564209
0.24867621064186096 0.015668382868170738 0.25945320725440979
0.402444988489151 0.044002324342727661 0.29463210701942444
0.54442554712295532 0.098005421459674835 0.33191958069801331
0.6834789514541626 0.22312623262405396 0.37089443206787109
0.82365900278091431 0.42638680338859558 0.4154604971408844
0.94061416387557983 0.60795646905899048 0.46921646595001221
0.99225884675979614 0.76496386528015137 0.53419119119644165
0.9999924898147583 0.84654545783996582 0.62134915590286255
1 0.89455705881118774 0.71454423666000366
1 0.92855507135391235 0.79901862144470215
1 0.95293962955474854 0.86592328548431396
1 0.95974880456924438 0.88292354345321655
1 0.96044784784317017 0.88404262065887451
0.39087590575218201 0.013682571239769459 0.30832114815711975
0.49178397655487061 0.046180382370948792 0.34493178129196167
0.6167294979095459 0.084911361336708069 0.38225719332695007
0.75369882583618164 0.12333809584379196 0.41954544186592102
0.88588392734527588 0.24463208019733429 0.45963811874389648
0.97932374477386475 0.49496191740036011 0.5070461630821228
0.997050940990448 0.68881314992904663 0.56759238243103027
1 0.80645537376403809 0.65056753158569336
1 0.87230664491653442 0.73755598068237305
1 0.92195463180541992 0.81919461488723755
1 0.94976639747619629 0.87677288055419922
1 0.95517605543136597 0.88732635974884033
1 0.95528560876846313 0.88778150081634521
0.48953193426132202 0.010184284299612045 0.36515197157859802
0.56506621837615967 0.031981121748685837 0.39533576369285583
0.67583620548248291 0.065181389451026917 0.43212699890136719
0.8128085732460022 0.094252988696098328 0.46989968419075012
0.92868191003799438 0.118552066385746 0.50794309377670288
0.98808354139328003 0.29422125220298767 0.55117005109786987
0.99961984157562256 0.56707859039306641 0.60634279251098633
1 0.74577754735946655 0.67959952354431152
1 0.84657657146453857 0.76030832529067993
1 0.90806764364242554 0.83667349815368652
1 0.94291293621063232 0.88513439893722534
1 0.95392835140228271 0.9002498984336853
1 0.9547918438911438 0.90184611082077026
0.59683912992477417 0.010029018856585026 0.42497473955154419
0.65227395296096802 0.027551732957363129 0.45084628462791443
0.73973548412322998 0.054919686168432236 0.48421081900596619
0.86303174495697021 0.085169680416584015 0.52127397060394287
0.95065820217132568 0.1169392466545105 0.55803626775741577
0.98983621597290039 0.16785050928592682 0.59861761331558228
0.99927675724029541 0.37267282605171204 0.64801102876663208
1 0.67058676481246948 0.71530675888061523
1 0.81711441278457642 0.78844481706619263
1 0.89798855781555176 0.85822802782058716
1 0.93794542551040649 0.90109968185424805
1 0.95599675178527832 0.92095136642456055
1 0.96018111705780029 0.92437571287155151
0.70487082004547119 0.012413054704666138 0.48586949706077576
0.75553107261657715 0.032549001276493073 0.51132172346115112
0.82076096534729004 0.053981423377990723 0.53913527727127075
0.9145546555519104 0.0822572261095047 0.57217824459075928
0.96971577405929565 0.114693284034729 0.60538631677627563
0.98858177661895752 0.12883016467094421 0.63975316286087036
0.99834257364273071 0.13178044557571411 0.67123353481292725
1 0.50002461671829224 0.72859525680541992
1 0.77459210157394409 0.81147664785385132
1 0.89231652021408081 0.88627976179122925
1 0.94717252254486084 0.93115127086639404
1 0.96652841567993164 0.94698768854141235
1 0.97057235240936279 0.94799768924713135
0.80216258764266968 0.011079885065555573 0.54386276006698608
0.84967035055160522 0.029585132375359535 0.5657728910446167
0.90746217966079712 0.04802214726805687 0.59121251106262207
0.955707848072052 0.064657993614673615 0.61709719896316528
0.97896617650985718 0.076741985976696014 0.64325469732284546
0.99127233028411865 0.06405302882194519 0.6669805645942688
0.99778991937637329 0.076548315584659576 0.68487298488616943
1 0.26590391993522644 0.71237516403198242
1 0.67438942193984985 0.8015778660774231
1 0.88486039638519287 0.90463095903396606
1 0.96665531396865845 0.96209490299224854
1 0.98117506504058838 0.97215390205383301
1 0.98300087451934814 0.97183704376220703
0.89289289712905884 0.0069412230513989925 0.59763932228088379
0.92903852462768555 0.021710578352212906 0.61372238397598267
0.95847702026367188 0.035997055470943451 0.63329225778579712
0.97399848699569702 0.042789984494447708 0.65195602178573608
0.98516702651977539 0.049158912152051926 0.67118626832962036
0.99378085136413574 0.067557439208030701 0.68867671489715576
0.99737221002578735 0.10884296149015427 0.69960963726043701
1 0.1332843005657196 0.70544886589050293
1 0.41348034143447876 0.75408780574798584
1 0.80241376161575317 0.87924981117248535
1 0.9735981822013855 0.97832053899765015
1 0.98385113477706909 0.98516941070556641
1 0.98490256071090698 0.98559188842773438
0.96183782815933228 0.0033085094764828682 0.6468130350112915
0.96890318393707275 0.012822798453271389 0.65509742498397827
0.9753565788269043 0.024524269625544548 0.66829031705856323
0.98291736841201782 0.036309424787759781 0.6823233962059021
0.98913496732711792 0.056513901799917221 0.69386690855026245
0.99462848901748657 0.087661057710647583 0.7042081356048584
0.99768620729446411 0.10500212758779526 0.70944994688034058
0.99999773502349854 0.10714009404182434 0.70981961488723755
1 0.1530224084854126 0.71607905626296997
1 0.56062668561935425 0.80156481266021729
1 0.85941565036773682 0.91294878721237183
1 0.87713724374771118 0.92531329393386841
1 0.88112407922744751 0.92672055959701538
0.98150700330734253 0.0020287607330828905 0.69978159666061401
0.98251259326934814 0.011573492549359798 0.70109599828720093
0.98446327447891235 0.025843854993581772 0.70344585180282593
0.98794698715209961 0.043546654284000397 0.70608144998550415
0.99149948358535767 0.065660752356052399 0.70966029167175293
0.99540382623672485 0.085568614304065704 0.71284383535385132
0.99659019708633423 0.091259121894836426 0.71188384294509888
0.99943387508392334 0.080545462667942047 0.70718467235565186
1 0.067489609122276306 0.70503073930740356
1 0.20759131014347076 0.73101460933685303
1 0.60653412342071533 0.8121529221534729
1 0.64217120409011841 0.82510733604431152
1 0.64626622200012207 0.82617676258087158
0.98918318748474121 0.0019630282185971737 0.74010884761810303
0.99082767963409424 0.013419058173894882 0.73078542947769165
0.99127626419067383 0.031119776889681816 0.7231292724609375
0.99185717105865479 0.049728333950042725 0.71780359745025635
0.99307256937026978 0.066719949245452881 0.71557378768920898
0.99550360441207886 0.078327849507331848 0.71428960561752319
0.99659448862075806 0.081184297800064087 0.71092122793197632
0.99931639432907104 0.081467770040035248 0.70884150266647339
1 0.06945878267288208 0.7049751877784729
1 0.066040530800819397 0.7020384669303894
1 0.20469513535499573 0.72524434328079224
1 0.24061691761016846 0.73873800039291382
1 0.27723872661590576 0.74477982521057129
0.0017730114050209522 0.17930303514003754 0.18106822669506073
0.023651197552680969 0.27467349171638489 0.20984181761741638
0.20920296013355255 0.38202798366546631 0.25059491395950317
0.42907831072807312 0.49437099695205688 0.30445292592048645
0.62316328287124634 0.61526918411254883 0.36341473460197449
0.80848544836044312 0.74408894777297974 0.42658928036689758
0.95655161142349243 0.87888675928115845 0.4988141655921936
0.99644994735717773 0.93687909841537476 0.58645385503768921
0.99601954221725464 0.94893884658813477 0.67941534519195557
0.99607843160629272 0.96209955215454102 0.77560198307037354
0.99835711717605591 0.97296470403671265 0.85734176635742188
1 0.97660964727401733 0.88069695234298706
1 0.9774625301361084 0.88284313678741455
0.0045912051573395729 0.074009597301483154 0.20939601957798004
0.044612988829612732 0.19959688186645508 0.23324225842952728
0.25836962461471558 0.33431693911552429 0.27172091603279114
0.47523868083953857 0.45994409918785095 0.32179439067840576
0.66456347703933716 0.5893319845199585 0.37531006336212158
0.83633315563201904 0.72347670793533325 0.43462008237838745
0.97040534019470215 0.85823315382003784 0.50701254606246948
0.99623394012451172 0.92027586698532104 0.59484314918518066
0.99611210823059082 0.93470436334609985 0.68626779317855835
0.99617379903793335 0.95147061347961426 0.77988135814666748
0.99900275468826294 0.96853846311569214 0.85874408483505249
1 0.9735572338104248 0.88187843561172485
1 0.97416853904724121 0.88508254289627075
0.029385900124907494 0.020997321233153343 0.24547123908996582
0.13900190591812134 0.058280766010284424 0.27082249522209167
0.36022889614105225 0.2144758403301239 0.30426156520843506
0.54187947511672974 0.39633500576019287 0.34708350896835327
0.71179467439651489 0.54469138383865356 0.39800101518630981
0.87314689159393311 0.68459975719451904 0.45520621538162231
0.98300570249557495 0.83062058687210083 0.52211016416549683
0.99848717451095581 0.89630913734436035 0.60915577411651611
0.99783146381378174 0.91535449028015137 0.70043456554412842
0.99752128124237061 0.94057619571685791 0.79073417186737061
0.99977225065231323 0.96347236633300781 0.8648531436920166
1 0.96927869319915771 0.88676947355270386
1 0.96986865997314453 0.8891410231590271
0.090862706303596497 0.012160805985331535 0.28526586294174194
0.25608238577842712 0.030074864625930786 0.31505879759788513
0.45780080556869507 0.099490389227867126 0.34858986735343933
0.61906665563583374 0.24310414493083954 0.38705345988273621
0.77085417509078979 0.45023691654205322 0.43199416995048523
0.91045314073562622 0.62537437677383423 0.4843870997428894
0.9834485650062561 0.78704977035522461 0.54884964227676392
0.99940401315689087 0.86673825979232788 0.63252943754196167
0.99922138452529907 0.90071326494216919 0.72171461582183838
0.99962663650512695 0.93432700634002686 0.80705815553665161
1 0.96005034446716309 0.87628328800201416
1 0.96561568975448608 0.89338916540145874
1 0.96527588367462158 0.89358329772949219
0.23792485892772675 0.0078498991206288338 0.3282056450843811
0.37989461421966553 0.026630431413650513 0.35646465420722961
0.53746300935745239 0.070089094340801239 0.39185449481010437
0.6908758282661438 0.11664611101150513 0.43169525265693665
0.83810675144195557 0.2823525071144104 0.47343531250953674
0.9558403491973877 0.51737648248672485 0.51923739910125732
0.99263161420822144 0.71209478378295898 0.57947653532028198
1 0.82341694831848145 0.66034615039825439
1 0.883536696434021 0.74429488182067871
1 0.92819797992706299 0.82520246505737305
1 0.95685797929763794 0.88921582698822021
1 0.96129578351974487 0.89903396368026733
1 0.96064025163650513 0.89840269088745117
0.395769864320755 0.0046730791218578815 0.37958332896232605
0.48928377032279968 0.012451021932065487 0.40184798836708069
0.60879290103912354 0.047034364193677902 0.43723127245903015
0.75205963850021362 0.089528672397136688 0.47888916730880737
0.89081376791000366 0.14258818328380585 0.51923060417175293
0.97292262315750122 0.33610183000564575 0.56256520748138428
0.99587392807006836 0.59377336502075195 0.61778050661087036
1 0.76607424020767212 0.68995547294616699
1 0.8588787317276001 0.76814311742782593
1 0.91628420352935791 0.84172302484512329
1 0.94742000102996826 0.89305615425109863
1 0.95970374345779419 0.91086864471435547
1 0.96003490686416626 0.911021888256073
0.53786873817443848 0.00611852016299963 0.43968653678894043
0.59341514110565186 0.016388582065701485 0.46223622560501099
0.67920660972595215 0.038672607392072678 0.4899958074092865
0.81056267023086548 0.076264157891273499 0.52912241220474243
0.92538261413574219 0.11290337145328522 0.567638099193573
0.97926771640777588 0.20582437515258789 0.60827481746673584
0.99586629867553711 0.43422892689704895 0.65863728523254395
1 0.68732959032058716 0.72491455078125
1 0.82533687353134155 0.79675763845443726
1 0.9054330587387085 0.86004894971847534
1 0.93854069709777832 0.90008032321929932
1 0.95995998382568359 0.92605221271514893
1 0.96424216032028198 0.92976438999176025
0.66116905212402344 0.0088191013783216476 0.49892470240592957
0.7081679105758667 0.023220989853143692 0.52404284477233887
0.77502024173736572 0.036483179777860641 0.54835623502731323
0.87756073474884033 0.060648389160633087 0.57907569408416748
0.95697885751724243 0.095303751528263092 0.61290520429611206
0.98264819383621216 0.1238635778427124 0.64762020111083984
0.99624603986740112 0.17527087032794952 0.68310368061065674
1 0.53943109512329102 0.73904669284820557
1 0.78952646255493164 0.82002300024032593
1 0.89949625730514526 0.89072805643081665
1 0.95154315233230591 0.93505334854125977
1 0.96966111660003662 0.95071220397949219
1 0.97318440675735474 0.95154023170471191
0.75859677791595459 0.0069078481756150723 0.55540227890014648
0.80585187673568726 0.020644214004278183 0.57514280080795288
0.87439829111099243 0.032062128186225891 0.60001051425933838
0.94107222557067871 0.043605789542198181 0.62531858682632446
0.97291833162307739 0.058248512446880341 0.65075993537902832
0.98748576641082764 0.058576948940753937 0.67447847127914429
