assets/lut/picturefx faux infrared color p2.cube
# Created by: G'MIC (https://gmic.eu)
TITLE "faux_infrared_color_p2"
# LUT size
LUT_3D_SIZE 7
# Data domain
DOMAIN_MIN 0.0 0.0 0.0
DOMAIN_MAX 1.0 1.0 1.0
# LUT data points
0.084002293646335602 0.063137665390968323 0.088491536676883698
0.4179530143737793 0.32901227474212646 0.197050541639328
0.73676550388336182 0.58721315860748291 0.32618868350982666
0.98129409551620483 0.85424762964248657 0.48029091954231262
1 0.92955201864242554 0.67329156398773193
1 0.96416735649108887 0.85127896070480347
1 0.9686274528503418 0.86477440595626831
0.23902091383934021 0.0095138698816299438 0.1893465518951416
0.52587205171585083 0.12940314412117004 0.26607874035835266
0.7993171215057373 0.50639259815216064 0.36877310276031494
0.98811584711074829 0.79987829923629761 0.5002325177192688
1 0.90249311923980713 0.69361257553100586
1 0.95060229301452637 0.84823638200759888
1 0.96059995889663696 0.87203258275985718
0.45920601487159729 0.016880305483937263 0.29333716630935669
0.66560196876525879 0.090629816055297852 0.37215837836265564
0.88812005519866943 0.24615380167961121 0.45109790563583374
0.99637776613235474 0.68265581130981445 0.5634123682975769
1 0.86855173110961914 0.73373037576675415
1 0.94683355093002319 0.8717188835144043
1 0.95068359375 0.87859731912612915
0.64014238119125366 0.01129443570971489 0.40565046668052673
0.79520517587661743 0.0651216059923172 0.47827833890914917
0.96696251630783081 0.10451577603816986 0.5521167516708374
0.9994804859161377 0.36540904641151428 0.64242053031921387
1 0.80973917245864868 0.78631889820098877
1 0.94446921348571777 0.90829050540924072
1 0.9560045599937439 0.9188849925994873
0.83753460645675659 0.012478398159146309 0.53119039535522461
0.93481332063674927 0.057353418320417404 0.58397996425628662
0.98434138298034668 0.087784379720687866 0.63755160570144653
0.99787062406539917 0.071609660983085632 0.67653524875640869
1 0.66720563173294067 0.79775881767272949
1 0.96305346488952637 0.95955276489257812
1 0.98205083608627319 0.97006940841674805
0.97964268922805786 0.0040860795415937901 0.63595998287200928
0.97909224033355713 0.026953110471367836 0.65663212537765503
0.9916190505027771 0.047891490161418915 0.68903195858001709
0.99829965829849243 0.076477229595184326 0.7025875449180603
1 0.15375110507011414 0.71390646696090698
1 0.85487109422683716 0.90945392847061157
1 0.87642955780029297 0.92572605609893799
0.99443376064300537 0.0039258319884538651 0.74542480707168579
0.99462121725082397 0.035500679165124893 0.73213189840316772
0.99602311849594116 0.07216925173997879 0.72306942939758301
0.99973738193511963 0.092737697064876556 0.71628522872924805
1 0.088505826890468597 0.709422767162323
1 0.20643125474452972 0.72321462631225586
1 0.23762625455856323 0.73133963346481323
0.0017730114050209522 0.17930303514003754 0.18106822669506073
0.20920296013355255 0.38202798366546631 0.25059491395950317
0.62316328287124634 0.61526918411254883 0.36341473460197449
0.95655161142349243 0.87888675928115845 0.4988141655921936
0.99601954221725464 0.94893884658813477 0.67941534519195557
0.99835711717605591 0.97296470403671265 0.85734176635742188
1 0.9774625301361084 0.88284313678741455
0.029385900124907494 0.020997321233153343 0.24547123908996582
0.36022889614105225 0.2144758403301239 0.30426156520843506
0.71179467439651489 0.54469138383865356 0.39800101518630981
0.98300570249557495 0.83062058687210083 0.52211016416549683
0.99783146381378174 0.91535449028015137 0.70043456554412842
0.99977225065231323 0.96347236633300781 0.8648531436920166
1 0.96986865997314453 0.8891410231590271
0.23792485892772675 0.0078498991206288338 0.3282056450843811
0.53746300935745239 0.070089094340801239 0.39185449481010437
0.83810675144195557 0.2823525071144104 0.47343531250953674
0.99263161420822144 0.71209478378295898 0.57947653532028198
1 0.883536696434021 0.74429488182067871
1 0.95685797929763794 0.88921582698822021
1 0.96064025163650513 0.89840269088745117
0.53786873817443848 0.00611852016299963 0.43968653678894043
0.67920660972595215 0.038672607392072678 0.4899958074092865
0.92538261413574219 0.11290337145328522 0.567638099193573
0.99586629867553711 0.43422892689704895 0.65863728523254395
1 0.82533687353134155 0.79675763845443726
1 0.93854069709777832 0.90008032321929932
1 0.96424216032028198 0.92976438999176025
0.75859677791595459 0.0069078481756150723 0.55540227890014648
0.87439829111099243 0.032062128186225891 0.60001051425933838
0.97291833162307739 0.058248512446880341 0.65075993537902832
0.99653118848800659 0.08210359513759613 0.69478988647460938
1 0.6858750581741333 0.80908823013305664
1 0.9722333550453186 0.96846926212310791
1 0.98466068506240845 0.97389394044876099
0.93945491313934326 0.0019793491810560226 0.66047847270965576
0.97467964887619019 0.020859049633145332 0.68046802282333374
0.98349237442016602 0.056010346859693527 0.6955142617225647
0.99502801895141602 0.093261405825614929 0.71358954906463623
1 0.18371844291687012 0.72664248943328857
1 0.86543470621109009 0.91675776243209839
1 0.88687765598297119 0.93136894702911377
0.98389154672622681 0.00046793618821538985 0.73698574304580688
0.98830997943878174 0.024558423087000847 0.71327191591262817
0.9881889820098877 0.062760129570960999 0.71346133947372437
0.99498671293258667 0.10535132884979248 0.71799111366271973
0.99980360269546509 0.091918706893920898 0.71420061588287354
1 0.22968226671218872 0.73395997285842896
1 0.26023295521736145 0.74697983264923096
0 0.30458757281303406 0.28971448540687561
0.040001288056373596 0.46171289682388306 0.33853194117546082
0.31076958775520325 0.67792558670043945 0.42020440101623535
0.85745114088058472 0.91015636920928955 0.53771829605102539
0.98579758405685425 0.98222464323043823 0.71344012022018433
0.99569851160049438 0.98500055074691772 0.88164746761322021
0.99812918901443481 0.98704427480697632 0.90374064445495605
0.0015477797714993358 0.090565972030162811 0.33493322134017944
0.023167943581938744 0.35800650715827942 0.37572124600410461
0.45797088742256165 0.60188525915145874 0.45366600155830383
0.90721791982650757 0.8616873025894165 0.55664974451065063
0.9904065728187561 0.95625954866409302 0.72915220260620117
0.99893856048583984 0.97875392436981201 0.88802683353424072
1 0.98229306936264038 0.90593427419662476
0.053852394223213196 0.016693130135536194 0.40519526600837708
0.18227961659431458 0.040842738002538681 0.44764894247055054
0.66778439283370972 0.40361431241035461 0.51712477207183838
0.96602433919906616 0.75892806053161621 0.61204195022583008
0.99785798788070679 0.91847145557403564 0.76994723081588745
1 0.96218585968017578 0.8854784369468689
1 0.96997016668319702 0.91229009628295898
0.1969282478094101 0.0048997318372130394 0.4912453293800354
0.46958228945732117 0.021534429863095284 0.53278756141662598
0.82863420248031616 0.1019686833024025 0.60120296478271484
0.99454259872436523 0.4754311740398407 0.69058537483215332
1 0.85593390464782715 0.81815743446350098
1 0.95164352655410767 0.91502231359481812
1 0.96439260244369507 0.93451470136642456
0.57010263204574585 0.0031416350975632668 0.59346675872802734
0.72385972738265991 0.0074413074180483818 0.6271023154258728
0.95986664295196533 0.027291122823953629 0.67899781465530396
0.99312895536422729 0.14268620312213898 0.73423171043395996
1 0.71987497806549072 0.83258885145187378
1 0.97672832012176514 0.97367209196090698
1 0.97919154167175293 0.97041183710098267
0.83642923831939697 0.00011219697626074776 0.68933272361755371
0.92088621854782104 0.0045016268268227577 0.7134096622467041
0.95379364490509033 0.037045978009700775 0.72781103849411011
0.98473906517028809 0.094678185880184174 0.74607497453689575
0.99949395656585693 0.1681932657957077 0.74995046854019165
1 0.89214736223220825 0.93499058485031128
1 0.90919262170791626 0.94700151681900024
0.97571909427642822 0.00020769904949702322 0.76725846529006958
0.96434372663497925 0.012996374629437923 0.74634212255477905
0.96471935510635376 0.046816360205411911 0.7562716007232666
0.98503059148788452 0.067183628678321838 0.75082111358642578
0.99612903594970703 0.085321463644504547 0.74122405052185059
1 0.22192607820034027 0.75304132699966431
1 0.28906232118606567 0.76282715797424316
0.00023803711519576609 0.43415409326553345 0.40507945418357849
0.0054665058851242065 0.56913727521896362 0.44984680414199829
0.08951491117477417 0.75697988271713257 0.5111926794052124
0.55805295705795288 0.95668011903762817 0.59833037853240967
0.93349635601043701 0.99690788984298706 0.77347326278686523
0.99399733543395996 0.99767440557479858 0.92465221881866455
0.99451977014541626 0.9966922402381897 0.9315335750579834
0 0.31193462014198303 0.43595203757286072
0.001495855045504868 0.47951853275299072 0.46806734800338745
0.092430487275123596 0.68835806846618652 0.53506016731262207
0.63139879703521729 0.93411493301391602 0.62722659111022949
0.96545159816741943 0.99452775716781616 0.78011941909790039
0.99306178092956543 0.99403536319732666 0.92742079496383667
0.9966244101524353 0.99434632062911987 0.93875771760940552
0.013096618466079235 0.03361906111240387 0.50716251134872437
0.0014143551234155893 0.17658591270446777 0.52879339456558228
0.14779014885425568 0.55557310581207275 0.58442312479019165
0.7988390326499939 0.83713608980178833 0.66842359304428101
0.9794609546661377 0.9654383659362793 0.81292033195495605
0.9973984956741333 0.98133647441864014 0.92857843637466431
1 0.98601579666137695 0.94961762428283691
0.045539900660514832 0.02101530134677887 0.58111876249313354
0.087377257645130157 0.026962414383888245 0.60584986209869385
0.52305793762207031 0.12569220364093781 0.66423934698104858
0.93265509605407715 0.58975285291671753 0.73842668533325195
0.99893051385879517 0.90703684091567993 0.85345876216888428
1 0.97971296310424805 0.95868879556655884
1 0.98148036003112793 0.96404993534088135
0.087427221238613129 0.0073361415416002274 0.65286600589752197
0.28697797656059265 0.002284809248521924 0.68286526203155518
0.74023109674453735 0.01691875047981739 0.74297630786895752
0.98366409540176392 0.14364960789680481 0.81312036514282227
1 0.77890276908874512 0.8762277364730835
1 0.98948967456817627 0.98880940675735474
1 0.98775190114974976 0.98200446367263794
0.49905246496200562 0.00041333367698825896 0.74323707818984985
0.66358667612075806 0 0.77022671699523926
0.9338376522064209 0.0094645330682396889 0.80655086040496826
0.98152762651443481 0.059176649898290634 0.82056587934494019
0.99921292066574097 0.24170507490634918 0.80572038888931274
1 0.92952185869216919 0.95885586738586426
1 0.94743639230728149 0.96989494562149048
0.8356480598449707 0 0.83513540029525757
0.93877673149108887 0.0022779577411711216 0.84192371368408203
0.96732378005981445 0.019143631681799889 0.84640276432037354
0.98055654764175415 0.059063468128442764 0.82987582683563232
0.99382692575454712 0.094357326626777649 0.79513019323348999
1 0.32796511054039001 0.79704201221466064
1 0.37294861674308777 0.80292975902557373
0 0.5710216760635376 0.53116840124130249
0.0023417004849761724 0.6913294792175293 0.57150304317474365
0.013841007836163044 0.85455048084259033 0.61738795042037964
0.15735776722431183 0.98742389678955078 0.68481975793838501
0.81640428304672241 0.99998801946640015 0.84253650903701782
0.99118030071258545 1 0.97670429944992065
0.98978888988494873 1 0.97476011514663696
0 0.49021661281585693 0.55891245603561401
0.0019900153856724501 0.59887313842773438 0.5847238302230835
0.035980150103569031 0.77772510051727295 0.63679903745651245
0.17023582756519318 0.96886217594146729 0.70394974946975708
0.82591664791107178 0.99939310550689697 0.84988784790039062
0.99115020036697388 1 0.97765451669692993
0.99061048030853271 1 0.97902894020080566
0.00020285214122850448 0.20163387060165405 0.60497009754180908
0 0.41418889164924622 0.62593895196914673
0.011844770051538944 0.68149334192276001 0.67210215330123901
0.2056940495967865 0.93138581514358521 0.74174791574478149
0.89649271965026855 0.99726128578186035 0.87223172187805176
0.99596196413040161 0.99999040365219116 0.98777991533279419
0.997639000415802 0.99932187795639038 0.9894440770149231
0.018462251871824265 0.038149800151586533 0.67395961284637451
0.015170273371040821 0.049113627523183823 0.69371402263641357
0.012002578005194664 0.35188588500022888 0.74163550138473511
0.50143605470657349 0.75809109210968018 0.80651330947875977
0.98395419120788574 0.98270320892333984 0.90737295150756836
0.99882155656814575 0.99636989831924438 0.98879766464233398
0.99607843160629272 0.99577111005783081 0.98988914489746094
0.046168800443410873 0.03171558678150177 0.74833822250366211
0.061522629112005234 0.025571845471858978 0.76857572793960571
0.19668450951576233 0.019072648137807846 0.81660920381546021
0.88147664070129395 0.25587794184684753 0.89096331596374512
0.99867755174636841 0.85899442434310913 0.93914169073104858
0.99964123964309692 0.99567383527755737 0.99409949779510498
0.99656027555465698 0.99607843160629272 0.99320012331008911
0.09087873250246048 0.011030698195099831 0.82124459743499756
0.14372171461582184 0.0071053300052881241 0.84042936563491821
0.58216917514801025 0.00064276898046955466 0.8855864405632019
0.95541363954544067 0.029343429952859879 0.92865866422653198
0.99904000759124756 0.38371932506561279 0.89750730991363525
1 0.96874570846557617 0.98463898897171021
1 0.98128151893615723 0.98997920751571655
0.34021615982055664 0.00056331860832870007 0.90245652198791504
0.5430493950843811 2.0105699150008149e-05 0.92103469371795654
0.87589889764785767 0.0013302223524078727 0.95563596487045288
0.97195595502853394 0.038456261157989502 0.93020176887512207
0.99412888288497925 0.07517724484205246 0.87250047922134399
1 0.47693547606468201 0.85747206211090088
1 0.52550971508026123 0.86308246850967407
0 0.70678979158401489 0.65109348297119141
0.0039951400831341743 0.80025899410247803 0.68363767862319946
0.014467530883848667 0.92121899127960205 0.72382247447967529
0.04571102187037468 0.98362374305725098 0.75212103128433228
0.52300941944122314 1 0.84808856248855591
0.99315261840820312 1 0.99263030290603638
0.99098360538482666 1 0.98891419172286987
0 0.6372496485710144 0.6715313196182251
0.00029005162650719285 0.72639167308807373 0.69639486074447632
0.0047317505814135075 0.893077552318573 0.73121708631515503
0.093855001032352448 0.98489779233932495 0.7664143443107605
0.57225894927978516 0.99873113632202148 0.86303424835205078
0.99479889869689941 1 0.99417710304260254
0.9900175929069519 1 0.98945969343185425
0 0.47133272886276245 0.70674526691436768
0 0.58191025257110596 0.72553980350494385
0.0067159463651478291 0.78120684623718262 0.76217943429946899
0.063555605709552765 0.97435814142227173 0.81069910526275635
0.66490805149078369 0.99881291389465332 0.89581757783889771
0.99594724178314209 1 0.99534338712692261
0.99445396661758423 1 0.99215686321258545
0.0065835691057145596 0.077985204756259918 0.76812112331390381
0.0019686231389641762 0.18063035607337952 0.78631985187530518
2.8004365958622657e-05 0.54659867286682129 0.82353824377059937
0.063290402293205261 0.88785964250564575 0.87975573539733887
0.75874608755111694 0.9966437816619873 0.94101989269256592
0.99718749523162842 0.99944210052490234 0.99585318565368652
0.99607843160629272 0.99684065580368042 0.99313551187515259
0.045048687607049942 0.04862518236041069 0.83204895257949829
0.041973937302827835 0.055537160485982895 0.85577142238616943
0.018727948889136314 0.074376799166202545 0.89844435453414917
0.2104671448469162 0.52799695730209351 0.95667272806167603
0.92792683839797974 0.93865680694580078 0.99525684118270874
0.99742645025253296 0.99641197919845581 0.99609130620956421
0.99607843160629272 0.99607843160629272 0.9960329532623291
0.068478435277938843 0.043719813227653503 0.89296013116836548
0.068510748445987701 0.035837076604366302 0.91829586029052734
0.092506587505340576 0.01938934251666069 0.95795226097106934
0.70162951946258545 0.027289208024740219 0.9963080883026123
0.98942941427230835 0.52488750219345093 0.98705840110778809
1 0.99074679613113403 0.9965214729309082
0.99993777275085449 0.99397027492523193 0.99727964401245117
0.060342691838741302 0.029006749391555786 0.95210546255111694
0.057265128940343857 0.015297923237085342 0.98012977838516235
0.31748664379119873 0.0019479041220620275 0.99313819408416748
0.90097880363464355 0.0056558945216238499 0.99647146463394165
0.99216490983963013 0.074055537581443787 0.9738888144493103
1 0.64087438583374023 0.92728650569915771
1 0.67576611042022705 0.93069416284561157
0 0.82982474565505981 0.76290512084960938
0.00038793226121924818 0.88918721675872803 0.77987921237945557
0.0142619414255023 0.95488220453262329 0.8042980432510376
0.036018867045640945 0.98488181829452515 0.77642178535461426
0.13325342535972595 0.99917089939117432 0.76643484830856323
0.94735062122344971 1 0.97691929340362549
0.97261732816696167 1 0.98587214946746826
0 0.76623064279556274 0.77294379472732544
0 0.8489147424697876 0.79259157180786133
0.0084366593509912491 0.96156692504882812 0.81741118431091309
0.03895091637969017 0.98351407051086426 0.78875243663787842
0.12513363361358643 0.99867957830429077 0.78338336944580078
0.95896834135055542 1 0.98317968845367432
0.98128592967987061 1 0.99079227447509766
0 0.65798735618591309 0.80951565504074097
0 0.72751927375793457 0.82365870475769043
0.0044321096502244473 0.87540173530578613 0.85113322734832764
0.055695239454507828 0.97117650508880615 0.84859198331832886
0.20234262943267822 0.99519604444503784 0.84352308511734009
0.97420316934585571 1 0.99001127481460571
0.98300951719284058 1 0.99072146415710449
5.7175580877810717e-05 0.30639404058456421 0.86807304620742798
0 0.46858552098274231 0.8809393048286438
0.0001319137227255851 0.70182263851165771 0.91087216138839722
0.032025177031755447 0.95431280136108398 0.93840271234512329
0.20656326413154602 0.99593460559844971 0.90589374303817749
0.99107319116592407 1 0.99617987871170044
0.99094760417938232 1 0.99598485231399536
0.0094733294099569321 0.086115546524524689 0.9105643630027771
0.0080193160101771355 0.074281476438045502 0.94054335355758667
0.0014678207226097584 0.22116571664810181 0.98045498132705688
0.0028897004667669535 0.72293341159820557 0.99514162540435791
0.32671988010406494 0.97346490621566772 0.99527299404144287
0.99689978361129761 0.99999392032623291 0.99932795763015747
0.99624878168106079 0.99754011631011963 0.9985002875328064
0.015828046947717667 0.078764118254184723 0.94514840841293335
0.023049298673868179 0.067059941589832306 0.97448992729187012
0.039038069546222687 0.06307818740606308 0.99422210454940796
0.039888136088848114 0.15414373576641083 1
0.75658160448074341 0.75576847791671753 1
1 0.99878758192062378 1
0.99985218048095703 0.99937385320663452 1
0.016249040141701698 0.067780844867229462 0.98591256141662598
0.048086684197187424 0.03490428626537323 0.99124312400817871
0.10153313726186752 0.0098110120743513107 0.99619513750076294
0.28811141848564148 0.0063215517438948154 1
0.95110803842544556 0.093811288475990295 1
1 0.78719675540924072 0.99458175897598267
1 0.81615591049194336 0.99086970090866089
