assets/lut/picturefx goldfx bright spring breeze.cube
# Created by: G'MIC (https://gmic.eu)
TITLE "goldfx_bright_spring_breeze"
# LUT size
LUT_3D_SIZE 5
# Data domain
DOMAIN_MIN 0.0 0.0 0.0
DOMAIN_MAX 1.0 1.0 1.0
# LUT data points
0.039728499948978424 0.057051416486501694 0.053452316671609879
0.20910017192363739 0.072758406400680542 0.056790772825479507
0.46739643812179565 0.068328812718391418 0.068284966051578522
0.72689121961593628 0.073052167892456055 0.07891719788312912
0.96913933753967285 0.21917331218719482 0.12936882674694061
0.060084562748670578 0.27114376425743103 0.081398263573646545
0.24248594045639038 0.28369835019111633 0.071005471050739288
0.55032861232757568 0.30209532380104065 0.096544064581394196
0.79216712713241577 0.31468057632446289 0.1170835942029953
0.98675304651260376 0.39312738180160522 0.16878008842468262
0.11883090436458588 0.47555685043334961 0.11199825257062912
0.22228841483592987 0.47826135158538818 0.12110081315040588
0.50030618906021118 0.49360242486000061 0.10207591205835342
0.79486006498336792 0.54589962959289551 0.1282932311296463
0.99316054582595825 0.63459444046020508 0.24083174765110016
0.20633755624294281 0.70611047744750977 0.15109370648860931
0.30201637744903564 0.7060856819152832 0.16173440217971802
0.51192235946655273 0.71529650688171387 0.16999977827072144
0.75576239824295044 0.741374671459198 0.1760854572057724
0.99128741025924683 0.81930208206176758 0.20699942111968994
0.61168617010116577 0.99414873123168945 0.39063432812690735
0.68105489015579224 0.99496549367904663 0.41040116548538208
0.82031482458114624 0.99741888046264648 0.41814222931861877
0.97284293174743652 0.99635994434356689 0.3927856981754303
0.99985766410827637 0.97647058963775635 0.41282773017883301
0.020892124623060226 0.10110905766487122 0.23724430799484253
0.20658990740776062 0.11947287619113922 0.25764119625091553
0.50726562738418579 0.13392314314842224 0.27336478233337402
0.75337082147598267 0.10037798434495926 0.24778841435909271
0.96950340270996094 0.20141826570034027 0.26090928912162781
0.078404508531093597 0.32487872242927551 0.29408696293830872
0.27178865671157837 0.32596513628959656 0.31123864650726318
0.56951367855072021 0.29510778188705444 0.28616249561309814
0.79639929533004761 0.28896144032478333 0.26609402894973755
0.98717367649078369 0.35229766368865967 0.27979791164398193
0.13133886456489563 0.53605812788009644 0.26483985781669617
0.23687368631362915 0.5312914252281189 0.26634851098060608
0.53176271915435791 0.52203148603439331 0.23230849206447601
0.82008332014083862 0.56648355722427368 0.27093932032585144
0.99533200263977051 0.62876415252685547 0.34351956844329834
0.21432694792747498 0.73666846752166748 0.2328144758939743
0.28750598430633545 0.74064207077026367 0.23648251593112946
0.50130778551101685 0.72092539072036743 0.21479684114456177
0.76087164878845215 0.74615579843521118 0.18958105146884918
0.99424624443054199 0.8319048285484314 0.25049865245819092
0.59847921133041382 0.99489539861679077 0.41246643662452698
0.65200936794281006 0.99602609872817993 0.43330672383308411
0.80044370889663696 0.99661892652511597 0.43574386835098267
0.98167192935943604 0.99758422374725342 0.42934563755989075
0.99968242645263672 0.97734177112579346 0.43099570274353027
0.029789300635457039 0.19811812043190002 0.50967866182327271
0.16860324144363403 0.20676475763320923 0.5374646782875061
0.56436645984649658 0.24704326689243317 0.57293933629989624
0.81700384616851807 0.31630375981330872 0.58680552244186401
0.99076032638549805 0.34276428818702698 0.5679246187210083
0.10488723963499069 0.39560279250144958 0.54710537195205688
0.18567413091659546 0.37785357236862183 0.58747977018356323
0.60983532667160034 0.39288604259490967 0.61706829071044922
0.83687663078308105 0.39584988355636597 0.58956456184387207
0.98299455642700195 0.35085701942443848 0.53151577711105347
0.15639001131057739 0.62447655200958252 0.58001112937927246
0.19825229048728943 0.64072716236114502 0.59595119953155518
0.60664719343185425 0.62667179107666016 0.61569672822952271
0.8480525016784668 0.56265938282012939 0.54573190212249756
0.99553042650222778 0.55782461166381836 0.51534771919250488
0.24067679047584534 0.83926922082901001 0.51560193300247192
0.25720348954200745 0.84157884120941162 0.50316047668457031
0.48534432053565979 0.7916380763053894 0.46436503529548645
0.78126460313796997 0.77913486957550049 0.41477391123771667
0.9968491792678833 0.84926950931549072 0.50832170248031616
0.56941968202590942 0.9975014328956604 0.58301031589508057
0.59511381387710571 0.99818235635757446 0.59183812141418457
0.72575706243515015 0.99490892887115479 0.57985329627990723
0.94669020175933838 0.99772775173187256 0.5505901575088501
0.99984133243560791 0.97875237464904785 0.53522855043411255
0.042364787310361862 0.34121370315551758 0.77575761079788208
0.067691057920455933 0.32220679521560669 0.78696703910827637
0.54742938280105591 0.38199007511138916 0.80883347988128662
0.81431776285171509 0.48108077049255371 0.8236767053604126
0.96693301200866699 0.59616768360137939 0.83916598558425903
0.11441069841384888 0.48753753304481506 0.79534560441970825
0.1773877739906311 0.47211068868637085 0.81599187850952148
0.56416493654251099 0.48968321084976196 0.83111488819122314
0.82848250865936279 0.56504911184310913 0.84143000841140747
0.97512346506118774 0.63842642307281494 0.85076487064361572
0.17406755685806274 0.68213975429534912 0.79859322309494019
0.22299094498157501 0.68902379274368286 0.80986541509628296
0.54807144403457642 0.66680115461349487 0.84487330913543701
0.8501550555229187 0.73766332864761353 0.87782227993011475
0.98893642425537109 0.77244371175765991 0.880484938621521
0.33983543515205383 0.90567183494567871 0.84891396760940552
0.33744290471076965 0.91634583473205566 0.85815691947937012
0.54122442007064819 0.91087335348129272 0.86380046606063843
0.83749991655349731 0.896942138671875 0.87262928485870361
0.98930871486663818 0.83199340105056763 0.80815529823303223
0.61136496067047119 1 0.87292546033859253
0.63478833436965942 1 0.8798377513885498
0.63140630722045898 0.99999028444290161 0.84775620698928833
0.79838711023330688 0.99804657697677612 0.76945650577545166
0.99863129854202271 0.98310798406600952 0.75070250034332275
0.22634367644786835 0.56840163469314575 0.93131977319717407
0.32511278986930847 0.55585044622421265 0.93925517797470093
0.60027307271957397 0.61582356691360474 0.95170450210571289
0.80416578054428101 0.69885087013244629 0.95493006706237793
0.9251096248626709 0.77883511781692505 0.96568375825881958
0.34397423267364502 0.6584465503692627 0.95102608203887939
0.41553828120231628 0.6538461446762085 0.96111428737640381
0.61939585208892822 0.6734578013420105 0.96536588668823242
0.81800663471221924 0.74425053596496582 0.96705955266952515
0.93651330471038818 0.79997450113296509 0.97183382511138916
0.47987395524978638 0.80619674921035767 0.97509551048278809
0.51527136564254761 0.81280046701431274 0.9857298731803894
0.62159115076065063 0.77595806121826172 0.97702926397323608
0.82084125280380249 0.82278144359588623 0.98306673765182495
0.94204121828079224 0.86801469326019287 0.98732107877731323
0.46663650870323181 0.94492125511169434 0.98410594463348389
0.47792783379554749 0.95399892330169678 0.99236184358596802
0.56281954050064087 0.93506371974945068 0.99160194396972656
0.79451495409011841 0.9049268364906311 0.99276071786880493
0.9680061936378479 0.96165162324905396 0.99976432323455811
0.73772519826889038 1 0.99982929229736328
0.79096609354019165 1 1
0.78633284568786621 1 1
0.88470345735549927 1 1
0.99499690532684326 0.98989808559417725 0.99783313274383545
