assets/lut/picturefx goldfx hot summer heat.cube
# Created by: G'MIC (https://gmic.eu)
TITLE "goldfx_hot_summer_heat"
# LUT size
LUT_3D_SIZE 7
# Data domain
DOMAIN_MIN 0.0 0.0 0.0
DOMAIN_MAX 1.0 1.0 1.0
# LUT data points
0.009928056038916111 0.020326383411884308 0.027582595124840736
0.093568690121173859 0.024867098778486252 0.029293853789567947
0.25853011012077332 0.023831671103835106 0.056334804743528366
0.56092560291290283 0.0088367834687232971 0.074904076755046844
0.84399008750915527 0.12849773466587067 0.06131458654999733
0.98368453979492188 0.36222594976425171 0.039274178445339203
1 0.52845597267150879 0.13481646776199341
0.002646277891471982 0.10784395784139633 0.057869929820299149
0.081879667937755585 0.1136012077331543 0.057717341929674149
0.30075928568840027 0.11142273247241974 0.054805368185043335
0.58792436122894287 0.11676079034805298 0.04243093729019165
0.84174102544784546 0.2394467294216156 0.021936394274234772
0.97698098421096802 0.41633838415145874 0.018068380653858185
0.99705106019973755 0.55920350551605225 0.14076970517635345
0 0.30397650599479675 0.08746994286775589
0.0064782085828483105 0.3121894896030426 0.092547334730625153
0.3223717212677002 0.33870396018028259 0.047849379479885101
0.62833935022354126 0.36163467168807983 0.0015360513934865594
0.83397567272186279 0.40760436654090881 0.00012621411588042974
0.96342617273330688 0.5095362663269043 0.00036724316305480897
0.99869835376739502 0.61418455839157104 0.11095995455980301
0 0.58191710710525513 0.06518109142780304
0.0088898753747344017 0.58143973350524902 0.070748336613178253
0.29713445901870728 0.59528356790542603 0.049687791615724564
0.64039504528045654 0.61375594139099121 0.011467443779110909
0.83338797092437744 0.61952424049377441 0
0.95289456844329834 0.63868898153305054 2.3336972390097799e-06
1 0.68342888355255127 0.050623651593923569
0.20161299407482147 0.7672770619392395 0.15795809030532837
0.253082275390625 0.7648739218711853 0.17502439022064209
0.42175590991973877 0.76482605934143066 0.17957028746604919
0.64308524131774902 0.76838237047195435 0.1520133763551712
0.81144362688064575 0.77741867303848267 0.091442063450813293
0.93167674541473389 0.77680075168609619 0.092890672385692596
0.99899935722351074 0.78548026084899902 0.14512677490711212
0.57593846321105957 0.87272655963897705 0.34509667754173279
0.5670018196105957 0.8733069896697998 0.35211703181266785
0.6194159984588623 0.8740420937538147 0.36343348026275635
0.71017134189605713 0.87207996845245361 0.36809661984443665
0.80833339691162109 0.87495356798171997 0.3693060576915741
0.91566264629364014 0.88031578063964844 0.35251310467720032
0.99700725078582764 0.89024579524993896 0.36367812752723694
0.77995258569717407 0.96655017137527466 0.5513569712638855
0.77071553468704224 0.96614956855773926 0.55233323574066162
0.77989590167999268 0.96711546182632446 0.56189632415771484
0.81544530391693115 0.96788817644119263 0.57616293430328369
0.86814379692077637 0.97107994556427002 0.58065402507781982
0.93938815593719482 0.97753894329071045 0.58140832185745239
0.99971961975097656 0.98719668388366699 0.59472644329071045
0.0048575755208730698 0.029740218073129654 0.12053117901086807
0.083996221423149109 0.052281145006418228 0.11406373977661133
0.25662729144096375 0.038891363888978958 0.13466900587081909
0.59751981496810913 0.027156336233019829 0.15216362476348877
0.86309647560119629 0.21711649000644684 0.14913524687290192
0.9876362681388855 0.40076622366905212 0.13619981706142426
1 0.54952234029769897 0.2040216475725174
0 0.11946044862270355 0.14323835074901581
0.091705992817878723 0.12068650126457214 0.13663975894451141
0.32140690088272095 0.10650627315044403 0.12809520959854126
0.62494409084320068 0.083818964660167694 0.12346816807985306
0.856342613697052 0.24145510792732239 0.11589617282152176
0.98654770851135254 0.4153096079826355 0.11536319553852081
0.99712914228439331 0.55621403455734253 0.19149263203144073
0 0.32940295338630676 0.13398174941539764
0.013052741996943951 0.33211967349052429 0.13161388039588928
0.3339255154132843 0.34573665261268616 0.092170789837837219
0.64493733644485474 0.34250572323799133 0.04770805686712265
0.8452533483505249 0.40158531069755554 0.026280121877789497
0.97123962640762329 0.50717616081237793 0.024988600984215736
0.9954683780670166 0.61517369747161865 0.14565159380435944
6.9651883677579463e-05 0.59317517280578613 0.083305761218070984
0.010434094816446304 0.58670163154602051 0.085217252373695374
0.27235084772109985 0.59515213966369629 0.084282040596008301
0.6402776837348938 0.61357825994491577 0.01933867484331131
0.83683109283447266 0.61456578969955444 0
0.95138072967529297 0.63336223363876343 0.00061784632271155715
0.99539703130722046 0.68076330423355103 0.041276566684246063
0.18946045637130737 0.76802957057952881 0.15333233773708344
0.25667986273765564 0.76697856187820435 0.16927237808704376
0.42910262942314148 0.76703745126724243 0.1905977725982666
0.64783155918121338 0.76878005266189575 0.17800833284854889
0.80866473913192749 0.7785334587097168 0.10614178329706192
0.93318194150924683 0.77651196718215942 0.084256701171398163
0.99924570322036743 0.7793346643447876 0.1146819144487381
0.57359457015991211 0.87345963716506958 0.3397514820098877
0.5757749080657959 0.87408614158630371 0.34604755043983459
0.6236911416053772 0.87469363212585449 0.36270129680633545
0.71030282974243164 0.87328433990478516 0.37219139933586121
0.8079148530960083 0.87695074081420898 0.36024314165115356
0.91901570558547974 0.88090044260025024 0.34652647376060486
0.99925035238265991 0.88567459583282471 0.34732216596603394
0.77536851167678833 0.96566319465637207 0.5543442964553833
0.77253848314285278 0.96496343612670898 0.55415725708007812
0.78139626979827881 0.96592193841934204 0.56209731101989746
0.81638240814208984 0.96661972999572754 0.57774561643600464
0.86405938863754272 0.96868634223937988 0.5826423168182373
0.93110591173171997 0.97328692674636841 0.58525550365447998
0.99760913848876953 0.98125261068344116 0.59009480476379395
0.0086297281086444855 0.064001627266407013 0.23116797208786011
0.14264358580112457 0.087950475513935089 0.23019884526729584
0.30424720048904419 0.12354064732789993 0.24259072542190552
0.57394134998321533 0.058208107948303223 0.26348096132278442
0.86247998476028442 0.15531733632087708 0.2828841507434845
0.98676276206970215 0.47538810968399048 0.32667014002799988
0.99659210443496704 0.6218683123588562 0.36434081196784973
0.0007239846745505929 0.13465139269828796 0.25389665365219116
0.10445715487003326 0.12756998836994171 0.25165501236915588
0.34256693720817566 0.17004366219043732 0.25322619080543518
0.61794883012771606 0.052352681756019592 0.26092791557312012
0.87814235687255859 0.20851954817771912 0.27362874150276184
0.98954916000366211 0.47118279337882996 0.30639153718948364
0.99567884206771851 0.60382366180419922 0.34298652410507202
0.015382803976535797 0.34459209442138672 0.26520511507987976
0.0014390683500096202 0.3375001847743988 0.2650093138217926
0.3893578052520752 0.36047461628913879 0.27511006593704224
0.69535988569259644 0.32754266262054443 0.23962315917015076
0.87939238548278809 0.40809193253517151 0.22975845634937286
0.98138582706451416 0.53769749402999878 0.26113298535346985
0.99785864353179932 0.62830591201782227 0.31736776232719421
0.20265300571918488 0.60963243246078491 0.25848451256752014
0.15245218575000763 0.60767412185668945 0.24228331446647644
0.2751460075378418 0.60806965827941895 0.23187564313411713
0.6662372350692749 0.62188518047332764 0.17671096324920654
0.85651016235351562 0.60944616794586182 0.1362619549036026
0.96744006872177124 0.62742841243743896 0.13818515837192535
0.99997544288635254 0.68281304836273193 0.22936080396175385
0.33157622814178467 0.77187705039978027 0.2519022524356842
0.33176305890083313 0.77143937349319458 0.25275936722755432
0.39801707863807678 0.77054214477539062 0.25328782200813293
0.63179224729537964 0.77072632312774658 0.25769722461700439
0.81061583757400513 0.77251291275024414 0.18990990519523621
0.93876403570175171 0.77223950624465942 0.1709635853767395
0.99999427795410156 0.76757305860519409 0.19924584031105042
0.58637964725494385 0.87681978940963745 0.36348721385002136
0.58096921443939209 0.8757207989692688 0.3680063784122467
0.60870170593261719 0.87436729669570923 0.37876099348068237
0.69375085830688477 0.87298023700714111 0.38763761520385742
0.80289667844772339 0.87652450799942017 0.38040897250175476
0.91988140344619751 0.88122004270553589 0.36167961359024048
0.99926114082336426 0.87998706102371216 0.35461574792861938
0.76953732967376709 0.96810084581375122 0.55238431692123413
0.77116894721984863 0.96659272909164429 0.5601915717124939
0.77693521976470947 0.96535712480545044 0.56318682432174683
0.80712705850601196 0.96379172801971436 0.57568109035491943
0.85916358232498169 0.96640443801879883 0.58855563402175903
0.92773008346557617 0.97131741046905518 0.58948373794555664
0.9959912896156311 0.97758787870407104 0.58680790662765503
0.15569645166397095 0.11798183619976044 0.38406747579574585
0.28894665837287903 0.13531734049320221 0.39174178242683411
0.51133936643600464 0.23590049147605896 0.40181705355644226
0.67272615432739258 0.35390487313270569 0.40756803750991821
0.83556652069091797 0.29843121767044067 0.42954596877098083
0.97458219528198242 0.43306344747543335 0.45163059234619141
0.99818712472915649 0.62463223934173584 0.49751701951026917
0.14088720083236694 0.16826650500297546 0.40540480613708496
0.24030159413814545 0.17358633875846863 0.40612715482711792
0.50822371244430542 0.25632444024085999 0.4097861647605896
0.67676079273223877 0.3619498610496521 0.41401439905166626
0.85340756177902222 0.3043651282787323 0.43134889006614685
0.98379385471343994 0.43214139342308044 0.44286054372787476
0.9973900318145752 0.60929280519485474 0.47517850995063782
0.12504933774471283 0.36150169372558594 0.4188838005065918
0.092887386679649353 0.34254726767539978 0.41480591893196106
0.41031748056411743 0.34215867519378662 0.42658513784408569
0.71537631750106812 0.46376928687095642 0.43251323699951172
0.87686812877655029 0.39739638566970825 0.43009272217750549
0.98778039216995239 0.49146059155464172 0.42760390043258667
0.99575793743133545 0.62688672542572021 0.45923474431037903
0.26870337128639221 0.61047637462615967 0.42714595794677734
0.25343820452690125 0.60662585496902466 0.41941240429878235
0.29281678795814514 0.59632086753845215 0.41527414321899414
0.69771850109100342 0.62893879413604736 0.43350479006767273
0.87918931245803833 0.61616057157516479 0.4015231728553772
0.97622716426849365 0.66087239980697632 0.40562179684638977
0.99670398235321045 0.71165907382965088 0.4350736141204834
0.54779219627380371 0.77177733182907104 0.42835643887519836
0.5576632022857666 0.7742302417755127 0.43270069360733032
0.53600555658340454 0.77756267786026001 0.4115469753742218
0.65318900346755981 0.7824472188949585 0.40784716606140137
0.82415139675140381 0.7768867015838623 0.36801338195800781
0.95231741666793823 0.75460445880889893 0.32898423075675964
0.99938809871673584 0.76053053140640259 0.34771135449409485
0.66253805160522461 0.8785204291343689 0.45610633492469788
0.65731966495513916 0.87762665748596191 0.45854488015174866
0.65561729669570923 0.87574261426925659 0.45165005326271057
0.69173252582550049 0.87452346086502075 0.45588305592536926
0.80107742547988892 0.88426834344863892 0.45884689688682556
0.92209810018539429 0.88868910074234009 0.43319356441497803
0.99725115299224854 0.88251137733459473 0.42587313055992126
0.77804338932037354 0.97092658281326294 0.57841521501541138
0.78054630756378174 0.96807503700256348 0.58426916599273682
0.78635913133621216 0.96674436330795288 0.5887874960899353
0.80450916290283203 0.96414321660995483 0.60062122344970703
0.85543584823608398 0.96794503927230835 0.61881381273269653
0.92620575428009033 0.97493201494216919 0.61369460821151733
0.99588620662689209 0.98247373104095459 0.6149105429649353
0.40564072132110596 0.23473459482192993 0.54646068811416626
0.48615795373916626 0.2536558210849762 0.55188608169555664
0.65847992897033691 0.34933465719223022 0.55765616893768311
0.7962835431098938 0.53507310152053833 0.55817341804504395
0.86066186428070068 0.60937923192977905 0.56291806697845459
0.94521552324295044 0.58043569326400757 0.57741385698318481
0.99345630407333374 0.63702487945556641 0.59150528907775879
0.39661702513694763 0.27513757348060608 0.55657893419265747
0.43735164403915405 0.28659763932228088 0.55724924802780151
0.64353609085083008 0.35896295309066772 0.55806881189346313
0.79408824443817139 0.52340030670166016 0.55787134170532227
0.86543601751327515 0.61587411165237427 0.56658458709716797
0.94473087787628174 0.57836848497390747 0.57220560312271118
0.99903863668441772 0.63478398323059082 0.58804279565811157
0.39302623271942139 0.41144582629203796 0.56006139516830444
0.4028480052947998 0.39998602867126465 0.56181001663208008
0.55958515405654907 0.42418637871742249 0.56518030166625977
0.78378689289093018 0.56497251987457275 0.56778860092163086
0.8641238808631897 0.6451917290687561 0.57515960931777954
0.9462122917175293 0.59904617071151733 0.57330846786499023
0.99622881412506104 0.6286470890045166 0.57790613174438477
0.32991057634353638 0.60755914449691772 0.54405152797698975
0.31966984272003174 0.59900873899459839 0.54646074771881104
0.35596376657485962 0.58137220144271851 0.55037021636962891
0.69645166397094727 0.60776853561401367 0.57721477746963501
0.86782824993133545 0.72277927398681641 0.5908430814743042
0.95849615335464478 0.66995519399642944 0.57491755485534668
0.99751627445220947 0.6943402886390686 0.57500839233398438
0.51461619138717651 0.76420992612838745 0.55036389827728271
0.52785748243331909 0.76508742570877075 0.55473470687866211
0.51657545566558838 0.76453131437301636 0.55305105447769165
0.61267155408859253 0.76515990495681763 0.55755603313446045
0.83861154317855835 0.781463623046875 0.57451045513153076
0.96222889423370361 0.77591443061828613 0.55572474002838135
0.99692845344543457 0.78932690620422363 0.54975181818008423
0.70958274602890015 0.88125044107437134 0.58344697952270508
0.71222984790802002 0.88021385669708252 0.58524233102798462
0.6959565281867981 0.88030803203582764 0.57345336675643921
0.7132716178894043 0.88703548908233643 0.56814312934875488
0.81242209672927856 0.89162349700927734 0.57742923498153687
0.92694669961929321 0.88129693269729614 0.5381348729133606
0.99693083763122559 0.86522537469863892 0.51345247030258179
0.79791903495788574 0.97419446706771851 0.65978217124938965
0.80307817459106445 0.97007477283477783 0.65888190269470215
0.81206119060516357 0.96945440769195557 0.66355931758880615
0.81666296720504761 0.97182691097259521 0.66120278835296631
0.85152727365493774 0.97344022989273071 0.67032092809677124
0.91774940490722656 0.97437018156051636 0.67003995180130005
0.99311041831970215 0.97920900583267212 0.67533689737319946
0.63958609104156494 0.45175740122795105 0.70027440786361694
0.67334479093551636 0.47283056378364563 0.70098036527633667
0.76488614082336426 0.54554402828216553 0.70154452323913574
0.850047767162323 0.65451854467391968 0.70149177312850952
0.8997504711151123 0.74913185834884644 0.7036316990852356
0.93637353181838989 0.77167600393295288 0.70797276496887207
0.98438072204589844 0.75214028358459473 0.71111476421356201
0.63528943061828613 0.47829872369766235 0.69967281818389893
0.65336704254150391 0.4882679283618927 0.70098036527633667
0.75318914651870728 0.54828745126724243 0.70096796751022339
0.84745043516159058 0.64398986101150513 0.70249998569488525
0.90014046430587769 0.75168049335479736 0.7037777304649353
0.94003075361251831 0.77587854862213135 0.71055233478546143
0.98657166957855225 0.7595708966255188 0.72153210639953613
0.63043951988220215 0.54658502340316772 0.70137745141983032
0.63064336776733398 0.54251241683959961 0.70242863893508911
0.69578403234481812 0.57023262977600098 0.70228618383407593
0.82801181077957153 0.66175025701522827 0.7049364447593689
0.8987809419631958 0.7606012225151062 0.70960646867752075
0.94061940908432007 0.78284382820129395 0.71853995323181152
0.98871523141860962 0.76010215282440186 0.72848188877105713
0.59081566333770752 0.65825319290161133 0.69121032953262329
0.59740149974822998 0.65105098485946655 0.69354522228240967
0.61908549070358276 0.6402478814125061 0.69917577505111694
0.76764982938766479 0.67819982767105103 0.70929974317550659
0.89056837558746338 0.77839350700378418 0.72446686029434204
0.94285130500793457 0.81100809574127197 0.73228645324707031
0.98756718635559082 0.77692466974258423 0.72043901681900024
0.51587933301925659 0.76170605421066284 0.67858242988586426
0.53410649299621582 0.75939321517944336 0.68225628137588501
0.51790493726730347 0.75108283758163452 0.68312978744506836
0.56582009792327881 0.73947548866271973 0.68848627805709839
0.82220494747161865 0.77633392810821533 0.7242313027381897
0.94863784313201904 0.84767985343933105 0.75316059589385986
0.98978859186172485 0.81292998790740967 0.73021477460861206
0.67042738199234009 0.87758225202560425 0.70975309610366821
0.66936588287353516 0.87449657917022705 0.70784413814544678
0.66139566898345947 0.87232458591461182 0.70688670873641968
0.66432279348373413 0.87250882387161255 0.70490306615829468
0.74357396364212036 0.86555486917495728 0.71056061983108521
0.92035460472106934 0.88224101066589355 0.73907363414764404
0.99756771326065063 0.8683808445930481 0.69435709714889526
0.78912901878356934 0.97718435525894165 0.77610069513320923
0.78972244262695312 0.96968024969100952 0.76385205984115601
0.79842180013656616 0.97020816802978516 0.76734709739685059
0.79786509275436401 0.97379952669143677 0.7562134861946106
0.83143335580825806 0.97874695062637329 0.75729882717132568
0.9148414134979248 0.97886079549789429 0.7625889778137207
0.99252200126647949 0.9789968729019165 0.75207042694091797
0.78297972679138184 0.68966066837310791 0.86036175489425659
0.79407072067260742 0.70992672443389893 0.85783201456069946
0.83873552083969116 0.73810088634490967 0.85519611835479736
0.89011746644973755 0.78056091070175171 0.85151493549346924
0.93479460477828979 0.82049030065536499 0.855113685131073
0.96646833419799805 0.87626403570175171 0.858051598072052
0.99801445007324219 0.89365607500076294 0.87237906455993652
0.78487348556518555 0.70788562297821045 0.85974645614624023
0.78674036264419556 0.7128182053565979 0.85836976766586304
0.82661885023117065 0.7366478443145752 0.85627239942550659
0.88288545608520508 0.77866959571838379 0.8554038405418396
0.93133515119552612 0.8208003044128418 0.85790896415710449
0.96709305047988892 0.87343776226043701 0.85769557952880859
0.99575239419937134 0.88280832767486572 0.86799466609954834
0.78115016222000122 0.72980678081512451 0.86214858293533325
0.77763956785202026 0.72842890024185181 0.86050641536712646
0.80197811126708984 0.74249565601348877 0.86146271228790283
0.86940616369247437 0.78266614675521851 0.8608708381652832
0.93036860227584839 0.82184106111526489 0.8603406548500061
0.96949666738510132 0.87030500173568726 0.85918062925338745
0.99660497903823853 0.88230407238006592 0.87190204858779907
0.76194232702255249 0.75906091928482056 0.86768609285354614
0.76704400777816772 0.7624017596244812 0.86735135316848755
0.76918119192123413 0.76037514209747314 0.86848324537277222
0.82720035314559937 0.7840920090675354 0.86871844530105591
0.91299307346343994 0.8277972936630249 0.86843717098236084
0.96521508693695068 0.88041019439697266 0.86885958909988403
0.99493700265884399 0.89335209131240845 0.87620788812637329
0.68251347541809082 0.80872690677642822 0.86430621147155762
0.68368017673492432 0.80899763107299805 0.86588925123214722
0.70166271924972534 0.8011707067489624 0.8662949800491333
0.73260414600372314 0.79815471172332764 0.871826171875
0.859172523021698 0.82559788227081299 0.87861150503158569
0.95982223749160767 0.8903888463973999 0.88417840003967285
0.9956815242767334 0.91573125123977661 0.89713764190673828
0.69106638431549072 0.89539092779159546 0.88603585958480835
0.66674566268920898 0.88798683881759644 0.88276201486587524
0.66185736656188965 0.88456714153289795 0.88195931911468506
0.66828149557113647 0.87677943706512451 0.88370156288146973
0.70897644758224487 0.86044579744338989 0.87618988752365112
0.89929294586181641 0.88545048236846924 0.89930719137191772
0.99747580289840698 0.94836479425430298 0.92044031620025635
0.79159730672836304 0.99074798822402954 0.93918424844741821
0.77713751792907715 0.98247569799423218 0.91995638608932495
0.77554941177368164 0.98058867454528809 0.91922158002853394
0.77067703008651733 0.97840142250061035 0.91504573822021484
0.76806235313415527 0.96916943788528442 0.91020470857620239
0.83799690008163452 0.96357512474060059 0.91835695505142212
0.97734576463699341 0.99050807952880859 0.95207923650741577
