assets/lut/picturefx zilverfx vintage bw.cube
# Created by: G'MIC (https://gmic.eu)
TITLE "zilverfx_vintage_bw"
# LUT size
LUT_3D_SIZE 13
# Data domain
DOMAIN_MIN 0.0 0.0 0.0
DOMAIN_MAX 1.0 1.0 1.0
# LUT data points
0.011430343613028526 0.010647987015545368 0.010526440106332302
0.022691000252962112 0.021562283858656883 0.02102222852408886
0.052909836173057556 0.052274651825428009 0.051201928406953812
0.084694445133209229 0.082795463502407074 0.082331247627735138
0.11527352780103683 0.11175362020730972 0.11045880615711212
0.1493537425994873 0.14359448850154877 0.13894779980182648
0.2002723217010498 0.19062408804893494 0.18079002201557159
0.26585441827774048 0.25019600987434387 0.23735158145427704
0.33807647228240967 0.3170849084854126 0.29947438836097717
0.4210905134677887 0.39357316493988037 0.3688805103302002
0.48705601692199707 0.45314475893974304 0.42305761575698853
0.53441518545150757 0.49703416228294373 0.4613603949546814
0.56417793035507202 0.52443361282348633 0.48575159907341003
0.052868548780679703 0.052101720124483109 0.050751317292451859
0.068040855228900909 0.067370548844337463 0.064967058598995209
0.091127984225749969 0.090604238212108612 0.087625883519649506
0.11505052447319031 0.11228242516517639 0.11023373901844025
0.14397388696670532 0.1393604576587677 0.13611151278018951
0.17597605288028717 0.16835413873195648 0.16276717185974121
0.22530566155910492 0.21402654051780701 0.20273958146572113
0.28493064641952515 0.26899489760398865 0.25432068109512329
0.35770615935325623 0.33610162138938904 0.31708642840385437
0.43683895468711853 0.40954431891441345 0.38226071000099182
0.49744832515716553 0.46499207615852356 0.43177503347396851
0.54072600603103638 0.50252896547317505 0.46629980206489563
0.56870037317276001 0.52812725305557251 0.48909905552864075
0.11885934323072433 0.11762412637472153 0.11419633030891418
0.12817473709583282 0.12517304718494415 0.12146073579788208
0.13992305099964142 0.13651405274868011 0.13320858776569366
0.16267038881778717 0.15715311467647552 0.15273398160934448
0.18966272473335266 0.18078021705150604 0.175135537981987
0.22582347691059113 0.2155313640832901 0.20569585263729095
0.27221304178237915 0.25861352682113647 0.24554905295372009
0.32473593950271606 0.30694678425788879 0.2910970151424408
0.39717808365821838 0.37383690476417542 0.35197168588638306
0.4662824273109436 0.43541181087493896 0.40784421563148499
0.51600897312164307 0.47999638319015503 0.44674953818321228
0.55077922344207764 0.51149195432662964 0.4737754762172699
0.57699930667877197 0.53459465503692627 0.49525409936904907
0.18780843913555145 0.18064543604850769 0.17508256435394287
0.19622357189655304 0.18752928078174591 0.18103992938995361
0.21004946529865265 0.20023517310619354 0.1930624395608902
0.23419998586177826 0.2219666987657547 0.21430434286594391
0.2609422504901886 0.24912773072719574 0.23710627853870392
0.29100951552391052 0.27683758735656738 0.26251992583274841
0.33105412125587463 0.31412497162818909 0.29733681678771973
0.38334327936172485 0.36135855317115784 0.34243658185005188
0.45153114199638367 0.42290884256362915 0.39834386110305786
0.50555980205535889 0.47036385536193848 0.44027525186538696
0.53843194246292114 0.49979308247566223 0.46535268425941467
0.56603860855102539 0.52369993925094604 0.48614028096199036
0.59750556945800781 0.55244404077529907 0.51174592971801758
0.2725062370300293 0.2597009539604187 0.24795828759670258
0.28046059608459473 0.26700869202613831 0.25426211953163147
0.29393684864044189 0.27957385778427124 0.26530835032463074
0.31134891510009766 0.29480794072151184 0.28147280216217041
0.3374367356300354 0.31951797008514404 0.3042912483215332
0.36618936061859131 0.34570121765136719 0.32730019092559814
0.39890491962432861 0.37585228681564331 0.35572317242622375
0.44771334528923035 0.42174851894378662 0.39742127060890198
0.50789427757263184 0.47560158371925354 0.44548088312149048
0.5456312894821167 0.50827252864837646 0.47333961725234985
0.56741482019424438 0.52696788311004639 0.48885670304298401
0.59678763151168823 0.5524437427520752 0.51334863901138306
0.62669384479522705 0.57849681377410889 0.53693825006484985
0.36920934915542603 0.34817266464233398 0.33127972483634949
0.37276789546012878 0.35269990563392639 0.33518779277801514
0.38509592413902283 0.36301901936531067 0.34522226452827454
0.40228924155235291 0.38041996955871582 0.36010724306106567
0.42172789573669434 0.39911860227584839 0.37653353810310364
0.44784468412399292 0.42186644673347473 0.39784550666809082
0.4810088574886322 0.45048901438713074 0.42550760507583618
0.52534425258636475 0.49089708924293518 0.46167665719985962
0.56859785318374634 0.53072619438171387 0.4941994845867157
0.59235298633575439 0.55168849229812622 0.51068484783172607
0.61041182279586792 0.56639420986175537 0.52388709783554077
0.63986301422119141 0.59589987993240356 0.55455261468887329
0.6639370322227478 0.62067198753356934 0.5843803882598877
0.48401924967765808 0.45410588383674622 0.42686900496482849
0.48568493127822876 0.45673471689224243 0.42952275276184082
0.49728035926818848 0.46687191724777222 0.43946117162704468
0.51404178142547607 0.48103636503219604 0.45307201147079468
0.52778089046478271 0.49336510896682739 0.46369186043739319
0.54334056377410889 0.50792014598846436 0.47642126679420471
0.57302498817443848 0.53402990102767944 0.499908447265625
0.6026652455329895 0.56005668640136719 0.52215385437011719
0.63127368688583374 0.58800560235977173 0.5465882420539856
0.6509738564491272 0.60699445009231567 0.56508684158325195
0.66339141130447388 0.6221885085105896 0.58479958772659302
0.68701064586639404 0.65153366327285767 0.61908549070358276
0.70949369668960571 0.67718946933746338 0.6523624062538147
0.59228825569152832 0.5516776442527771 0.51541447639465332
0.60102581977844238 0.55995291471481323 0.52422064542770386
0.60827112197875977 0.56631755828857422 0.52939373254776001
0.61467361450195312 0.57223176956176758 0.53302305936813354
0.61696356534957886 0.57440060377120972 0.53548407554626465
0.62692296504974365 0.58452838659286499 0.54624325037002563
0.65055972337722778 0.60661846399307251 0.56696802377700806
0.67251676321029663 0.62879186868667603 0.59046250581741333
0.69015794992446899 0.65177226066589355 0.61765128374099731
0.70709925889968872 0.67435306310653687 0.64641416072845459
0.71637332439422607 0.69026070833206177 0.66576188802719116
0.74191880226135254 0.71942883729934692 0.70000827312469482
0.75837588310241699 0.73734956979751587 0.72165292501449585
0.66556084156036377 0.6199653148651123 0.57683539390563965
0.67371630668640137 0.62856751680374146 0.58605670928955078
0.67687922716140747 0.63113605976104736 0.58982557058334351
0.68355476856231689 0.6375541090965271 0.5967477560043335
0.68652498722076416 0.64287227392196655 0.60245215892791748
0.695781409740448 0.65454947948455811 0.61885523796081543
0.7117728590965271 0.67496496438980103 0.64416176080703735
0.73165488243103027 0.6999971866607666 0.67526870965957642
0.75028401613235474 0.72388988733291626 0.70516383647918701
0.7666698694229126 0.74638807773590088 0.73087561130523682
0.78143310546875 0.76624894142150879 0.75015127658843994
0.79532593488693237 0.78060925006866455 0.76744186878204346
0.80135071277618408 0.78691285848617554 0.77550411224365234
0.71445310115814209 0.67700475454330444 0.64419907331466675
0.72384709119796753 0.68608343601226807 0.65504491329193115
0.73036807775497437 0.69598484039306641 0.66393196582794189
0.73730891942977905 0.70356321334838867 0.67330300807952881
0.74379312992095947 0.71348273754119873 0.68672984838485718
0.75426995754241943 0.72706425189971924 0.70408201217651367
0.76913338899612427 0.74567210674285889 0.72593992948532104
0.78793215751647949 0.76767706871032715 0.75273972749710083
0.80567383766174316 0.78850805759429932 0.77705264091491699
0.81977349519729614 0.80778640508651733 0.79575693607330322
0.83326089382171631 0.82244914770126343 0.81208688020706177
0.84261173009872437 0.83103477954864502 0.82334476709365845
0.8392937183380127 0.82730042934417725 0.81981855630874634
0.75967139005661011 0.7322392463684082 0.7085721492767334
0.7673833966255188 0.74016165733337402 0.71701598167419434
0.77287304401397705 0.74785637855529785 0.72590738534927368
0.77770501375198364 0.75473916530609131 0.73420524597167969
0.78429979085922241 0.76390582323074341 0.74535542726516724
0.79431414604187012 0.77513068914413452 0.7593187689781189
0.80594468116760254 0.78854191303253174 0.77551871538162231
0.8233376145362854 0.80756187438964844 0.79770064353942871
0.83491402864456177 0.82083207368850708 0.81250882148742676
0.84285962581634521 0.83235287666320801 0.82401126623153687
0.85387051105499268 0.84346425533294678 0.83654940128326416
0.86419069766998291 0.85433542728424072 0.84795677661895752
0.86285281181335449 0.8529813289642334 0.84614896774291992
0.78065377473831177 0.75730329751968384 0.73938560485839844
0.79490184783935547 0.7720455527305603 0.75416874885559082
0.8000151515007019 0.77746379375457764 0.76075446605682373
0.80240499973297119 0.78225505352020264 0.76620310544967651
0.80489814281463623 0.78760874271392822 0.77209162712097168
0.81052762269973755 0.79406833648681641 0.77966892719268799
0.81715798377990723 0.80269986391067505 0.78919756412506104
0.82651650905609131 0.81217420101165771 0.80150485038757324
0.83329254388809204 0.8199734091758728 0.81123918294906616
0.83945554494857788 0.82808095216751099 0.82035630941390991
0.84881168603897095 0.83917331695556641 0.83183425664901733
0.86351412534713745 0.85515248775482178 0.84759217500686646
0.87352645397186279 0.86542576551437378 0.85780733823776245
0.79036200046539307 0.76772814989089966 0.75105726718902588
0.80328947305679321 0.78139150142669678 0.76452285051345825
0.80816161632537842 0.78657174110412598 0.77027010917663574
0.80787533521652222 0.78777283430099487 0.77212852239608765
0.80746877193450928 0.78934174776077271 0.77458453178405762
0.81027710437774658 0.79547297954559326 0.78073197603225708
0.81535762548446655 0.80284631252288818 0.78869038820266724
0.81999802589416504 0.80748802423477173 0.79477232694625854
0.82455885410308838 0.81156682968139648 0.80183893442153931
0.83282595872879028 0.82090240716934204 0.81249332427978516
0.8429456353187561 0.83366954326629639 0.82579630613327026
0.85683900117874146 0.84884613752365112 0.84109437465667725
0.87141227722167969 0.8634147047996521 0.85572600364685059
0.017726734280586243 0.016497248783707619 0.016355087980628014
0.032559040933847427 0.029945867136120796 0.029296770691871643
0.065545104444026947 0.06427987664937973 0.062152549624443054
0.092634685337543488 0.090137183666229248 0.088956169784069061
0.11980472505092621 0.11692903935909271 0.11365256458520889
0.1551603227853775 0.1482783704996109 0.14268189668655396
0.204781174659729 0.19291943311691284 0.18364779651165009
0.2679544985294342 0.25340360403060913 0.23807673156261444
0.34383711218833923 0.32323572039604187 0.30388054251670837
0.4229886531829834 0.39620700478553772 0.36974635720252991
0.48825377225875854 0.45452821254730225 0.42303887009620667
0.53383094072341919 0.4967920184135437 0.46078610420227051
0.56334871053695679 0.52235126495361328 0.48393151164054871
0.061956681311130524 0.060232933610677719 0.059524491429328918
0.080359287559986115 0.077436737716197968 0.076065272092819214
0.10075756907463074 0.099488921463489532 0.096332594752311707
0.12004991620779037 0.1171812042593956 0.11521206796169281
0.14659281075000763 0.14180317521095276 0.13748610019683838
0.18267469108104706 0.17367051541805267 0.16664810478687286
0.22910480201244354 0.21768087148666382 0.20574256777763367
0.28793567419052124 0.2717803418636322 0.25665053725242615
0.36156049370765686 0.33893874287605286 0.31963053345680237
0.4370475709438324 0.41027137637138367 0.38224831223487854
0.49583059549331665 0.46352183818817139 0.42992123961448669
0.53853261470794678 0.50047105550765991 0.46399787068367004
0.56876784563064575 0.52681642770767212 0.48789545893669128
0.12633688747882843 0.12266504764556885 0.12088561803102493
0.13810130953788757 0.13285991549491882 0.13059313595294952
0.14973507821559906 0.1442599892616272 0.14163284003734589
0.16693051159381866 0.16112306714057922 0.15703859925270081
0.19545795023441315 0.18699760735034943 0.17993447184562683
0.23061239719390869 0.21844810247421265 0.20913927257061005
0.27467483282089233 0.25991952419281006 0.24703575670719147
0.33121553063392639 0.31374207139015198 0.29646742343902588
0.4004722535610199 0.37808671593666077 0.35460874438285828
0.46618250012397766 0.43734824657440186 0.40731918811798096
0.51424801349639893 0.47854223847389221 0.4455704391002655
0.54883056879043579 0.50915402173995972 0.47244313359260559
0.57648724317550659 0.53408241271972656 0.49408179521560669
0.19283528625965118 0.18512432277202606 0.17837215960025787
0.20245747268199921 0.19313591718673706 0.1865466833114624
0.2184985876083374 0.20810304582118988 0.20063544809818268
0.23993843793869019 0.22797039151191711 0.21905875205993652
0.26425847411155701 0.25063395500183105 0.23990534245967865
0.29561725258827209 0.28023472428321838 0.26710188388824463
0.33638617396354675 0.31779348850250244 0.30234074592590332
0.39105591177940369 0.36897996068000793 0.34866422414779663
0.45491459965705872 0.42764905095100403 0.4017583429813385
0.50560897588729858 0.4719143807888031 0.44055792689323425
0.5366857647895813 0.49777990579605103 0.46337640285491943
0.563823401927948 0.52148085832595825 0.48410573601722717
0.59261953830718994 0.54857099056243896 0.50724327564239502
0.27526471018791199 0.26062154769897461 0.24939212203025818
0.28551539778709412 0.27114588022232056 0.25891149044036865
0.30231472849845886 0.28578376770019531 0.27308821678161621
0.31669542193412781 0.30036327242851257 0.28628915548324585
0.33867120742797852 0.32003545761108398 0.3051360547542572
0.36556103825569153 0.34656360745429993 0.32791832089424133
0.4001343846321106 0.37875157594680786 0.35734373331069946
0.45374295115470886 0.42809736728668213 0.40211731195449829
0.51060855388641357 0.4773048460483551 0.44807866215705872
0.54552996158599854 0.50765085220336914 0.47313722968101501
0.56828111410140991 0.52721250057220459 0.48930129408836365
0.59588116407394409 0.55046999454498291 0.51092493534088135
0.62358230352401733 0.57633274793624878 0.53453618288040161
0.36688408255577087 0.34625646471977234 0.32923421263694763
0.38229331374168396 0.36040863394737244 0.34213903546333313
0.39796873927116394 0.37491956353187561 0.3554120659828186
0.40738043189048767 0.38607224822044373 0.36474958062171936
0.42205536365509033 0.39826500415802002 0.37671998143196106
0.44516721367835999 0.4194580614566803 0.39606058597564697
0.48072746396064758 0.45056480169296265 0.42531600594520569
0.52900123596191406 0.49529072642326355 0.46414360404014587
0.56864434480667114 0.53119683265686035 0.49534261226654053
0.59243154525756836 0.55171775817871094 0.5115625262260437
0.61243414878845215 0.56704908609390259 0.52531594038009644
0.63827377557754517 0.59306418895721436 0.55252587795257568
0.66280484199523926 0.61971932649612427 0.58407926559448242
0.48478314280509949 0.45365738868713379 0.42734858393669128
0.49371346831321716 0.46210914850234985 0.43576294183731079
0.50516903400421143 0.47365698218345642 0.44524410367012024
0.51613146066665649 0.48420536518096924 0.45482701063156128
0.52616453170776367 0.49412423372268677 0.46287435293197632
0.54389089345932007 0.50879698991775513 0.47689893841743469
0.57161122560501099 0.53338980674743652 0.49947300553321838
0.60470318794250488 0.5623704195022583 0.52495092153549194
0.6308906078338623 0.58699041604995728 0.54624831676483154
0.65041434764862061 0.60561943054199219 0.56505751609802246
0.66578918695449829 0.62383705377578735 0.58711487054824829
0.68512046337127686 0.64952647686004639 0.61848896741867065
0.70785427093505859 0.67758059501647949 0.65159887075424194
0.59917008876800537 0.55757218599319458 0.52117562294006348
0.60631686449050903 0.56538456678390503 0.52814167737960815
0.60641682147979736 0.56507426500320435 0.52729219198226929
0.61311012506484985 0.57082468271255493 0.53108358383178711
0.62271678447723389 0.57992243766784668 0.53920441865921021
0.6296766996383667 0.58864182233810425 0.54904282093048096
0.64964973926544189 0.60854643583297729 0.56982862949371338
0.67661809921264648 0.63419383764266968 0.59610104560852051
0.69045525789260864 0.65179836750030518 0.61773419380187988
0.70787173509597778 0.67438441514968872 0.64884072542190552
0.7223396897315979 0.69583112001419067 0.67309331893920898
0.74023115634918213 0.71837061643600464 0.70003050565719604
0.75449484586715698 0.73324346542358398 0.71729308366775513
0.66821748018264771 0.62299954891204834 0.57975131273269653
0.67535722255706787 0.63063424825668335 0.58819723129272461
0.6742933988571167 0.62975788116455078 0.58840280771255493
0.68276143074035645 0.63838857412338257 0.5971825122833252
0.69103556871414185 0.64807403087615967 0.6090388298034668
0.69955408573150635 0.66089767217636108 0.62761944532394409
0.71081274747848511 0.67669320106506348 0.64734017848968506
0.73172730207443237 0.70289802551269531 0.67902857065200806
0.75015276670455933 0.72560685873031616 0.70640403032302856
0.76547282934188843 0.74526220560073853 0.72944200038909912
0.78388130664825439 0.76765686273574829 0.75409972667694092
0.80024063587188721 0.78584522008895874 0.77434897422790527
0.80537372827529907 0.79044783115386963 0.77981609106063843
0.71714138984680176 0.67984884977340698 0.64711809158325195
0.72625815868377686 0.69060778617858887 0.65877479314804077
0.72963458299636841 0.69602584838867188 0.66497522592544556
0.73832565546035767 0.70707553625106812 0.67784303426742554
0.74566709995269775 0.71583777666091919 0.68975865840911865
0.7557641863822937 0.72948271036148071 0.70732665061950684
0.76828491687774658 0.7462279200553894 0.72672653198242188
0.78660362958908081 0.76850330829620361 0.75321584939956665
0.8049468994140625 0.7885856032371521 0.77757024765014648
0.81924271583557129 0.80704373121261597 0.79618406295776367
0.83380216360092163 0.82328897714614868 0.81322932243347168
0.84502500295639038 0.83443725109100342 0.82698005437850952
0.84221404790878296 0.83086550235748291 0.82349413633346558
0.75960302352905273 0.73306292295455933 0.71053791046142578
0.77127361297607422 0.74590247869491577 0.7228693962097168
0.775226891040802 0.75133854150772095 0.73004293441772461
0.77952444553375244 0.75742286443710327 0.73720669746398926
0.78632080554962158 0.76612502336502075 0.7472342848777771
0.79593038558959961 0.77777594327926636 0.76167625188827515
0.80785328149795532 0.79147285223007202 0.77827417850494385
0.82288795709609985 0.80796432495117188 0.79841893911361694
0.83540880680084229 0.82235568761825562 0.81456470489501953
0.84649896621704102 0.83528512716293335 0.82910221815109253
0.85679334402084351 0.84600627422332764 0.84043353796005249
0.86567443609237671 0.85533732175827026 0.84993410110473633
0.86850285530090332 0.85756558179855347 0.85239624977111816
0.78667765855789185 0.76482087373733521 0.74510389566421509
0.79761409759521484 0.77545565366744995 0.75713282823562622
0.80181413888931274 0.78182721138000488 0.76388770341873169
0.80551660060882568 0.78585749864578247 0.76967799663543701
0.80875563621520996 0.79148960113525391 0.77602791786193848
0.81154799461364746 0.79572027921676636 0.78173291683197021
0.81736373901367188 0.80255907773971558 0.79065406322479248
0.8253777027130127 0.81131768226623535 0.80160987377166748
0.83442419767379761 0.82167190313339233 0.81322091817855835
0.84187191724777222 0.83079922199249268 0.82328921556472778
0.85365670919418335 0.84362268447875977 0.83690929412841797
0.86784785985946655 0.85922843217849731 0.85217034816741943
0.87967085838317871 0.86988198757171631 0.86403614282608032
0.7974783182144165 0.77627658843994141 0.75850969552993774
0.80729949474334717 0.78659558296203613 0.76946502923965454
0.80911868810653687 0.79099071025848389 0.77363640069961548
0.81317758560180664 0.79386019706726074 0.77875697612762451
0.81138253211975098 0.79422181844711304 0.77967911958694458
0.80854600667953491 0.79277360439300537 0.77952742576599121
0.81204509735107422 0.79802864789962769 0.78579795360565186
0.81983637809753418 0.80678921937942505 0.79580223560333252
0.82767957448959351 0.81441819667816162 0.80529189109802246
0.83632594347000122 0.82547140121459961 0.816658616065979
0.84951496124267578 0.83977216482162476 0.83203315734863281
0.86406069993972778 0.85569387674331665 0.84794175624847412
0.87682986259460449 0.86861211061477661 0.86117374897003174
0.039054527878761292 0.038026534020900726 0.037421911954879761
0.056742724031209946 0.055336568504571915 0.054628424346446991
0.077921487390995026 0.076697707176208496 0.074817046523094177
0.10203311592340469 0.099066056311130524 0.097456403076648712
0.12969382107257843 0.12475433200597763 0.12141874432563782
0.16756969690322876 0.15918232500553131 0.15296736359596252
0.21499668061733246 0.20205883681774139 0.19322706758975983
0.27549201250076294 0.26111587882041931 0.24565915763378143
0.35005730390548706 0.32878908514976501 0.3088289201259613
0.43018203973770142 0.40113925933837891 0.37612065672874451
0.49034419655799866 0.45593255758285522 0.42496031522750854
0.5352972149848938 0.49727174639701843 0.46221044659614563
0.56369173526763916 0.52393090724945068 0.48568373918533325
0.082634478807449341 0.080080188810825348 0.079317294061183929
0.092975467443466187 0.091127611696720123 0.088951915502548218
0.10968457162380219 0.10792674869298935 0.10500383377075195
0.12941589951515198 0.12558463215827942 0.12323702871799469
0.15593153238296509 0.15035022795200348 0.14441302418708801
0.19498561322689056 0.18559406697750092 0.17805992066860199
0.24291837215423584 0.22975917160511017 0.2189183384180069
0.29845374822616577 0.28157153725624084 0.26678156852722168
0.36776089668273926 0.34570491313934326 0.32481864094734192
0.44342905282974243 0.41430342197418213 0.38768464326858521
0.50002437829971313 0.46577629446983337 0.43350860476493835
0.54119729995727539 0.50215619802474976 0.46728417277336121
0.56871938705444336 0.52780580520629883 0.48926541209220886
0.13994240760803223 0.13481658697128296 0.13247746229171753
0.14696606993675232 0.1411997377872467 0.13871747255325317
0.15917888283729553 0.1533970981836319 0.1489102691411972
0.17726975679397583 0.17039147019386292 0.16448305547237396
0.20860286056995392 0.1993013322353363 0.19106729328632355
0.24467211961746216 0.23185887932777405 0.2220805287361145
0.28587916493415833 0.27021360397338867 0.25750774145126343
0.3403758704662323 0.32122665643692017 0.3043593168258667
0.40778949856758118 0.38280385732650757 0.36030226945877075
0.47065654397010803 0.43917563557624817 0.41098150610923767
0.51564323902130127 0.48003679513931274 0.44639700651168823
0.55021780729293823 0.51109963655471802 0.47353863716125488
0.57668554782867432 0.5342445969581604 0.49482426047325134
0.20503629744052887 0.1963619589805603 0.18870212137699127
0.2133139967918396 0.20429885387420654 0.19607408344745636
0.22555586695671082 0.21616441011428833 0.20625093579292297
0.24722802639007568 0.23598875105381012 0.22478039562702179
0.27240300178527832 0.2589314877986908 0.246651291847229
0.30575835704803467 0.28869861364364624 0.2754267156124115
0.34671372175216675 0.32665783166885376 0.31067812442779541
0.39974486827850342 0.37598517537117004 0.35566473007202148
0.45979756116867065 0.43148526549339294 0.40504935383796692
0.50840103626251221 0.47434321045875549 0.44273597002029419
0.53790366649627686 0.50002890825271606 0.46445721387863159
0.56377041339874268 0.52186489105224609 0.48362153768539429
0.59121465682983398 0.5478091835975647 0.50571215152740479
0.2875053882598877 0.27366930246353149 0.25943389534950256
0.29150098562240601 0.27818608283996582 0.26379430294036865
0.30535033345222473 0.2885596752166748 0.27567359805107117
0.32444804906845093 0.30770453810691833 0.29244914650917053
0.34398472309112549 0.32554319500923157 0.30976495146751404
0.3737906813621521 0.35329762101173401 0.33493721485137939
0.4104306697845459 0.38703364133834839 0.36593484878540039
0.46054515242576599 0.43421190977096558 0.40750023722648621
