assets/lut/picturefx zilverfx infrared.cube
# Created by: G'MIC (https://gmic.eu)
TITLE "zilverfx_infrared"
# LUT size
LUT_3D_SIZE 5
# Data domain
DOMAIN_MIN 0.0 0.0 0.0
DOMAIN_MAX 1.0 1.0 1.0
# LUT data points
0.0043752933852374554 0.0045322342775762081 0.0044384975917637348
0.036705419421195984 0.036247000098228455 0.036340542137622833
0.18322189152240753 0.18322189152240753 0.1831890195608139
0.38762727379798889 0.38766014575958252 0.38761970400810242
0.38589087128639221 0.38582512736320496 0.38569620251655579
0.28378370404243469 0.28510519862174988 0.28540253639221191
0.34768286347389221 0.34908440709114075 0.34818342328071594
0.44889914989471436 0.44899266958236694 0.44885870814323425
0.48004740476608276 0.48011818528175354 0.48008027672767639
0.4712803065776825 0.47101446986198425 0.47150018811225891
0.98477184772491455 0.97418105602264404 0.98478585481643677
0.991596519947052 0.98873305320739746 0.99167376756668091
0.99998599290847778 0.99939924478530884 0.99998599290847778
0.99999028444290161 0.99946355819702148 0.99999028444290161
1 0.99859023094177246 1
0.99863475561141968 0.99894732236862183 0.99863475561141968
0.99522525072097778 0.99510115385055542 0.99529093503952026
0.99590021371841431 0.99819463491439819 0.99586731195449829
0.99770456552505493 0.99879008531570435 0.99773490428924561
0.99998652935028076 0.99991416931152344 0.99995851516723633
0.99231284856796265 0.99219155311584473 0.99246031045913696
0.99075669050216675 0.99029302597045898 0.99082249402999878
0.99661660194396973 0.99650770425796509 0.99661660194396973
0.98676788806915283 0.98660838603973389 0.98683613538742065
0.99404412508010864 0.99425667524337769 0.99410730600357056
0 0 0
0 0 0
0.0058082579635083675 0.0057399976067245007 0.0057779201306402683
0.26550430059432983 0.26569780707359314 0.26552703976631165
0.34077459573745728 0.34087064862251282 0.34077459573745728
0.090669505298137665 0.09033520519733429 0.090960435569286346
0.12922303378582001 0.12920767068862915 0.12906843423843384
0.17469288408756256 0.17469638586044312 0.17469638586044312
0.27187052369117737 0.27181294560432434 0.2718757688999176
0.34140777587890625 0.34148615598678589 0.34134382009506226
0.99533671140670776 0.98922818899154663 0.99530762434005737
0.99828588962554932 0.99581634998321533 0.99836820363998413
0.99746501445770264 0.99326133728027344 0.99746501445770264
0.99388134479522705 0.98650389909744263 0.99388134479522705
0.99823468923568726 0.99710142612457275 0.99826830625534058
0.99994707107543945 0.99999839067459106 0.99994707107543945
0.98499447107315063 0.98799747228622437 0.98499447107315063
0.99105918407440186 0.99211925268173218 0.99105918407440186
0.99239689111709595 0.99972814321517944 0.99239689111709595
1 1 1
1 1 1
0.99332308769226074 0.99323546886444092 0.99332308769226074
0.99236053228378296 0.99296969175338745 0.99233013391494751
0.99443739652633667 0.99436157941818237 0.99441468715667725
1 1 1
0 0 0
0 0 0
0 0 0
0 0 0
0.00042862238478846848 0.00042862238478846848 0.00042862238478846848
0 0 0
0 0 0
0 0 0
0 0 0
0.0075536393560469151 0.0074778241105377674 0.0075536393560469151
0.49881342053413391 0.50104802846908569 0.49881342053413391
0.48752883076667786 0.48746812343597412 0.48748606443405151
0.53028708696365356 0.52899771928787231 0.53028708696365356
0.56838309764862061 0.56639367341995239 0.56830692291259766
0.64064759016036987 0.64031726121902466 0.64067786931991577
0.99992728233337402 0.9984661340713501 0.99992728233337402
0.99939990043640137 0.99922829866409302 0.99942266941070557
0.9945642352104187 0.99419265985488892 0.9945642352104187
0.9942324161529541 0.99494999647140503 0.99427288770675659
1 1 1
1 1 1
1 1 1
0.99910205602645874 0.9989972710609436 0.99905657768249512
0.99388480186462402 0.99503380060195923 0.9938696026802063
1 1 1
0 0 0
0 0 0
0 0 0
0 0 0
0 0 0
0 0 0
0 0 0
0 0 0
0 0 0
0 0 0
0.0010315838735550642 0.0009697409113869071 0.0010315838735550642
0 0 0
0 0 0
0 0 0
0 0 0
0.74135035276412964 0.73792761564254761 0.74121534824371338
0.76702755689620972 0.76878911256790161 0.7682146430015564
0.73295307159423828 0.73387879133224487 0.73303031921386719
0.86866384744644165 0.86535394191741943 0.86852496862411499
0.7865755558013916 0.78381294012069702 0.78879815340042114
0.98012781143188477 0.97947299480438232 0.98012781143188477
0.98597198724746704 0.98481100797653198 0.98590624332427979
0.99953180551528931 0.99917006492614746 0.99953180551528931
0.99705415964126587 0.99703502655029297 0.99708390235900879
1 1 1
0 0 0
0 0 0
0 0 0
0 0 0
0.0044799204915761948 0.0045102587901055813 0.0044799204915761948
0 0 0
0 0 0
0 0 0
0 0 0
0 0 0
0 0 0
0 0 0
0 0 0
0 0 0
0 0 0
0.38226726651191711 0.38275715708732605 0.38239872455596924
0.33424174785614014 0.33381158113479614 0.3342038094997406
0.12505252659320831 0.12531700730323792 0.12537184357643127
0.01087875384837389 0.011222180910408497 0.011376265436410904
0.025062860921025276 0.024991488084197044 0.025055276229977608
0.81796127557754517 0.82065224647521973 0.81814855337142944
0.7896568775177002 0.79034149646759033 0.7896568775177002
0.77356511354446411 0.77365398406982422 0.77330541610717773
0.82265138626098633 0.82293510437011719 0.82256019115447998
0.98356515169143677 0.98390430212020874 0.98350197076797485
