assets/lut/picturefx goldfx bright summer heat.cube
# Created by: G'MIC (https://gmic.eu)
TITLE "goldfx_bright_summer_heat"
# LUT size
LUT_3D_SIZE 5
# Data domain
DOMAIN_MIN 0.0 0.0 0.0
DOMAIN_MAX 1.0 1.0 1.0
# LUT data points
0.024966714903712273 0.036705944687128067 0.046070441603660583
0.17074297368526459 0.050115324556827545 0.066200479865074158
0.56212019920349121 0.035190865397453308 0.091111607849597931
0.9022984504699707 0.25859010219573975 0.062234692275524139
1 0.54641765356063843 0.16985698044300079
0.042473796755075455 0.21926282346248627 0.12093182653188705
0.21276615560054779 0.24649323523044586 0.12228525429964066
0.64465975761413574 0.27950799465179443 0.079391390085220337
0.91567260026931763 0.41594743728637695 0.045933876186609268
0.99997901916503906 0.62285906076431274 0.1844993382692337
0.1089908704161644 0.61252957582473755 0.13798911869525909
0.21744599938392639 0.63057953119277954 0.15780635178089142
0.67874318361282349 0.65354043245315552 0.13105954229831696
0.93350988626480103 0.67125117778778076 0.11640001088380814
1 0.72508639097213745 0.14437903463840485
0.50684070587158203 0.90043860673904419 0.34503492712974548
0.59633982181549072 0.90582907199859619 0.36729598045349121
0.76806831359863281 0.91034573316574097 0.36864364147186279
0.9528694748878479 0.91330176591873169 0.32209283113479614
0.99960541725158691 0.92141902446746826 0.36296415328979492
0.96551364660263062 0.99990898370742798 0.70432162284851074
0.99306100606918335 0.99966049194335938 0.74302375316619873
0.9923139214515686 0.98827749490737915 0.75734531879425049
0.99739813804626465 0.9813883900642395 0.74287956953048706
1 0.98207628726959229 0.74221175909042358
0.017997996881604195 0.062421761453151703 0.17213942110538483
0.17701098322868347 0.1037197932600975 0.18653860688209534
0.56434327363967896 0.049173258244991302 0.21727365255355835
0.91646450757980347 0.36378806829452515 0.26228606700897217
0.99970942735671997 0.61611998081207275 0.35408946871757507
0.047433890402317047 0.24961660802364349 0.23666144907474518
0.26312622427940369 0.26463097333908081 0.24720863997936249
0.69096362590789795 0.29403278231620789 0.23612983524799347
0.9266398549079895 0.46179449558258057 0.24041900038719177
0.9999614953994751 0.64781087636947632 0.34148424863815308
0.21890677511692047 0.63376021385192871 0.26203098893165588
0.30735567212104797 0.64379853010177612 0.26394167542457581
0.69972914457321167 0.66092574596405029 0.22034004330635071
0.93766206502914429 0.66803747415542603 0.19537833333015442
0.99837654829025269 0.72949069738388062 0.26399275660514832
0.55784517526626587 0.90532195568084717 0.3972160816192627
0.61704814434051514 0.91280639171600342 0.41495677828788757
0.77506738901138306 0.91366958618164062 0.4283231794834137
0.95569062232971191 0.91268694400787354 0.38428738713264465
0.99706345796585083 0.91470921039581299 0.39218395948410034
0.98330312967300415 1 0.72624272108078003
0.9900551438331604 0.99918925762176514 0.74994784593582153
0.99963396787643433 0.99263381958007812 0.76785534620285034
0.996040940284729 0.97550404071807861 0.74835741519927979
0.99956870079040527 0.97857087850570679 0.75528603792190552
0.1686897873878479 0.13943354785442352 0.39108848571777344
0.41367536783218384 0.18106953799724579 0.39827027916908264
0.65814924240112305 0.3481147289276123 0.4051365852355957
0.88584458827972412 0.35295724868774414 0.4413297176361084
0.99900829792022705 0.62837934494018555 0.52170711755752563
0.17109820246696472 0.31479433178901672 0.44434645771980286
0.41518467664718628 0.32742619514465332 0.45113697648048401
0.71540969610214233 0.47804942727088928 0.44988566637039185
0.92448562383651733 0.4533880352973938 0.45804530382156372
0.9957880973815918 0.66350609064102173 0.53004473447799683
0.3208363950252533 0.65370398759841919 0.46931764483451843
0.3792252242565155 0.66133618354797363 0.47562000155448914
0.74556887149810791 0.67592281103134155 0.48974040150642395
0.95559847354888916 0.71911716461181641 0.4948236346244812
0.99886465072631836 0.80782628059387207 0.55827987194061279
0.71835649013519287 0.90820956230163574 0.56257396936416626
0.72136926651000977 0.91149038076400757 0.55860030651092529
0.80214846134185791 0.90830910205841064 0.55721014738082886
0.9556957483291626 0.91644573211669922 0.53318077325820923
0.99912446737289429 0.89904332160949707 0.52053570747375488
0.97935658693313599 0.99902498722076416 0.76446765661239624
0.99659460783004761 0.99698859453201294 0.79675471782684326
0.99698209762573242 0.99495446681976318 0.80341184139251709
0.99927783012390137 0.97706609964370728 0.80612403154373169
0.99971026182174683 0.97721743583679199 0.79812312126159668
0.50889557600021362 0.32061976194381714 0.59220331907272339
0.655875563621521 0.40045645833015442 0.61859416961669922
0.83389335870742798 0.59270691871643066 0.63574677705764771
0.90808415412902832 0.71139365434646606 0.64325553178787231
0.99757003784179688 0.71505284309387207 0.67440563440322876
0.53043258190155029 0.45930296182632446 0.63568830490112305
0.63787144422531128 0.49596947431564331 0.6394844651222229
0.83595901727676392 0.64099788665771484 0.64818704128265381
0.91497421264648438 0.74658358097076416 0.65661954879760742
0.99337589740753174 0.72813642024993896 0.6769753098487854
0.46662819385528564 0.68303287029266357 0.64305543899536133
0.48344242572784424 0.67363864183425903 0.64611029624938965
0.79522562026977539 0.71347355842590332 0.66839510202407837
0.94000911712646484 0.82101857662200928 0.70165169239044189
0.99878716468811035 0.80779290199279785 0.71056270599365234
0.68372094631195068 0.88718801736831665 0.69040971994400024
0.68798023462295532 0.90316367149353027 0.70179456472396851
0.75825971364974976 0.87733417749404907 0.69215482473373413
0.94122332334518433 0.88897264003753662 0.70812034606933594
0.99785143136978149 0.91670423746109009 0.73389291763305664
0.98354983329772949 0.99598473310470581 0.87425601482391357
0.99638831615447998 0.99711322784423828 0.8986821174621582
0.98611724376678467 0.99971097707748413 0.86572480201721191
0.99561965465545654 0.99251759052276611 0.85776352882385254
0.99982672929763794 0.97335624694824219 0.87041133642196655
0.78444099426269531 0.70483434200286865 0.85472667217254639
0.83116787672042847 0.73900830745697021 0.86703258752822876
0.90047520399093628 0.79511785507202148 0.86740601062774658
0.96140462160110474 0.85795122385025024 0.86221933364868164
0.99884599447250366 0.89176696538925171 0.88264709711074829
0.78564304113388062 0.73319250345230103 0.86403876543045044
0.820972740650177 0.75839883089065552 0.87192612886428833
0.89673948287963867 0.80955111980438232 0.87287020683288574
0.96322250366210938 0.86553323268890381 0.86996066570281982
0.99788236618041992 0.89556765556335449 0.88032001256942749
0.76315176486968994 0.78666257858276367 0.87689822912216187
0.77615165710449219 0.79768478870391846 0.88577538728713989
0.86530041694641113 0.82635337114334106 0.8873823881149292
0.96406364440917969 0.88255059719085693 0.88856756687164307
0.99998706579208374 0.92447453737258911 0.89981538057327271
0.68243271112442017 0.88858169317245483 0.89682561159133911
0.6895180344581604 0.89370095729827881 0.90426146984100342
0.72701811790466309 0.86728775501251221 0.88760870695114136
0.91516327857971191 0.88707166910171509 0.90074062347412109
0.99965399503707886 0.97193419933319092 0.94629454612731934
0.8696703314781189 0.99938297271728516 0.99096250534057617
0.89790052175521851 1 0.99678325653076172
0.85927397012710571 0.99894320964813232 0.9846685528755188
0.91866093873977661 0.99849730730056763 0.97567492723464966
0.99689912796020508 0.99292641878128052 0.99450546503067017
