assets/lut/picturefx technicalfx backlight filter.cube
# Created by: G'MIC (https://gmic.eu)
TITLE "technicalfx_backlight_filter"
# LUT size
LUT_3D_SIZE 5
# Data domain
DOMAIN_MIN 0.0 0.0 0.0
DOMAIN_MAX 1.0 1.0 1.0
# LUT data points
0.062170829623937607 0.065145902335643768 0.064721174538135529
0.43692284822463989 0.037787195295095444 0.054615125060081482
0.92377734184265137 7.3511459049768746e-05 0.031752657145261765
1 0 0.00046045638737268746
1 0 0.0048709646798670292
0.017329854890704155 0.46561944484710693 0.0050911847501993179
0.44898903369903564 0.46854650974273682 0.012519671581685543
0.928885817527771 0.41784146428108215 0.00077837775461375713
0.9963344931602478 0.36372119188308716 7.7012009569443762e-05
1 0.26231378316879272 0.00034134808811359107
0.005044854711741209 0.91449326276779175 0
0.318174809217453 0.88785451650619507 0.00054491829359903932
0.84806215763092041 0.84702169895172119 0.0042426614090800285
1 0.80368030071258545 0
1 0.66329050064086914 0
0.0018119362648576498 1 0
0.38738533854484558 1 0.00050719018327072263
0.76611459255218506 1 0.0090323807671666145
0.99049150943756104 0.99999517202377319 0
1 0.91972959041595459 0.0030396406073123217
0.23298360407352448 1 0.0050456477329134941
0.39416322112083435 1 0.002514753257855773
0.62036663293838501 0.99620115756988525 0
0.86349588632583618 0.9970514178276062 0.0025429520756006241
0.99706709384918213 0.9992716908454895 0.00035141588887199759
0.0050253923982381821 0.053429175168275833 0.45643723011016846
0.44547069072723389 0.016040129587054253 0.46484223008155823
0.92126500606536865 0.001792473834939301 0.42242303490638733
0.99810576438903809 0.0051528033800423145 0.36809751391410828
1 2.1003274014219642e-05 0.31833836436271667
0 0.45585650205612183 0.46319431066513062
0.4450080394744873 0.44765505194664001 0.44373387098312378
0.93762844800949097 0.32750231027603149 0.37060746550559998
0.99891602993011475 0.29274672269821167 0.32021903991699219
1 0.28875648975372314 0.30101624131202698
0.00068143958924338222 0.89517736434936523 0.26269122958183289
0.16700489819049835 0.86103075742721558 0.24313578009605408
0.81900036334991455 0.81149983406066895 0.22100929915904999
1 0.75804018974304199 0.16570724546909332
1 0.65710330009460449 0.20205503702163696
0.00013320025755092502 1 0.14742054045200348
0.29588508605957031 1 0.10853322595357895
0.73396432399749756 0.99836266040802002 0.070230834186077118
0.99710327386856079 0.98744529485702515 0.036566205322742462
1 0.91231435537338257 0.10583353787660599
0.15436920523643494 1 0.221353679895401
0.40143036842346191 0.99975770711898804 0.22665776312351227
0.62059712409973145 0.99908310174942017 0.20316408574581146
0.84917664527893066 1 0.15137726068496704
0.99815934896469116 0.99989557266235352 0.081084728240966797
0.00020361508359201252 0.019721342250704765 0.91085022687911987
0.29382175207138062 0.0012646843679249287 0.90152251720428467
0.84845393896102905 0.002010091207921505 0.85890048742294312
1 0 0.80807489156723022
0.99640965461730957 0.0040600495412945747 0.67223823070526123
0.011941573582589626 0.38160514831542969 0.91587203741073608
0.29330000281333923 0.3456268310546875 0.88980376720428467
0.83565890789031982 0.23450252413749695 0.83672600984573364
1 0.076500400900840759 0.74065744876861572
1 0.14781156182289124 0.639637291431427
0.00065717508550733328 0.79369181394577026 0.79272091388702393
0.045801978558301926 0.76725554466247559 0.75597494840621948
0.70476549863815308 0.70290368795394897 0.70419836044311523
0.99849218130111694 0.61007040739059448 0.6080251932144165
0.9998161792755127 0.57313728332519531 0.54865938425064087
0 0.99767011404037476 0.61928576231002808
0.095899753272533417 0.99224865436553955 0.58701401948928833
0.54338765144348145 0.97432750463485718 0.53957676887512207
0.95515519380569458 0.93620729446411133 0.5051422119140625
1 0.87505060434341431 0.46465602517127991
0.048759505152702332 0.99814993143081665 0.53567993640899658
0.27000164985656738 0.99871361255645752 0.51670956611633301
0.58318799734115601 0.99862730503082275 0.49457722902297974
0.84036517143249512 1 0.46395528316497803
0.9952998161315918 0.99982142448425293 0.43858245015144348
0 0.0049636838957667351 1
0.17606303095817566 0.00030786849674768746 1
0.74144273996353149 0 1
0.99978011846542358 0 1
1 0 0.96775352954864502
0.00020769904949702322 0.32638609409332275 0.99933195114135742
0.2997625470161438 0.30075189471244812 0.99838888645172119
0.73347610235214233 0.19049790501594543 1
0.99686539173126221 0.032624576240777969 0.99940395355224609
0.99967557191848755 0.010033805854618549 0.95886856317520142
0 0.6714242696762085 0.99952417612075806
0.028856165707111359 0.64543348550796509 0.99540567398071289
0.58883637189865112 0.57886165380477905 0.98987752199172974
0.95230740308761597 0.51269441843032837 0.95446348190307617
0.99963867664337158 0.45840048789978027 0.88529163599014282
0.0030424080323427916 0.95209008455276489 0.9448007345199585
0.0042892307974398136 0.9331125020980835 0.93087244033813477
0.37008601427078247 0.90305101871490479 0.90013289451599121
0.85329306125640869 0.85223579406738281 0.85236716270446777
1 0.76510852575302124 0.76043647527694702
0.00071255554212257266 1 0.80020147562026978
0.024448873475193977 0.99903774261474609 0.78902781009674072
0.35094210505485535 1 0.75833457708358765
0.73631441593170166 1 0.71265065670013428
0.99467819929122925 0.98760151863098145 0.6763923168182373
0.0023642296437174082 0.082401499152183533 1
0.12431629002094269 0.045669317245483398 1
0.53871041536331177 0.028114976361393929 0.99889492988586426
0.85510390996932983 0.00033546896884217858 1
0.99993932247161865 0 1
0.074865274131298065 0.31905204057693481 1
0.29522919654846191 0.30122655630111694 1
0.57867586612701416 0.27077928185462952 1
0.86462152004241943 0.17242345213890076 0.99608838558197021
1 0.087499611079692841 1
0.11597786843776703 0.56104296445846558 0.99984008073806763
0.32149913907051086 0.55576270818710327 0.99986374378204346
0.5802452564239502 0.52952706813812256 1
0.8584398627281189 0.48531034588813782 1
0.99995565414428711 0.42858013510704041 1
0.0021950367372483015 0.8090590238571167 1
0.082685030996799469 0.7991563081741333 0.99996441602706909
0.43743765354156494 0.77994734048843384 0.99993491172790527
0.76172840595245361 0.73863756656646729 1
0.98763501644134521 0.68517178297042847 0.99779725074768066
0.0020182591397315264 0.99573773145675659 0.9960792064666748
0.0070854933001101017 0.99814504384994507 0.99709224700927734
0.23825930058956146 0.99333673715591431 0.98956364393234253
0.61690396070480347 0.97435671091079712 0.96840798854827881
0.91665059328079224 0.92679011821746826 0.93007218837738037
