assets/lut/picturefx analogfx old style i.cube
# Created by: G'MIC (https://gmic.eu)
TITLE "analogfx_old_style_i"
# LUT size
LUT_3D_SIZE 5
# Data domain
DOMAIN_MIN 0.0 0.0 0.0
DOMAIN_MAX 1.0 1.0 1.0
# LUT data points
0.0072534899227321148 0.0053709889762103558 0.0039215688593685627
0.012087549082934856 0.0083437897264957428 0.0071032955311238766
0.070287443697452545 0.040450375527143478 0.029755866155028343
0.20518851280212402 0.11989858001470566 0.088986009359359741
0.55678564310073853 0.34568649530410767 0.27159944176673889
0.1139022558927536 0.070350274443626404 0.054094981402158737
0.15210598707199097 0.091900646686553955 0.070854499936103821
0.2322496771812439 0.14274294674396515 0.11140192300081253
0.41825217008590698 0.26639086008071899 0.21088883280754089
0.77368921041488647 0.48965728282928467 0.39922839403152466
0.65932202339172363 0.4155120849609375 0.33568498492240906
0.71012669801712036 0.44965499639511108 0.36385086178779602
0.80985563993453979 0.51247179508209229 0.4167276918888092
0.95980852842330933 0.64230614900588989 0.53707772493362427
0.99784934520721436 0.80533015727996826 0.7278435230255127
1 0.87122350931167603 0.8088911771774292
1 0.90184497833251953 0.8449321985244751
1 0.936817467212677 0.89175397157669067
1 0.96636658906936646 0.93722456693649292
1 0.98415696620941162 0.98643094301223755
1 0.97613084316253662 0.94044482707977295
1 0.98251211643218994 0.95247381925582886
1 0.9837489128112793 0.95616281032562256
1 0.9843137264251709 0.97025555372238159
1 0.9843137264251709 0.99815207719802856
0.040805697441101074 0.02430114708840847 0.016935549676418304
0.062838457524776459 0.036186322569847107 0.026850741356611252
0.12723115086555481 0.073216535151004791 0.050775937736034393
0.27492702007293701 0.16196419298648834 0.12268171459436417
0.64908879995346069 0.40187114477157593 0.318826824426651
0.19291357696056366 0.11880279332399368 0.093228600919246674
0.22259522974491119 0.13643547892570496 0.10715445876121521
0.30772298574447632 0.19295753538608551 0.15240082144737244
0.50320518016815186 0.31917271018028259 0.25280323624610901
0.82873278856277466 0.52311205863952637 0.42671683430671692
0.73480290174484253 0.46511062979698181 0.37571585178375244
0.78617656230926514 0.4970538318157196 0.40462857484817505
0.88460302352905273 0.56559902429580688 0.46399259567260742
0.98546212911605835 0.687538743019104 0.5840681791305542
0.99775224924087524 0.83427059650421143 0.76726871728897095
1 0.92443573474884033 0.87416648864746094
1 0.94857668876647949 0.90937620401382446
1 0.96536129713058472 0.94451367855072021
1 0.98124706745147705 0.98054510354995728
1 0.9843137264251709 0.99649250507354736
1 0.9843137264251709 0.99103015661239624
1 0.9843137264251709 0.99615508317947388
1 0.9843137264251709 0.99998944997787476
1 0.9843137264251709 0.99947488307952881
1 0.9843137264251709 1
0.26279729604721069 0.15604908764362335 0.11566171050071716
0.3154110312461853 0.18996553122997284 0.14333957433700562
0.40716642141342163 0.25038456916809082 0.19111667573451996
0.59173226356506348 0.36120662093162537 0.2839413583278656
0.82497125864028931 0.50224381685256958 0.40258878469467163
0.48273530602455139 0.30661508440971375 0.24252749979496002
0.52634859085083008 0.33445513248443604 0.26527619361877441
0.60021871328353882 0.38048350811004639 0.30410996079444885
0.78850948810577393 0.49433997273445129 0.4006074070930481
0.94071692228317261 0.5939745306968689 0.48419126868247986
0.93856585025787354 0.61525624990463257 0.51110875606536865
0.96346038579940796 0.64448839426040649 0.53745186328887939
0.98900282382965088 0.71760457754135132 0.62327075004577637
0.99872285127639771 0.81853562593460083 0.75105959177017212
1 0.91479110717773438 0.87649965286254883
1 0.97642791271209717 0.97203654050827026
1 0.98385071754455566 0.98743116855621338
1 0.98430317640304565 0.99547708034515381
1 0.9843137264251709 0.99813258647918701
1 0.9843137264251709 0.99607843160629272
1 0.98571288585662842 1
1 0.9843137264251709 1
1 0.9843137264251709 0.99723166227340698
1 0.9843137264251709 1
1 0.9843137264251709 1
0.57280224561691284 0.34975335001945496 0.27187886834144592
0.59819811582565308 0.36364546418190002 0.28517189621925354
0.6764066219329834 0.40781357884407043 0.32297292351722717
0.77420234680175781 0.4650513231754303 0.36984014511108398
0.89754480123519897 0.54523712396621704 0.43916627764701843
0.68097966909408569 0.41953504085540771 0.33405032753944397
0.71640551090240479 0.44425299763679504 0.35638326406478882
0.80708771944046021 0.49938246607780457 0.40515369176864624
0.89363926649093628 0.54726463556289673 0.44151544570922852
0.97801154851913452 0.62901657819747925 0.52012449502944946
0.99228256940841675 0.74957787990570068 0.66444593667984009
0.99768722057342529 0.7851797342300415 0.70823818445205688
0.99921661615371704 0.83224135637283325 0.76941901445388794
0.99998944997787476 0.88285154104232788 0.83907312154769897
1 0.94460177421569824 0.91520899534225464
1 0.9842909574508667 0.99151164293289185
1 0.98422324657440186 0.99533545970916748
1 0.9843137264251709 0.99979287385940552
1 0.9843137264251709 0.9988897442817688
1 0.9843137264251709 0.9998137354850769
1 0.98823529481887817 1
1 0.98822075128555298 1
1 0.98693275451660156 1
1 0.9843137264251709 1
1 0.98473143577575684 1
0.6014554500579834 0.3664516806602478 0.2865784764289856
0.6035497784614563 0.36521399021148682 0.28431358933448792
0.67438405752182007 0.40451490879058838 0.3207886815071106
0.77953964471817017 0.46623340249061584 0.36965289711952209
0.88842856884002686 0.5396885871887207 0.4327721893787384
0.68327289819717407 0.41942447423934937 0.33488249778747559
0.72374176979064941 0.44564735889434814 0.35762965679168701
0.80945056676864624 0.49844163656234741 0.40450873970985413
0.89842683076858521 0.55041611194610596 0.44486761093139648
0.98280751705169678 0.62872886657714844 0.51790857315063477
0.9977526068687439 0.75318127870559692 0.66653954982757568
0.99938690662384033 0.795798659324646 0.72000473737716675
0.99710416793823242 0.83670151233673096 0.77680438756942749
0.99996840953826904 0.88474363088607788 0.8421785831451416
1 0.94297152757644653 0.91473585367202759
1 0.98292940855026245 0.98734545707702637
1 0.9843137264251709 0.99518424272537231
1 0.9843137264251709 0.99959313869476318
1 0.9843137264251709 0.99974673986434937
1 0.9843137264251709 0.99910938739776611
1 0.98823529481887817 1
1 0.98823529481887817 1
1 0.98823529481887817 1
1 0.9843137264251709 1
1 0.9843137264251709 1
