assets/lut/picturefx analogfx anno 1870 color.cube
# Created by: G'MIC (https://gmic.eu)
TITLE "analogfx_anno_1870_color"
# LUT size
LUT_3D_SIZE 13
# Data domain
DOMAIN_MIN 0.0 0.0 0.0
DOMAIN_MAX 1.0 1.0 1.0
# LUT data points
0.019047366455197334 0.014301628805696964 0.0079878261312842369
0.032032851129770279 0.009105682373046875 0.0081962738186120987
0.059514392167329788 0.0073993457481265068 0.0098187914118170738
0.08664499968290329 0.014868628233671188 0.017847247421741486
0.11089314520359039 0.035043798387050629 0.033179130405187607
0.13553398847579956 0.063216112554073334 0.054287314414978027
0.16897262632846832 0.087890580296516418 0.076328322291374207
0.21112145483493805 0.11324410885572433 0.09998023509979248
0.26416048407554626 0.14907605946063995 0.1306346207857132
0.3304198682308197 0.19701801240444183 0.17176468670368195
0.40357649326324463 0.25298964977264404 0.21817329525947571
0.47538614273071289 0.30396279692649841 0.2618529200553894
0.54816657304763794 0.35816249251365662 0.30953112244606018
0.022776884958148003 0.021366523578763008 0.010136518627405167
0.043823152780532837 0.027505028992891312 0.016084050759673119
0.071038156747817993 0.030020425096154213 0.021174293011426926
0.09467664361000061 0.038974102586507797 0.030713863670825958
0.11760538071393967 0.055107776075601578 0.043987676501274109
0.14522542059421539 0.077134899795055389 0.062472864985466003
0.17910115420818329 0.097638897597789764 0.08410683274269104
0.22634360194206238 0.12859636545181274 0.11192338168621063
0.28376039862632751 0.16844825446605682 0.14582329988479614
0.34463110566139221 0.21174104511737823 0.18259960412979126
0.41434231400489807 0.26352855563163757 0.22616389393806458
0.49733090400695801 0.32527926564216614 0.28049841523170471
0.59149402379989624 0.39844682812690735 0.3464820384979248
0.049477342516183853 0.047773938626050949 0.023749900981783867
0.068767115473747253 0.058321349322795868 0.033093485981225967
0.090634092688560486 0.068340137600898743 0.042386837303638458
0.11305514723062515 0.076711840927600861 0.052109677344560623
0.13377645611763 0.085463397204875946 0.062514573335647583
0.16410753130912781 0.10161997377872467 0.07989165186882019
0.20020791888237 0.12290196120738983 0.10012398660182953
0.25117611885070801 0.15482768416404724 0.12952756881713867
0.30825948715209961 0.19421429932117462 0.1634436696767807
0.37004917860031128 0.23836691677570343 0.2009081244468689
0.43991178274154663 0.28825598955154419 0.24513174593448639
0.52535855770111084 0.35011303424835205 0.30279001593589783
0.61831402778625488 0.42262980341911316 0.36833149194717407
0.097826562821865082 0.094242259860038757 0.059313472360372543
0.11026211827993393 0.10090354830026627 0.06665337085723877
0.13050514459609985 0.11324519664049149 0.075561583042144775
0.15194925665855408 0.12382280081510544 0.085712432861328125
0.17433808743953705 0.1325850635766983 0.096485674381256104
0.19825012981891632 0.14051644504070282 0.10829475522041321
0.23422269523143768 0.16069979965686798 0.12686526775360107
0.28317248821258545 0.18970270454883575 0.15369631350040436
0.34020787477493286 0.22746255993843079 0.18706391751766205
0.40306052565574646 0.27221018075942993 0.22552421689033508
0.47910100221633911 0.32647800445556641 0.27511703968048096
0.56932419538497925 0.39346194267272949 0.33713474869728088
0.66192889213562012 0.4656519889831543 0.40345317125320435
0.15283897519111633 0.14448255300521851 0.09848148375749588
0.16331258416175842 0.15230932831764221 0.10590817034244537
0.1793132871389389 0.16116040945053101 0.11302968859672546
0.19972492754459381 0.17246423661708832 0.12303833663463593
0.2226073294878006 0.18601405620574951 0.13540412485599518
0.24829895794391632 0.19835533201694489 0.14845895767211914
0.28373149037361145 0.21652136743068695 0.16664497554302216
0.33668184280395508 0.24867235124111176 0.19691255688667297
0.39797711372375488 0.28719708323478699 0.23371531069278717
0.46011722087860107 0.3277982771396637 0.27117472887039185
0.54034078121185303 0.38722491264343262 0.32498389482498169
0.63119184970855713 0.45680338144302368 0.38816621899604797
0.71276485919952393 0.51927584409713745 0.44536596536636353
0.2158786803483963 0.20358061790466309 0.14269977807998657
0.23265348374843597 0.21864421665668488 0.15502345561981201
0.24856474995613098 0.22833704948425293 0.16431877017021179
0.26589438319206238 0.23751062154769897 0.17388397455215454
0.28609642386436462 0.24960523843765259 0.18465949594974518
0.31957674026489258 0.2721714973449707 0.20409227907657623
0.35947176814079285 0.29603564739227295 0.22661755979061127
0.40829893946647644 0.32348212599754333 0.25473636388778687
0.47147104144096375 0.36474895477294922 0.2943015992641449
0.53472030162811279 0.40407043695449829 0.33259612321853638
0.61338126659393311 0.46176764369010925 0.38556110858917236
0.69728642702102661 0.52474457025527954 0.44276458024978638
0.76609551906585693 0.57554805278778076 0.48867020010948181
0.31157022714614868 0.29421913623809814 0.21327449381351471
0.32746720314025879 0.30891352891921997 0.22616085410118103
0.34771338105201721 0.32384786009788513 0.23982740938663483
0.36849883198738098 0.3372114896774292 0.25293511152267456
0.38597032427787781 0.34597823023796082 0.26246961951255798
0.41438797116279602 0.36550956964492798 0.27885833382606506
0.45819583535194397 0.39566788077354431 0.30647358298301697
0.51240134239196777 0.43133485317230225 0.34166756272315979
0.57505649328231812 0.47331628203392029 0.38146445155143738
0.63208246231079102 0.50601297616958618 0.41406428813934326
0.69702750444412231 0.54793190956115723 0.45456567406654358
0.76635527610778809 0.59678298234939575 0.49838316440582275
0.82638746500015259 0.63881403207778931 0.53684979677200317
0.43524655699729919 0.40930637717247009 0.30765995383262634
0.45944759249687195 0.43152463436126709 0.32846063375473022
0.4766356348991394 0.44471156597137451 0.34045866131782532
0.49795699119567871 0.46064367890357971 0.35501149296760559
0.52166813611984253 0.47553208470344543 0.36966457962989807
0.55166888236999512 0.49661457538604736 0.38880693912506104
0.58949488401412964 0.52350783348083496 0.41276082396507263
0.63074809312820435 0.54968416690826416 0.43812271952629089
0.68096399307250977 0.58227133750915527 0.46842631697654724
0.72869497537612915 0.60826611518859863 0.49406743049621582
0.77132725715637207 0.62654715776443481 0.51483511924743652
0.82869583368301392 0.66471415758132935 0.54894918203353882
0.87911677360534668 0.69870990514755249 0.57992398738861084
0.58617115020751953 0.54798042774200439 0.42590108513832092
0.60178291797637939 0.56165945529937744 0.43861192464828491
0.60689234733581543 0.56364166736602783 0.44026011228561401
0.61995744705200195 0.57272297143936157 0.44798427820205688
0.64331108331680298 0.58945894241333008 0.46369516849517822
0.67069435119628906 0.60876411199569702 0.48115545511245728
0.69898867607116699 0.62632042169570923 0.49678060412406921
0.73458337783813477 0.64692986011505127 0.51614779233932495
0.77267545461654663 0.67096865177154541 0.53752720355987549
0.81041359901428223 0.6936306357383728 0.55743372440338135
0.8426777720451355 0.70585352182388306 0.57145518064498901
0.88167840242385864 0.72539293766021729 0.59120750427246094
0.91477406024932861 0.74722880125045776 0.61086255311965942
0.70607483386993408 0.6559949517250061 0.51469993591308594
0.70738178491592407 0.65530234575271606 0.51455384492874146
0.71255838871002197 0.65712124109268188 0.51629239320755005
0.72451514005661011 0.66578817367553711 0.52360439300537109
0.74423575401306152 0.67981851100921631 0.53653138875961304
0.76468294858932495 0.69313746690750122 0.5487285852432251
0.78802770376205444 0.70730787515640259 0.56041008234024048
0.81708753108978271 0.72299891710281372 0.57413583993911743
0.84533065557479858 0.73847424983978271 0.58832430839538574
0.87448149919509888 0.75528877973556519 0.60324203968048096
0.90246337652206421 0.76847916841506958 0.6172100305557251
0.9320378303527832 0.78321558237075806 0.63186383247375488
0.95598232746124268 0.80340754985809326 0.64655894041061401
0.79593199491500854 0.73125088214874268 0.57553791999816895
0.79391252994537354 0.72772419452667236 0.57246625423431396
0.79962348937988281 0.73105376958847046 0.57514268159866333
0.8143959641456604 0.7428131103515625 0.58480185270309448
0.82889622449874878 0.75144016742706299 0.593211829662323
0.84448099136352539 0.76012301445007324 0.60122811794281006
0.86037147045135498 0.76955217123031616 0.6084325909614563
0.88174575567245483 0.77996087074279785 0.61739051342010498
0.90373098850250244 0.79031425714492798 0.62729191780090332
0.92568451166152954 0.80182278156280518 0.63792210817337036
0.94928067922592163 0.81639456748962402 0.65170341730117798
0.96894526481628418 0.83236521482467651 0.66333872079849243
0.98528474569320679 0.84947443008422852 0.6746174693107605
0.87432950735092163 0.79491525888442993 0.62521225214004517
0.8722648024559021 0.79187971353530884 0.62281310558319092
0.87314438819885254 0.79307019710540771 0.62228089570999146
0.884147047996521 0.79936158657073975 0.6276896595954895
0.89409506320953369 0.8053165078163147 0.63333910703659058
0.90769660472869873 0.81168442964553833 0.63938617706298828
0.9212411642074585 0.81881946325302124 0.64578229188919067
0.93509852886199951 0.82851696014404297 0.65298086404800415
0.9537164568901062 0.83854144811630249 0.66123420000076294
0.96838945150375366 0.84725207090377808 0.66800737380981445
0.98205447196960449 0.85852223634719849 0.67630904912948608
0.99277776479721069 0.87618964910507202 0.68758779764175415
0.99812352657318115 0.89799767732620239 0.70496600866317749
0.92340469360351562 0.85285604000091553 0.66176378726959229
0.9238593578338623 0.85241919755935669 0.66150224208831787
0.92409896850585938 0.85385382175445557 0.66206520795822144
0.92998135089874268 0.85599744319915771 0.66326826810836792
0.93674522638320923 0.85890829563140869 0.66552722454071045
0.94616669416427612 0.8649107813835144 0.66963893175125122
0.95542246103286743 0.87163323163986206 0.67454731464385986
0.96713632345199585 0.87808853387832642 0.68021416664123535
0.97731477022171021 0.8806648850440979 0.68305128812789917
0.98953014612197876 0.89032810926437378 0.68963438272476196
0.99785643815994263 0.89885479211807251 0.69566553831100464
0.99978262186050415 0.92173594236373901 0.71213424205780029
1 0.94067049026489258 0.72963917255401611
0.017979955300688744 0.0079402253031730652 0.012246629223227501
0.031288791447877884 0.0029572281055152416 0.013908266089856625
0.059140641242265701 0.0038891511503607035 0.018278203904628754
0.085384368896484375 0.010421543382108212 0.021028047427535057
0.1088733896613121 0.027786239981651306 0.031012397259473801
0.13327407836914062 0.056983724236488342 0.051217995584011078
0.16520725190639496 0.081537164747714996 0.073482409119606018
0.20736947655677795 0.10814445465803146 0.097563140094280243
0.26426726579666138 0.14788177609443665 0.12969720363616943
0.32972970604896545 0.19574306905269623 0.17089830338954926
0.40277799963951111 0.24972167611122131 0.21759077906608582
0.47749704122543335 0.30398920178413391 0.26380068063735962
0.54028207063674927 0.35027256608009338 0.30435085296630859
0.017990920692682266 0.015593660064041615 0.012820987962186337
0.035369843244552612 0.017001882195472717 0.014116459526121616
0.06678665429353714 0.018938805907964706 0.020195994526147842
0.092048615217208862 0.0274924635887146 0.026579314842820168
0.11395489424467087 0.043938551098108292 0.037737317383289337
0.14023473858833313 0.068425200879573822 0.057466648519039154
0.17523215711116791 0.091655567288398743 0.080915592610836029
0.22119529545307159 0.12184181809425354 0.10734008997678757
0.27822870016098022 0.16217604279518127 0.1407686322927475
0.33952242136001587 0.20569321513175964 0.17830130457878113
0.40892994403839111 0.25610694289207458 0.22177088260650635
0.49072444438934326 0.31685787439346313 0.27508395910263062
0.58217495679855347 0.38843953609466553 0.3395351767539978
0.04584190621972084 0.049511495977640152 0.026815002784132957
0.063728511333465576 0.056341987103223801 0.033007033169269562
0.08701547235250473 0.062171053141355515 0.041109271347522736
0.10935354977846146 0.066576503217220306 0.046178348362445831
0.13265514373779297 0.079599462449550629 0.059075076133012772
0.15975488722324371 0.094293005764484406 0.076088368892669678
0.19369401037693024 0.11489332467317581 0.09487546980381012
0.24337030947208405 0.14638765156269073 0.12318818271160126
0.29839107394218445 0.18393711745738983 0.15487132966518402
0.3625396192073822 0.23046639561653137 0.19447238743305206
0.43247681856155396 0.27974307537078857 0.23924718797206879
0.51569002866744995 0.33979862928390503 0.29461550712585449
0.61232489347457886 0.41621151566505432 0.36259788274765015
0.091819867491722107 0.092923931777477264 0.057856541126966476
0.10583046078681946 0.099294237792491913 0.067013412714004517
0.12578749656677246 0.10983321070671082 0.075096383690834045
0.14713455736637115 0.11805557459592819 0.082449972629547119
0.17184337973594666 0.12887173891067505 0.093519501388072968
0.19948573410511017 0.13936509191989899 0.10796988755464554
0.23345503211021423 0.15722836554050446 0.12490071356296539
0.28119745850563049 0.18596455454826355 0.15145695209503174
0.33447140455245972 0.22106468677520752 0.18230342864990234
0.39709237217903137 0.26566079258918762 0.21996152400970459
0.47261172533035278 0.31975838541984558 0.2694736123085022
0.55872130393981934 0.38245168328285217 0.32767149806022644
0.65568047761917114 0.45945882797241211 0.3978387713432312
0.14551375806331635 0.14177048206329346 0.094913020730018616
0.15636245906352997 0.14897733926773071 0.10273181647062302
0.17216132581233978 0.15779890120029449 0.10984215885400772
0.19480293989181519 0.16925396025180817 0.12060122191905975
0.221866175532341 0.18542063236236572 0.13456237316131592
0.2494470477104187 0.19766756892204285 0.14803256094455719
0.28314149379730225 0.21223284304141998 0.16403535008430481
0.33301079273223877 0.24183480441570282 0.19238685071468353
0.3900592029094696 0.27818760275840759 0.22620323300361633
0.45593392848968506 0.32367584109306335 0.26696014404296875
0.53507882356643677 0.38181528449058533 0.32033106684684753
0.62294852733612061 0.44799414277076721 0.38045129179954529
0.70795637369155884 0.51380383968353271 0.44088831543922424
0.21188697218894958 0.20340850949287415 0.14249153435230255
0.2241729348897934 0.2140313982963562 0.15015923976898193
0.23809877038002014 0.22215864062309265 0.15775902569293976
0.25922846794128418 0.23292532563209534 0.16925323009490967
0.28821155428886414 0.25251200795173645 0.18657991290092468
0.32173037528991699 0.27451911568641663 0.20634710788726807
0.35730826854705811 0.29336673021316528 0.22507213056087494
0.40496364235877991 0.31925985217094421 0.25031515955924988
0.46737104654312134 0.35897138714790344 0.28906166553497314
0.53300321102142334 0.4016837477684021 0.33022120594978333
0.61184322834014893 0.45972254872322083 0.38363412022590637
0.69532912969589233 0.52175712585449219 0.43997135758399963
0.76513606309890747 0.57250320911407471 0.48724240064620972
0.30186575651168823 0.28752943873405457 0.20734049379825592
0.31541010737419128 0.29919984936714172 0.21729254722595215
0.33271682262420654 0.31198269128799438 0.22806297242641449
0.35132840275764465 0.32309114933013916 0.23892271518707275
0.38263100385665894 0.34403908252716064 0.26009857654571533
0.42063215374946594 0.37164026498794556 0.28456896543502808
0.46179276704788208 0.40019017457962036 0.31011819839477539
0.51744532585144043 0.43564021587371826 0.34425976872444153
0.57240110635757446 0.46852865815162659 0.37755391001701355
0.63035005331039429 0.50311315059661865 0.41132429242134094
0.69692569971084595 0.54739820957183838 0.45331054925918579
0.76600927114486694 0.59591346979141235 0.49781537055969238
0.82574284076690674 0.6363556981086731 0.53555846214294434
0.43108579516410828 0.40759721398353577 0.30564197897911072
0.45210549235343933 0.42693954706192017 0.32355251908302307
0.46847701072692871 0.43908262252807617 0.33440855145454407
0.48826709389686584 0.45280984044075012 0.3472602367401123
0.51394808292388916 0.46919745206832886 0.36331227421760559
0.54820293188095093 0.49476742744445801 0.38639265298843384
0.59005290269851685 0.52433997392654419 0.4129737913608551
0.63578778505325317 0.55386942625045776 0.44088175892829895
0.68075525760650635 0.58014833927154541 0.46697890758514404
0.72583663463592529 0.60338157415390015 0.49062070250511169
0.77451467514038086 0.63041883707046509 0.51767873764038086
0.83049672842025757 0.66684919595718384 0.55064857006072998
0.87797665596008301 0.69757741689682007 0.57897096872329712
0.58847373723983765 0.5534137487411499 0.42918634414672852
0.59975790977478027 0.56329858303070068 0.43808186054229736
0.6072622537612915 0.56653136014938354 0.44136878848075867
0.62355154752731323 0.5771213173866272 0.45129486918449402
0.64330810308456421 0.59016674757003784 0.46318963170051575
0.66915410757064819 0.60789662599563599 0.47973579168319702
0.70020610094070435 0.62717896699905396 0.49749833345413208
0.7379118800163269 0.64931184053421021 0.51819288730621338
0.77236491441726685 0.67028158903121948 0.53741872310638428
0.81162840127944946 0.69496613740921021 0.55892795324325562
0.84409457445144653 0.70747488737106323 0.57345491647720337
0.88249117136001587 0.72602033615112305 0.59228515625
0.92056083679199219 0.75221818685531616 0.61571627855300903
0.70388257503509521 0.65568011999130249 0.51422500610351562
0.70846617221832275 0.65851658582687378 0.51658469438552856
0.7158089280128479 0.66229003667831421 0.52008992433547974
0.72991389036178589 0.67193877696990967 0.52863365411758423
0.74435395002365112 0.6807781457901001 0.53728920221328735
0.76446056365966797 0.69319301843643188 0.54806816577911377
0.78844153881072998 0.70771974325180054 0.5601341724395752
0.81578785181045532 0.72283202409744263 0.57393759489059448
0.84445428848266602 0.73860394954681396 0.58846163749694824
0.87200397253036499 0.75338542461395264 0.60189861059188843
0.90075808763504028 0.76695102453231812 0.61637133359909058
0.9309350848197937 0.78091901540756226 0.63055574893951416
0.95713698863983154 0.80294352769851685 0.64781785011291504
0.7951323390007019 0.73078429698944092 0.57548421621322632
0.79461920261383057 0.72895056009292603 0.57379138469696045
0.79886144399642944 0.73191428184509277 0.57554936408996582
0.81402397155761719 0.74357491731643677 0.5854874849319458
0.82527083158493042 0.74862468242645264 0.59106159210205078
0.84154808521270752 0.75860762596130371 0.59948599338531494
0.858772873878479 0.76842361688613892 0.60698741674423218
0.88079643249511719 0.77981662750244141 0.61729055643081665
0.90522760152816772 0.79139846563339233 0.62847387790679932
0.92712736129760742 0.80241948366165161 0.63819628953933716
0.94685786962509155 0.81530755758285522 0.64929020404815674
0.9665873646736145 0.83028310537338257 0.66086435317993164
0.98377591371536255 0.8458448052406311 0.67237108945846558
0.869884192943573 0.79181641340255737 0.62253642082214355
0.87076020240783691 0.79024434089660645 0.62200558185577393
0.87383908033370972 0.79217618703842163 0.62231451272964478
0.88233977556228638 0.79819744825363159 0.62649929523468018
0.89106571674346924 0.80384790897369385 0.63150179386138916
0.90434426069259644 0.81097978353500366 0.63819223642349243
0.92061746120452881 0.81782364845275879 0.64459949731826782
0.9371570348739624 0.82847356796264648 0.65280646085739136
0.95558077096939087 0.84049588441848755 0.66289925575256348
0.96821409463882446 0.84842139482498169 0.66779375076293945
0.98109400272369385 0.85797858238220215 0.67516970634460449
0.99458634853363037 0.87657517194747925 0.68790596723556519
0.99848359823226929 0.89658641815185547 0.70327985286712646
0.91743016242980957 0.84652101993560791 0.65817660093307495
0.91847360134124756 0.84576153755187988 0.65792125463485718
0.92155212163925171 0.84927225112915039 0.65897274017333984
0.9264601469039917 0.85235679149627686 0.66045886278152466
0.93568366765975952 0.86022049188613892 0.66562020778656006
0.94466209411621094 0.86298072338104248 0.66918253898620605
0.95412212610244751 0.86642491817474365 0.67218917608261108
0.96709412336349487 0.87615120410919189 0.67923223972320557
0.97926574945449829 0.88519281148910522 0.68511193990707397
0.98817408084869385 0.89088386297225952 0.68901669979095459
0.99709737300872803 0.89769381284713745 0.6952202320098877
0.99999803304672241 0.92114520072937012 0.71301138401031494
1 0.94305944442749023 0.73047363758087158
0.022880464792251587 0.00057256361469626427 0.01962769404053688
0.035499900579452515 0.00014543721044901758 0.02578340470790863
0.059828814119100571 0.0024838766548782587 0.03487040102481842
0.086077548563480377 0.010554265230894089 0.04051830992102623
0.10858626663684845 0.026938164606690407 0.046194426715373993
0.13208670914173126 0.051840897649526596 0.058194596320390701
0.16382811963558197 0.075700186192989349 0.077283777296543121
0.20365481078624725 0.10177166759967804 0.098402328789234161
0.25813055038452148 0.13891616463661194 0.12736287713050842
0.32437703013420105 0.18770456314086914 0.16934369504451752
0.39734074473381042 0.24240316450595856 0.21446847915649414
0.47205901145935059 0.29724156856536865 0.26108744740486145
0.53560405969619751 0.34346672892570496 0.30089002847671509
0.015194447711110115 0.0051606269553303719 0.018169792369008064
0.021968213841319084 0.0044623282738029957 0.017461709678173065
0.059712711721658707 0.0069878222420811653 0.031345739960670471
0.08827131986618042 0.011146485805511475 0.034047834575176239
0.11117436736822128 0.029889604076743126 0.041610583662986755
0.13781085610389709 0.058490108698606491 0.060593221336603165
0.16979783773422241 0.082766227424144745 0.080213166773319244
0.21181680262088776 0.1092684417963028 0.10128553956747055
0.26408806443214417 0.14484615623950958 0.1299731582403183
0.3257586658000946 0.18973173201084137 0.1678595095872879
0.39820435643196106 0.24411869049072266 0.21252487599849701
0.48547312617301941 0.30997663736343384 0.27056670188903809
0.57493352890014648 0.37889388203620911 0.33266907930374146
0.045890390872955322 0.046108469367027283 0.045719355344772339
0.051508106291294098 0.04375210776925087 0.042797490954399109
0.078375391662120819 0.043573684990406036 0.04711952805519104
0.10400900989770889 0.043880388140678406 0.044319137930870056
0.12770602107048035 0.064935453236103058 0.055779058486223221
0.15121732652187347 0.078230105340480804 0.069117635488510132
0.18031546473503113 0.095124535262584686 0.083483003079891205
0.22803454101085663 0.12713830173015594 0.11047100275754929
0.28405463695526123 0.1670413613319397 0.14279724657535553
0.34702125191688538 0.21230217814445496 0.18154008686542511
0.41906750202178955 0.26454868912696838 0.22673453390598297
0.50762701034545898 0.33110478520393372 0.28709477186203003
0.59985381364822388 0.40357571840286255 0.35203653573989868
0.088063165545463562 0.093968138098716736 0.071799077093601227
0.098254106938838959 0.10004463791847229 0.0772567018866539
0.11895069479942322 0.10854160040616989 0.082650370895862579
0.14430734515190125 0.11423390358686447 0.087568812072277069
0.16946294903755188 0.12121694535017014 0.092047475278377533
0.19275897741317749 0.126953125 0.10077475756406784
0.22208826243877411 0.14098420739173889 0.11390165239572525
0.26878723502159119 0.16917750239372253 0.14074541628360748
0.32175496220588684 0.20419800281524658 0.17131510376930237
0.38668248057365417 0.25096890330314636 0.2111426442861557
0.45991688966751099 0.30341306328773499 0.25768384337425232
0.55218946933746338 0.37414109706878662 0.32194510102272034
0.64502447843551636 0.44845688343048096 0.38937395811080933
0.13548983633518219 0.14005939662456512 0.098295919597148895
0.14667199552059174 0.14691071212291718 0.10456971079111099
0.16359418630599976 0.15463775396347046 0.11017826944589615
0.19001276791095734 0.16786013543605804 0.12102504074573517
0.22257955372333527 0.18470223248004913 0.13579951226711273
0.24907203018665314 0.19355203211307526 0.14634224772453308
