assets/lut/picturefx goldfx spring breeze.cube
# Created by: G'MIC (https://gmic.eu)
TITLE "goldfx_spring_breeze"
# LUT size
LUT_3D_SIZE 7
# Data domain
DOMAIN_MIN 0.0 0.0 0.0
DOMAIN_MAX 1.0 1.0 1.0
# LUT data points
0.016891030594706535 0.038390651345252991 0.029820984229445457
0.11889950931072235 0.050567597150802612 0.033647604286670685
0.28167816996574402 0.055822934955358505 0.041287872940301895
0.47802889347076416 0.045021265745162964 0.055088505148887634
0.65684795379638672 0.023106683045625687 0.062657482922077179
0.81606411933898926 0.069179147481918335 0.074162274599075317
0.96485412120819092 0.17197829484939575 0.099396452307701111
0.0029815374873578548 0.1630348414182663 0.039777405560016632
0.10425899922847748 0.16625656187534332 0.026496617123484612
0.3065083920955658 0.1766272634267807 0.034992396831512451
0.5042380690574646 0.17645984888076782 0.056119222193956375
0.67714834213256836 0.17216292023658752 0.065934307873249054
0.83222073316574097 0.2059246301651001 0.07703748345375061
0.97235280275344849 0.26683342456817627 0.10751975327730179
5.5290671298280358e-05 0.30983364582061768 0.044023506343364716
0.057823061943054199 0.3058629035949707 0.042058337479829788
0.29267892241477966 0.31852224469184875 0.01013635378330946
0.50236934423446655 0.33119463920593262 0.022668994963169098
0.70677846670150757 0.36135104298591614 0.063300579786300659
0.84815239906311035 0.38434180617332458 0.088269419968128204
0.96865630149841309 0.41793408989906311 0.12163288146257401
0 0.44116899371147156 0.040498323738574982
0.032120048999786377 0.43085631728172302 0.047593690454959869
0.24930694699287415 0.43017756938934326 0.020044334232807159
0.44914311170578003 0.44709998369216919 0.006795546505600214
0.64722388982772827 0.46669545769691467 0.0041804742068052292
0.82928699254989624 0.52423417568206787 0.047271668910980225
0.95973610877990723 0.57088690996170044 0.15209195017814636
0.0038284750189632177 0.57665550708770752 0.015646645799279213
0.041652169078588486 0.56484782695770264 0.014808430336415768
0.23472407460212708 0.55095279216766357 0.014520084485411644
0.41350886225700378 0.56051170825958252 0.0028296527452766895
0.5976942777633667 0.58446848392486572 0
0.7640419602394104 0.61144429445266724 0.0043757571838796139
0.93918716907501221 0.68466907739639282 0.035772018134593964
0.094496995210647583 0.73002737760543823 0.0048507987521588802
0.15541850030422211 0.72917634248733521 0.0054116640239953995
0.2842441201210022 0.71297240257263184 0.0036867179442197084
0.43682119250297546 0.71218228340148926 0.0046434737741947174
0.60164254903793335 0.73390036821365356 0.0037925122305750847
0.75939851999282837 0.75722360610961914 0.00013816684077028185
0.91542190313339233 0.78773742914199829 0.00023687025532126427
0.38126516342163086 0.93444222211837769 0.1609635055065155
0.39229390025138855 0.93230682611465454 0.16213540732860565
0.46620669960975647 0.92945575714111328 0.16383254528045654
0.56493020057678223 0.93103063106536865 0.16465897858142853
0.70212787389755249 0.93954974412918091 0.13203813135623932
0.8377339243888855 0.94914925098419189 0.10619723796844482
0.94008278846740723 0.95630687475204468 0.081541933119297028
0.0033995984122157097 0.067174755036830902 0.14795038104057312
0.10043827444314957 0.072738334536552429 0.14976678788661957
0.29355555772781372 0.083061307668685913 0.15892156958580017
0.47905132174491882 0.059094864875078201 0.1534762978553772
0.66000276803970337 0.029670326039195061 0.15868900716304779
0.81563198566436768 0.071185648441314697 0.16366474330425262
0.96403402090072632 0.1678873747587204 0.17587704956531525
0.00011399212962714955 0.18387211859226227 0.15907293558120728
0.10741783678531647 0.18061025440692902 0.16409629583358765
0.32522541284561157 0.1789705753326416 0.1584460437297821
0.50682550668716431 0.16293039917945862 0.16587020456790924
0.68138366937637329 0.16447694599628448 0.16250839829444885
0.82640141248703003 0.17550742626190186 0.16298305988311768
0.97001874446868896 0.24411769211292267 0.17536687850952148
1.4361213516167481e-06 0.34131333231925964 0.15766696631908417
0.064479038119316101 0.33912748098373413 0.1547929048538208
0.31929329037666321 0.33631762862205505 0.13548056781291962
0.52631163597106934 0.34095475077629089 0.14397385716438293
0.71022182703018188 0.35644736886024475 0.16333764791488647
0.84561210870742798 0.37331545352935791 0.16911853849887848
0.97518885135650635 0.40856727957725525 0.1925634890794754
0 0.46018338203430176 0.1295611560344696
0.048730902373790741 0.45429247617721558 0.12452887743711472
0.26365086436271667 0.44851812720298767 0.11974030733108521
0.45952713489532471 0.45402646064758301 0.066171012818813324
0.66084009408950806 0.47927168011665344 0.072481714189052582
0.84047079086303711 0.52872812747955322 0.13378563523292542
0.97287571430206299 0.56998896598815918 0.21272958815097809
0.0020494798664003611 0.57796484231948853 0.069442108273506165
0.059793896973133087 0.57815146446228027 0.07282816618680954
0.24003866314888 0.55980151891708374 0.066025227308273315
0.41538068652153015 0.56734764575958252 0.024286456406116486
0.60238051414489746 0.58824223279953003 0.010822834447026253
0.77188849449157715 0.61633586883544922 0.013435289263725281
0.947498619556427 0.68925130367279053 0.092493362724781036
0.11512873321771622 0.73832112550735474 0.029417732730507851
0.13626338541507721 0.73407196998596191 0.023214168846607208
0.28048384189605713 0.71624058485031128 0.017505286261439323
0.43360152840614319 0.71790146827697754 0.0089250747114419937
0.60443216562271118 0.73838323354721069 0.008365212008357048
0.76586341857910156 0.76316636800765991 0.0054930741898715496
0.91730910539627075 0.7896079421043396 0.0037915697321295738
0.38175871968269348 0.93601340055465698 0.1698988676071167
0.38322606682777405 0.93190473318099976 0.16525343060493469
0.45408466458320618 0.92755907773971558 0.15913186967372894
0.56166660785675049 0.93331998586654663 0.16412812471389771
0.69761115312576294 0.93769872188568115 0.14173324406147003
0.83433586359024048 0.94873154163360596 0.11102689802646637
0.95091933012008667 0.95590901374816895 0.077689766883850098
0 0.12248849123716354 0.3183591365814209
0.045099593698978424 0.12502814829349518 0.33278891444206238
0.31324613094329834 0.14760076999664307 0.35464996099472046
0.52424496412277222 0.16896536946296692 0.37219005823135376
0.70269685983657837 0.13092093169689178 0.35583969950675964
0.84156787395477295 0.058855649083852768 0.3154132068157196
0.97060602903366089 0.13053806126117706 0.29902571439743042
0 0.23241919279098511 0.32959955930709839
0.047567944973707199 0.22355693578720093 0.34620791673660278
0.34127849340438843 0.23190993070602417 0.37454959750175476
0.54056715965270996 0.22427080571651459 0.369620680809021
0.70463436841964722 0.16082479059696198 0.33625364303588867
0.83935809135437012 0.092049799859523773 0.30050027370452881
0.97248929738998413 0.16668234765529633 0.29308909177780151
0 0.38573014736175537 0.35099571943283081
0.033855840563774109 0.39379853010177612 0.36099877953529358
0.35382536053657532 0.38642722368240356 0.37802782654762268
0.56416374444961548 0.35321769118309021 0.34675341844558716
0.71868503093719482 0.33070871233940125 0.32285144925117493
0.85061788558959961 0.32663413882255554 0.30583459138870239
0.98000931739807129 0.36414968967437744 0.30992135405540466
0 0.52792489528656006 0.31033608317375183
0.014927404001355171 0.52699565887451172 0.30395692586898804
0.27683794498443604 0.51086890697479248 0.30411741137504578
0.50438231229782104 0.49500176310539246 0.27317482233047485
0.70513087511062622 0.50934255123138428 0.28687366843223572
0.85373663902282715 0.53011184930801392 0.31456506252288818
0.97305619716644287 0.55202168226242065 0.33915770053863525
0.0013717950787395239 0.63470757007598877 0.25375083088874817
0.01710459403693676 0.63062894344329834 0.2436104416847229
0.23102454841136932 0.6143837571144104 0.23729991912841797
0.42694377899169922 0.59545838832855225 0.20628111064434052
0.62470954656600952 0.6132584810256958 0.16240617632865906
0.79728418588638306 0.63561207056045532 0.16694417595863342
0.95632362365722656 0.6983029842376709 0.2915654182434082
0.09806784987449646 0.76926130056381226 0.19850380718708038
0.086286671459674835 0.76182705163955688 0.18885193765163422
0.26046741008758545 0.75332725048065186 0.18112067878246307
0.40809229016304016 0.72752398252487183 0.136391282081604
0.59544897079467773 0.74586135149002075 0.075721964240074158
0.7665671706199646 0.76378846168518066 0.04658692330121994
0.928081214427948 0.79505378007888794 0.040000483393669128
0.36310693621635437 0.93757736682891846 0.27666208148002625
0.36906176805496216 0.94065284729003906 0.27856695652008057
0.42630943655967712 0.93639618158340454 0.27649244666099548
0.53860467672348022 0.93228656053543091 0.25836235284805298
0.67730140686035156 0.93266165256500244 0.22808344662189484
0.82615810632705688 0.94598037004470825 0.20669502019882202
0.95484328269958496 0.95502752065658569 0.16710364818572998
0 0.19552142918109894 0.51204127073287964
0.013455364853143692 0.18841172754764557 0.52859741449356079
0.30694720149040222 0.21136938035488129 0.55579882860183716
0.56707644462585449 0.2354566901922226 0.57833707332611084
0.72981125116348267 0.26109582185745239 0.57559245824813843
0.87071293592453003 0.29996323585510254 0.56574469804763794
0.98335826396942139 0.28407567739486694 0.53300565481185913
0 0.30336436629295349 0.52165979146957397
0.010811989195644855 0.28045880794525146 0.53757703304290771
0.31526845693588257 0.2797091007232666 0.56812107563018799
0.57780939340591431 0.29470336437225342 0.58688890933990479
0.73991507291793823 0.30058544874191284 0.57697635889053345
0.8721880316734314 0.31969782710075378 0.55954635143280029
0.98304063081741333 0.2748381495475769 0.52007049322128296
0 0.43340069055557251 0.52136176824569702
0.017522206529974937 0.4359162449836731 0.53486460447311401
0.29392731189727783 0.41262933611869812 0.57138323783874512
0.58791542053222656 0.43131858110427856 0.59689974784851074
0.75014793872833252 0.42035126686096191 0.57145929336547852
0.87108451128005981 0.36987397074699402 0.51829928159713745
0.98182827234268188 0.33387809991836548 0.47867506742477417
0 0.57976663112640381 0.53438842296600342
0.0038720075972378254 0.58303666114807129 0.53655779361724854
0.23841840028762817 0.5894465446472168 0.55362904071807861
0.55368447303771973 0.57547861337661743 0.5645439624786377
0.73888850212097168 0.53003901243209839 0.51740050315856934
0.86442410945892334 0.49374020099639893 0.47415748238563538
0.9776119589805603 0.50129860639572144 0.46240568161010742
0.0031896554864943027 0.71416246891021729 0.47374880313873291
0.0065063326619565487 0.71445202827453613 0.4658912718296051
0.13560251891613007 0.71161091327667236 0.45957392454147339
0.43343749642372131 0.66919797658920288 0.43354114890098572
0.65450525283813477 0.65607577562332153 0.38869276642799377
0.83018618822097778 0.67058354616165161 0.41435882449150085
0.96302109956741333 0.7062259316444397 0.48717156052589417
0.096397712826728821 0.81961190700531006 0.40174448490142822
0.054998181760311127 0.81336385011672974 0.38648176193237305
0.16673614084720612 0.81155180931091309 0.38650164008140564
0.38519251346588135 0.77548563480377197 0.34633851051330566
0.57606524229049683 0.76450419425964355 0.30400633811950684
0.77456635236740112 0.78192234039306641 0.26579535007476807
0.9436524510383606 0.80640774965286255 0.29213204979896545
0.33545130491256714 0.9480399489402771 0.42114230990409851
0.34468579292297363 0.95139402151107788 0.42275550961494446
0.37941217422485352 0.95001697540283203 0.42599877715110779
0.49744114279747009 0.94242590665817261 0.40784373879432678
0.64301329851150513 0.93741369247436523 0.37511488795280457
0.80959135293960571 0.94845855236053467 0.35479700565338135
0.94984859228134155 0.95700258016586304 0.32634487748146057
0 0.2915099561214447 0.70676428079605103
0.0051219416782259941 0.27459463477134705 0.72321295738220215
0.24037250876426697 0.28914386034011841 0.74302870035171509
0.56617957353591919 0.33291181921958923 0.76026928424835205
0.75693178176879883 0.38158708810806274 0.76363706588745117
0.86954593658447266 0.41844844818115234 0.75355935096740723
0.96450763940811157 0.54038172960281372 0.76487678289413452
0 0.37194746732711792 0.71091687679290771
0.0051926556043326855 0.35716620087623596 0.72592240571975708
0.24471370875835419 0.34322318434715271 0.74497723579406738
0.56572622060775757 0.38016346096992493 0.76397120952606201
0.75975579023361206 0.41483265161514282 0.76777547597885132
0.87288081645965576 0.43400159478187561 0.75485217571258545
0.96563947200775146 0.54312902688980103 0.76219481229782104
0.00033258175244554877 0.49822303652763367 0.70224016904830933
0.011441608890891075 0.50015819072723389 0.71434289216995239
0.24612641334533691 0.46560800075531006 0.73884665966033936
0.55430769920349121 0.4887334406375885 0.76378440856933594
0.75795090198516846 0.53340208530426025 0.77360230684280396
0.86816889047622681 0.5433233380317688 0.7595374584197998
0.96129578351974487 0.59221690893173218 0.7593228816986084
0.0083233704790472984 0.61649501323699951 0.68963068723678589
0.020346952602267265 0.6165395975112915 0.6927483081817627
0.20116090774536133 0.61385774612426758 0.71046304702758789
0.51251059770584106 0.6072009801864624 0.74542355537414551
0.74691373109817505 0.65152287483215332 0.77189421653747559
0.8619047999382019 0.64697235822677612 0.75629174709320068
0.95068114995956421 0.61261969804763794 0.70925158262252808
0.05242011696100235 0.75745964050292969 0.69747257232666016
0.038004990667104721 0.7595401406288147 0.70297062397003174
0.17822156846523285 0.76105004549026489 0.71031308174133301
0.45495486259460449 0.75950032472610474 0.71878516674041748
0.70311272144317627 0.7540554404258728 0.7315552830696106
0.85153466463088989 0.71218723058700562 0.69093585014343262
0.96018099784851074 0.67494726181030273 0.64937496185302734
0.19542905688285828 0.87376046180725098 0.65939527750015259
0.17751489579677582 0.87151074409484863 0.65459108352661133
0.19137051701545715 0.86928623914718628 0.64515185356140137
0.38340872526168823 0.85796898603439331 0.62850522994995117
0.58481109142303467 0.81890720129013062 0.58203983306884766
0.78266358375549316 0.81012517213821411 0.53346854448318481
0.94336146116256714 0.82962673902511597 0.59335094690322876
0.35113626718521118 0.96870321035385132 0.63824421167373657
0.33978521823883057 0.96774983406066895 0.62902712821960449
0.35320469737052917 0.96673440933227539 0.6188848614692688
0.44560250639915466 0.96533352136611938 0.60649245977401733
0.60248821973800659 0.95080345869064331 0.56167203187942505
0.76144236326217651 0.93893104791641235 0.51604115962982178
0.94336414337158203 0.95766294002532959 0.51316267251968384
0.0025647631846368313 0.40847486257553101 0.86200481653213501
0.0034190458245575428 0.38903871178627014 0.86698967218399048
0.24540013074874878 0.396575927734375 0.8713337779045105
0.54901266098022461 0.4438076913356781 0.87758177518844604
0.74828189611434937 0.5263671875 0.88558894395828247
0.87133359909057617 0.57463318109512329 0.88348388671875
0.9484679102897644 0.61406129598617554 0.88112765550613403
0.0028641794342547655 0.46548232436180115 0.85972690582275391
0.0070077935233712196 0.45069390535354614 0.86602050065994263
0.2347692996263504 0.4361400306224823 0.87375742197036743
0.54915338754653931 0.4783610999584198 0.87672632932662964
0.74982017278671265 0.55472791194915771 0.88488924503326416
0.87112069129943848 0.58732694387435913 0.88260161876678467
0.95107555389404297 0.62600278854370117 0.88202452659606934
0.060165945440530777 0.57186400890350342 0.85024774074554443
0.087915010750293732 0.57372301816940308 0.85476183891296387
0.30272653698921204 0.54957908391952515 0.86451584100723267
0.54173189401626587 0.56480056047439575 0.87715446949005127
0.7429012656211853 0.63153469562530518 0.88610506057739258
0.86433702707290649 0.65920060873031616 0.88343840837478638
0.94152688980102539 0.68083173036575317 0.88085734844207764
0.095879197120666504 0.67567187547683716 0.82744544744491577
0.10976020991802216 0.67845308780670166 0.83083808422088623
0.29067233204841614 0.67350906133651733 0.84366923570632935
0.51350754499435425 0.65875071287155151 0.86393755674362183
0.72243386507034302 0.70328760147094727 0.88158810138702393
0.85764098167419434 0.73961180448532104 0.88902604579925537
0.93120485544204712 0.75268232822418213 0.88404619693756104
0.10953266173601151 0.78759169578552246 0.82467752695083618
0.067012161016464233 0.78305590152740479 0.82729613780975342
0.12188799679279327 0.78247368335723877 0.83190262317657471
0.41074994206428528 0.77258074283599854 0.83840745687484741
0.67301481962203979 0.77513444423675537 0.8683929443359375
0.84555792808532715 0.81829375028610229 0.88646942377090454
0.92441582679748535 0.8165433406829834 0.87813526391983032
0.28469154238700867 0.89747732877731323 0.8404242992401123
0.30001091957092285 0.89260739088058472 0.83801937103271484
0.30425360798835754 0.89341109991073608 0.83716857433319092
0.44731396436691284 0.89158493280410767 0.84258544445037842
0.64392328262329102 0.88404613733291626 0.84878969192504883
0.81368094682693481 0.88129621744155884 0.85515075922012329
0.93172591924667358 0.85826581716537476 0.83548730611801147
0.49399495124816895 0.98178774118423462 0.83123838901519775
0.49204227328300476 0.98268997669219971 0.83189451694488525
0.49161097407341003 0.98255521059036255 0.82541358470916748
0.51764929294586182 0.97827696800231934 0.81723630428314209
0.62557387351989746 0.97383850812911987 0.79852497577667236
0.75029510259628296 0.95862460136413574 0.75393819808959961
0.92747628688812256 0.96508646011352539 0.73202550411224365
0.22453252971172333 0.59156030416488647 0.96613842248916626
0.27076452970504761 0.58115202188491821 0.9652940034866333
0.42792034149169922 0.58186584711074829 0.96700465679168701
0.60463929176330566 0.61891430616378784 0.9652741551399231
0.75477641820907593 0.67869478464126587 0.9658774733543396
0.86146086454391479 0.73729568719863892 0.96484386920928955
0.92295932769775391 0.76978135108947754 0.96319562196731567
0.26365044713020325 0.61915165185928345 0.96308910846710205
0.31453156471252441 0.61695247888565063 0.9629284143447876
0.43097162246704102 0.60437315702438354 0.96558058261871338
0.59952926635742188 0.63281196355819702 0.96469748020172119
0.75026828050613403 0.68404263257980347 0.96344053745269775
0.8619992733001709 0.74595862627029419 0.96350592374801636
0.93032068014144897 0.7768625020980835 0.96426528692245483
0.36569976806640625 0.69441348314285278 0.95549732446670532
0.39901739358901978 0.69968676567077637 0.9589046835899353
0.48119497299194336 0.6886785626411438 0.96214288473129272
0.60260957479476929 0.69101822376251221 0.96371877193450928
0.7469404935836792 0.72889631986618042 0.96054178476333618
0.85869741439819336 0.77662837505340576 0.96131604909896851
0.92738443613052368 0.80277621746063232 0.96200209856033325
0.43601417541503906 0.77542108297348022 0.95021682977676392
0.44019445776939392 0.77562606334686279 0.94927501678466797
0.49123585224151611 0.77130973339080811 0.95322436094284058
0.59288543462753296 0.75083363056182861 0.95351117849349976
0.73351472616195679 0.77436107397079468 0.95991224050521851
0.85144048929214478 0.81891179084777832 0.96212446689605713
0.91200733184814453 0.8340994119644165 0.95935004949569702
0.35417470335960388 0.84950423240661621 0.9400331974029541
0.36119091510772705 0.85237330198287964 0.94269585609436035
0.40732082724571228 0.84971761703491211 0.94435203075408936
0.54165303707122803 0.83735114336013794 0.94746601581573486
0.69905096292495728 0.82606691122055054 0.95646625757217407
0.8379395604133606 0.86079472303390503 0.96428239345550537
0.91186749935150146 0.88856428861618042 0.9656062126159668
0.43084248900413513 0.93074089288711548 0.94877815246582031
0.42875251173973083 0.92943775653839111 0.949066162109375
0.43333056569099426 0.9267498254776001 0.94841873645782471
0.50780189037322998 0.92141646146774292 0.9501914381980896
0.64241683483123779 0.90535861253738403 0.94370555877685547
0.80947446823120117 0.90648025274276733 0.96315103769302368
0.91344159841537476 0.93536877632141113 0.97043925523757935
0.59269946813583374 0.99028056859970093 0.95724982023239136
0.59401887655258179 0.99204468727111816 0.95760399103164673
0.58562994003295898 0.9890175461769104 0.95072466135025024
0.60670530796051025 0.99045568704605103 0.95802944898605347
0.68429708480834961 0.9744299054145813 0.94442993402481079
0.79564481973648071 0.98104816675186157 0.95603263378143311
0.90516382455825806 0.98356294631958008 0.95842015743255615
