assets/lut/picturefx faux infrared color r0b.cube
# Created by: G'MIC (https://gmic.eu)
TITLE "faux_infrared_color_r0b"
# LUT size
LUT_3D_SIZE 5
# Data domain
DOMAIN_MIN 0.0 0.0 0.0
DOMAIN_MAX 1.0 1.0 1.0
# LUT data points
0.049663916230201721 0.036338552832603455 0.039092298597097397
0.34196332097053528 0.013257104903459549 0.048373531550168991
0.74385190010070801 0.00034586587571538985 0.095758311450481415
0.94918006658554077 0.016644496470689774 0.16926029324531555
0.96871846914291382 0.037366993725299835 0.18076825141906738
0.44373553991317749 0.049562148749828339 0.1026475802063942
0.60045915842056274 0.0037436841521412134 0.08558952808380127
0.81365662813186646 0.0058106663636863232 0.1173308864235878
0.96446514129638672 0.054784782230854034 0.18287466466426849
0.98622161149978638 0.085896722972393036 0.19943514466285706
0.80809587240219116 0.1678277850151062 0.23802778124809265
0.85779827833175659 0.1291852593421936 0.21695855259895325
0.94134867191314697 0.087416902184486389 0.19861140847206116
0.99867212772369385 0.14832919836044312 0.22766029834747314
0.9982261061668396 0.17535345256328583 0.24359650909900665
0.95162838697433472 0.34711754322052002 0.39165419340133667
0.97913450002670288 0.33567720651626587 0.37725183367729187
0.99509561061859131 0.31485441327095032 0.35402557253837585
1 0.27775111794471741 0.314544677734375
1 0.27513578534126282 0.30911418795585632
0.99991816282272339 0.45968508720397949 0.49555912613868713
0.99700784683227539 0.44964015483856201 0.48442631959915161
1 0.43749961256980896 0.46627521514892578
1 0.40542903542518616 0.42599326372146606
1 0.4076429009437561 0.4223155677318573
0.062774419784545898 0.40794709324836731 0.45682579278945923
0.041687522083520889 0.40607663989067078 0.45052650570869446
0.50261318683624268 0.37493366003036499 0.41674122214317322
0.91695576906204224 0.20881728827953339 0.28646954894065857
0.94665813446044922 0.1927274614572525 0.27166914939880371
0.074838392436504364 0.4369451105594635 0.48185214400291443
0.20114612579345703 0.42511120438575745 0.46838575601577759
0.59452110528945923 0.38735705614089966 0.43192616105079651
0.93770140409469604 0.23201663792133331 0.30235528945922852
0.96417903900146484 0.21054314076900482 0.28365418314933777
0.47974961996078491 0.47039592266082764 0.51637738943099976
0.56957507133483887 0.46191203594207764 0.50723248720169067
0.76168090105056763 0.42709428071975708 0.47251546382904053
0.98044997453689575 0.31077921390533447 0.36184424161911011
0.98977160453796387 0.29152119159698486 0.3441748321056366
0.7504156231880188 0.51900672912597656 0.56826901435852051
0.79013466835021973 0.51528561115264893 0.56405800580978394
0.9177127480506897 0.48008930683135986 0.52560842037200928
0.99215716123580933 0.39864826202392578 0.43701520562171936
0.99679458141326904 0.37857434153556824 0.41591843962669373
0.9171372652053833 0.57283300161361694 0.62323218584060669
0.93637913465499878 0.56491845846176147 0.61474305391311646
0.98231452703475952 0.53937691450119019 0.58132410049438477
0.9961356520652771 0.4831078052520752 0.51200902462005615
0.99989485740661621 0.47756531834602356 0.5023074746131897
0.31151717901229858 0.73624008893966675 0.79623180627822876
0.27141076326370239 0.7203173041343689 0.78212785720825195
0.25259032845497131 0.70103758573532104 0.7599036693572998
0.35176315903663635 0.6840025782585144 0.74389040470123291
0.39094036817550659 0.68534368276596069 0.74403232336044312
0.32008907198905945 0.7367103099822998 0.79315710067749023
0.29198500514030457 0.72277307510375977 0.78001350164413452
0.27409783005714417 0.71076828241348267 0.77067482471466064
0.38217106461524963 0.6899343729019165 0.74982976913452148
0.43597081303596497 0.68445950746536255 0.74326813220977783
0.31723830103874207 0.75090873241424561 0.81111139059066772
0.31140229105949402 0.74396330118179321 0.80345135927200317
0.3098331093788147 0.72438377141952515 0.78432029485702515
0.49259576201438904 0.7041935920715332 0.76432949304580688
0.52892971038818359 0.69741219282150269 0.75706422328948975
0.36225059628486633 0.76555162668228149 0.82643276453018188
0.39195552468299866 0.76849532127380371 0.82911121845245361
0.45614141225814819 0.75849181413650513 0.81854283809661865
0.6607978343963623 0.72014200687408447 0.78050422668457031
0.6801719069480896 0.7164720892906189 0.77616983652114868
0.5457463264465332 0.8001868724822998 0.86198228597640991
0.58606266975402832 0.79512423276901245 0.85688871145248413
0.6711190938949585 0.77463728189468384 0.83704429864883423
0.78813928365707397 0.75845539569854736 0.8199392557144165
0.80869907140731812 0.75274217128753662 0.81451022624969482
0.4418671727180481 0.86933034658432007 0.92946726083755493
0.44705882668495178 0.87450981140136719 0.93333333730697632
0.43318513035774231 0.86186450719833374 0.92232650518417358
0.4046461284160614 0.83948546648025513 0.89901989698410034
0.41380029916763306 0.84879356622695923 0.9077991247177124
0.45654582977294922 0.87895774841308594 0.93726009130477905
0.447153240442276 0.87222385406494141 0.93129253387451172
0.43582874536514282 0.86361861228942871 0.92260456085205078
0.41099622845649719 0.84535807371139526 0.90424424409866333
0.41606390476226807 0.84989655017852783 0.90932744741439819
0.45733791589736938 0.87820744514465332 0.93728387355804443
0.45137730240821838 0.87283384799957275 0.93011963367462158
0.45066061615943909 0.87441068887710571 0.93022847175598145
0.43638601899147034 0.86527931690216064 0.92242258787155151
0.43394932150840759 0.86457186937332153 0.92224669456481934
0.50203710794448853 0.90520846843719482 0.95714074373245239
0.50132018327713013 0.90211856365203857 0.95513033866882324
0.48758557438850403 0.89376282691955566 0.94706648588180542
0.47896650433540344 0.89301341772079468 0.94704020023345947
0.47839599847793579 0.89001142978668213 0.94447112083435059
0.56203269958496094 0.93635350465774536 0.97945147752761841
0.55667781829833984 0.93432843685150146 0.97884666919708252
0.53864312171936035 0.92479878664016724 0.97215747833251953
0.52940678596496582 0.91969126462936401 0.96917223930358887
0.53572380542755127 0.91067314147949219 0.96147984266281128
0.45113208889961243 0.87450981140136719 0.93333333730697632
0.44679003953933716 0.87203353643417358 0.93182927370071411
0.43329793214797974 0.86239123344421387 0.92214000225067139
0.41447585821151733 0.84862923622131348 0.90770751237869263
0.42037522792816162 0.85523921251296997 0.91396671533584595
0.46251633763313293 0.88268899917602539 0.94091916084289551
0.45597156882286072 0.87887322902679443 0.93684321641921997
0.44246059656143188 0.86955708265304565 0.92783910036087036
0.4274100661277771 0.85774046182632446 0.91544538736343384
0.42976865172386169 0.85866904258728027 0.91643291711807251
0.47476446628570557 0.89090549945831299 0.94669115543365479
0.46651396155357361 0.88576668500900269 0.94140100479125977
0.45704251527786255 0.8804619312286377 0.93647938966751099
0.45002317428588867 0.87562763690948486 0.93142533302307129
0.44911918044090271 0.87340503931045532 0.9291762113571167
0.5112382173538208 0.90955978631973267 0.96024531126022339
0.50749057531356812 0.90743458271026611 0.95835119485855103
0.4931451678276062 0.89968353509902954 0.95093291997909546
0.49038416147232056 0.90027910470962524 0.95258599519729614
0.49269258975982666 0.90039730072021484 0.95274776220321655
0.56152874231338501 0.93519288301467896 0.97957831621170044
0.55385249853134155 0.93154537677764893 0.97611629962921143
0.55033206939697266 0.93099290132522583 0.97560733556747437
0.53946447372436523 0.92622065544128418 0.97289443016052246
0.53674250841140747 0.9242483377456665 0.97210699319839478
