assets/lut/picturefx analogfx sepia color.cube
# Created by: G'MIC (https://gmic.eu)
TITLE "analogfx_sepia_color"
# LUT size
LUT_3D_SIZE 5
# Data domain
DOMAIN_MIN 0.0 0.0 0.0
DOMAIN_MAX 1.0 1.0 1.0
# LUT data points
0.053123235702514648 0.012159265577793121 0
0.13610894978046417 0.067228667438030243 0
0.28345838189125061 0.16157728433609009 0
0.5409427285194397 0.30932354927062988 0
0.84486103057861328 0.5030243992805481 0
0.203304722905159 0.074814997613430023 0
0.20945118367671967 0.083163104951381683 0
0.32899066805839539 0.16307370364665985 0
0.58252948522567749 0.30949112772941589 0
0.88392573595046997 0.51083475351333618 0
0.49012121558189392 0.15147055685520172 0
0.48400211334228516 0.15439276397228241 0
0.5010993480682373 0.17163030803203583 0
0.68607491254806519 0.29967194795608521 0
0.94541877508163452 0.48513507843017578 0
0.92770427465438843 0.23379705846309662 0
0.92786580324172974 0.24093548953533173 0
0.93600296974182129 0.26032498478889465 0
0.93488472700119019 0.29026058316230774 0
0.99613875150680542 0.4075874388217926 0
1 0.40881845355033875 0
1 0.41567885875701904 0
1 0.42417839169502258 0
1 0.43944904208183289 0
1 0.46394982933998108 0
0.20377609133720398 0.10324359685182571 0
0.19713295996189117 0.10417960584163666 0
0.31217169761657715 0.17568755149841309 0
0.58414876461029053 0.32728558778762817 0
0.89323526620864868 0.52207410335540771 0
0.23962000012397766 0.11155276000499725 0
0.28093421459197998 0.12072750926017761 0
0.4006895124912262 0.18131695687770844 0
0.63935244083404541 0.33393308520317078 0
0.91889506578445435 0.52240514755249023 0
0.52482366561889648 0.19350776076316833 0
0.53088134527206421 0.20247766375541687 0
0.5478435754776001 0.22171284258365631 0
0.75536274909973145 0.34029939770698547 0
0.97729396820068359 0.50704377889633179 0
0.95617765188217163 0.29555800557136536 0
0.95692163705825806 0.30435276031494141 0
0.9553903341293335 0.32377380132675171 0
0.9638867974281311 0.35791033506393433 0
0.99993216991424561 0.45992827415466309 0.00018027810438070446
1 0.49042016267776489 0.027582954615354538
1 0.48938292264938354 0.022354679182171822
1 0.49538221955299377 0.026804337278008461
1 0.51295000314712524 0.026902889832854271
1 0.53639042377471924 0.037437126040458679
0.45001354813575745 0.24561455845832825 0
0.44460991024971008 0.24307864904403687 0
0.45642885565757751 0.24046686291694641 0
0.6159968376159668 0.36040350794792175 0
0.92173224687576294 0.54713708162307739 0
0.47636711597442627 0.24925169348716736 0
0.47221729159355164 0.25434330105781555 0
0.49700427055358887 0.25429415702819824 0
0.69832009077072144 0.37420579791069031 0
0.96631944179534912 0.55399787425994873 0
0.57206171751022339 0.25556787848472595 0
0.60503900051116943 0.28699013590812683 0.0064103072509169579
0.63158702850341797 0.33847323060035706 0.12663988769054413
0.83675175905227661 0.45299625396728516 0.066617168486118317
0.99845033884048462 0.57580649852752686 0.031181111931800842
0.94054335355758667 0.45151644945144653 0.00061630550771951675
0.94588416814804077 0.48376756906509399 0.041939228773117065
0.95533114671707153 0.51587092876434326 0.11543016880750656
0.97859722375869751 0.5319753885269165 0.11735185980796814
1 0.58438926935195923 0.11548062413930893
1 0.6287115216255188 0.28184735774993896
1 0.63047218322753906 0.28032100200653076
1 0.63908028602600098 0.29429185390472412
1 0.65287923812866211 0.31295540928840637
1 0.67224335670471191 0.35011452436447144
0.89404010772705078 0.47617301344871521 0
0.89680010080337524 0.47932320833206177 0
0.88131237030029297 0.48216938972473145 0
0.85215538740158081 0.49277174472808838 0
0.95623856782913208 0.57927519083023071 0
0.90661299228668213 0.48032251000404358 0
0.90493375062942505 0.48424562811851501 0
0.89286702871322632 0.48919492959976196 0
0.877422034740448 0.50191676616668701 0
0.98388576507568359 0.5913550853729248 0
0.92529129981994629 0.48920944333076477 0
0.9445565938949585 0.50075346231460571 7.4184645200148225e-05
0.95277875661849976 0.51905995607376099 0.029229795560240746
0.95784658193588257 0.53706860542297363 0.10467382520437241
0.99993431568145752 0.61251342296600342 0.16253861784934998
0.98034375905990601 0.52012920379638672 0.011835554614663124
0.98254311084747314 0.54672551155090332 0.12332530319690704
0.9853096604347229 0.60761159658432007 0.34620696306228638
0.99514710903167725 0.67528831958770752 0.50184404850006104
1 0.73159521818161011 0.5325583815574646
1 0.68523436784744263 0.37875226140022278
1 0.70422828197479248 0.42981818318367004
1 0.74736529588699341 0.5393754243850708
1 0.78130728006362915 0.6126590371131897
1 0.78528714179992676 0.61724251508712769
1 0.66420179605484009 0
1 0.66749250888824463 0
0.99963235855102539 0.66890925168991089 0
0.99938666820526123 0.67706567049026489 0
0.99994611740112305 0.68152278661727905 0
1 0.66273462772369385 0
1 0.6670566201210022 0
0.9999617338180542 0.66999655961990356 0
1 0.67440354824066162 0
0.99912869930267334 0.68963992595672607 0
1 0.67077302932739258 0
1 0.67440080642700195 0.00023084154236130416
1 0.6793178915977478 0.0075363758951425552
1 0.68101006746292114 0.038954701274633408
1 0.69037199020385742 0.077378593385219574
1 0.69163113832473755 0.15880833566188812
1 0.69728070497512817 0.24504232406616211
1 0.73420864343643188 0.43429332971572876
1 0.77135193347930908 0.556069016456604
1 0.79168230295181274 0.60893583297729492
1 0.7497260570526123 0.5045662522315979
1 0.7589452862739563 0.53461402654647827
1 0.79003071784973145 0.61756002902984619
1 0.84409624338150024 0.74436348676681519
0.98946350812911987 0.90582853555679321 0.87313729524612427
