assets/lut/picturefx faux infrared color r0a.cube
# Created by: G'MIC (https://gmic.eu)
TITLE "faux_infrared_color_r0a"
# LUT size
LUT_3D_SIZE 7
# Data domain
DOMAIN_MIN 0.0 0.0 0.0
DOMAIN_MAX 1.0 1.0 1.0
# LUT data points
0.051899958401918411 0.034814663231372833 0.037134326994419098
0.14935167133808136 0.024949332699179649 0.030771637335419655
0.3351576030254364 0.016329208388924599 0.051277324557304382
0.55159717798233032 0.0035515879280865192 0.070092998445034027
0.7425040602684021 0 0.097508691251277924
0.85745155811309814 0.007307389285415411 0.13080751895904541
0.94502109289169312 0.017054988071322441 0.16706719994544983
0.36478769779205322 0.044750556349754333 0.085749641060829163
0.42982968688011169 0.027669435366988182 0.082562796771526337
0.5406651496887207 0.0028327342588454485 0.074948526918888092
0.6800726056098938 0 0.086006492376327515
0.80982136726379395 7.180606644396903e-06 0.11242841929197311
0.8931700587272644 0.014452347531914711 0.14620079100131989
0.96342009305953979 0.05284431204199791 0.1801828145980835
0.70832043886184692 0.096198141574859619 0.18036700785160065
0.72989827394485474 0.069837488234043121 0.17141346633434296
0.77559208869934082 0.050640568137168884 0.16275143623352051
0.83609616756439209 0.036415159702301025 0.15191234648227692
0.90590941905975342 0.028113197535276413 0.15888744592666626
0.96059441566467285 0.045691173523664474 0.1789858341217041
0.99750387668609619 0.11058494448661804 0.20945785939693451
0.8801308274269104 0.26214617490768433 0.31619292497634888
0.88970768451690674 0.24424037337303162 0.3013853132724762
0.91051673889160156 0.232185959815979 0.29349479079246521
0.94255673885345459 0.20972524583339691 0.27360266447067261
0.97243368625640869 0.19582220911979675 0.2650509774684906
0.99684149026870728 0.18049825727939606 0.25374820828437805
1 0.20094232261180878 0.2599966824054718
0.97903847694396973 0.38755893707275391 0.42795756459236145
0.97284597158432007 0.38243725895881653 0.42390799522399902
0.98509871959686279 0.37417131662368774 0.41331440210342407
0.99485588073730469 0.35732370615005493 0.39562419056892395
0.99796390533447266 0.34208327531814575 0.37927696108818054
1 0.33712393045425415 0.37215828895568848
1 0.33273464441299438 0.36180856823921204
0.99602013826370239 0.47533479332923889 0.5114402174949646
0.99896806478500366 0.4722665548324585 0.50770419836044312
0.99786084890365601 0.47098365426063538 0.5031658411026001
1 0.45685610175132751 0.48712137341499329
1 0.44420051574707031 0.47224500775337219
1 0.44299525022506714 0.46692955493927002
1 0.43268993496894836 0.45176547765731812
1 0.55594426393508911 0.58574408292770386
1 0.54993683099746704 0.58089733123779297
1 0.54584842920303345 0.57400774955749512
1 0.53977477550506592 0.56446385383605957
1 0.5367550253868103 0.55773591995239258
1 0.51874017715454102 0.53730463981628418
1 0.51069813966751099 0.52471566200256348
0.0089556528255343437 0.28290548920631409 0.32089805603027344
0.011783883906900883 0.27653995156288147 0.31003230810165405
0.10681650787591934 0.26139551401138306 0.29250487685203552
0.45406046509742737 0.2061179131269455 0.25236266851425171
0.72577840089797974 0.093993291258811951 0.18234145641326904
0.86541122198104858 0.024328973144292831 0.14937452971935272
0.94403880834579468 0.014565067365765572 0.16672134399414062
0.079671822488307953 0.310951828956604 0.34611085057258606
0.14977127313613892 0.30636546015739441 0.34018546342849731
0.34470576047897339 0.28591135144233704 0.3225017786026001
0.58528262376785278 0.22749702632427216 0.28086137771606445
0.78357118368148804 0.12119999527931213 0.209385946393013
0.89403784275054932 0.036870095878839493 0.16680784523487091
0.96072280406951904 0.038732193410396576 0.18035635352134705
0.49292469024658203 0.35070416331291199 0.39162132143974304
0.53605949878692627 0.34570786356925964 0.38648608326911926
0.63089913129806519 0.32764706015586853 0.37100958824157715
0.75427639484405518 0.28314736485481262 0.33594816923141479
0.87496525049209595 0.18678213655948639 0.26753091812133789
0.95418798923492432 0.10567118227481842 0.21382249891757965
0.9973452091217041 0.11752301454544067 0.21239712834358215
0.75534045696258545 0.40698921680450439 0.45209550857543945
0.77589589357376099 0.39724671840667725 0.4441511332988739
0.81874650716781616 0.38341408967971802 0.42941302061080933
0.88605606555938721 0.35494238138198853 0.40378758311271667
0.95553839206695557 0.29471442103385925 0.34724172949790955
0.99202495813369751 0.23129808902740479 0.29172709584236145
0.9993782639503479 0.21235597133636475 0.26697638630867004
0.90411186218261719 0.4656156599521637 0.51041680574417114
0.91959470510482788 0.4585157036781311 0.50379025936126709
0.94590586423873901 0.44903108477592468 0.49241280555725098
0.96975314617156982 0.43123745918273926 0.47293931245803833
0.99020302295684814 0.4048631489276886 0.44337981939315796
0.99540287256240845 0.36065348982810974 0.39543196558952332
0.99993115663528442 0.3326009213924408 0.36061182618141174
0.98253709077835083 0.52400046586990356 0.56567621231079102
0.98974514007568359 0.52150338888168335 0.56322765350341797
0.99098128080368042 0.51121550798416138 0.55047720670700073
0.99258863925933838 0.49700942635536194 0.53288638591766357
0.99505984783172607 0.47805464267730713 0.50833570957183838
0.99858194589614868 0.45136752724647522 0.47603902220726013
1 0.4315008819103241 0.44937574863433838
0.99609363079071045 0.57668673992156982 0.61454516649246216
0.99956798553466797 0.5808139443397522 0.61739480495452881
0.9969017505645752 0.57191067934036255 0.60451012849807739
0.99781554937362671 0.56491416692733765 0.59511482715606689
0.99968671798706055 0.54971510171890259 0.57464218139648438
0.99965411424636841 0.530353844165802 0.5503772497177124
1 0.51565134525299072 0.52988076210021973
0.084090016782283783 0.49353170394897461 0.54929566383361816
0.084503099322319031 0.49601766467094421 0.54896348714828491
0.089283198118209839 0.48917749524116516 0.54068982601165771
0.11390255391597748 0.48234069347381592 0.53107213973999023
0.36751049757003784 0.46853175759315491 0.51457858085632324
0.57810139656066895 0.44858962297439575 0.49335968494415283
0.78055417537689209 0.40911698341369629 0.45449912548065186
0.10608451813459396 0.50932914018630981 0.56129211187362671
0.10532272607088089 0.50912594795227051 0.56034022569656372
0.10417608916759491 0.50065314769744873 0.55159401893615723
0.21496117115020752 0.49089008569717407 0.53960812091827393
0.44111159443855286 0.47543251514434814 0.52239823341369629
0.62226659059524536 0.45469382405281067 0.49974587559700012
0.80463427305221558 0.41186243295669556 0.45782485604286194
0.21478669345378876 0.52697527408599854 0.57701951265335083
0.25780767202377319 0.52435576915740967 0.57489502429962158
0.33678236603736877 0.51983702182769775 0.56910580396652222
0.45119896531105042 0.50772666931152344 0.55681192874908447
0.58051508665084839 0.49130794405937195 0.53943222761154175
0.71346044540405273 0.47034075856208801 0.51782858371734619
0.86185699701309204 0.4356873631477356 0.48162552714347839
0.5244295597076416 0.55461210012435913 0.60631060600280762
0.53699994087219238 0.550201416015625 0.60340625047683716
0.57559669017791748 0.54615581035614014 0.59702855348587036
0.64405649900436401 0.53819960355758667 0.58928078413009644
0.7253190279006958 0.51879078149795532 0.56925344467163086
0.82337242364883423 0.49935510754585266 0.54765510559082031
0.92854934930801392 0.46872785687446594 0.51542770862579346
0.71794503927230835 0.59020274877548218 0.64525866508483887
0.72161859273910522 0.59152507781982422 0.64436823129653931
0.74652504920959473 0.586803138256073 0.63958197832107544
0.79342299699783325 0.57641154527664185 0.62853837013244629
0.85610365867614746 0.56113404035568237 0.61140710115432739
0.91146671772003174 0.53926104307174683 0.58824437856674194
0.97756636142730713 0.51327669620513916 0.55763190984725952
0.85492396354675293 0.63118886947631836 0.68689429759979248
0.85887634754180908 0.63029021024703979 0.68405967950820923
0.87901639938354492 0.62515997886657715 0.67832136154174805
0.91431945562362671 0.61398410797119141 0.66429334878921509
0.95083355903625488 0.59968775510787964 0.64888143539428711
0.97405403852462769 0.58524483442306519 0.63092482089996338
0.98766571283340454 0.55694890022277832 0.59450763463973999
0.96422481536865234 0.67124730348587036 0.72602486610412598
0.96760249137878418 0.66963392496109009 0.72515350580215454
0.97107422351837158 0.66623669862747192 0.71983307600021362
0.9856717586517334 0.6593012809753418 0.70924067497253418
0.99079269170761108 0.64847618341445923 0.69575554132461548
0.98453640937805176 0.63466817140579224 0.67633336782455444
0.99577921628952026 0.62192374467849731 0.65281230211257935
0.25439721345901489 0.70494383573532104 0.76748394966125488
0.24193656444549561 0.69738233089447021 0.76102286577224731
0.23630118370056152 0.68785995244979858 0.75050371885299683
0.24486030638217926 0.68408501148223877 0.74182909727096558
0.23417803645133972 0.67033869028091431 0.72786098718643188
0.26824101805686951 0.65595126152038574 0.71429944038391113
0.41762086749076843 0.64652752876281738 0.70343077182769775
0.26546648144721985 0.70780950784683228 0.76759946346282959
0.28014051914215088 0.71059620380401611 0.76898336410522461
0.26841631531715393 0.69458192586898804 0.75252372026443481
0.25422734022140503 0.68674159049987793 0.74568265676498413
0.23916947841644287 0.67212992906570435 0.73142874240875244
0.28822225332260132 0.66280204057693481 0.72129255533218384
0.42799898982048035 0.65173447132110596 0.70958441495895386
0.27461898326873779 0.71409100294113159 0.77325111627578735
0.28554245829582214 0.71433526277542114 0.77262604236602783
0.27361690998077393 0.7005113959312439 0.75821018218994141
0.26644918322563171 0.69283837080001831 0.75115418434143066
0.27794846892356873 0.6837458610534668 0.74372273683547974
0.37123066186904907 0.67623782157897949 0.73482310771942139
0.51892733573913574 0.65863287448883057 0.71708756685256958
0.29796168208122253 0.72132414579391479 0.78125995397567749
0.29530671238899231 0.72361713647842407 0.78318864107131958
0.30822497606277466 0.71695369482040405 0.77753835916519165
0.33492407202720642 0.71488034725189209 0.77572518587112427
0.39417430758476257 0.7119983434677124 0.7727961540222168
0.48745253682136536 0.69726467132568359 0.75714755058288574
0.62200081348419189 0.67775881290435791 0.73742640018463135
0.45898866653442383 0.74371933937072754 0.80352663993835449
0.44192877411842346 0.75069808959960938 0.81112366914749146
0.4607139527797699 0.752491295337677 0.81210315227508545
0.51279187202453613 0.74193882942199707 0.80346560478210449
0.57840794324874878 0.7288048267364502 0.78948003053665161
0.65619909763336182 0.71691161394119263 0.77848356962203979
0.73601466417312622 0.70436578989028931 0.7652398943901062
0.62453591823577881 0.77267849445343018 0.83443772792816162
0.62963360548019409 0.77155184745788574 0.834419846534729
0.64721179008483887 0.76988226175308228 0.83015537261962891
0.68339115381240845 0.76032513380050659 0.82146239280700684
0.73167246580123901 0.753814697265625 0.81484818458557129
0.78487956523895264 0.74665027856826782 0.80841821432113647
0.84098273515701294 0.73581337928771973 0.79706907272338867
0.77819150686264038 0.7989342212677002 0.8615652322769165
0.78582417964935303 0.79730546474456787 0.86022889614105225
0.79875606298446655 0.79408925771713257 0.85688740015029907
0.82096058130264282 0.79162752628326416 0.85390746593475342
0.84923708438873291 0.78799140453338623 0.85014492273330688
0.89456093311309814 0.77698135375976562 0.83723622560501099
0.94136917591094971 0.76498281955718994 0.82409477233886719
0.43071830272674561 0.86076474189758301 0.92216378450393677
0.43098431825637817 0.86051356792449951 0.92026454210281372
0.42573663592338562 0.85610389709472656 0.91558223962783813
0.41304877400398254 0.84673905372619629 0.90692144632339478
0.42239916324615479 0.85196316242218018 0.91136211156845093
0.40141153335571289 0.83149158954620361 0.89257955551147461
0.40074577927589417 0.83689242601394653 0.89638799428939819
0.43077489733695984 0.85909664630889893 0.91849815845489502
0.43050190806388855 0.86021304130554199 0.91917562484741211
0.42569419741630554 0.85368317365646362 0.91266947984695435
0.43063217401504517 0.86010116338729858 0.91964656114578247
0.4090999960899353 0.84250366687774658 0.90327286720275879
0.41443765163421631 0.84550571441650391 0.90633773803710938
0.40721914172172546 0.8407934308052063 0.90026664733886719
0.44081023335456848 0.86405783891677856 0.92135977745056152
0.43664306402206421 0.86221951246261597 0.92062652111053467
0.44171428680419922 0.86178481578826904 0.92055702209472656
0.43630808591842651 0.85855340957641602 0.9175792932510376
0.43409067392349243 0.86091810464859009 0.91982799768447876
0.42536458373069763 0.85363209247589111 0.91186118125915527
0.41642946004867554 0.84464412927627563 0.90358167886734009
0.47020986676216125 0.88269466161727905 0.93764877319335938
0.45614007115364075 0.87499278783798218 0.93225729465484619
0.4564727246761322 0.8725389838218689 0.92991924285888672
0.46454417705535889 0.87910795211791992 0.93602168560028076
0.45770266652107239 0.87514400482177734 0.93262636661529541
0.4476739764213562 0.87083268165588379 0.92816150188446045
0.43980556726455688 0.8605121374130249 0.91911256313323975
0.51289331912994385 0.90609735250473022 0.95624667406082153
0.51156628131866455 0.90661847591400146 0.95845454931259155
0.5044403076171875 0.9016682505607605 0.95490819215774536
0.50255286693572998 0.90345257520675659 0.95608830451965332
0.49044165015220642 0.89397186040878296 0.94754278659820557
0.48071545362472534 0.88839882612228394 0.94331938028335571
0.47481882572174072 0.87902688980102539 0.93382787704467773
0.56747698783874512 0.93652164936065674 0.98008519411087036
0.55907094478607178 0.9324755072593689 0.97677129507064819
0.56056183576583862 0.9318547248840332 0.97591155767440796
0.55104869604110718 0.92705518007278442 0.97304314374923706
0.54123109579086304 0.92195636034011841 0.96907156705856323
0.54123032093048096 0.91508311033248901 0.96280062198638916
0.56474936008453369 0.90404772758483887 0.95549440383911133
0.63617157936096191 0.96811217069625854 0.99481958150863647
0.62921017408370972 0.96449196338653564 0.99323165416717529
0.6301499605178833 0.96400463581085205 0.99286860227584839
0.62529861927032471 0.9602046012878418 0.99285566806793213
0.62632572650909424 0.95275008678436279 0.98800301551818848
0.63817721605300903 0.94435971975326538 0.98356741666793823
0.67827421426773071 0.9341161847114563 0.97705590724945068
0.44445854425430298 0.87061119079589844 0.92966830730438232
0.44738218188285828 0.87450981140136719 0.93333333730697632
0.44705882668495178 0.87450981140136719 0.93333333730697632
0.44186097383499146 0.87008720636367798 0.92918258905410767
0.4378395676612854 0.86654138565063477 0.92549020051956177
0.42791014909744263 0.85911577939987183 0.91954046487808228
0.4202745258808136 0.85490196943283081 0.91381925344467163
0.45006290078163147 0.87415724992752075 0.93245357275009155
0.44578573107719421 0.87135547399520874 0.92993748188018799
0.44697892665863037 0.87398165464401245 0.93280518054962158
0.44322633743286133 0.87090539932250977 0.92988651990890503
0.43425044417381287 0.86348503828048706 0.9233822226524353
0.42816811800003052 0.85881435871124268 0.91802287101745605
0.42400535941123962 0.85528159141540527 0.91420841217041016
0.46810796856880188 0.88505083322525024 0.94152772426605225
0.4563044011592865 0.87688016891479492 0.93456947803497314
0.45825451612472534 0.87719547748565674 0.93563860654830933
0.45299997925758362 0.87498706579208374 0.9337536096572876
0.44607633352279663 0.87169873714447021 0.92992746829986572
0.43723857402801514 0.86409765481948853 0.92214769124984741
0.43119996786117554 0.85800838470458984 0.91662967205047607
0.49088746309280396 0.8984295129776001 0.95209532976150513
0.4781072735786438 0.88885819911956787 0.94445955753326416
0.48172110319137573 0.89119625091552734 0.94712620973587036
0.48033371567726135 0.89149409532546997 0.94720065593719482
0.46831914782524109 0.88424962759017944 0.94038933515548706
0.45657888054847717 0.87828069925308228 0.93504214286804199
0.44796541333198547 0.87229132652282715 0.93021517992019653
0.52978795766830444 0.91998463869094849 0.96868574619293213
0.52442473173141479 0.91587191820144653 0.96633219718933105
0.52295500040054321 0.91498482227325439 0.96628665924072266
0.5179402232170105 0.91371423006057739 0.96477657556533813
0.50755614042282104 0.90817272663116455 0.95996880531311035
0.49384394288063049 0.90100479125976562 0.953807532787323
0.4904177188873291 0.89529085159301758 0.94815051555633545
0.58241087198257446 0.94526106119155884 0.98556298017501831
0.5764540433883667 0.94287741184234619 0.98418176174163818
0.57239073514938354 0.94061672687530518 0.98323684930801392
0.56612241268157959 0.93822258710861206 0.98161762952804565
0.55806726217269897 0.93466299772262573 0.97865164279937744
0.55033570528030396 0.92718207836151123 0.97294193506240845
0.55682611465454102 0.9250791072845459 0.97109752893447876
0.63756012916564941 0.97079718112945557 0.99836736917495728
0.63821995258331299 0.971149742603302 0.9980352520942688
0.63652700185775757 0.97093403339385986 0.99846816062927246
0.63317757844924927 0.96907716989517212 0.99790805578231812
0.62324708700180054 0.96123802661895752 0.9942624568939209
0.62121331691741943 0.95540052652359009 0.99142158031463623
0.63633662462234497 0.95392346382141113 0.99084806442260742
0.45110175013542175 0.87450981140136719 0.93333333730697632
0.45098039507865906 0.87450981140136719 0.93333333730697632
0.44705882668495178 0.87450981140136719 0.93333333730697632
0.44356557726860046 0.87172210216522217 0.93063664436340332
0.43808534741401672 0.86666667461395264 0.92578125
0.43084275722503662 0.86273610591888428 0.92156863212585449
0.42425322532653809 0.85882353782653809 0.91764706373214722
0.46038356423377991 0.88041561841964722 0.93792819976806641
0.45248204469680786 0.87523961067199707 0.93377470970153809
0.44760742783546448 0.87450981140136719 0.93333333730697632
0.44475460052490234 0.87317913770675659 0.93229597806930542
0.43786346912384033 0.86690938472747803 0.92617881298065186
0.43141657114028931 0.86274439096450806 0.92156863212585449
0.42884612083435059 0.86022168397903442 0.9187694787979126
0.4732765257358551 0.88840562105178833 0.94468319416046143
0.46391260623931885 0.8819153904914856 0.93925303220748901
0.45796185731887817 0.87761610746383667 0.93593275547027588
0.45308047533035278 0.875 0.93382352590560913
0.44758167862892151 0.8730161190032959 0.93113642930984497
0.43892520666122437 0.86578798294067383 0.92345517873764038
0.43294230103492737 0.86025506258010864 0.91860485076904297
0.49363961815834045 0.90027070045471191 0.95373773574829102
0.48858562111854553 0.89589202404022217 0.95045620203018188
0.48509591817855835 0.89392197132110596 0.94938367605209351
0.48050129413604736 0.89208215475082397 0.94816190004348755
0.47032767534255981 0.88582950830459595 0.94145578145980835
0.45834928750991821 0.87963616847991943 0.93634909391403198
0.4498477578163147 0.8739350438117981 0.93174272775650024
0.53307878971099854 0.92102009057998657 0.96915847063064575
0.52842646837234497 0.91810470819473267 0.96832168102264404
0.52610737085342407 0.9169037938117981 0.96783030033111572
0.51935410499572754 0.91531860828399658 0.9661029577255249
0.510079026222229 0.90975666046142578 0.96125572919845581
0.4964691698551178 0.9023667573928833 0.95481598377227783
0.50000083446502686 0.89924615621566772 0.95143061876296997
0.58542346954345703 0.94616931676864624 0.98476946353912354
0.58171695470809937 0.944427490234375 0.98541665077209473
0.57595330476760864 0.94280344247817993 0.98459243774414062
0.56833529472351074 0.93951082229614258 0.98195117712020874
0.56122344732284546 0.93568181991577148 0.97945910692214966
0.56464892625808716 0.93092441558837891 0.97580409049987793
0.57365167140960693 0.9280354380607605 0.97273635864257812
0.633098304271698 0.9680137038230896 0.99767154455184937
0.63399583101272583 0.969371497631073 0.99839234352111816
0.6358676552772522 0.97052538394927979 0.99846816062927246
0.63425946235656738 0.96933591365814209 0.99790811538696289
0.62514632940292358 0.96161282062530518 0.9947783350944519
0.63016551733016968 0.95620560646057129 0.99201744794845581
0.6449776291847229 0.95448166131973267 0.9918513298034668
