assets/lut/picturefx analogfx soft sepia i.cube
# Created by: G'MIC (https://gmic.eu)
TITLE "analogfx_soft_sepia_i"
# LUT size
LUT_3D_SIZE 7
# Data domain
DOMAIN_MIN 0.0 0.0 0.0
DOMAIN_MAX 1.0 1.0 1.0
# LUT data points
0.0007334989495575428 2.5850184101727791e-05 0
0.055291373282670975 0.0080213360488414764 0
0.16978254914283752 0.052118681371212006 0
0.29635465145111084 0.11635836213827133 0
0.44278869032859802 0.19078218936920166 0
0.60973387956619263 0.27596640586853027 0
0.78179526329040527 0.36799100041389465 0
0.11527395993471146 0.026947785168886185 0
0.13224723935127258 0.034069135785102844 0.00051413144683465362
0.20373079180717468 0.064808741211891174 0
0.32272559404373169 0.12447342276573181 0
0.46818739175796509 0.19803956151008606 0
0.62561708688735962 0.27853608131408691 0
0.79235196113586426 0.36988148093223572 0
0.2748664915561676 0.087317429482936859 0
0.27708837389945984 0.087988942861557007 0
0.29526379704475403 0.098587483167648315 0
0.37832999229431152 0.14015132188796997 0
0.51268661022186279 0.20885136723518372 0
0.66418200731277466 0.28918960690498352 0.0013914669398218393
0.81829839944839478 0.37788870930671692 0.00086675904458388686
0.46880024671554565 0.15523022413253784 0
0.47130641341209412 0.15816634893417358 0
0.47898375988006592 0.16411773860454559 0
0.50927305221557617 0.18192654848098755 0
0.58129876852035522 0.22366861999034882 0.00017777984612621367
0.71466392278671265 0.29998457431793213 0.0020919500384479761
0.85480445623397827 0.38442853093147278 0.0014939401298761368
0.68967646360397339 0.23462572693824768 0.00096166273579001427
0.69004404544830322 0.23626585304737091 7.180606644396903e-06
0.69121068716049194 0.24084171652793884 0.0012828153558075428
0.69694048166275024 0.24985089898109436 0.00014513800852000713
0.69153791666030884 0.25385382771492004 0
0.76815342903137207 0.30356398224830627 0.00019531250291038305
0.88297176361083984 0.37630793452262878 4.5955883251735941e-05
0.90695196390151978 0.32533633708953857 0.00092121196212247014
0.90482968091964722 0.32475975155830383 0.0026133370120078325
0.90108376741409302 0.32769915461540222 0.0032510196324437857
0.90019053220748901 0.33376747369766235 0.0023284314665943384
0.8904528021812439 0.33629706501960754 0.0013953414745628834
0.88428163528442383 0.33855968713760376 0.0010877422755584121
0.92103767395019531 0.36855918169021606 2.154182038793806e-05
1 0.39630460739135742 0.0014216104755178094
1 0.39684820175170898 0
1 0.39755237102508545 0
0.99997305870056152 0.39928990602493286 9.6938187198247761e-05
0.99871748685836792 0.40319627523422241 0
1 0.40928485989570618 0
0.9999159574508667 0.41400235891342163 0
0.058298341929912567 0.011253461241722107 8.8321459770668298e-05
0.10424467921257019 0.025890439748764038 0.0014435711782425642
0.18502300977706909 0.061956726014614105 0
0.31160309910774231 0.12532630562782288 5.7175580877810717e-05
0.45948424935340881 0.19988703727722168 0.0014208325883373618
0.61781072616577148 0.28109347820281982 0
0.78904062509536743 0.37193340063095093 0
0.13530805706977844 0.052117396146059036 0.013036121614277363
0.15338055789470673 0.066595368087291718 0.02935497835278511
0.22713048756122589 0.08804774284362793 0.015683790668845177
0.34589952230453491 0.14059415459632874 0.00053544883849099278
0.48221656680107117 0.2066219300031662 0
0.63575732707977295 0.28622874617576599 0.0037521810736507177
0.80119413137435913 0.37680360674858093 0
0.27522686123847961 0.11750147491693497 0.012540017254650593
0.28487911820411682 0.127066969871521 0.017088482156395912
0.31451991200447083 0.13673302531242371 0.027396617457270622
0.39233005046844482 0.16023972630500793 0.0029285955242812634
0.52265805006027222 0.22050870954990387 0
0.6766974925994873 0.2991696298122406 0.0015899508725851774
0.82812440395355225 0.38728019595146179 0.0054946001619100571
0.46713963150978088 0.18556320667266846 0.00077104754745960236
0.47494989633560181 0.19125382602214813 0.0050664716400206089
0.48530769348144531 0.1928391307592392 0.0020431966986507177
0.51055407524108887 0.20353789627552032 8.9727662270888686e-05
0.584911048412323 0.23922266066074371 0
0.72203737497329712 0.3110678493976593 0.0055895787663757801
0.85663056373596191 0.39193612337112427 0.0091513385996222496
0.68097966909408569 0.25796481966972351 0
0.69445192813873291 0.26464274525642395 0.0033089283388108015
0.69466930627822876 0.2643645703792572 2.0345053144410485e-06
0.69442164897918701 0.26995393633842468 0
0.69681107997894287 0.27365610003471375 0.00021244124218355864
0.7753182053565979 0.31949540972709656 0.0039057713001966476
0.88682419061660767 0.38626846671104431 0.00010761934390757233
0.89732366800308228 0.34218531847000122 0
0.90062242746353149 0.34507358074188232 0.00056544283870607615
0.89873874187469482 0.3477591872215271 0.0021705178078263998
0.8959154486656189 0.35050785541534424 0.0035264706239104271
0.89256352186203003 0.3522733747959137 0.0022068845573812723
0.89651787281036377 0.35800862312316895 0.002419699914753437
0.93289816379547119 0.38710564374923706 0.0038764504715800285
1 0.41377300024032593 0.00057525635929778218
1 0.41417750716209412 0
1 0.41592425107955933 0
0.99999785423278809 0.41647064685821533 0.00031507902895100415
0.99987757205963135 0.41858255863189697 0
1 0.42328089475631714 0.00034522262285463512
0.99561798572540283 0.42687952518463135 0.00040839699795469642
0.21074756979942322 0.067877478897571564 0
0.22938436269760132 0.079942651093006134 0
0.25895214080810547 0.098682433366775513 0
0.33008092641830444 0.13497784733772278 3.5005457903025672e-05
0.48625820875167847 0.21295621991157532 0.00045973833766765893
0.63714581727981567 0.29238682985305786 0
0.81459146738052368 0.3881746232509613 0
0.25563976168632507 0.096452139317989349 0.0022889082320034504
0.26445528864860535 0.10564868152141571 0.012013977393507957
0.28480097651481628 0.11833544075489044 0.026982296258211136
0.36701032519340515 0.15370802581310272 0.01010258961468935
0.5088304877281189 0.22320517897605896 0
0.6615753173828125 0.30222034454345703 0.00097066839225590229
0.8327062726020813 0.39570456743240356 0
0.30692610144615173 0.1364520788192749 0.036639750003814697
0.31851747632026672 0.15505240857601166 0.071748249232769012
0.34271660447120667 0.18105663359165192 0.11598967015743256
0.43290159106254578 0.20205153524875641 0.07825896143913269
0.5626034140586853 0.25509351491928101 0.027719445526599884
0.71292650699615479 0.32919910550117493 0.0046083186753094196
0.8560296893119812 0.40769538283348083 0.00020944932475686073
0.47146812081336975 0.22005951404571533 0.039041079580783844
0.47589924931526184 0.23433223366737366 0.063187479972839355
0.48932656645774841 0.25091227889060974 0.08251684159040451
0.52481865882873535 0.25629264116287231 0.075737297534942627
0.60931646823883057 0.28019246459007263 0.038938246667385101
0.74447441101074219 0.34063795208930969 0.00095412309747189283
0.89475065469741821 0.41727146506309509 0
0.68159842491149902 0.3106263279914856 0.035874549299478531
0.68766438961029053 0.31396901607513428 0.040664058178663254
0.69974541664123535 0.31625822186470032 0.033996939659118652
0.70082682371139526 0.31591707468032837 0.028451733291149139
0.71148478984832764 0.3223111629486084 0.028992865234613419
0.78915649652481079 0.35659387707710266 0.0029781116172671318
0.92560142278671265 0.4203193187713623 1.1967677892243955e-05
0.90655434131622314 0.39025026559829712 0.011976130306720734
0.89810872077941895 0.38676422834396362 0.0069542829878628254
0.90123111009597778 0.38952523469924927 0.0098154852166771889
0.9032178521156311 0.38939017057418823 0.0071314196102321148
0.89802098274230957 0.39424490928649902 0.0045054266229271889
0.89712905883789062 0.39282259345054626 0.0073371590115129948
0.95598745346069336 0.42480865120887756 0.00096279964782297611
1 0.45815479755401611 0.020102303475141525
1 0.46325522661209106 0.031753808259963989
1 0.46408757567405701 0.037471260875463486
1 0.45462200045585632 0.010745358653366566
0.99938410520553589 0.45596101880073547 0.0066101523116230965
1 0.460855633020401 0.015085168182849884
0.99782830476760864 0.45886465907096863 0.0010517643531784415
0.59389615058898926 0.24538505077362061 1.2925092050863896e-05
0.60732501745223999 0.25419867038726807 0.00017122755525633693
0.61889702081680298 0.26607447862625122 0.0012083614710718393
0.62207543849945068 0.27730163931846619 0
0.69731557369232178 0.32485014200210571 0
0.89137929677963257 0.42989197373390198 0.0013534396421164274
0.99054944515228271 0.52051341533660889 0
0.64052951335906982 0.27272278070449829 6.0885558923473582e-05
0.645976722240448 0.27729368209838867 0
0.6473459005355835 0.28310832381248474 0.00014687332441098988
0.64409023523330688 0.29015460610389709 0.0034076615702360868
0.72640532255172729 0.3395715057849884 6.9412533775903285e-05
0.9085572361946106 0.44341987371444702 0
0.99661719799041748 0.52824121713638306 0.00099862786009907722
0.68020534515380859 0.30798247456550598 0.0029988905880600214
0.67394924163818359 0.31238880753517151 0.036944072693586349
0.67588239908218384 0.33079412579536438 0.13051700592041016
0.68758159875869751 0.33753353357315063 0.17379170656204224
0.78238803148269653 0.38344505429267883 0.15090037882328033
0.93665868043899536 0.47017219662666321 0.12404175102710724
0.99511992931365967 0.54486417770385742 0.13933283090591431
0.70100367069244385 0.34793445467948914 0.12072519212961197
0.70790970325469971 0.36607769131660461 0.16961061954498291
0.70221590995788574 0.40545278787612915 0.25918272137641907
0.71517050266265869 0.44865947961807251 0.34321221709251404
0.82633626461029053 0.45230144262313843 0.28369846940040588
0.95819830894470215 0.50491225719451904 0.25211247801780701
0.99932330846786499 0.56071537733078003 0.22549676895141602
0.88582766056060791 0.45668655633926392 0.17720930278301239
0.88007837533950806 0.47022774815559387 0.21272635459899902
0.87486398220062256 0.49717661738395691 0.26277872920036316
0.87564587593078613 0.51934850215911865 0.29941755533218384
0.9012635350227356 0.52029156684875488 0.29618537425994873
0.97791182994842529 0.5318981409072876 0.25968998670578003
0.99991625547409058 0.56761306524276733 0.22973452508449554
0.99891263246536255 0.56548672914505005 0.25817656517028809
0.99773824214935303 0.56933283805847168 0.27377840876579285
0.99766916036605835 0.57728523015975952 0.2886480987071991
0.99768161773681641 0.57705998420715332 0.29138359427452087
0.9971885085105896 0.57114338874816895 0.2754673957824707
0.99775481224060059 0.56556546688079834 0.26357722282409668
1 0.57803076505661011 0.25193336606025696
1 0.62429618835449219 0.34492608904838562
0.99999785423278809 0.62182271480560303 0.34026962518692017
1 0.61973416805267334 0.3392789363861084
1 0.61512339115142822 0.31780678033828735
0.99994164705276489 0.61195605993270874 0.30760258436203003
0.99997198581695557 0.60891282558441162 0.29586386680603027
1 0.60005730390548706 0.28552135825157166
1 0.50768059492111206 0
0.99924349784851074 0.50771528482437134 0.0015071794623509049
0.99998754262924194 0.51331311464309692 0.0040552923455834389
0.99947631359100342 0.51444435119628906 0.0049613802693784237
0.99619203805923462 0.5129818320274353 0.0023387386463582516
0.99998986721038818 0.53513228893280029 0.0030300663784146309
1 0.60474663972854614 0.0032516778446733952
1 0.52214837074279785 0.0022012449335306883
0.9999995231628418 0.52101534605026245 0.000980377197265625
0.99977225065231323 0.51859921216964722 0.0016027113888412714
0.99893754720687866 0.51889324188232422 0.00044519759831018746
0.99267005920410156 0.5129467248916626 0
1 0.54031866788864136 7.7789909482817166e-06
0.99973887205123901 0.60997563600540161 9.7237381851300597e-05
1 0.53549277782440186 0
1 0.54064148664474487 0.0046362932771444321
0.99964350461959839 0.54068130254745483 0.04841366782784462
0.99643290042877197 0.53457200527191162 0.093154773116111755
0.99654978513717651 0.528542160987854 0.14425289630889893
0.99880141019821167 0.55864852666854858 0.21195332705974579
0.99923551082611084 0.62980186939239502 0.24021896719932556
0.99995476007461548 0.54194933176040649 0.1261279433965683
0.99934679269790649 0.54954218864440918 0.21066451072692871
0.99240773916244507 0.57185244560241699 0.35496857762336731
0.98447662591934204 0.59204232692718506 0.44575747847557068
0.99018716812133789 0.58948248624801636 0.45787015557289124
0.99996274709701538 0.6147424578666687 0.44844323396682739
0.99910420179367065 0.69191908836364746 0.48841199278831482
0.99885159730911255 0.57725304365158081 0.32738801836967468
0.99811482429504395 0.58860576152801514 0.36542841792106628
0.99059760570526123 0.61920446157455444 0.43810904026031494
0.98367756605148315 0.66972917318344116 0.53908902406692505
0.94925785064697266 0.71882706880569458 0.64109110832214355
0.99250668287277222 0.71396291255950928 0.60858076810836792
0.99929946660995483 0.74310213327407837 0.60277944803237915
0.99913692474365234 0.66307824850082397 0.43371877074241638
0.99747127294540405 0.67381751537322998 0.45753416419029236
0.99999380111694336 0.70198243856430054 0.52440977096557617
1 0.74030059576034546 0.59474194049835205
0.99849182367324829 0.75850826501846313 0.62758749723434448
0.99978238344192505 0.74532246589660645 0.61026173830032349
0.99991154670715332 0.74988138675689697 0.61513561010360718
1 0.70585465431213379 0.58156228065490723
0.99995976686477661 0.7140464186668396 0.59096485376358032
1 0.73180145025253296 0.62412917613983154
1 0.74802982807159424 0.64761537313461304
1 0.75472480058670044 0.65033996105194092
1 0.74775058031082153 0.63484007120132446
0.99977976083755493 0.74404823780059814 0.6263468861579895
0.99603414535522461 0.60115164518356323 0
0.99143439531326294 0.60378032922744751 0
0.99937492609024048 0.60998541116714478 0.00020494648197200149
0.99408906698226929 0.60384613275527954 0.0010667239548638463
0.99626797437667847 0.60877364873886108 0.0030882144346833229
0.9965553879737854 0.6040763258934021 3.1594670872436836e-05
0.99911612272262573 0.60912543535232544 0.0010262433206662536
0.99774003028869629 0.61525791883468628 0.0024320115335285664
0.99830377101898193 0.61615854501724243 0.0082840565592050552
0.99656563997268677 0.61827200651168823 0.0046822642907500267
0.99668532609939575 0.61352461576461792 4.3771782657131553e-05
0.99751013517379761 0.61302715539932251 3.1804102036403492e-05
1 0.60277867317199707 0
0.99924242496490479 0.60792690515518188 0.00028646131977438927
0.99596172571182251 0.63892668485641479 0.00056462007341906428
0.99731528759002686 0.63845431804656982 0.0026227913331240416
0.99839645624160767 0.62511587142944336 0.0010377472499385476
0.99979043006896973 0.62397617101669312 0.0015465830219909549
0.99792158603668213 0.61691009998321533 0.045210804790258408
1 0.60973054170608521 0.081094242632389069
1 0.62347173690795898 0.19390794634819031
0.99941384792327881 0.64395678043365479 0.081890672445297241
0.99925369024276733 0.65180259943008423 0.1598132848739624
1 0.66487675905227661 0.32247895002365112
1 0.66377896070480347 0.37089723348617554
1 0.65546292066574097 0.40637695789337158
1 0.64792966842651367 0.43488261103630066
1 0.67527526617050171 0.45761102437973022
1 0.64178121089935303 0.33119645714759827
1 0.6494365930557251 0.37407270073890686
1 0.67304843664169312 0.44869992136955261
1 0.70723134279251099 0.55754965543746948
0.99917811155319214 0.73360544443130493 0.63807827234268188
0.99981427192687988 0.73030960559844971 0.65085726976394653
1 0.75076985359191895 0.63923102617263794
1 0.67635267972946167 0.461597740650177
1 0.68386662006378174 0.48925933241844177
1 0.70446407794952393 0.54137265682220459
1 0.74026459455490112 0.61789733171463013
0.99243426322937012 0.79265111684799194 0.71970772743225098
0.94863235950469971 0.83945250511169434 0.81032788753509521
0.9981921911239624 0.83078843355178833 0.77313745021820068
1 0.71458029747009277 0.55211758613586426
1 0.72403746843338013 0.56502062082290649
1 0.74306255578994751 0.60862809419631958
1 0.77661007642745972 0.67418587207794189
1 0.8204924464225769 0.74444347620010376
0.99987828731536865 0.84694486856460571 0.77854639291763306
1 0.83601003885269165 0.76060539484024048
1 0.62880665063858032 0.00079656863817945123
1 0.63040697574615479 0.0044719022698700428
1 0.63529974222183228 0.0069101219996809959
1 0.63772118091583252 0.00080201390665024519
1 0.6485295295715332 0
1 0.66424000263214111 0.00063685997156426311
1 0.66935259103775024 0
1 0.63856720924377441 0.000880192790646106
0.99988436698913574 0.63902193307876587 0.013709872029721737
1 0.64366847276687622 0.012541214004158974
1 0.64795380830764771 0.012003520503640175
1 0.66176700592041016 0.0091268653050065041
1 0.67756295204162598 0.013145461678504944
1 0.68996596336364746 0.0037959229666739702
1 0.66722232103347778 0.0060588610358536243
0.99999856948852539 0.66649806499481201 0.0052676182240247726
1 0.66929203271865845 0
1 0.67590129375457764 8.9757586465566419e-06
1 0.69013857841491699 0
1 0.69473576545715332 0
1 0.70487767457962036 0.0031025605276226997
1 0.70599925518035889 0.030888352543115616
1 0.71478939056396484 0.075084656476974487
1 0.71975702047348022 0.12563550472259521
1 0.72452247142791748 0.15652018785476685
1 0.732077956199646 0.17648762464523315
1 0.73088949918746948 0.23072448372840881
0.99971425533294678 0.72973483800888062 0.33245155215263367
1 0.70615267753601074 0.2601463794708252
1 0.71817362308502197 0.29410931468009949
1 0.74279165267944336 0.40383678674697876
1 0.76975679397583008 0.46968966722488403
0.99945217370986938 0.78071457147598267 0.52156335115432739
0.99999690055847168 0.77787512540817261 0.54993748664855957
0.99461418390274048 0.77036798000335693 0.57730674743652344
1 0.71099591255187988 0.39940556883811951
1 0.71734070777893066 0.43188539147377014
0.99988198280334473 0.73718118667602539 0.49980109930038452
0.99777382612228394 0.76650452613830566 0.57599496841430664
0.99994164705276489 0.80490946769714355 0.67676293849945068
0.99996435642242432 0.83707618713378906 0.75789207220077515
0.9989699125289917 0.83455342054367065 0.7690739631652832
1 0.73123842477798462 0.53820645809173584
1 0.7357107400894165 0.56095045804977417
0.99726712703704834 0.75500881671905518 0.60484009981155396
0.99607843160629272 0.78481626510620117 0.66458070278167725
0.99974715709686279 0.82588964700698853 0.74160575866699219
0.99681645631790161 0.87439614534378052 0.82988476753234863
0.96598893404006958 0.91735416650772095 0.90338104963302612
