assets/lut/picturefx analogfx soft sepia ii.cube
# Created by: G'MIC (https://gmic.eu)
TITLE "analogfx_soft_sepia_ii"
# LUT size
LUT_3D_SIZE 5
# Data domain
DOMAIN_MIN 0.0 0.0 0.0
DOMAIN_MAX 1.0 1.0 1.0
# LUT data points
0.00022206026187632233 2.5850184101727791e-05 8.4013096056878567e-05
0.10709124058485031 0.024672204628586769 0
0.29453036189079285 0.11604273319244385 1.2925092050863896e-05
0.52027368545532227 0.22879879176616669 0
0.76363074779510498 0.35174852609634399 0
0.19469135999679565 0.053812138736248016 0
0.2132289707660675 0.059136036783456802 8.3295039075892419e-05
0.35438770055770874 0.13007970154285431 0.0022244921419769526
0.56909435987472534 0.24243547022342682 0.0017146690515801311
0.81199038028717041 0.36865544319152832 0.0015318627702072263
0.47740998864173889 0.14879469573497772 0
0.48157936334609985 0.15529298782348633 0
0.5089576244354248 0.17413961887359619 0.0034334370866417885
0.64493823051452637 0.24783618748188019 0
0.87117153406143188 0.36673596501350403 0
0.83305841684341431 0.24325273931026459 0.00034212597529403865
0.83306443691253662 0.24282762408256531 0.00094791484298184514
0.83172047138214111 0.25259268283843994 0
0.83197849988937378 0.26172855496406555 0
0.94257271289825439 0.33936882019042969 0.00382258091121912
1 0.31747633218765259 0.0095064649358391762
1 0.3166012167930603 0
1 0.32320660352706909 0.00024746166309341788
1 0.33242872357368469 0.004406394436955452
1 0.36495098471641541 0.02127470076084137
0.13223503530025482 0.031805448234081268 0
0.18090777099132538 0.058953139930963516 0
0.32725092768669128 0.12669055163860321 5.6008731917245314e-05
0.53443211317062378 0.23179137706756592 0
0.81688016653060913 0.35503306984901428 0.00013535443576984107
0.24015070497989655 0.083870172500610352 0
0.26389825344085693 0.10861939191818237 0.034182231873273849
0.39356145262718201 0.14593204855918884 0.0001898372865980491
0.60115617513656616 0.24511779844760895 7.6024669397156686e-05
0.83351463079452515 0.3539215624332428 0.011812367476522923
0.48671114444732666 0.19221748411655426 8.9263914560433477e-05
0.49731338024139404 0.19516958296298981 0.00048780255019664764
0.53042149543762207 0.20211504399776459 0
0.67854899168014526 0.26249754428863525 0
0.89933902025222778 0.36233928799629211 0
0.82921391725540161 0.28400072455406189 0.0040640290826559067
0.83104956150054932 0.28212732076644897 0.0094099603593349457
0.83139729499816895 0.29252815246582031 0.0046012727543711662
0.83407068252563477 0.2972446084022522 0.0030535080004483461
0.96910524368286133 0.34716251492500305 0
0.99897980690002441 0.35777679085731506 1.3463637515087612e-05
1 0.35752829909324646 0
1 0.36188691854476929 0
1 0.36011087894439697 0
1 0.37702548503875732 0.013336630538105965
0.59276485443115234 0.24703934788703918 0
0.61645662784576416 0.26626807451248169 0
0.62251347303390503 0.28252103924751282 0
0.79528939723968506 0.37881326675415039 0
0.99708497524261475 0.480001300573349 0
0.66301542520523071 0.28266596794128418 0
0.68073362112045288 0.27923250198364258 0.00087338616140186787
0.70456349849700928 0.29373010993003845 0.023403901606798172
0.87649881839752197 0.38657099008560181 0
0.99991685152053833 0.48915645480155945 0.010679985396564007
0.73274612426757812 0.32693859934806824 0.025540459901094437
0.74987363815307617 0.36747923493385315 0.13679315149784088
0.75083440542221069 0.43141528964042664 0.29864534735679626
0.93751871585845947 0.45507800579071045 0.17048288881778717
0.9976353645324707 0.52483868598937988 0.081853486597537994
0.98518556356430054 0.4878000020980835 0.048820570111274719
0.9727550745010376 0.51851391792297363 0.12280493229627609
0.9808235764503479 0.53095978498458862 0.17623370885848999
0.97767990827560425 0.51528644561767578 0.15219970047473907
0.99935078620910645 0.53393024206161499 0.092392846941947937
0.99907827377319336 0.57574152946472168 0.21265526115894318
0.99941813945770264 0.57253718376159668 0.20370455086231232
0.99896073341369629 0.57092320919036865 0.18786269426345825
0.99994397163391113 0.5650978684425354 0.16511939465999603
1 0.56034547090530396 0.1417086273431778
1 0.57200080156326294 0
0.9999842643737793 0.57128667831420898 0
1 0.56739240884780884 0
1 0.56126374006271362 0.00024696797481738031
1 0.59223252534866333 0
0.99232947826385498 0.58478403091430664 0.0019987516570836306
0.99812275171279907 0.59189718961715698 0.0034426820930093527
0.99857968091964722 0.57057029008865356 0.0041327830404043198
0.99779534339904785 0.53642821311950684 0
1 0.57195496559143066 0.0067766224965453148
0.99981796741485596 0.53852319717407227 0.0039004157297313213
0.99788498878479004 0.56209290027618408 0.1461324542760849
1 0.58563780784606934 0.35518303513526917
0.99988621473312378 0.58072006702423096 0.3908558189868927
1 0.65465360879898071 0.40781170129776001
0.99987161159515381 0.60442936420440674 0.32702407240867615
0.99959862232208252 0.62859773635864258 0.39450347423553467
0.99999761581420898 0.69123262166976929 0.53941583633422852
0.96296423673629761 0.77776479721069336 0.72231578826904297
0.99893635511398315 0.76734864711761475 0.65046066045761108
1 0.67269527912139893 0.49562999606132507
1 0.69702035188674927 0.54698371887207031
1 0.74098855257034302 0.62235194444656372
1 0.77923321723937988 0.67113620042800903
0.99753975868225098 0.7609979510307312 0.63627201318740845
1 0.63223367929458618 0
0.99958270788192749 0.6295127272605896 0
1 0.64616894721984863 0
1 0.66272979974746704 0
1 0.68251258134841919 0
1 0.65057843923568726 0.0017033296171575785
1 0.65108907222747803 0.0022141251247376204
1 0.66833269596099854 0.015266628004610538
1 0.68487292528152466 0.017595941200852394
1 0.68294709920883179 0.0025246713776141405
1 0.6829904317855835 0
1 0.69547915458679199 0.0047085480764508247
1 0.69537997245788574 0.035858303308486938
1 0.69542443752288818 0.047177542001008987
1 0.69790410995483398 0.16621981561183929
1 0.67858833074569702 0.12199515849351883
1 0.70255750417709351 0.26497036218643188
0.99994337558746338 0.75100874900817871 0.45901471376419067
0.99889469146728516 0.78619980812072754 0.59779506921768188
1 0.78130817413330078 0.62854862213134766
1 0.68807011842727661 0.46379297971725464
0.99983316659927368 0.71125692129135132 0.51345378160476685
0.99607843160629272 0.76137292385101318 0.60992515087127686
1 0.8385617733001709 0.7620774507522583
0.96918874979019165 0.915183424949646 0.90001362562179565
