assets/lut/picturefx analogfx anno 1870 color.cube
# Created by: G'MIC (https://gmic.eu)
TITLE "analogfx_anno_1870_color"
# LUT size
LUT_3D_SIZE 7
# Data domain
DOMAIN_MIN 0.0 0.0 0.0
DOMAIN_MAX 1.0 1.0 1.0
# LUT data points
0.019047366455197334 0.014301628805696964 0.0079878261312842369
0.059514392167329788 0.0073993457481265068 0.0098187914118170738
0.11089314520359039 0.035043798387050629 0.033179130405187607
0.16897262632846832 0.087890580296516418 0.076328322291374207
0.26416048407554626 0.14907605946063995 0.1306346207857132
0.40357649326324463 0.25298964977264404 0.21817329525947571
0.54816657304763794 0.35816249251365662 0.30953112244606018
0.049477342516183853 0.047773938626050949 0.023749900981783867
0.090634092688560486 0.068340137600898743 0.042386837303638458
0.13377645611763 0.085463397204875946 0.062514573335647583
0.20020791888237 0.12290196120738983 0.10012398660182953
0.30825948715209961 0.19421429932117462 0.1634436696767807
0.43991178274154663 0.28825598955154419 0.24513174593448639
0.61831402778625488 0.42262980341911316 0.36833149194717407
0.15283897519111633 0.14448255300521851 0.09848148375749588
0.1793132871389389 0.16116040945053101 0.11302968859672546
0.2226073294878006 0.18601405620574951 0.13540412485599518
0.28373149037361145 0.21652136743068695 0.16664497554302216
0.39797711372375488 0.28719708323478699 0.23371531069278717
0.54034078121185303 0.38722491264343262 0.32498389482498169
0.71276485919952393 0.51927584409713745 0.44536596536636353
0.31157022714614868 0.29421913623809814 0.21327449381351471
0.34771338105201721 0.32384786009788513 0.23982740938663483
0.38597032427787781 0.34597823023796082 0.26246961951255798
0.45819583535194397 0.39566788077354431 0.30647358298301697
0.57505649328231812 0.47331628203392029 0.38146445155143738
0.69702750444412231 0.54793190956115723 0.45456567406654358
0.82638746500015259 0.63881403207778931 0.53684979677200317
0.58617115020751953 0.54798042774200439 0.42590108513832092
0.60689234733581543 0.56364166736602783 0.44026011228561401
0.64331108331680298 0.58945894241333008 0.46369516849517822
0.69898867607116699 0.62632042169570923 0.49678060412406921
0.77267545461654663 0.67096865177154541 0.53752720355987549
0.8426777720451355 0.70585352182388306 0.57145518064498901
0.91477406024932861 0.74722880125045776 0.61086255311965942
0.79593199491500854 0.73125088214874268 0.57553791999816895
0.79962348937988281 0.73105376958847046 0.57514268159866333
0.82889622449874878 0.75144016742706299 0.593211829662323
0.86037147045135498 0.76955217123031616 0.6084325909614563
0.90373098850250244 0.79031425714492798 0.62729191780090332
0.94928067922592163 0.81639456748962402 0.65170341730117798
0.98528474569320679 0.84947443008422852 0.6746174693107605
0.92340469360351562 0.85285604000091553 0.66176378726959229
0.92409896850585938 0.85385382175445557 0.66206520795822144
0.93674522638320923 0.85890829563140869 0.66552722454071045
0.95542246103286743 0.87163323163986206 0.67454731464385986
0.97731477022171021 0.8806648850440979 0.68305128812789917
0.99785643815994263 0.89885479211807251 0.69566553831100464
1 0.94067049026489258 0.72963917255401611
0.022880464792251587 0.00057256361469626427 0.01962769404053688
0.059828814119100571 0.0024838766548782587 0.03487040102481842
0.10858626663684845 0.026938164606690407 0.046194426715373993
0.16382811963558197 0.075700186192989349 0.077283777296543121
0.25813055038452148 0.13891616463661194 0.12736287713050842
0.39734074473381042 0.24240316450595856 0.21446847915649414
0.53560405969619751 0.34346672892570496 0.30089002847671509
0.045890390872955322 0.046108469367027283 0.045719355344772339
0.078375391662120819 0.043573684990406036 0.04711952805519104
0.12770602107048035 0.064935453236103058 0.055779058486223221
0.18031546473503113 0.095124535262584686 0.083483003079891205
0.28405463695526123 0.1670413613319397 0.14279724657535553
0.41906750202178955 0.26454868912696838 0.22673453390598297
0.59985381364822388 0.40357571840286255 0.35203653573989868
0.13548983633518219 0.14005939662456512 0.098295919597148895
0.16359418630599976 0.15463775396347046 0.11017826944589615
0.22257955372333527 0.18470223248004913 0.13579951226711273
0.27971997857093811 0.20440798997879028 0.15933185815811157
0.37784954905509949 0.26286712288856506 0.21364720165729523
0.52509349584579468 0.36948058009147644 0.31106579303741455
0.69945436716079712 0.50340211391448975 0.43308186531066895
0.29524141550064087 0.28720343112945557 0.20844505727291107
0.32077109813690186 0.30332943797111511 0.22179219126701355
0.37138569355010986 0.33510357141494751 0.25228661298751831
0.46737632155418396 0.40402147173881531 0.31421414017677307
0.56681728363037109 0.46005973219871521 0.37143063545227051
0.68852049112319946 0.53839504718780518 0.44532328844070435
0.81834489107131958 0.62888127565383911 0.52984237670898438
0.58704286813735962 0.55537772178649902 0.43023791909217834
0.60310840606689453 0.56658154726028442 0.44104573130607605
0.63909631967544556 0.58778268098831177 0.4610755443572998
0.69877403974533081 0.62682610750198364 0.49751564860343933
0.7728954553604126 0.67123901844024658 0.53807765245437622
0.84667849540710449 0.70907473564147949 0.57479977607727051
0.92728579044342041 0.75629895925521851 0.6195794939994812
0.79030054807662964 0.72762244939804077 0.57256412506103516
0.79803931713104248 0.73327088356018066 0.57739228010177612
0.82395124435424805 0.74783992767333984 0.59109461307525635
0.85827291011810303 0.76843857765197754 0.6072351336479187
0.9044068455696106 0.79115396738052368 0.62787717580795288
0.94405096769332886 0.81511497497558594 0.64783453941345215
0.98538708686828613 0.84924495220184326 0.67519265413284302
0.91269105672836304 0.84661674499511719 0.65694499015808105
0.91929560899734497 0.84780538082122803 0.65809756517410278
0.93396651744842529 0.8560253381729126 0.66345489025115967
0.95404344797134399 0.87007468938827515 0.67398536205291748
0.97629630565643311 0.88308227062225342 0.68379020690917969
0.99811279773712158 0.90368515253067017 0.6976197361946106
1 0.94576102495193481 0.73128950595855713
0.070322252810001373 0.0048554213717579842 0.061420202255249023
0.086809121072292328 0.013937287963926792 0.071321569383144379
0.11908064037561417 0.044869203120470047 0.091135390102863312
0.17469273507595062 0.085673809051513672 0.11816415190696716
0.25914162397384644 0.13737554848194122 0.15837834775447845
0.37643572688102722 0.21938630938529968 0.22278481721878052
0.4972071647644043 0.30254197120666504 0.27864477038383484
0.059962507337331772 0.0097272833809256554 0.058001276105642319
0.071969069540500641 0.0096965115517377853 0.062156632542610168
0.12192894518375397 0.04503236711025238 0.089664161205291748
0.18047519028186798 0.087163083255290985 0.11466571688652039
0.26625168323516846 0.14189644157886505 0.15188783407211304
0.38177615404129028 0.21897873282432556 0.20564082264900208
0.54755693674087524 0.34745484590530396 0.31202811002731323
0.12517108023166656 0.12883877754211426 0.13029113411903381
0.14715825021266937 0.13937406241893768 0.1420285552740097
0.20843878388404846 0.15207035839557648 0.15076257288455963
0.24267539381980896 0.14402848482131958 0.13234616816043854
0.32522350549697876 0.19496554136276245 0.1690731942653656
0.4631226658821106 0.29922580718994141 0.25796312093734741
0.65266460180282593 0.44918069243431091 0.39126920700073242
0.2747495174407959 0.27968108654022217 0.22905930876731873
0.29018598794937134 0.28887531161308289 0.2260662168264389
0.35518419742584229 0.32448935508728027 0.24504128098487854
0.47492596507072449 0.40184560418128967 0.31640729308128357
0.56110364198684692 0.44012856483459473 0.3595544695854187
0.66044372320175171 0.50107234716415405 0.41786995530128479
0.79443556070327759 0.59617871046066284 0.50716686248779297
0.55751460790634155 0.53806555271148682 0.42059522867202759
0.57438921928405762 0.54875773191452026 0.42702528834342957
0.62001121044158936 0.5755544900894165 0.45134252309799194
0.69097459316253662 0.62112033367156982 0.49193897843360901
0.78237313032150269 0.67852139472961426 0.54495084285736084
0.84637850522994995 0.70241987705230713 0.57119178771972656
0.9151424765586853 0.73940837383270264 0.60844439268112183
0.7657618522644043 0.71347063779830933 0.55929231643676758
0.78374457359313965 0.72814846038818359 0.57133597135543823
0.81071901321411133 0.74087715148925781 0.58473587036132812
0.84844613075256348 0.76136273145675659 0.60189610719680786
0.89926755428314209 0.78915506601333618 0.62578463554382324
0.95152372121810913 0.81652605533599854 0.65090036392211914
0.98166966438293457 0.84209537506103516 0.6708100438117981
0.90308272838592529 0.84378010034561157 0.65418440103530884
0.90842974185943604 0.84583550691604614 0.65620344877243042
0.92218959331512451 0.85015189647674561 0.6596788763999939
0.94541442394256592 0.86389529705047607 0.67192822694778442
0.97126179933547974 0.87635654211044312 0.68170982599258423
0.99394702911376953 0.90110200643539429 0.69716298580169678
0.99987936019897461 0.92762619256973267 0.71618485450744629
0.11069120466709137 0.037731260061264038 0.098717629909515381
0.12180708348751068 0.050533324480056763 0.10718216001987457
0.14770916104316711 0.072413332760334015 0.12746548652648926
0.20508831739425659 0.10788747668266296 0.1633191853761673
0.28259465098381042 0.15921702980995178 0.21153135597705841
0.39589759707450867 0.23755472898483276 0.2769167423248291
0.51107949018478394 0.31848710775375366 0.34332385659217834
0.097502417862415314 0.026840703561902046 0.087985724210739136
0.11320646852254868 0.04156908392906189 0.10118015110492706
0.14289657771587372 0.06885325163602829 0.12257826328277588
0.20627382397651672 0.10837982594966888 0.16447585821151733
0.28945711255073547 0.16251102089881897 0.21137763559818268
0.40740269422531128 0.2448238730430603 0.27884843945503235
0.546580970287323 0.34975963830947876 0.36637377738952637
0.12805436551570892 0.088163517415523529 0.12796834111213684
0.12208087742328644 0.070498958230018616 0.11753731220960617
0.12850888073444366 0.048704586923122406 0.10911726206541061
0.21886962652206421 0.11222130060195923 0.16604176163673401
0.31735178828239441 0.17894162237644196 0.21506793797016144
0.41963616013526917 0.25053954124450684 0.26355162262916565
0.56403326988220215 0.36139744520187378 0.35264387726783752
0.27173289656639099 0.2720368504524231 0.27739325165748596
0.27889928221702576 0.27612015604972839 0.28042256832122803
0.3233603835105896 0.29226386547088623 0.29809218645095825
0.46744164824485779 0.33748987317085266 0.32703492045402527
0.46940746903419495 0.30455881357192993 0.26933947205543518
0.54943656921386719 0.36614367365837097 0.31924229860305786
0.71195560693740845 0.49968409538269043 0.43638631701469421
0.54703402519226074 0.54786688089370728 0.49656221270561218
0.55583113431930542 0.55212074518203735 0.49131852388381958
0.59492409229278564 0.567920982837677 0.47655755281448364
0.6835283637046814 0.61128467321395874 0.48881706595420837
0.81246793270111084 0.68961590528488159 0.56186485290527344
0.84853816032409668 0.68625766038894653 0.56628870964050293
0.89930790662765503 0.71123248338699341 0.59562629461288452
0.74665158987045288 0.7151334285736084 0.5989154577255249
0.75349974632263184 0.71765345335006714 0.58525305986404419
0.78378152847290039 0.72987622022628784 0.58121806383132935
0.82693994045257568 0.75093346834182739 0.59956860542297363
0.89362084865570068 0.78489351272583008 0.63030898571014404
0.95841282606124878 0.82291513681411743 0.66388201713562012
0.98432892560958862 0.84302729368209839 0.67889404296875
0.87613946199417114 0.83602511882781982 0.65691870450973511
0.88321381807327271 0.83966660499572754 0.65716439485549927
0.90076029300689697 0.84936022758483887 0.66494584083557129
0.92628687620162964 0.86281639337539673 0.67525011301040649
0.96156889200210571 0.88097137212753296 0.69132483005523682
0.99342626333236694 0.89955097436904907 0.70715498924255371
0.99987506866455078 0.93383431434631348 0.73817479610443115
0.16795782744884491 0.085443146526813507 0.14990493655204773
0.1745145171880722 0.091405309736728668 0.15480178594589233
0.19893889129161835 0.10640329122543335 0.17454618215560913
0.24151119589805603 0.13375517725944519 0.20605498552322388
0.32524630427360535 0.19217270612716675 0.26525023579597473
0.42759129405021667 0.26626086235046387 0.33644983172416687
0.53113925457000732 0.3393707275390625 0.40071043372154236
0.15750490128993988 0.07891160249710083 0.14297063648700714
0.16965062916278839 0.087614767253398895 0.15198123455047607
0.19498889148235321 0.1036677211523056 0.17184609174728394
0.24101677536964417 0.13379134237766266 0.20606942474842072
0.32529973983764648 0.19273540377616882 0.2660471498966217
0.44014066457748413 0.27494040131568909 0.34540721774101257
0.58354002237319946 0.38576069474220276 0.4451497495174408
0.15023566782474518 0.07600732147693634 0.13920010626316071
0.15682666003704071 0.081397905945777893 0.14470037817955017
0.17459394037723541 0.088671021163463593 0.15521030128002167
0.23797382414340973 0.13194508850574493 0.20172654092311859
0.34179028868675232 0.20410001277923584 0.27718612551689148
0.45982146263122559 0.29083573818206787 0.35714972019195557
0.60640639066696167 0.40245065093040466 0.45525762438774109
0.25098896026611328 0.19770137965679169 0.24442297220230103
0.24985164403915405 0.19199296832084656 0.24216729402542114
0.21542319655418396 0.1418926864862442 0.20095431804656982
0.2258986234664917 0.11700797080993652 0.18854673206806183
0.39905634522438049 0.24150550365447998 0.31232115626335144
0.525229811668396 0.33493265509605408 0.38847005367279053
0.64207184314727783 0.42682516574859619 0.45855432748794556
0.54541552066802979 0.53832828998565674 0.5470394492149353
0.55515015125274658 0.54440122842788696 0.55167067050933838
0.58756327629089355 0.56303274631500244 0.57301580905914307
0.66621536016464233 0.5961463451385498 0.60645502805709839
0.84170585870742798 0.64696520566940308 0.6400490403175354
0.8089330792427063 0.59889692068099976 0.57263892889022827
0.82316893339157104 0.60767865180969238 0.56618720293045044
0.73694634437561035 0.72634810209274292 0.68726176023483276
0.74943161010742188 0.73459124565124512 0.69309163093566895
0.76670682430267334 0.74016767740249634 0.68490904569625854
0.80748718976974487 0.75314980745315552 0.67425680160522461
0.88805985450744629 0.78386992216110229 0.68396157026290894
0.96889799833297729 0.82566338777542114 0.72045677900314331
0.97940105199813843 0.82927501201629639 0.72211450338363647
0.84310710430145264 0.83878260850906372 0.74684524536132812
0.84796345233917236 0.83970147371292114 0.74045282602310181
0.86052525043487549 0.84375661611557007 0.72524267435073853
0.88612306118011475 0.85356801748275757 0.71540433168411255
0.93450355529785156 0.87738966941833496 0.73128962516784668
0.98139876127243042 0.8959386944770813 0.75058180093765259
0.9999813437461853 0.95175087451934814 0.79651355743408203
0.23463614284992218 0.13085031509399414 0.20644205808639526
0.24365484714508057 0.13743828237056732 0.21408519148826599
0.2707122266292572 0.15621967613697052 0.23629648983478546
0.31277927756309509 0.18522635102272034 0.26865741610527039
0.38211211562156677 0.23429469764232635 0.32089191675186157
0.45661923289299011 0.28655317425727844 0.37759071588516235
0.55714476108551025 0.36390760540962219 0.45383810997009277
0.22950813174247742 0.1285398006439209 0.2033570408821106
0.23922400176525116 0.13334816694259644 0.21026210486888885
0.26681038737297058 0.1524517685174942 0.23298224806785583
0.30907067656517029 0.18311484158039093 0.26505574584007263
0.39020892977714539 0.2431800365447998 0.3295016884803772
0.48741379380226135 0.31526410579681396 0.40674006938934326
0.62205368280410767 0.42208671569824219 0.51123613119125366
0.20433157682418823 0.10701446235179901 0.18151076138019562
0.21632190048694611 0.11716841161251068 0.19124151766300201
0.24567307531833649 0.13830205798149109 0.21491478383541107
0.300249844789505 0.17719310522079468 0.25804927945137024
0.39451432228088379 0.24508140981197357 0.33100265264511108
0.49685990810394287 0.32258638739585876 0.41342377662658691
0.64034229516983032 0.43612983822822571 0.52432501316070557
0.26601380109786987 0.17797262966632843 0.24531060457229614
0.25880882143974304 0.16746936738491058 0.23752999305725098
0.21963775157928467 0.12237188220024109 0.19553099572658539
0.26583302021026611 0.14926569163799286 0.23054654896259308
0.38694068789482117 0.23843853175640106 0.32583945989608765
0.53031963109970093 0.34793677926063538 0.43869471549987793
0.68317955732345581 0.4709351658821106 0.5582548975944519
0.50180798768997192 0.43602681159973145 0.48455908894538879
0.49882978200912476 0.42900386452674866 0.47904092073440552
0.46988102793693542 0.39354082942008972 0.44672122597694397
0.43742215633392334 0.33594173192977905 0.40087974071502686
0.47780448198318481 0.3254716694355011 0.40760403871536255
0.70906156301498413 0.51015061140060425 0.58703517913818359
0.79322826862335205 0.57551366090774536 0.63891732692718506
0.74247819185256958 0.71917188167572021 0.72986471652984619
0.75004738569259644 0.72454833984375 0.73434913158416748
0.76458263397216797 0.72917741537094116 0.73975306749343872
0.80124878883361816 0.74503171443939209 0.75757616758346558
0.8839796781539917 0.77802097797393799 0.78928858041763306
0.95903557538986206 0.80459678173065186 0.8109322190284729
0.95741361379623413 0.77913647890090942 0.77204346656799316
0.83766788244247437 0.84539735317230225 0.81238472461700439
0.84158599376678467 0.84986323118209839 0.81441682577133179
0.85008025169372559 0.85191822052001953 0.81174230575561523
0.869221031665802 0.86303454637527466 0.81217968463897705
0.90799611806869507 0.87632995843887329 0.80853676795959473
0.97720670700073242 0.91474330425262451 0.83466476202011108
0.99998599290847778 0.9646906852722168 0.88158619403839111
0.29704120755195618 0.17435279488563538 0.26876914501190186
0.30643811821937561 0.18179640173912048 0.27581566572189331
0.33101940155029297 0.19747819006443024 0.28783702850341797
0.37112218141555786 0.22739702463150024 0.32043659687042236
0.41115620732307434 0.2539915144443512 0.35625675320625305
0.48303762078285217 0.30642884969711304 0.41261735558509827
0.59353768825531006 0.39788243174552917 0.5089874267578125
0.29531154036521912 0.17305195331573486 0.26379567384719849
0.30283018946647644 0.17969533801078796 0.27165412902832031
0.32848984003067017 0.19653277099132538 0.28978824615478516
0.36900335550308228 0.22665961086750031 0.3234306275844574
0.44103908538818359 0.28222385048866272 0.37974479794502258
0.5334588885307312 0.35228410363197327 0.45593470335006714
0.65096831321716309 0.44918075203895569 0.56337940692901611
0.2736370861530304 0.15873555839061737 0.2459699958562851
0.28424042463302612 0.16670520603656769 0.25961339473724365
0.30782541632652283 0.18213799595832825 0.27240413427352905
0.35797333717346191 0.21928733587265015 0.32013171911239624
0.43791469931602478 0.28024962544441223 0.38040557503700256
0.53033483028411865 0.35170891880989075 0.45798492431640625
0.6640891432762146 0.45898962020874023 0.57646673917770386
0.25940737128257751 0.1550765335559845 0.24381905794143677
0.25240519642829895 0.14575962722301483 0.23893897235393524
0.27132353186607361 0.15719881653785706 0.2533382773399353
0.33039364218711853 0.19956527650356293 0.29796385765075684
0.41471421718597412 0.26285615563392639 0.36819860339164734
0.52535945177078247 0.34863376617431641 0.45740926265716553
0.67577409744262695 0.4695751965045929 0.58831906318664551
0.44860264658927917 0.36925342679023743 0.44704228639602661
0.43824383616447449 0.35685950517654419 0.43644505739212036
0.3929513692855835 0.30268782377243042 0.38797971606254578
0.31883394718170166 0.21343666315078735 0.30619260668754578
0.390085369348526 0.25437274575233459 0.35524603724479675
0.56018245220184326 0.39190253615379333 0.50123929977416992
0.74106860160827637 0.53958046436309814 0.6504673957824707
0.67139101028442383 0.647236168384552 0.695911705493927
0.66973739862442017 0.64313209056854248 0.69371312856674194
0.65798014402389526 0.62317138910293579 0.67748516798019409
0.66010349988937378 0.60478073358535767 0.66857463121414185
0.65974920988082886 0.56664061546325684 0.64122563600540161
0.73434817790985107 0.59274888038635254 0.67814928293228149
0.89236932992935181 0.72221648693084717 0.7982146143913269
0.78994947671890259 0.85091882944107056 0.85652762651443481
0.79185181856155396 0.84887301921844482 0.85489970445632935
0.80425715446472168 0.85229033231735229 0.85770481824874878
0.82718110084533691 0.85754847526550293 0.86429023742675781
0.86904877424240112 0.86652296781539917 0.87441086769104004
0.93472874164581299 0.88904887437820435 0.89728468656539917
0.99425739049911499 0.94712871313095093 0.95301151275634766
