assets/lut/picturefx faux infrared color r0b.cube
# Created by: G'MIC (https://gmic.eu)
TITLE "faux_infrared_color_r0b"
# LUT size
LUT_3D_SIZE 13
# Data domain
DOMAIN_MIN 0.0 0.0 0.0
DOMAIN_MAX 1.0 1.0 1.0
# LUT data points
0.049663916230201721 0.036338552832603455 0.039092298597097397
0.10705587267875671 0.028492722660303116 0.032057173550128937
0.20873954892158508 0.021643934771418571 0.034967176616191864
0.34196332097053528 0.013257104903459549 0.048373531550168991
0.48371037840843201 0.0049611558206379414 0.062862291932106018
0.61766701936721802 0.0017228369833901525 0.077331706881523132
0.74385190010070801 0.00034586587571538985 0.095758311450481415
0.83161473274230957 0.0028255986981093884 0.11886300146579742
0.89680582284927368 0.0077240588143467903 0.14543260633945465
0.94918006658554077 0.016644496470689774 0.16926029324531555
0.96424716711044312 0.02846851758658886 0.17858031392097473
0.9666447639465332 0.034533526748418808 0.18031202256679535
0.96871846914291382 0.037366993725299835 0.18076825141906738
0.13263878226280212 0.04223937913775444 0.048698008060455322
0.19155465066432953 0.036069322377443314 0.047836273908615112
0.2873750627040863 0.026341352611780167 0.052429679781198502
0.40454766154289246 0.012781254947185516 0.059277106076478958
0.52524423599243164 0.0045993877574801445 0.06860891729593277
0.64348787069320679 0.0033896800596266985 0.082830600440502167
0.75257390737533569 0.0021360060200095177 0.1011524423956871
0.83744919300079346 0.0030546898487955332 0.12118187546730042
0.90296578407287598 0.0097608380019664764 0.1468406468629837
0.94981271028518677 0.025354184210300446 0.1702214777469635
0.9662708044052124 0.040233071893453598 0.18217961490154266
0.96955591440200806 0.047714188694953918 0.18532223999500275
0.97230356931686401 0.051238175481557846 0.18629811704158783
0.27889817953109741 0.04998556524515152 0.074229881167411804
0.32758024334907532 0.038548547774553299 0.072967544198036194
0.40319165587425232 0.017439000308513641 0.067990310490131378
0.49448123574256897 0.0036234688013792038 0.066172204911708832
0.59624689817428589 0.00023941339168231934 0.07477259635925293
0.69346827268600464 0.00088714901357889175 0.089727915823459625
0.77538716793060303 0.0036648469977080822 0.10616621375083923
0.84869390726089478 0.004930578637868166 0.12510403990745544
0.91072726249694824 0.016336388885974884 0.150713250041008
0.95351815223693848 0.037077870219945908 0.1740136593580246
0.9723670482635498 0.055236965417861938 0.18677736818790436
0.9750252366065979 0.064617887139320374 0.19149079918861389
0.97780680656433105 0.067462503910064697 0.19271726906299591
0.44373553991317749 0.049562148749828339 0.1026475802063942
0.47976461052894592 0.029638791456818581 0.094684064388275146
0.53248965740203857 0.012011120095849037 0.088868819177150726
0.60045915842056274 0.0037436841521412134 0.08558952808380127
0.67916369438171387 0.00038589775795117021 0.086446411907672882
0.75076919794082642 0.0034139147028326988 0.10004956275224686
0.81365662813186646 0.0058106663636863232 0.1173308864235878
0.87322324514389038 0.010138537734746933 0.13742788136005402
0.9269830584526062 0.026959527283906937 0.1618058979511261
0.96446514129638672 0.054784782230854034 0.18287466466426849
0.98352521657943726 0.0760163813829422 0.19432076811790466
0.98462039232254028 0.084450632333755493 0.1987004429101944
0.98622161149978638 0.085896722972393036 0.19943514466285706
0.59602481126785278 0.054246969521045685 0.13654854893684387
0.6181950569152832 0.036357026547193527 0.13110263645648956
0.65576481819152832 0.018678538501262665 0.1259743869304657
0.70073336362838745 0.0084114819765090942 0.11943180114030838
0.75803488492965698 0.0028276930097490549 0.11045379936695099
0.8105970025062561 0.0049946801736950874 0.11539553105831146
0.85813063383102417 0.011792874895036221 0.1333807110786438
0.90672969818115234 0.023192776367068291 0.1565258800983429
0.95027196407318115 0.047594856470823288 0.17722451686859131
0.97949177026748657 0.080058455467224121 0.19560323655605316
0.99260431528091431 0.10137498378753662 0.20500016212463379
0.99343687295913696 0.10586052387952805 0.20692367851734161
0.99378705024719238 0.11070723831653595 0.20955120027065277
0.71744048595428467 0.09226149320602417 0.18205612897872925
0.73128128051757812 0.082026295363903046 0.17753265798091888
0.75502932071685791 0.066154271364212036 0.17243558168411255
0.78842484951019287 0.040645986795425415 0.16199123859405518
0.82467752695083618 0.030218221247196198 0.15368716418743134
0.8610491156578064 0.022742342203855515 0.15046682953834534
0.90224164724349976 0.024636063724756241 0.15856888890266418
0.94357186555862427 0.046322513371706009 0.17618605494499207
0.97517675161361694 0.080891072750091553 0.19451017677783966
0.99211257696151733 0.109498031437397 0.20836140215396881
0.99715995788574219 0.12785744667053223 0.21684776246547699
0.99628382921218872 0.13157974183559418 0.21860675513744354
0.99648779630661011 0.14187885820865631 0.22530269622802734
0.80809587240219116 0.1678277850151062 0.23802778124809265
0.81313425302505493 0.15676090121269226 0.2326006144285202
0.83036959171295166 0.14899377524852753 0.22825615108013153
0.85779827833175659 0.1291852593421936 0.21695855259895325
0.88277029991149902 0.12108664214611053 0.21367421746253967
0.91062110662460327 0.095570072531700134 0.2025517076253891
0.94134867191314697 0.087416902184486389 0.19861140847206116
0.97239339351654053 0.08894011378288269 0.2000674307346344
0.99065828323364258 0.11955210566520691 0.21363538503646851
0.99867212772369385 0.14832919836044312 0.22766029834747314
1 0.1598852276802063 0.2341882735490799
0.99862712621688843 0.16561360657215118 0.23745289444923401
0.9982261061668396 0.17535345256328583 0.24359650909900665
0.87213730812072754 0.24198225140571594 0.29733359813690186
0.87702715396881104 0.23734495043754578 0.29355180263519287
0.89048153162002563 0.23309986293315887 0.28952613472938538
0.90819060802459717 0.22539770603179932 0.28455603122711182
0.92905408143997192 0.21100312471389771 0.27392753958702087
0.95122385025024414 0.19328856468200684 0.26201516389846802
0.97462618350982666 0.17762622237205505 0.2511124312877655
0.98962664604187012 0.1642339676618576 0.24256965517997742
0.99646478891372681 0.17626653611660004 0.24658849835395813
0.99996501207351685 0.18971876800060272 0.25304052233695984
1 0.19452692568302155 0.25460276007652283
0.99997961521148682 0.19925673305988312 0.25678351521492004
0.99996733665466309 0.20638591051101685 0.26089239120483398
0.9166407585144043 0.29928615689277649 0.34771758317947388
0.92159461975097656 0.29758563637733459 0.34599161148071289
0.93128734827041626 0.29766386747360229 0.34535393118858337
0.94480687379837036 0.29165229201316833 0.33944633603096008
0.96188813447952271 0.27984002232551575 0.32802823185920715
0.97620630264282227 0.27336245775222778 0.32275763154029846
0.99092292785644531 0.25470772385597229 0.30535995960235596
0.99681299924850464 0.23971325159072876 0.29108953475952148
0.99917834997177124 0.23281677067279816 0.28386545181274414
1 0.23281943798065186 0.28130292892456055
1 0.23341555893421173 0.27913466095924377
1 0.23285500705242157 0.27702564001083374
1 0.23579877614974976 0.2781379222869873
0.95162838697433472 0.34711754322052002 0.39165419340133667
0.9561077356338501 0.34722757339477539 0.39179942011833191
0.96447092294692993 0.34488788247108459 0.38887783885002136
0.97913450002670288 0.33567720651626587 0.37725183367729187
0.98716801404953003 0.33034411072731018 0.37084057927131653
0.99015730619430542 0.32791796326637268 0.36807137727737427
0.99509561061859131 0.31485441327095032 0.35402557253837585
0.99830108880996704 0.30027830600738525 0.33883541822433472
1 0.2832285463809967 0.32216191291809082
1 0.27775111794471741 0.314544677734375
1 0.27638885378837585 0.31162697076797485
1 0.27399882674217224 0.30819433927536011
1 0.27513578534126282 0.30911418795585632
0.98488283157348633 0.38929629325866699 0.43019625544548035
0.98396486043930054 0.3875005841255188 0.4286084771156311
0.98764348030090332 0.38399562239646912 0.42456695437431335
0.99252361059188843 0.3798213005065918 0.41884070634841919
0.99331480264663696 0.37552386522293091 0.41284072399139404
0.99587810039520264 0.37047687172889709 0.4064679741859436
0.99897831678390503 0.35955283045768738 0.39351814985275269
1 0.34777843952178955 0.3796810507774353
1 0.33454558253288269 0.36558336019515991
1 0.32523709535598755 0.35405266284942627
1 0.32162454724311829 0.34921079874038696
1 0.3195764422416687 0.34656861424446106
1 0.32094162702560425 0.34750211238861084
0.99830031394958496 0.42641791701316833 0.46414801478385925
0.99600178003311157 0.42440783977508545 0.4624972939491272
0.99612069129943848 0.4209231436252594 0.45932340621948242
0.99608594179153442 0.41948780417442322 0.45619919896125793
0.99607843160629272 0.4158267080783844 0.45136833190917969
0.99653345346450806 0.40991532802581787 0.44354543089866638
0.99997431039810181 0.40177491307258606 0.43288889527320862
1 0.39082324504852295 0.41959810256958008
1 0.38161322474479675 0.40773320198059082
1 0.37417399883270264 0.39790335297584534
1 0.3678697943687439 0.38956215977668762
1 0.36415967345237732 0.3851715624332428
1 0.36584186553955078 0.3860420286655426
0.99991816282272339 0.45968508720397949 0.49555912613868713
0.99926936626434326 0.45618104934692383 0.49261090159416199
0.99946630001068115 0.45278164744377136 0.48846727609634399
0.99700784683227539 0.44964015483856201 0.48442631959915161
0.99607843160629272 0.44718298316001892 0.48026397824287415
0.99699276685714722 0.44406870007514954 0.47524043917655945
1 0.43749961256980896 0.46627521514892578
1 0.42478674650192261 0.45092573761940002
1 0.41405919194221497 0.43757244944572449
1 0.40542903542518616 0.42599326372146606
1 0.40251824259757996 0.42087188363075256
1 0.40339595079421997 0.41982412338256836
1 0.4076429009437561 0.4223155677318573
0.016724813729524612 0.14401747286319733 0.16004666686058044
0.038771536201238632 0.137247234582901 0.15202295780181885
0.13944928348064423 0.12224321812391281 0.13899697363376617
0.31469276547431946 0.086722955107688904 0.11900227516889572
0.48318374156951904 0.040538247674703598 0.09856492280960083
0.62255686521530151 0.011063774116337299 0.090712890028953552
0.74388962984085083 0.0025604995898902416 0.10044838488101959
0.83718746900558472 0.0038704667240381241 0.12124036997556686
0.90276432037353516 0.007513098418712616 0.14799374341964722
0.95008319616317749 0.021410968154668808 0.17048148810863495
0.9648512601852417 0.037494510412216187 0.18159438669681549
0.96831750869750977 0.043385956436395645 0.18388490378856659
0.96873283386230469 0.050662394613027573 0.18611340224742889
0.045127525925636292 0.15565641224384308 0.17280060052871704
0.098702572286128998 0.14777196943759918 0.16543005406856537
0.21808382868766785 0.12895673513412476 0.15088085830211639
0.37607273459434509 0.088740512728691101 0.13009011745452881
0.5237535834312439 0.04541320726275444 0.10818608850240707
0.64629578590393066 0.015722282230854034 0.098369628190994263
0.75337797403335571 0.0025355769321322441 0.10347841680049896
0.84231811761856079 0.0027377409860491753 0.12234009057283401
0.90618866682052612 0.0092234592884778976 0.14861810207366943
0.95016992092132568 0.025579100474715233 0.17138876020908356
0.96678459644317627 0.043315976858139038 0.1832137405872345
0.9705888032913208 0.052412699908018112 0.18637493252754211
0.97252297401428223 0.055169094353914261 0.18758845329284668
0.16330654919147491 0.17225545644760132 0.19474360346794128
0.23274621367454529 0.16079121828079224 0.18654432892799377
0.34298166632652283 0.13503098487854004 0.16974242031574249
0.47240996360778809 0.091103121638298035 0.14564386010169983
0.59171533584594727 0.0471230149269104 0.12171900272369385
0.69447100162506104 0.015297893434762955 0.10737458616495132
0.78139251470565796 0.0034534977748990059 0.10780729353427887
0.85707128047943115 0.0028644187841564417 0.12649601697921753
0.91485393047332764 0.014069650322198868 0.1526942253112793
0.95529919862747192 0.03683147206902504 0.17564702033996582
0.97324687242507935 0.055366948246955872 0.18676170706748962
0.97620517015457153 0.064789868891239166 0.19070357084274292
0.97776442766189575 0.066193222999572754 0.19126045703887939
0.35136324167251587 0.18825729191303253 0.2219967246055603
0.40234208106994629 0.17453703284263611 0.21300388872623444
0.48226127028465271 0.14713522791862488 0.19712169468402863
0.57814496755599976 0.10479875653982162 0.17192590236663818
0.67166280746459961 0.057169850915670395 0.14333911240100861
0.7510526180267334 0.026064928621053696 0.12390461564064026
0.81856250762939453 0.0075124106369912624 0.12168990820646286
0.88199800252914429 0.006494574248790741 0.13882230222225189
0.93183571100234985 0.025071132928133011 0.16444976627826691
0.96824878454208374 0.057110249996185303 0.18484213948249817
0.98540359735488892 0.078722171485424042 0.1952710747718811
0.98607850074768066 0.086005657911300659 0.19872106611728668
0.98777133226394653 0.086032852530479431 0.19889546930789948
0.52057862281799316 0.20706380903720856 0.25275352597236633
0.55238944292068481 0.1929587721824646 0.24363531172275543
0.61409586668014526 0.16615009307861328 0.22754693031311035
0.67732656002044678 0.12930139899253845 0.204326331615448
0.74706262350082397 0.084204956889152527 0.17439939081668854
0.80859410762786865 0.047031927853822708 0.1500607430934906
0.86301636695861816 0.015411256812512875 0.14082998037338257
0.91416549682617188 0.015849588438868523 0.15693999826908112
0.95464879274368286 0.045430142432451248 0.17864374816417694
0.98224836587905884 0.082492351531982422 0.19672009348869324
0.99370020627975464 0.10487383604049683 0.20650549232959747
0.99466651678085327 0.10830570012331009 0.20746722817420959
0.99487149715423584 0.11048169434070587 0.20896679162979126
0.65104305744171143 0.23620648682117462 0.28671982884407043
0.67831933498382568 0.22305123507976532 0.27845853567123413
0.71780610084533691 0.19892576336860657 0.26354366540908813
0.76438325643539429 0.16070780158042908 0.24014902114868164
0.81060606241226196 0.12072595208883286 0.2120572030544281
0.8575405478477478 0.076214388012886047 0.18627184629440308
0.90665769577026367 0.033884473145008087 0.16699868440628052
0.9476054310798645 0.047468073666095734 0.17748813331127167
0.97865027189254761 0.081571988761425018 0.19484353065490723
0.99428600072860718 0.11113611608743668 0.20905488729476929
0.99848252534866333 0.13144753873348236 0.21873170137405396
0.9984014630317688 0.13397429883480072 0.21930785477161407
0.99817389249801636 0.14042511582374573 0.22372354567050934
0.7497711181640625 0.27243393659591675 0.32346042990684509
0.76786738634109497 0.26529714465141296 0.31873708963394165
0.79561382532119751 0.24712805449962616 0.3048153817653656
0.82925057411193848 0.21720984578132629 0.28252044320106506
0.86736476421356201 0.18028594553470612 0.25570198893547058
0.90617209672927856 0.1350664347410202 0.22607448697090149
0.94400179386138916 0.10380570590496063 0.20834769308567047
0.97710174322128296 0.086991555988788605 0.19931656122207642
0.99369204044342041 0.12241403758525848 0.21465326845645905
0.99950689077377319 0.15135324001312256 0.22873625159263611
1 0.1646696925163269 0.23681934177875519
0.99993652105331421 0.16962184011936188 0.23977036774158478
0.99984526634216309 0.1748339980840683 0.24248626828193665
0.8302466869354248 0.31568619608879089 0.36492979526519775
0.84306144714355469 0.30720260739326477 0.35692772269248962
0.86390489339828491 0.29564592242240906 0.34575608372688293
0.88921499252319336 0.27434238791465759 0.32594764232635498
0.91755455732345581 0.24879354238510132 0.30491304397583008
0.94740241765975952 0.21491500735282898 0.27772557735443115
0.97599500417709351 0.18636195361614227 0.25594338774681091
0.99317127466201782 0.16546067595481873 0.24171967804431915
0.99915087223052979 0.17678411304950714 0.24519932270050049
1 0.19435903429985046 0.25552111864089966
1 0.20201107859611511 0.25998726487159729
1 0.20741190016269684 0.2630704939365387
1 0.21039240062236786 0.2638663649559021
0.88555741310119629 0.35675784945487976 0.40360873937606812
0.89232289791107178 0.34501552581787109 0.39213466644287109
0.91088765859603882 0.33402693271636963 0.38087630271911621
0.93045639991760254 0.32265213131904602 0.36918514966964722
0.95147448778152466 0.30685433745384216 0.35326191782951355
0.9756959080696106 0.28173482418060303 0.32990351319313049
0.99249458312988281 0.25562486052513123 0.30559980869293213
0.99939370155334473 0.23703493177890778 0.28834035992622375
0.99994051456451416 0.22968085110187531 0.28080165386199951
1 0.23431502282619476 0.28167599439620972
1 0.23466427624225616 0.27939596772193909
1 0.24056124687194824 0.28331586718559265
1 0.24517181515693665 0.28650873899459839
0.92089962959289551 0.39142915606498718 0.4357154369354248
0.92908281087875366 0.38261789083480835 0.42731031775474548
0.94573181867599487 0.37060451507568359 0.41531467437744141
0.96400529146194458 0.36572858691215515 0.40875667333602905
0.97830379009246826 0.35259771347045898 0.39404848217964172
0.98943465948104858 0.33345282077789307 0.37361708283424377
0.99514049291610718 0.3162592351436615 0.3550821840763092
0.99959409236907959 0.29857480525970459 0.33660492300987244
1 0.28224816918373108 0.32116883993148804
1 0.27753719687461853 0.31338763236999512
1 0.27661719918251038 0.31076300144195557
1 0.27813464403152466 0.31122159957885742
1 0.28345140814781189 0.31609773635864258
0.96254622936248779 0.4216265082359314 0.46367049217224121
0.96396148204803467 0.41576173901557922 0.45789182186126709
0.97415387630462646 0.40604817867279053 0.44763913750648499
0.98819947242736816 0.40214824676513672 0.44263216853141785
0.99011927843093872 0.39288514852523804 0.43150445818901062
0.99537384510040283 0.37385115027427673 0.41024121642112732
0.99915099143981934 0.36136141419410706 0.39560434222221375
0.99975812435150146 0.35022655129432678 0.38262486457824707
1 0.33778062462806702 0.36835691332817078
1 0.32706454396247864 0.3553067147731781
1 0.32232114672660828 0.34877347946166992
1 0.32012215256690979 0.34600254893302917
1 0.32611891627311707 0.35154324769973755
0.991435706615448 0.44836771488189697 0.48772084712982178
0.98612874746322632 0.44631844758987427 0.48603683710098267
0.9877057671546936 0.43876370787620544 0.47831505537033081
0.99205148220062256 0.43366613984107971 0.47219213843345642
0.99308550357818604 0.42796158790588379 0.46465641260147095
0.99550354480743408 0.41551965475082397 0.44972199201583862
0.99901050329208374 0.40555787086486816 0.43696302175521851
0.99957871437072754 0.39643013477325439 0.42557600140571594
1 0.38618913292884827 0.41263911128044128
1 0.3769373893737793 0.4000365138053894
1 0.36966192722320557 0.39069634675979614
1 0.3648834228515625 0.38528195023536682
1 0.36952051520347595 0.38901492953300476
0.99727022647857666 0.46779522299766541 0.5052802562713623
0.99564141035079956 0.46924945712089539 0.5069725513458252
0.99519425630569458 0.46694508194923401 0.50437772274017334
0.993449866771698 0.4634954035282135 0.49994218349456787
0.9940112829208374 0.45802217721939087 0.49262267351150513
0.99641847610473633 0.45057469606399536 0.48199087381362915
0.9997563362121582 0.44161888957023621 0.47006994485855103
1 0.43036150932312012 0.45672547817230225
1 0.41878727078437805 0.44227978587150574
1 0.40766549110412598 0.42788547277450562
1 0.40387758612632751 0.4211711585521698
1 0.40484994649887085 0.42112085223197937
1 0.40803420543670654 0.42288944125175476
0.011034078896045685 0.29541698098182678 0.33618602156639099
0.01130263414233923 0.29365819692611694 0.33260065317153931
0.018323697149753571 0.28981882333755493 0.32567310333251953
0.096184253692626953 0.28032189607620239 0.31394326686859131
0.30988922715187073 0.25530073046684265 0.29192551970481873
0.52924531698226929 0.20348177850246429 0.25796112418174744
0.70800274610519409 0.13358767330646515 0.21234859526157379
0.83079248666763306 0.06399574875831604 0.17198967933654785
0.90439826250076294 0.027840811759233475 0.1627328097820282
0.95422184467315674 0.03101482056081295 0.17562888562679291
0.96813809871673584 0.060822609812021255 0.19021964073181152
0.96970057487487793 0.057153139263391495 0.1877714991569519
0.96911090612411499 0.074671275913715363 0.19560970366001129
0.013628835789859295 0.30425947904586792 0.34275072813034058
0.020085114985704422 0.29859611392021179 0.33473023772239685
0.039096351712942123 0.29629528522491455 0.33062157034873962
0.15156096220016479 0.28559982776641846 0.32022982835769653
0.35918432474136353 0.25979462265968323 0.29783141613006592
0.5537109375 0.20744563639163971 0.26264062523841858
0.71619009971618652 0.13428530097007751 0.21527302265167236
0.8342934250831604 0.064110502600669861 0.17345750331878662
0.90592068433761597 0.029001139104366302 0.1644052267074585
0.95435500144958496 0.029849842190742493 0.17629183828830719
0.96858441829681396 0.060807157307863235 0.19055144488811493
0.97181421518325806 0.062193028628826141 0.18954955041408539
0.97174465656280518 0.073686487972736359 0.19512622058391571
0.030098874121904373 0.31648823618888855 0.35278579592704773
0.045017644762992859 0.31418770551681519 0.35061013698577881
0.11185471713542938 0.30855578184127808 0.34377554059028625
0.26022812724113464 0.29539969563484192 0.33118909597396851
0.43849384784698486 0.26958456635475159 0.31035158038139343
0.60298854112625122 0.21786901354789734 0.27521899342536926
0.74656432867050171 0.14448842406272888 0.22677114605903625
0.85101443529129028 0.070422105491161346 0.18185445666313171
0.91595578193664551 0.034888710826635361 0.17068670690059662
0.96055120229721069 0.042500395327806473 0.18134585022926331
0.97492951154708862 0.063669927418231964 0.19045008718967438
0.97784179449081421 0.069220386445522308 0.19188892841339111
0.97824722528457642 0.071484886109828949 0.19273024797439575
0.12123465538024902 0.33191990852355957 0.36901584267616272
0.17145334184169769 0.3296358585357666 0.3658001720905304
0.26914021372795105 0.3230685293674469 0.35880306363105774
0.39127716422080994 0.30904302000999451 0.34697070717811584
0.52778023481369019 0.2816518247127533 0.32617658376693726
0.66191095113754272 0.23296013474464417 0.29159289598464966
0.77891635894775391 0.16506394743919373 0.24622853100299835
0.87316304445266724 0.089501366019248962 0.19957993924617767
0.93298417329788208 0.052705802023410797 0.18395920097827911
0.97424280643463135 0.06949201226234436 0.190840944647789
0.98836791515350342 0.087525807321071625 0.1990230530500412
0.98839116096496582 0.094158768653869629 0.20217354595661163
0.98985588550567627 0.089116007089614868 0.19930040836334229
0.32901301980018616 0.34946921467781067 0.3869970440864563
0.36441323161125183 0.34598976373672485 0.3840731680393219
0.42823383212089539 0.33846759796142578 0.37696298956871033
0.51110970973968506 0.32398879528045654 0.36498168110847473
0.61728048324584961 0.3001861572265625 0.34603723883628845
0.72524482011795044 0.25637760758399963 0.31269663572311401
0.82365119457244873 0.18780063092708588 0.26636680960655212
0.90321707725524902 0.11229778826236725 0.21836605668067932
0.95460039377212524 0.077798090875148773 0.19932661950588226
0.98728984594345093 0.095668226480484009 0.20295034348964691
0.99659943580627441 0.11109134554862976 0.20898686349391937
0.9972110390663147 0.11325358599424362 0.20920312404632568
0.99752122163772583 0.11143118143081665 0.20896193385124207
0.48455825448036194 0.36594134569168091 0.40603482723236084
0.50950813293457031 0.36120983958244324 0.40195944905281067
0.55440467596054077 0.35294842720031738 0.39463359117507935
0.61747908592224121 0.3425506055355072 0.38511914014816284
0.69927090406417847 0.32016867399215698 0.36676394939422607
0.78422492742538452 0.28360971808433533 0.33724790811538696
0.86461842060089111 0.22212222218513489 0.29270502924919128
0.93084520101547241 0.15706320106983185 0.24635767936706543
0.97602814435958862 0.11907947063446045 0.21889913082122803
0.99664771556854248 0.12569759786128998 0.21762397885322571
