assets/lut/picturefx analogfx anno 1870 color.cube
# Created by: G'MIC (https://gmic.eu)
TITLE "analogfx_anno_1870_color"
# LUT size
LUT_3D_SIZE 5
# Data domain
DOMAIN_MIN 0.0 0.0 0.0
DOMAIN_MAX 1.0 1.0 1.0
# LUT data points
0.019047366455197334 0.014301628805696964 0.0079878261312842369
0.08664499968290329 0.014868628233671188 0.017847247421741486
0.16897262632846832 0.087890580296516418 0.076328322291374207
0.3304198682308197 0.19701801240444183 0.17176468670368195
0.54816657304763794 0.35816249251365662 0.30953112244606018
0.097826562821865082 0.094242259860038757 0.059313472360372543
0.15194925665855408 0.12382280081510544 0.085712432861328125
0.23422269523143768 0.16069979965686798 0.12686526775360107
0.40306052565574646 0.27221018075942993 0.22552421689033508
0.66192889213562012 0.4656519889831543 0.40345317125320435
0.31157022714614868 0.29421913623809814 0.21327449381351471
0.36849883198738098 0.3372114896774292 0.25293511152267456
0.45819583535194397 0.39566788077354431 0.30647358298301697
0.63208246231079102 0.50601297616958618 0.41406428813934326
0.82638746500015259 0.63881403207778931 0.53684979677200317
0.70607483386993408 0.6559949517250061 0.51469993591308594
0.72451514005661011 0.66578817367553711 0.52360439300537109
0.78802770376205444 0.70730787515640259 0.56041008234024048
0.87448149919509888 0.75528877973556519 0.60324203968048096
0.95598232746124268 0.80340754985809326 0.64655894041061401
0.92340469360351562 0.85285604000091553 0.66176378726959229
0.92998135089874268 0.85599744319915771 0.66326826810836792
0.95542246103286743 0.87163323163986206 0.67454731464385986
0.98953014612197876 0.89032810926437378 0.68963438272476196
1 0.94067049026489258 0.72963917255401611
0.046979703009128571 0.00014643950271420181 0.041108973324298859
0.092196598649024963 0.016105247661471367 0.062153700739145279
0.1683381199836731 0.078832738101482391 0.098196946084499359
0.31700965762138367 0.17848147451877594 0.17333495616912842
0.51437395811080933 0.32112187147140503 0.28466683626174927
0.083756901323795319 0.083179906010627747 0.087541796267032623
0.13599963486194611 0.095612004399299622 0.098956584930419922
0.20091001689434052 0.10952815413475037 0.095796339213848114
0.36484456062316895 0.22443442046642303 0.19285497069358826
0.62324738502502441 0.42412874102592468 0.3693854808807373
0.27677908539772034 0.27534699440002441 0.20171594619750977
0.33388739824295044 0.31289458274841309 0.23388977348804474
0.47278034687042236 0.40528935194015503 0.31690669059753418
0.61856085062026978 0.48561346530914307 0.39900153875350952
0.8113396167755127 0.61775481700897217 0.5227465033531189
0.68226701021194458 0.64066749811172485 0.50027024745941162
0.71839499473571777 0.6660999059677124 0.52389758825302124
0.78062748908996582 0.701396644115448 0.55593329668045044
0.87734591960906982 0.75880724191665649 0.60624891519546509
0.95744115114212036 0.80009090900421143 0.64592224359512329
0.90951430797576904 0.84742653369903564 0.65579968690872192
0.92142331600189209 0.85171866416931152 0.6590009331703186
0.95154178142547607 0.86993682384490967 0.67468440532684326
0.98787772655487061 0.89279842376708984 0.69003307819366455
0.9998965859413147 0.93613928556442261 0.72373408079147339
0.11069120466709137 0.037731260061264038 0.098717629909515381
0.13176520168781281 0.060972221195697784 0.11526695638895035
0.20508831739425659 0.10788747668266296 0.1633191853761673
0.33508709073066711 0.19491581618785858 0.24157316982746124
0.51107949018478394 0.31848710775375366 0.34332385659217834
0.10059818625450134 0.039500173181295395 0.095282264053821564
0.11704152077436447 0.045164700597524643 0.10354124754667282
0.20564074814319611 0.10783112794160843 0.16347560286521912
0.3543226420879364 0.20678237080574036 0.24427194893360138
0.55699223279953003 0.35578778386116028 0.3635089099407196
0.27173289656639099 0.2720368504524231 0.27739325165748596
0.2981928288936615 0.2839246392250061 0.28903451561927795
0.46744164824485779 0.33748987317085266 0.32703492045402527
0.50210249423980713 0.33046641945838928 0.28838267922401428
0.71195560693740845 0.49968409538269043 0.43638631701469421
0.65247774124145508 0.64021164178848267 0.55775731801986694
0.67516994476318359 0.64856749773025513 0.5419154167175293
0.76025849580764771 0.69032138586044312 0.54911303520202637
0.89219099283218384 0.76391947269439697 0.61563032865524292
0.94888126850128174 0.7811083197593689 0.6408151388168335
0.87613946199417114 0.83602511882781982 0.65691870450973511
0.89211255311965942 0.84565037488937378 0.66183602809906006
0.92628687620162964 0.86281639337539673 0.67525011301040649
0.97898286581039429 0.88925385475158691 0.69833946228027344
0.99987506866455078 0.93383431434631348 0.73817479610443115
0.20030383765697479 0.10768815875053406 0.17726926505565643
0.2160467803478241 0.11829374730587006 0.19075228273868561
0.27382895350456238 0.15741220116615295 0.2356237918138504
0.39320090413093567 0.24086467921733856 0.32264852523803711
0.54971098899841309 0.35759472846984863 0.43475019931793213
0.1817103773355484 0.094132363796234131 0.1637340784072876
0.20581784844398499 0.11031966656446457 0.18266817927360535
0.27079528570175171 0.15598331391811371 0.2321677953004837
0.41452211141586304 0.25977137684822083 0.34108921885490417
0.61595553159713745 0.41474604606628418 0.48874825239181519
0.25691935420036316 0.18385186791419983 0.24253600835800171
0.23536497354507446 0.15520603954792023 0.21908032894134521
0.23551855981349945 0.1249786838889122 0.20174871385097504
0.45469927787780762 0.28602784872055054 0.3663947582244873
0.66583764553070068 0.45150700211524963 0.51390177011489868
0.65162950754165649 0.63557761907577515 0.64459484815597534
0.67315971851348877 0.65048098564147949 0.66006696224212646
0.74175417423248291 0.68266779184341431 0.6934741735458374
0.92075276374816895 0.74437284469604492 0.7485164999961853
0.90319597721099854 0.69962590932846069 0.67512553930282593
0.83973979949951172 0.84399765729904175 0.78441983461380005
0.84674173593521118 0.84593665599822998 0.77906340360641479
0.87352120876312256 0.85416114330291748 0.76178097724914551
0.94536221027374268 0.88802123069763184 0.771839439868927
0.99995797872543335 0.95850688219070435 0.83664345741271973
0.29704120755195618 0.17435279488563538 0.26876914501190186
0.31589928269386292 0.187977135181427 0.28001663088798523
0.37112218141555786 0.22739702463150024 0.32043659687042236
0.44427394866943359 0.27758172154426575 0.3822142481803894
0.59353768825531006 0.39788243174552917 0.5089874267578125
0.28626787662506104 0.16725671291351318 0.25373858213424683
0.30397674441337585 0.18047152459621429 0.27178585529327393
0.36472514271736145 0.22364956140518188 0.32327929139137268
0.48514202237129211 0.31642624735832214 0.41928049921989441
0.65694385766983032 0.45426052808761597 0.56989187002182007
0.25940737128257751 0.1550765335559845 0.24381905794143677
0.25654834508895874 0.14848099648952484 0.24105101823806763
0.33039364218711853 0.19956527650356293 0.29796385765075684
0.46577760577201843 0.30246922373771667 0.40924713015556335
0.67577409744262695 0.4695751965045929 0.58831906318664551
0.57631397247314453 0.51829081773757935 0.58156752586364746
0.55271387100219727 0.49020066857337952 0.56032896041870117
0.48702147603034973 0.40040779113769531 0.48096188902854919
0.52077996730804443 0.38015908002853394 0.48073297739028931
0.80764102935791016 0.61443173885345459 0.71481364965438843
0.78994947671890259 0.85091882944107056 0.85652762651443481
0.79861259460449219 0.85014694929122925 0.85597389936447144
0.82718110084533691 0.85754847526550293 0.86429023742675781
0.89806228876113892 0.87489604949951172 0.88165658712387085
0.99425739049911499 0.94712871313095093 0.95301151275634766
