assets/lut/picturefx faux infrared color p3.cube
# Created by: G'MIC (https://gmic.eu)
TITLE "faux_infrared_color_p3"
# LUT size
LUT_3D_SIZE 13
# Data domain
DOMAIN_MIN 0.0 0.0 0.0
DOMAIN_MAX 1.0 1.0 1.0
# LUT data points
0.10438568890094757 0.097095683217048645 0.12102895975112915
0.29017657041549683 0.24742712080478668 0.2062952071428299
0.46290558576583862 0.39283695816993713 0.30718261003494263
0.62406432628631592 0.53042429685592651 0.40702944993972778
0.77267599105834961 0.66437691450119019 0.50675308704376221
0.91079241037368774 0.79773831367492676 0.60694295167922974
0.98445504903793335 0.91738468408584595 0.707663893699646
0.99995100498199463 0.96251165866851807 0.77857142686843872
1 0.97000813484191895 0.83208149671554565
1 0.97840332984924316 0.88474619388580322
1 0.98665457963943481 0.92703258991241455
1 0.98823529481887817 0.93345469236373901
1 0.98823529481887817 0.93333333730697632
0.19202260673046112 0.06402897834777832 0.16760145127773285
0.35119277238845825 0.17843097448348999 0.23961377143859863
0.4982304573059082 0.35491788387298584 0.32840192317962646
0.6521981954574585 0.50546550750732422 0.4249146580696106
0.79675179719924927 0.65016955137252808 0.51956021785736084
0.92159974575042725 0.78541630506515503 0.61624503135681152
0.98585110902786255 0.90535944700241089 0.71273970603942871
0.99986094236373901 0.9515501856803894 0.78072702884674072
1 0.96170580387115479 0.83462315797805786
1 0.97329574823379517 0.88790136575698853
1 0.98346078395843506 0.92762494087219238
1 0.98510563373565674 0.93613582849502563
1 0.98490381240844727 0.93613123893737793
0.28371545672416687 0.085439838469028473 0.22788417339324951
0.41890889406204224 0.14312011003494263 0.28937193751335144
0.5534597635269165 0.27915734052658081 0.3639380931854248
0.69551235437393188 0.46403554081916809 0.4507996141910553
0.8303646445274353 0.62414759397506714 0.5395972728729248
0.94092720746994019 0.76857101917266846 0.62965559959411621
0.98974448442459106 0.88741743564605713 0.7174142599105835
0.999930739402771 0.93514657020568848 0.78333091735839844
1 0.95462894439697266 0.84183025360107422
1 0.97031915187835693 0.89306175708770752
1 0.9812171459197998 0.93127715587615967
1 0.98374766111373901 0.93901044130325317
1 0.98370099067687988 0.93872356414794922
0.38564160466194153 0.12044872343540192 0.29222217202186584
0.4938717782497406 0.16370227932929993 0.3482760488986969
0.62185996770858765 0.22288051247596741 0.40931007266044617
0.75287765264511108 0.38796395063400269 0.48638075590133667
0.87287747859954834 0.5739976167678833 0.5676996111869812
0.94978213310241699 0.73156476020812988 0.64920955896377563
0.98798209428787231 0.85855019092559814 0.73147678375244141
1 0.92186802625656128 0.79705673456192017
1 0.94964152574539185 0.8518369197845459
1 0.96672981977462769 0.89962279796600342
1 0.97863960266113281 0.93598258495330811
1 0.98040616512298584 0.94240546226501465
1 0.98039215803146362 0.9422372579574585
0.48120325803756714 0.15158654749393463 0.35490673780441284
0.57819938659667969 0.19082266092300415 0.40697318315505981
0.69818687438964844 0.2382538914680481 0.46668824553489685
0.81828534603118896 0.30736532807350159 0.5296587347984314
0.9222380518913269 0.49065771698951721 0.60307067632675171
0.97332167625427246 0.67425727844238281 0.67761874198913574
0.99435526132583618 0.82585054636001587 0.75385195016860962
1 0.90156793594360352 0.81409227848052979
1 0.93830502033233643 0.86314648389816284
1 0.95933759212493896 0.90739601850509644
1 0.97544348239898682 0.94111162424087524
1 0.98039215803146362 0.94855242967605591
1 0.98039215803146362 0.94840174913406372
0.57479214668273926 0.18486718833446503 0.42019078135490417
0.66204750537872314 0.2197277843952179 0.46765947341918945
0.76641029119491577 0.25726285576820374 0.52300369739532471
0.86771714687347412 0.29553607106208801 0.58068019151687622
0.94416660070419312 0.39402955770492554 0.64430338144302368
0.98927950859069824 0.57427883148193359 0.71376264095306396
0.99937742948532104 0.76326185464859009 0.77750879526138306
1 0.87121409177780151 0.83031225204467773
1 0.92291104793548584 0.87700796127319336
1 0.95145720243453979 0.91722816228866577
1 0.97329634428024292 0.9486311674118042
1 0.98039215803146362 0.95689409971237183
1 0.98039215803146362 0.95698529481887817
0.66274714469909668 0.21423265337944031 0.48238837718963623
0.73033994436264038 0.24551871418952942 0.52663064002990723
0.81510931253433228 0.28191381692886353 0.58011496067047119
0.8958432674407959 0.32647949457168579 0.63762813806533813
0.96270149946212769 0.36837351322174072 0.69570481777191162
0.99598550796508789 0.45753869414329529 0.74823033809661865
0.99998652935028076 0.6605408787727356 0.79789423942565918
1 0.82971280813217163 0.84779095649719238
1 0.90778666734695435 0.89240789413452148
1 0.94541293382644653 0.92926251888275146
1 0.97345399856567383 0.9591526985168457
1 0.98059046268463135 0.96642595529556274
1 0.98105555772781372 0.9666363000869751
0.74574583768844604 0.24579030275344849 0.54829776287078857
0.78824436664581299 0.27507641911506653 0.58705824613571167
0.85621058940887451 0.31185874342918396 0.63808596134185791
0.92710232734680176 0.35007801651954651 0.69307458400726318
0.97714716196060181 0.38314253091812134 0.74466735124588013
0.99384987354278564 0.41654118895530701 0.78119057416915894
0.99952322244644165 0.52800989151000977 0.81454944610595703
1 0.75901210308074951 0.85648858547210693
1 0.88958078622817993 0.9054340124130249
1 0.94317305088043213 0.94304722547531128
1 0.97365361452102661 0.9679529070854187
1 0.98395657539367676 0.97544646263122559
1 0.98626381158828735 0.97634804248809814
0.83134210109710693 0.2781367301940918 0.61887073516845703
0.85972374677658081 0.30502426624298096 0.65206462144851685
0.90750354528427124 0.3382963240146637 0.69709616899490356
0.95975255966186523 0.37241947650909424 0.74598312377929688
0.9839586615562439 0.40498620271682739 0.78282254934310913
0.99263858795166016 0.42928218841552734 0.8081393837928772
0.99850201606750488 0.45555171370506287 0.826590895652771
1 0.62895870208740234 0.84966516494750977
1 0.83885669708251953 0.89935320615768433
1 0.94406408071517944 0.95336621999740601
1 0.97779643535614014 0.9770195484161377
1 0.98847973346710205 0.984505295753479
1 0.99208557605743408 0.98681700229644775
0.91493666172027588 0.30951797962188721 0.69100731611251831
0.93587136268615723 0.33496451377868652 0.72072339057922363
0.9608418345451355 0.36350107192993164 0.75474900007247925
0.97869700193405151 0.3902708888053894 0.78479868173599243
0.98822546005249023 0.4121454656124115 0.80737143754959106
0.99439018964767456 0.42306089401245117 0.82292354106903076
0.99813663959503174 0.42893174290657043 0.82960879802703857
1 0.48518210649490356 0.83788132667541504
1 0.71167796850204468 0.87334197759628296
1 0.90293639898300171 0.93924754858016968
1 0.98468059301376343 0.98758977651596069
1 0.98985534906387329 0.99086809158325195
1 0.99163347482681274 0.99287456274032593
0.97476369142532349 0.33834823966026306 0.75701498985290527
0.97966897487640381 0.35721999406814575 0.77507495880126953
0.98315894603729248 0.37661948800086975 0.79338234663009644
0.98825299739837646 0.39526140689849854 0.81211447715759277
0.99347454309463501 0.40936213731765747 0.82717138528823853
0.99659353494644165 0.41600382328033447 0.83377707004547119
0.99929070472717285 0.41944801807403564 0.83551836013793945
1 0.42591121792793274 0.8353608250617981
1 0.53396517038345337 0.84932750463485718
1 0.7822452187538147 0.90089017152786255
1 0.92819678783416748 0.95581686496734619
1 0.93690121173858643 0.96078032255172729
1 0.93747234344482422 0.96120744943618774
0.99068981409072876 0.36522173881530762 0.81145185232162476
0.99195641279220581 0.37936705350875854 0.82261240482330322
0.99345070123672485 0.39269217848777771 0.83198517560958862
0.99531757831573486 0.40387150645256042 0.83940607309341431
0.9972304105758667 0.41217681765556335 0.8431401252746582
0.99940609931945801 0.41850000619888306 0.84346908330917358
1 0.42733848094940186 0.84198939800262451
1 0.43080213665962219 0.8396565318107605
1 0.43736109137535095 0.83664137125015259
1 0.58968245983123779 0.85969215631484985
1 0.80429536104202271 0.9042046070098877
1 0.81881844997406006 0.91080105304718018
1 0.82036733627319336 0.91144204139709473
0.99770927429199219 0.38757139444351196 0.85761559009552002
0.99715268611907959 0.39499464631080627 0.85713762044906616
0.99747145175933838 0.40316790342330933 0.85573327541351318
0.99842691421508789 0.41096431016921997 0.85379648208618164
0.99948889017105103 0.41759470105171204 0.85081863403320312
1 0.42562764883041382 0.84736531972885132
1 0.43309354782104492 0.84598034620285034
1 0.43188714981079102 0.8420722484588623
1 0.42710056900978088 0.837272047996521
1 0.44312432408332825 0.83580994606018066
1 0.57632821798324585 0.8548353910446167
1 0.59675830602645874 0.86009436845779419
1 0.5951874852180481 0.86014252901077271
0.018337907269597054 0.15237368643283844 0.16586877405643463
0.16604340076446533 0.273659348487854 0.22585839033126831
0.39971351623535156 0.40508022904396057 0.31542325019836426
0.58441412448883057 0.53880363702774048 0.41203230619430542
0.75446677207946777 0.67520326375961304 0.50929504632949829
0.89203059673309326 0.79909431934356689 0.60615545511245728
0.98469465970993042 0.91611433029174805 0.70622307062149048
0.99959957599639893 0.9644007682800293 0.78010600805282593
1 0.97307127714157104 0.83335334062576294
1 0.98138570785522461 0.88629722595214844
1 0.98768073320388794 0.92621773481369019
1 0.98823529481887817 0.93336755037307739
1 0.98823529481887817 0.93413847684860229
0.074972741305828094 0.095623284578323364 0.19505856931209564
0.24784237146377563 0.19827888906002045 0.24407008290290833
0.43785616755485535 0.36497235298156738 0.32714071869850159
0.61132073402404785 0.51358771324157715 0.42357417941093445
0.77322292327880859 0.65397125482559204 0.52123987674713135
0.90097892284393311 0.78405648469924927 0.6158217191696167
0.97957092523574829 0.90682089328765869 0.71390742063522339
0.9995766282081604 0.95687383413314819 0.78449088335037231
1 0.96693074703216553 0.83706545829772949
1 0.97728180885314941 0.88957267999649048
1 0.98544323444366455 0.92723536491394043
1 0.98706674575805664 0.93371236324310303
1 0.98668438196182251 0.93351888656616211
0.18156197667121887 0.099746257066726685 0.24121226370334625
0.33951917290687561 0.13708251714706421 0.29036608338356018
0.49694159626960754 0.28685477375984192 0.36300799250602722
0.65881317853927612 0.47128456830978394 0.44957384467124939
0.80357658863067627 0.62882101535797119 0.53903216123580933
0.92288780212402344 0.76872909069061279 0.62956410646438599
0.98388755321502686 0.89360791444778442 0.72398364543914795
0.99973368644714355 0.94543337821960449 0.79267948865890503
1 0.95967912673950195 0.84504061937332153
1 0.97310453653335571 0.8943251371383667
1 0.98243778944015503 0.92910593748092651
1 0.98428404331207275 0.93667101860046387
1 0.98410379886627197 0.93637168407440186
0.30397677421569824 0.12062360346317291 0.29610913991928101
0.42250001430511475 0.15825942158699036 0.34747934341430664
0.57452124357223511 0.22490440309047699 0.40974277257919312
0.71958500146865845 0.38562113046646118 0.48528584837913513
0.84640443325042725 0.57516682147979736 0.56680905818939209
0.93900513648986816 0.73080039024353027 0.65119236707687378
0.98563939332962036 0.86797797679901123 0.73761886358261108
0.99993664026260376 0.92998194694519043 0.80333548784255981
1 0.95281982421875 0.85536020994186401
1 0.96783357858657837 0.89860934019088745
1 0.97716051340103149 0.9282645583152771
1 0.98039346933364868 0.93804407119750977
1 0.98051303625106812 0.938789963722229
0.41110965609550476 0.14828455448150635 0.35819023847579956
0.50973904132843018 0.18035617470741272 0.4031451940536499
0.65400046110153198 0.22800987958908081 0.4629877507686615
0.78898626565933228 0.3047424852848053 0.52887004613876343
0.89762359857559204 0.48450717329978943 0.60367786884307861
0.9764065146446228 0.67971009016036987 0.67973929643630981
0.99511682987213135 0.82723379135131836 0.7542039155960083
1 0.90093880891799927 0.81543844938278198
1 0.94082516431808472 0.86496609449386597
1 0.95951777696609497 0.90341752767562866
1 0.97130680084228516 0.93005692958831787
1 0.97850930690765381 0.94382154941558838
1 0.98039215803146362 0.94489073753356934
0.51397556066513062 0.1747768223285675 0.41924995183944702
0.59509450197219849 0.19794352352619171 0.45769959688186646
0.71909976005554199 0.24353241920471191 0.51724743843078613
0.84323006868362427 0.2877536416053772 0.57992076873779297
0.92409384250640869 0.38847950100898743 0.64460462331771851
0.98103040456771851 0.58260196447372437 0.71387887001037598
0.99793964624404907 0.77291131019592285 0.77967387437820435
1 0.87795877456665039 0.83330178260803223
1 0.9267812967300415 0.87773376703262329
1 0.9559357762336731 0.9138023853302002
1 0.97139006853103638 0.94218862056732178
1 0.97963005304336548 0.95444387197494507
1 0.98039215803146362 0.95450246334075928
0.60913050174713135 0.20638979971408844 0.48530083894729614
0.66802453994750977 0.22804573178291321 0.51965236663818359
0.77187478542327881 0.26839300990104675 0.57499539852142334
0.87996107339859009 0.3146708607673645 0.63665628433227539
0.94519835710525513 0.35812702775001526 0.69653606414794922
0.98874670267105103 0.4641474187374115 0.7568509578704834
0.99950152635574341 0.68231046199798584 0.80546283721923828
1 0.8364904522895813 0.85085082054138184
1 0.90775096416473389 0.89357477426528931
1 0.95176589488983154 0.93087273836135864
1 0.97617983818054199 0.96006125211715698
1 0.9807436466217041 0.96602410078048706
1 0.98062193393707275 0.96478730440139771
0.71174043416976929 0.24170225858688354 0.55653756856918335
0.75178557634353638 0.26622211933135986 0.58931136131286621
0.83395135402679443 0.30008569359779358 0.63722819089889526
0.91985553503036499 0.33953353762626648 0.69294238090515137
0.9712759256362915 0.37489569187164307 0.74709182977676392
0.99364995956420898 0.41575998067855835 0.78854358196258545
0.99951040744781494 0.54238492250442505 0.81969714164733887
1 0.76894289255142212 0.85882556438446045
1 0.88989847898483276 0.90727734565734863
1 0.94700109958648682 0.94623172283172607
1 0.97882378101348877 0.97284185886383057
1 0.98525738716125488 0.97626185417175293
1 0.98536688089370728 0.97540438175201416
0.81580555438995361 0.27452018857002258 0.62490165233612061
0.84943974018096924 0.30008995532989502 0.65884089469909668
0.90343761444091797 0.32965046167373657 0.69987964630126953
0.95666146278381348 0.36183857917785645 0.74301570653915405
0.98103833198547363 0.39660584926605225 0.78102964162826538
0.99084210395812988 0.42314106225967407 0.80978918075561523
0.99840718507766724 0.44995158910751343 0.83219516277313232
1 0.63638949394226074 0.8538174033164978
1 0.84155237674713135 0.90172380208969116
1 0.94710445404052734 0.9564441442489624
1 0.98260509967803955 0.98123383522033691
1 0.99030685424804688 0.98582422733306885
1 0.99172377586364746 0.98640239238739014
0.91307526826858521 0.30642366409301758 0.69234955310821533
0.93733668327331543 0.33064872026443481 0.72357642650604248
0.95744138956069946 0.3547302782535553 0.7536810040473938
0.97224247455596924 0.37777531147003174 0.77990514039993286
0.98382890224456787 0.40279024839401245 0.80578732490539551
0.99279886484146118 0.41716641187667847 0.82586711645126343
0.99744606018066406 0.43377602100372314 0.83514547348022461
1 0.49119704961776733 0.84143871068954468
1 0.71018499135971069 0.87536609172821045
1 0.90523189306259155 0.94186097383499146
1 0.98743164539337158 0.98996198177337646
1 0.99232578277587891 0.99330466985702515
1 0.99215304851531982 0.99338316917419434
0.9781460165977478 0.33384460210800171 0.75333768129348755
0.97802841663360596 0.34950250387191772 0.76986420154571533
0.97851496934890747 0.36566546559333801 0.78745353221893311
0.98199915885925293 0.3828795850276947 0.80667352676391602
0.98966085910797119 0.40166732668876648 0.82509434223175049
0.99508798122406006 0.41454887390136719 0.83479273319244385
0.99818211793899536 0.42198941111564636 0.83838170766830444
1 0.42919749021530151 0.83824890851974487
1 0.53579121828079224 0.85028612613677979
1 0.78836899995803833 0.90030735731124878
1 0.93184912204742432 0.95808219909667969
1 0.94093281030654907 0.96332007646560669
1 0.9393196702003479 0.96288257837295532
0.99318820238113403 0.35878023505210876 0.80603682994842529
0.99130558967590332 0.36810651421546936 0.81209093332290649
0.98995661735534668 0.37870427966117859 0.81933802366256714
0.9902685284614563 0.39070224761962891 0.82948917150497437
0.99400776624679565 0.40429309010505676 0.83984339237213135
0.99671071767807007 0.41486278176307678 0.84445714950561523
0.99959790706634521 0.42314973473548889 0.84394866228103638
1 0.4250853955745697 0.84106117486953735
1 0.43077194690704346 0.83809429407119751
1 0.59285575151443481 0.86165165901184082
1 0.8056948184967041 0.90660703182220459
1 0.82087069749832153 0.9131283164024353
1 0.81998085975646973 0.91380530595779419
0.99749189615249634 0.38199236989021301 0.85391449928283691
0.99610453844070435 0.38794788718223572 0.85309946537017822
0.99581634998321533 0.39496338367462158 0.85238993167877197
0.99550241231918335 0.40237805247306824 0.85118240118026733
0.99594730138778687 0.41121634840965271 0.85151565074920654
0.99724292755126953 0.41941443085670471 0.84906852245330811
0.99969488382339478 0.42389243841171265 0.846640944480896
1 0.42139017581939697 0.84277790784835815
1 0.41928580403327942 0.83852696418762207
1 0.44525054097175598 0.83748346567153931
1 0.57645726203918457 0.85668706893920898
1 0.60287022590637207 0.86130446195602417
1 0.60396701097488403 0.86137670278549194
0.0047771227546036243 0.21760883927345276 0.21918229758739471
0.0491916723549366 0.31416165828704834 0.26498472690582275
0.27433866262435913 0.43273371458053589 0.33782503008842468
0.51633775234222412 0.55719989538192749 0.42508876323699951
0.70475691556930542 0.68450319766998291 0.51609426736831665
0.85506385564804077 0.80256754159927368 0.60962104797363281
0.97130656242370605 0.9187740683555603 0.70755970478057861
0.99955922365188599 0.97208166122436523 0.78408634662628174
1 0.97955948114395142 0.83782792091369629
1 0.98436611890792847 0.89102029800415039
1 0.98901277780532837 0.92846947908401489
1 0.99081051349639893 0.93577474355697632
1 0.99107050895690918 0.93705767393112183
0.029395503923296928 0.1507059782743454 0.24260120093822479
0.075504302978515625 0.25345093011856079 0.27444702386856079
0.31735134124755859 0.38902771472930908 0.33963441848754883
0.5466117262840271 0.52668899297714233 0.42845872044563293
0.72408026456832886 0.66307157278060913 0.52326047420501709
0.8711199164390564 0.79253453016281128 0.61769360303878784
0.97705024480819702 0.91180419921875 0.71483141183853149
0.99770790338516235 0.96185880899429321 0.78761863708496094
0.9990728497505188 0.97107857465744019 0.84121412038803101
1 0.98117196559906006 0.89498841762542725
1 0.98804390430450439 0.92988461256027222
1 0.98865020275115967 0.9340776801109314
1 0.98833286762237549 0.93398314714431763
0.07608427107334137 0.13713295757770538 0.27747070789337158
0.19881562888622284 0.16862162947654724 0.3074641227722168
0.40422552824020386 0.30369362235069275 0.36366486549377441
0.59173822402954102 0.48215645551681519 0.44741982221603394
0.74959546327590942 0.6326865553855896 0.53868943452835083
0.89362502098083496 0.77302080392837524 0.63141292333602905
0.98068344593048096 0.89895069599151611 0.72713923454284668
0.99825555086135864 0.95342057943344116 0.79790383577346802
0.99950861930847168 0.96442365646362305 0.85003435611724854
1 0.97609192132949829 0.89834856986999512
1 0.98404896259307861 0.9289393424987793
1 0.98533236980438232 0.93379878997802734
1 0.98506057262420654 0.93380039930343628
0.15867465734481812 0.14923283457756042 0.31848955154418945
0.3121173083782196 0.15469951927661896 0.35156843066215515
0.49619516730308533 0.22049121558666229 0.4085957407951355
0.65911567211151123 0.39480295777320862 0.48333746194839478
0.80330163240432739 0.58116871118545532 0.56674069166183472
0.92024356126785278 0.73571974039077759 0.65348786115646362
0.98249781131744385 0.87433207035064697 0.74226683378219604
0.99916601181030273 0.93832814693450928 0.81001907587051392
0.9999808669090271 0.95847994089126587 0.85976296663284302
1 0.96908736228942871 0.89512449502944946
1 0.97637045383453369 0.92135024070739746
1 0.98072677850723267 0.93519264459609985
1 0.98118585348129272 0.93687576055526733
0.30303645133972168 0.16023921966552734 0.36836409568786621
0.42423534393310547 0.16714173555374146 0.39960920810699463
0.58452469110488892 0.21052128076553345 0.4590570330619812
0.73878961801528931 0.29911372065544128 0.5269281268119812
0.86253148317337036 0.49199777841567993 0.60321122407913208
0.95857030153274536 0.68642008304595947 0.68204516172409058
0.98986268043518066 0.83385199308395386 0.75882798433303833
0.99977391958236694 0.91438531875610352 0.82180804014205933
1 0.94667309522628784 0.8682970404624939
1 0.95983803272247314 0.89680862426757812
1 0.96848106384277344 0.91993528604507446
1 0.97683751583099365 0.9387582540512085
1 0.98039215803146362 0.94204598665237427
0.43918660283088684 0.17123150825500488 0.42156219482421875
0.52404606342315674 0.17883308231830597 0.45081806182861328
0.65815836191177368 0.22679466009140015 0.51226240396499634
0.80132156610488892 0.27771380543708801 0.57731890678405762
0.9111558198928833 0.39369404315948486 0.64432841539382935
0.97375607490539551 0.59722292423248291 0.715534508228302
0.99744993448257446 0.78511989116668701 0.78491425514221191
1 0.88741880655288696 0.83820265531539917
1 0.93133413791656494 0.87971287965774536
1 0.95442074537277222 0.9105675220489502
1 0.96835887432098389 0.93497961759567261
1 0.97820144891738892 0.9505608081817627
1 0.98039215803146362 0.95179903507232666
0.54288512468338013 0.20798784494400024 0.49300867319107056
0.60302585363388062 0.21990083158016205 0.51959151029586792
0.71644705533981323 0.2575371265411377 0.57235419750213623
0.85683619976043701 0.29805773496627808 0.63216507434844971
0.94613862037658691 0.34854778647422791 0.69374799728393555
0.98301064968109131 0.47177532315254211 0.7573968768119812
0.99831324815750122 0.69304603338241577 0.81230729818344116
1 0.84523344039916992 0.85584908723831177
1 0.91541963815689087 0.89515239000320435
1 0.95278578996658325 0.93098896741867065
1 0.97369921207427979 0.95540666580200195
1 0.98027092218399048 0.96352851390838623
1 0.98039215803146362 0.96283531188964844
0.66314542293548584 0.2366504967212677 0.56413555145263672
0.70279240608215332 0.25745454430580139 0.5924755334854126
0.79375427961349487 0.28573891520500183 0.63555425405502319
0.9132084846496582 0.32110166549682617 0.68797069787979126
0.96959418058395386 0.36201205849647522 0.74047756195068359
0.9914247989654541 0.40944328904151917 0.79499584436416626
0.99933171272277832 0.55752807855606079 0.83057934045791626
1 0.77770823240280151 0.865875244140625
1 0.8970940113067627 0.91100049018859863
1 0.94801622629165649 0.94677096605300903
1 0.9765777587890625 0.96992653608322144
1 0.98447984457015991 0.97494149208068848
1 0.98482316732406616 0.97389572858810425
0.7757684588432312 0.26721957325935364 0.63243120908737183
0.81110811233520508 0.28801172971725464 0.6611177921295166
0.86747837066650391 0.31192809343338013 0.69529163837432861
0.94626212120056152 0.3431268036365509 0.73593628406524658
0.97475075721740723 0.37839251756668091 0.77321052551269531
0.98857742547988892 0.41434651613235474 0.81207537651062012
0.99767506122589111 0.45643413066864014 0.83826977014541626
1 0.64934980869293213 0.85974138975143433
1 0.84897243976593018 0.905997633934021
1 0.94880098104476929 0.95754402875900269
1 0.98264366388320923 0.98094683885574341
1 0.98924916982650757 0.98480677604675293
1 0.99015611410140991 0.9840514063835144
0.88122642040252686 0.29898717999458313 0.69649189710617065
0.91033923625946045 0.31638714671134949 0.72130054235458374
0.93749082088470459 0.33678862452507019 0.74811983108520508
