assets/lut/picturefx analogfx old style ii.cube
# Created by: G'MIC (https://gmic.eu)
TITLE "analogfx_old_style_ii"
# LUT size
LUT_3D_SIZE 5
# Data domain
DOMAIN_MIN 0.0 0.0 0.0
DOMAIN_MAX 1.0 1.0 1.0
# LUT data points
0.0018027661135420203 0.00061880372231826186 8.1858917837962508e-05
0.0077620265074074268 0.0048198327422142029 0.003898815019056201
0.073006331920623779 0.041164517402648926 0.02873598039150238
0.42705988883972168 0.24613633751869202 0.16432370245456696
0.91452622413635254 0.53141105175018311 0.37392672896385193
0.023590641096234322 0.014364654198288918 0.010534847155213356
0.06498495489358902 0.04013684019446373 0.028543658554553986
0.2333204448223114 0.1421390026807785 0.10485664755105972
0.73988151550292969 0.44684615731239319 0.30883321166038513
0.99415987730026245 0.7136881947517395 0.61005508899688721
0.56425076723098755 0.34383556246757507 0.23967947065830231
0.6590195894241333 0.40534639358520508 0.28815227746963501
0.90436118841171265 0.59587746858596802 0.45688965916633606
1 0.95455235242843628 0.94966375827789307
1 0.9824720025062561 0.99464923143386841
1 0.98301005363464355 0.99628949165344238
1 0.98410409688949585 0.9969448447227478
1 0.9843137264251709 0.9963337779045105
1 0.9843137264251709 1
1 0.98377203941345215 0.99617356061935425
1 0.9843137264251709 1
1 0.9843137264251709 1
1 0.9843137264251709 1
1 0.9843137264251709 1
1 0.9843137264251709 1
0.0030898000113666058 0.0019031150732189417 0.0001068115234375
0.01106109656393528 0.0073217502795159817 0.0039215688593685627
0.10768640786409378 0.061519816517829895 0.043644476681947708
0.51289492845535278 0.29585438966751099 0.19583584368228912
0.927928626537323 0.54068827629089355 0.39216223359107971
0.04833342507481575 0.029135221615433693 0.020887546241283417
0.10550200194120407 0.064902365207672119 0.047731630504131317
0.27347788214683533 0.16633711755275726 0.12268961220979691
0.79863423109054565 0.48052945733070374 0.33138498663902283
0.99804168939590454 0.74138402938842773 0.64991956949234009
0.61378210783004761 0.37519374489784241 0.26289954781532288
0.70956021547317505 0.44400414824485779 0.32504504919052124
0.93837356567382812 0.65056812763214111 0.52327221632003784
1 0.9657098650932312 0.96728372573852539
1 0.98263955116271973 0.99541455507278442
1 0.98395496606826782 0.99766838550567627
1 0.98410838842391968 0.99581080675125122
1 0.9843137264251709 0.99844002723693848
1 0.9843137264251709 1
1 0.9843137264251709 0.99938935041427612
1 0.9843137264251709 1
1 0.9843137264251709 0.9999697208404541
1 0.9843137264251709 0.99964225292205811
1 0.9843137264251709 1
1 0.9843137264251709 1
0.015005702152848244 0.010016482323408127 0.0073233060538768768
0.055353589355945587 0.032075125724077225 0.022599972784519196
0.20809832215309143 0.11862872540950775 0.081749409437179565
0.70051372051239014 0.40329071879386902 0.26391458511352539
0.98362874984741211 0.64689528942108154 0.53066837787628174
0.18703633546829224 0.11398901790380478 0.082169853150844574
0.2397577315568924 0.14486351609230042 0.10697326809167862
0.43306294083595276 0.26576602458953857 0.18951192498207092
0.92251527309417725 0.56297415494918823 0.40749037265777588
0.99958419799804688 0.89279627799987793 0.85759341716766357
0.80481749773025513 0.49697697162628174 0.3559471070766449
0.88220930099487305 0.57539767026901245 0.43884024024009705
0.9900171160697937 0.80849921703338623 0.73293811082839966
1 0.9799121618270874 0.99264830350875854
1 0.9843137264251709 1
1 0.9843137264251709 0.99605745077133179
1 0.98059535026550293 0.99538111686706543
1 0.9843137264251709 0.99911844730377197
1 0.9843137264251709 1
1 0.9843137264251709 1
1 0.98039215803146362 0.99607843160629272
1 0.98280435800552368 0.99607843160629272
1 0.9843137264251709 0.99971288442611694
1 0.9843137264251709 1
1 0.9843137264251709 1
0.31943058967590332 0.18672777712345123 0.12852421402931213
0.38764521479606628 0.22871680557727814 0.15499086678028107
0.57808136940002441 0.33909532427787781 0.22341291606426239
0.93085759878158569 0.55303114652633667 0.4081016480922699
1 0.84191322326660156 0.79146683216094971
0.52485203742980957 0.32131382822990417 0.2239905446767807
0.59265565872192383 0.36317905783653259 0.25369256734848022
0.83073478937149048 0.49924051761627197 0.34323945641517639
0.99658846855163574 0.72457808256149292 0.63242518901824951
1 0.97906500101089478 0.98527216911315918
0.98095643520355225 0.72428339719772339 0.6134721040725708
0.99607402086257935 0.82799762487411499 0.75688266754150391
0.99992436170578003 0.97022277116775513 0.97487145662307739
1 0.98174107074737549 0.99438905715942383
1 0.9843137264251709 1
1 0.9843137264251709 0.99899947643280029
1 0.98403054475784302 0.99618768692016602
1 0.9843137264251709 0.99975049495697021
1 0.9843137264251709 1
1 0.98587363958358765 1
1 0.98311501741409302 0.99624824523925781
1 0.9843137264251709 0.99653023481369019
1 0.9843137264251709 1
1 0.9843137264251709 1
1 0.9843137264251709 1
0.58925622701644897 0.34656012058258057 0.22929361462593079
0.63206309080123901 0.36506372690200806 0.2361411452293396
0.81512892246246338 0.46497851610183716 0.30546760559082031
0.9694056510925293 0.61535292863845825 0.49514779448509216
1 0.90501314401626587 0.87822890281677246
0.7324676513671875 0.43190687894821167 0.29409980773925781
0.8157387375831604 0.47993254661560059 0.3216434121131897
0.94177287817001343 0.575736403465271 0.42705383896827698
0.99724352359771729 0.823985755443573 0.77198874950408936
1 0.98425590991973877 0.9935600757598877
0.99882376194000244 0.9344794750213623 0.91826462745666504
1 0.96978271007537842 0.97444659471511841
1 0.98293215036392212 0.99584823846817017
1 0.98200201988220215 0.99537432193756104
1 0.98739457130432129 1
1 0.9843137264251709 1
1 0.9843137264251709 0.99988448619842529
1 0.98039215803146362 0.99329006671905518
1 0.98312109708786011 0.99725967645645142
1 0.99006140232086182 1
1 0.9843137264251709 1
1 0.9843137264251709 1
1 0.9843137264251709 1
1 0.9843137264251709 1
1 0.9843137264251709 1
