assets/lut/picturefx goldfx bright spring breeze.cube
# Created by: G'MIC (https://gmic.eu)
TITLE "goldfx_bright_spring_breeze"
# LUT size
LUT_3D_SIZE 13
# Data domain
DOMAIN_MIN 0.0 0.0 0.0
DOMAIN_MAX 1.0 1.0 1.0
# LUT data points
0.039728499948978424 0.057051416486501694 0.053452316671609879
0.0657220259308815 0.055782243609428406 0.04604065790772438
0.1246337890625 0.065468810498714447 0.050278037786483765
0.20910017192363739 0.072758406400680542 0.056790772825479507
0.29001876711845398 0.07398427277803421 0.059172358363866806
0.37578251957893372 0.077068611979484558 0.066403105854988098
0.46739643812179565 0.068328812718391418 0.068284966051578522
0.56567913293838501 0.057268448173999786 0.067557394504547119
0.64623165130615234 0.064659595489501953 0.072939582169055939
0.72689121961593628 0.073052167892456055 0.07891719788312912
0.80659359693527222 0.099897168576717377 0.085417680442333221
0.88340330123901367 0.14223361015319824 0.097766116261482239
0.96913933753967285 0.21917331218719482 0.12936882674694061
0.042070530354976654 0.11151953041553497 0.061967078596353531
0.070090353488922119 0.11535616219043732 0.060409948229789734
0.13791587948799133 0.12073410302400589 0.064631156623363495
0.22859019041061401 0.12572163343429565 0.069520927965641022
0.31170356273651123 0.12531942129135132 0.068571500480175018
0.39534753561019897 0.12165931612253189 0.070464476943016052
0.48666569590568542 0.12125487625598907 0.075042232871055603
0.58717328310012817 0.12204363942146301 0.078372597694396973
0.66865736246109009 0.12265396118164062 0.083090774714946747
0.74360018968582153 0.12453227490186691 0.085171766579151154
0.81297367811203003 0.14704760909080505 0.090200953185558319
0.88981646299362183 0.18607336282730103 0.10573576390743256
0.97378164529800415 0.25118711590766907 0.13686999678611755
0.04605470597743988 0.19143298268318176 0.073001548647880554
0.061977475881576538 0.19390417635440826 0.072583034634590149
0.13864691555500031 0.19669283926486969 0.070809982717037201
0.24170747399330139 0.20076289772987366 0.073677271604537964
0.33693417906761169 0.20183834433555603 0.078849747776985168
0.4286748468875885 0.20309409499168396 0.083234034478664398
0.52268749475479126 0.20764240622520447 0.088006250560283661
0.61736822128295898 0.21383890509605408 0.094354845583438873
0.69346755743026733 0.21589852869510651 0.099487200379371643
0.76691246032714844 0.21293072402477264 0.097811616957187653
0.8344007134437561 0.22878649830818176 0.10388870537281036
0.9072335958480835 0.26676401495933533 0.12413956969976425
0.9813152551651001 0.31195709109306335 0.1492009311914444
0.060084562748670578 0.27114376425743103 0.081398263573646545
0.068938687443733215 0.2741793692111969 0.084882594645023346
0.13101556897163391 0.27591708302497864 0.081444308161735535
0.24248594045639038 0.28369835019111633 0.071005471050739288
0.34676998853683472 0.28681084513664246 0.071368619799613953
0.44918307662010193 0.29194670915603638 0.08120071142911911
0.55032861232757568 0.30209532380104065 0.096544064581394196
0.64393156766891479 0.30897113680839539 0.10954169183969498
0.72313028573989868 0.31259363889694214 0.11723408102989197
0.79216712713241577 0.31468057632446289 0.1170835942029953
0.85575664043426514 0.32429349422454834 0.12321703881025314
0.92381167411804199 0.35356813669204712 0.14098140597343445
0.98675304651260376 0.39312738180160522 0.16878008842468262
0.082955077290534973 0.34473809599876404 0.091176979243755341
0.090592436492443085 0.34621351957321167 0.096440605819225311
0.1306755393743515 0.34618967771530151 0.094929024577140808
0.23443399369716644 0.35408031940460205 0.081626057624816895
0.33909881114959717 0.35978847742080688 0.073845803737640381
0.44179940223693848 0.36500918865203857 0.077149786055088043
0.54334121942520142 0.37252047657966614 0.087206728756427765
0.64933580160140991 0.38752669095993042 0.1057271733880043
0.74406880140304565 0.40390560030937195 0.12482175976037979
0.81430721282958984 0.41262531280517578 0.13289655745029449
0.87876898050308228 0.42261514067649841 0.14333716034889221
0.93915694952011108 0.44200813770294189 0.16125023365020752
0.98907709121704102 0.47266313433647156 0.18877984583377838
0.10360873490571976 0.41496104001998901 0.10449172556400299
0.11051933467388153 0.41654816269874573 0.10947740077972412
0.1356472373008728 0.41436135768890381 0.11065757274627686
0.22604410350322723 0.41676867008209229 0.10177133232355118
0.32869023084640503 0.42292535305023193 0.092412553727626801
0.42535093426704407 0.4296976625919342 0.086733512580394745
0.52265602350234985 0.43324336409568787 0.089746363461017609
0.6239963173866272 0.44316437840461731 0.096322469413280487
0.73013830184936523 0.46798810362815857 0.11263571679592133
0.82118761539459229 0.49398878216743469 0.14012293517589569
0.88851016759872437 0.51083683967590332 0.15942195057868958
0.94975543022155762 0.52577012777328491 0.1810118705034256
0.98714083433151245 0.54691457748413086 0.20608411729335785
0.11883090436458588 0.47555685043334961 0.11199825257062912
0.13182328641414642 0.48348516225814819 0.12031764537096024
0.14827023446559906 0.4807124137878418 0.12290240824222565
0.22228841483592987 0.47826135158538818 0.12110081315040588
0.31924086809158325 0.48252168297767639 0.11253002285957336
0.40802115201950073 0.48747214674949646 0.10181863605976105
0.50030618906021118 0.49360242486000061 0.10207591205835342
0.59388285875320435 0.49347743391990662 0.10207676887512207
0.69221353530883789 0.51217085123062134 0.10833232849836349
0.79486006498336792 0.54589962959289551 0.1282932311296463
0.88104790449142456 0.57739138603210449 0.15639476478099823
0.95669317245483398 0.60352951288223267 0.19318737089633942
0.99316054582595825 0.63459444046020508 0.24083174765110016
0.13621550798416138 0.5393064022064209 0.11556465178728104
0.1571262925863266 0.55255961418151855 0.1285385936498642
0.17562757432460785 0.55031853914260864 0.13043117523193359
0.23716536164283752 0.54580855369567871 0.13221579790115356
0.31690788269042969 0.54621493816375732 0.13058659434318542
0.40562397241592407 0.55140036344528198 0.12125632911920547
0.48906180262565613 0.561390221118927 0.1221579909324646
0.57605856657028198 0.56398791074752808 0.12112507224082947
0.66667193174362183 0.5654798150062561 0.11991744488477707
0.75804299116134644 0.58780568838119507 0.12673048675060272
0.85453140735626221 0.6253359317779541 0.14299894869327545
0.94653862714767456 0.66464745998382568 0.17559510469436646
0.9954494833946228 0.70696169137954712 0.23542948067188263
0.16743661463260651 0.61948138475418091 0.12921740114688873
0.18935838341712952 0.62982934713363647 0.14156617224216461
0.2074538916349411 0.62548351287841797 0.14119091629981995
0.26376551389694214 0.62020492553710938 0.14311903715133667
0.33263856172561646 0.61498808860778809 0.14336921274662018
0.41395387053489685 0.62077760696411133 0.14041417837142944
0.49613749980926514 0.63347399234771729 0.14393408596515656
0.58037489652633667 0.64424306154251099 0.14691843092441559
0.6663023829460144 0.64952248334884644 0.14728012681007385
0.74354416131973267 0.65229511260986328 0.14470292627811432
0.82648682594299316 0.66987448930740356 0.14799557626247406
0.92543327808380127 0.71065604686737061 0.16299885511398315
0.99358850717544556 0.76702648401260376 0.20333562791347504
0.20633755624294281 0.70611047744750977 0.15109370648860931
0.22618111968040466 0.71603745222091675 0.16299630701541901
0.25394204258918762 0.71200275421142578 0.16281388700008392
0.30201637744903564 0.7060856819152832 0.16173440217971802
0.35819533467292786 0.69616150856018066 0.16091872751712799
0.42697879672050476 0.69994634389877319 0.16317689418792725
0.51192235946655273 0.71529650688171387 0.16999977827072144
0.59300416707992554 0.72649526596069336 0.17309212684631348
0.67477738857269287 0.73217207193374634 0.17334866523742676
0.75576239824295044 0.741374671459198 0.1760854572057724
0.8306623101234436 0.747031569480896 0.17449691891670227
0.91889524459838867 0.76854068040847778 0.17867375910282135
0.99128741025924683 0.81930208206176758 0.20699942111968994
0.26826441287994385 0.80677038431167603 0.18349134922027588
0.28826406598091125 0.81687325239181519 0.19802480936050415
0.33354800939559937 0.81705093383789062 0.20862700045108795
0.38318279385566711 0.81508606672286987 0.21051256358623505
0.41895925998687744 0.80564188957214355 0.2017533928155899
0.47753533720970154 0.80357229709625244 0.20399080216884613
0.55426424741744995 0.81709259748458862 0.20933298766613007
0.631480872631073 0.82508289813995361 0.21140304207801819
0.70486092567443848 0.82366418838500977 0.20856678485870361
0.7835201621055603 0.83455640077590942 0.21225923299789429
0.86266541481018066 0.84925371408462524 0.21387213468551636
0.93936079740524292 0.85867035388946533 0.21402151882648468
0.98910009860992432 0.88054966926574707 0.22611194849014282
0.41533339023590088 0.93437010049819946 0.26022684574127197
0.42914208769798279 0.93750864267349243 0.2681431770324707
0.46388062834739685 0.93198835849761963 0.28086507320404053
0.49963581562042236 0.93472707271575928 0.28038963675498962
0.52899014949798584 0.93299871683120728 0.27275529503822327
0.58256930112838745 0.93207913637161255 0.2754054069519043
0.64199042320251465 0.93167513608932495 0.27741634845733643
0.71445000171661377 0.93693125247955322 0.27592259645462036
0.78563141822814941 0.93839466571807861 0.27514746785163879
0.85777372121810913 0.94395816326141357 0.27523830533027649
0.91538506746292114 0.95127856731414795 0.27374705672264099
0.97071212530136108 0.95478922128677368 0.27664586901664734
0.99712675809860229 0.9651750922203064 0.28274425864219666
0.61168617010116577 0.99414873123168945 0.39063432812690735
0.61670690774917603 0.99592840671539307 0.39223790168762207
0.64556699991226196 0.99346369504928589 0.40854048728942871
0.68105489015579224 0.99496549367904663 0.41040116548538208
0.72810536623001099 0.99535638093948364 0.41760551929473877
0.77153509855270386 0.99683576822280884 0.41777926683425903
0.82031482458114624 0.99741888046264648 0.41814222931861877
0.8839489221572876 0.99690127372741699 0.41317087411880493
0.94148445129394531 0.99659842252731323 0.40962249040603638
0.97284293174743652 0.99635994434356689 0.3927856981754303
0.99228119850158691 0.98846143484115601 0.40366926789283752
0.99636173248291016 0.97814810276031494 0.4040425717830658
0.99985766410827637 0.97647058963775635 0.41282773017883301
0.024082347750663757 0.060167618095874786 0.086040258407592773
0.05755200982093811 0.062565989792346954 0.087661117315292358
0.12590168416500092 0.070103436708450317 0.093952283263206482
0.21001294255256653 0.072144724428653717 0.095204971730709076
0.29351678490638733 0.075176402926445007 0.096043407917022705
0.38054934144020081 0.079049952328205109 0.10090082138776779
0.46746739745140076 0.067791059613227844 0.10019438713788986
0.561981201171875 0.062541604042053223 0.10381970554590225
0.6456339955329895 0.068885654211044312 0.10819248855113983
0.72471672296524048 0.071679763495922089 0.110035240650177
0.79881125688552856 0.09341951459646225 0.11372140794992447
0.87772989273071289 0.13712038099765778 0.12144474685192108
0.9623066782951355 0.20651485025882721 0.14444719254970551
0.033543918281793594 0.12170405685901642 0.10091422498226166
0.064425885677337646 0.12187139689922333 0.10449739545583725
0.14152528345584869 0.12261883914470673 0.10666641592979431
0.23278501629829407 0.12501156330108643 0.1075836643576622
0.31663194298744202 0.12696890532970428 0.10878921300172806
0.39820191264152527 0.12257309257984161 0.10857090353965759
0.48798888921737671 0.12213302403688431 0.10953469574451447
0.58153927326202393 0.12516768276691437 0.11336772888898849
0.66268104314804077 0.12168366461992264 0.11595891416072845
0.73526477813720703 0.11450726538896561 0.11433762311935425
0.80716300010681152 0.13825425505638123 0.11804519593715668
0.87977868318557739 0.17069031298160553 0.12396015971899033
0.95897704362869263 0.23296903073787689 0.14895123243331909
0.042990993708372116 0.20258106291294098 0.11088205873966217
0.065048649907112122 0.20412325859069824 0.11624637991189957
0.14583830535411835 0.20148850977420807 0.11171671748161316
0.24982891976833344 0.20369285345077515 0.11245862394571304
0.3435179591178894 0.20442114770412445 0.1189841628074646
0.43184101581573486 0.20503115653991699 0.12381576746702194
0.52727210521697998 0.21169714629650116 0.12842337787151337
0.61750906705856323 0.21302318572998047 0.12666426599025726
0.69268208742141724 0.21272008121013641 0.12883497774600983
0.76201462745666504 0.20957528054714203 0.12990047037601471
0.82957178354263306 0.22469232976436615 0.13168539106845856
0.89990627765655518 0.25176423788070679 0.13696698844432831
0.97593754529953003 0.29532873630523682 0.16207703948020935
0.063261084258556366 0.28667017817497253 0.12159251421689987
0.072910770773887634 0.28721719980239868 0.1241423487663269
0.13717499375343323 0.28555518388748169 0.12187419086694717
0.24985803663730621 0.28847920894622803 0.10955719649791718
0.35589629411697388 0.29139092564582825 0.11086346209049225
0.45745849609375 0.29709300398826599 0.12231360375881195
0.55460160970687866 0.30346560478210449 0.13345123827457428
0.64504355192184448 0.3063499927520752 0.13970814645290375
0.72356748580932617 0.3091510534286499 0.14189489185810089
0.79141080379486084 0.31302514672279358 0.1442846804857254
0.85435193777084351 0.32196807861328125 0.14631959795951843
0.91838186979293823 0.34045025706291199 0.15335568785667419
0.98609179258346558 0.38245072960853577 0.18188086152076721
0.086125180125236511 0.36019250750541687 0.13271693885326385
0.092082515358924866 0.36099570989608765 0.13497482240200043
0.13238911330699921 0.35820683836936951 0.13056977093219757
0.24006927013397217 0.3611544668674469 0.11885286122560501
0.34584859013557434 0.36406359076499939 0.10525355488061905
0.44712147116661072 0.36713984608650208 0.10269914567470551
0.54828739166259766 0.37322035431861877 0.11335969716310501
0.65561670064926147 0.38786381483078003 0.13500353693962097
0.74294871091842651 0.40102711319923401 0.15039607882499695
0.81511390209197998 0.41061544418334961 0.15707959234714508
0.87802135944366455 0.41999614238739014 0.16302907466888428
0.93665188550949097 0.43192383646965027 0.17103634774684906
0.98896509408950806 0.46366393566131592 0.20049402117729187
0.10424617677927017 0.42348408699035645 0.13363024592399597
0.11086428910493851 0.42622542381286621 0.13677014410495758
0.13443481922149658 0.42187434434890747 0.13352495431900024
0.22810088098049164 0.42069756984710693 0.12601913511753082
0.33123311400413513 0.42692381143569946 0.11386989802122116
0.42786678671836853 0.43186244368553162 0.10072612017393112
0.52398788928985596 0.43104857206344604 0.098056420683860779
0.62893259525299072 0.44329571723937988 0.11176246404647827
0.7309262752532959 0.46928152441978455 0.13579240441322327
0.82203084230422974 0.49338272213935852 0.15781238675117493
0.89324772357940674 0.51066231727600098 0.17794023454189301
0.95324385166168213 0.52319031953811646 0.1927410215139389
0.99252051115036011 0.54845577478408813 0.22298155725002289
0.11887291073799133 0.48018389940261841 0.13079121708869934
0.13021403551101685 0.48801800608634949 0.13518244028091431
0.14802193641662598 0.48660925030708313 0.13686519861221313
0.22669079899787903 0.48326343297958374 0.13957944512367249
0.32095497846603394 0.48850429058074951 0.13262945413589478
0.4119926393032074 0.49318978190422058 0.11654986441135406
0.50165504217147827 0.49554228782653809 0.10558519512414932
0.59386157989501953 0.49581566452980042 0.10782779008150101
0.69472575187683105 0.51450157165527344 0.11841432005167007
0.79159921407699585 0.54515564441680908 0.13731841742992401
0.87985908985137939 0.57702517509460449 0.16971506178379059
0.95705592632293701 0.60287654399871826 0.2025989294052124
0.99410790205001831 0.63547486066818237 0.25070708990097046
0.13563568890094757 0.54053735733032227 0.12665604054927826
0.1531079113483429 0.55520272254943848 0.1405148059129715
0.17064069211483002 0.55642908811569214 0.14044947922229767
0.2396760880947113 0.5534859299659729 0.14513622224330902
0.32425093650817871 0.55515211820602417 0.14490276575088501
0.40762749314308167 0.55711138248443604 0.1301216185092926
0.4900461733341217 0.56269878149032593 0.12337882816791534
0.57896006107330322 0.56146937608718872 0.12123238295316696
0.66620749235153198 0.56519228219985962 0.12161733955144882
0.75377035140991211 0.58792304992675781 0.13298837840557098
0.85238391160964966 0.62520301342010498 0.14765696227550507
0.9451482892036438 0.66596138477325439 0.17855726182460785
0.99388068914413452 0.70762228965759277 0.24168524146080017
0.16726489365100861 0.62096863985061646 0.1332419365644455
0.1876274049282074 0.63200420141220093 0.1490301787853241
0.20201030373573303 0.63018274307250977 0.1477440744638443
0.25986406207084656 0.62522739171981812 0.15147720277309418
0.33266937732696533 0.62097114324569702 0.15128616988658905
0.41423323750495911 0.62392359972000122 0.14417707920074463
0.49311074614524841 0.6302342414855957 0.14310789108276367
0.5764278769493103 0.63734406232833862 0.14408577978610992
0.66579288244247437 0.64874303340911865 0.14714571833610535
0.74033421277999878 0.65055686235427856 0.14371514320373535
0.8253476619720459 0.6685861349105835 0.14903943240642548
0.92587405443191528 0.71179568767547607 0.16639496386051178
0.99286109209060669 0.76798820495605469 0.2086917906999588
0.20652598142623901 0.706859290599823 0.15482582151889801
0.22557026147842407 0.71793746948242188 0.16613507270812988
0.24878518283367157 0.71612882614135742 0.16559016704559326
0.2961118221282959 0.70856159925460815 0.16575995087623596
0.35230982303619385 0.6976020336151123 0.16335810720920563
0.42663925886154175 0.70092159509658813 0.16524122655391693
0.507759690284729 0.71053189039230347 0.16862718760967255
0.58810114860534668 0.71999317407608032 0.1708587110042572
0.67343074083328247 0.73017787933349609 0.17315210402011871
0.75203537940979004 0.73835039138793945 0.17517836391925812
0.82728022336959839 0.74332022666931152 0.17282781004905701
0.92108535766601562 0.77063488960266113 0.18025840818881989
0.9916694164276123 0.82282358407974243 0.20985732972621918
0.27320125699043274 0.81147414445877075 0.1882108598947525
0.28887748718261719 0.81920343637466431 0.19941361248493195
0.3295910656452179 0.82035297155380249 0.20812229812145233
0.37346354126930237 0.81819897890090942 0.20737637579441071
0.41704490780830383 0.80831301212310791 0.20279863476753235
0.4735882580280304 0.8025132417678833 0.20371901988983154
0.54592657089233398 0.80907505750656128 0.20578347146511078
0.6272817850112915 0.82043612003326416 0.20796872675418854
0.70053291320800781 0.82375490665435791 0.20660039782524109
0.78091686964035034 0.83464539051055908 0.21182085573673248
0.8597559928894043 0.84608918428421021 0.21314162015914917
0.93824702501296997 0.85733157396316528 0.21422679722309113
0.98881107568740845 0.87909984588623047 0.22563408315181732
0.41902238130569458 0.93360245227813721 0.26496279239654541
0.42510628700256348 0.9376072883605957 0.26716122031211853
0.45620280504226685 0.93873268365859985 0.2772115170955658
0.48954486846923828 0.93234354257583618 0.27663999795913696
0.52302205562591553 0.93109941482543945 0.27163702249526978
0.57922923564910889 0.92731380462646484 0.27489271759986877
0.63337630033493042 0.93042653799057007 0.27220860123634338
0.70560097694396973 0.93679726123809814 0.26876792311668396
0.77792859077453613 0.94164645671844482 0.26879480481147766
0.85707074403762817 0.94490790367126465 0.27644354104995728
0.91974693536758423 0.95139414072036743 0.27611911296844482
0.967823326587677 0.95539605617523193 0.27441132068634033
0.99532175064086914 0.9598846435546875 0.28205034136772156
0.62577474117279053 0.99278193712234497 0.40064701437950134
0.61543005704879761 0.99315530061721802 0.39288941025733948
0.64214617013931274 0.99560791254043579 0.40531525015830994
0.67851167917251587 0.99204140901565552 0.41079291701316833
0.72183012962341309 0.99234890937805176 0.41434991359710693
0.76309448480606079 0.99467796087265015 0.4115145206451416
0.81227380037307739 0.99608224630355835 0.41282379627227783
0.88380175828933716 0.99761337041854858 0.41384050250053406
0.94119709730148315 0.99822956323623657 0.40936240553855896
0.97432887554168701 0.99695217609405518 0.40329727530479431
0.98916769027709961 0.98864990472793579 0.40155646204948425
0.99347740411758423 0.97902429103851318 0.39843279123306274
0.99966788291931152 0.97607791423797607 0.41308403015136719
0.019365886226296425 0.077048763632774353 0.15016619861125946
0.042054329067468643 0.081461228430271149 0.16088549792766571
0.11138289421796799 0.09082552045583725 0.16927869617938995
0.21135613322257996 0.094074338674545288 0.1715400218963623
0.30053684115409851 0.094903089106082916 0.1703580915927887
0.39163923263549805 0.094254449009895325 0.17173972725868225
0.48093044757843018 0.079094231128692627 0.16792149841785431
0.57465702295303345 0.080998577177524567 0.16551674902439117
0.65947461128234863 0.087850950658321381 0.1668955385684967
0.73386961221694946 0.090566046535968781 0.16788707673549652
0.80389976501464844 0.09709872305393219 0.16277222335338593
0.87899661064147949 0.13842412829399109 0.17237628996372223
0.96489471197128296 0.2074221670627594 0.19467261433601379
0.031750310212373734 0.13626310229301453 0.16735222935676575
0.052816785871982574 0.13608743250370026 0.17805762588977814
0.12473689019680023 0.13566912710666656 0.18432290852069855
0.230706587433815 0.13598133623600006 0.17968429625034332
0.31973916292190552 0.13059177994728088 0.17572228610515594
0.40533998608589172 0.12146609276533127 0.17473520338535309
0.49312514066696167 0.11357636004686356 0.17280955612659454
0.5843808650970459 0.10795309394598007 0.1694197952747345
0.6648980975151062 0.11281254887580872 0.16840685904026031
0.73787575960159302 0.11236289888620377 0.16367195546627045
0.80914908647537231 0.1302717924118042 0.16651855409145355
0.8787950873374939 0.15849971771240234 0.1699146181344986
0.95442658662796021 0.21542453765869141 0.19101825356483459
0.046509042382240295 0.2189343124628067 0.18689772486686707
0.061232950538396835 0.22102883458137512 0.19296321272850037
0.1435084193944931 0.21541666984558105 0.19989480078220367
0.25744503736495972 0.21064586937427521 0.19235053658485413
0.34968471527099609 0.20383529365062714 0.19089719653129578
0.43877491354942322 0.20149479806423187 0.19385664165019989
0.52944517135620117 0.20211058855056763 0.19355106353759766
0.61722254753112793 0.19636249542236328 0.1847803145647049
0.69206357002258301 0.19780029356479645 0.18073537945747375
0.76111084222793579 0.19931535422801971 0.17825983464717865
0.82968407869338989 0.21249666810035706 0.1824251264333725
0.89963656663894653 0.23884445428848267 0.18688498437404633
0.97506928443908691 0.28115037083625793 0.20320144295692444
0.069032229483127594 0.3062857985496521 0.19483707845211029
0.075335860252380371 0.30894389748573303 0.19567231833934784
0.13727624714374542 0.309030681848526 0.2017379105091095
0.26365721225738525 0.30444350838661194 0.19102276861667633
0.37102204561233521 0.29891380667686462 0.18756981194019318
0.47079911828041077 0.30181148648262024 0.19808220863342285
0.5607295036315918 0.30150461196899414 0.20108228921890259
0.64638650417327881 0.3005158007144928 0.19979177415370941
0.72338628768920898 0.30379784107208252 0.19905185699462891
0.79267781972885132 0.30612680315971375 0.19655691087245941
0.85838371515274048 0.31468328833580017 0.19623303413391113
0.92188161611557007 0.33655527234077454 0.20767372846603394
0.9836878776550293 0.37153476476669312 0.2284068763256073
0.089970864355564117 0.38134866952896118 0.20082263648509979
0.095639429986476898 0.38716831803321838 0.2060057520866394
0.13826583325862885 0.38533422350883484 0.20282603800296783
0.2513892650604248 0.37894183397293091 0.19483281672000885
0.36202666163444519 0.37656992673873901 0.18134041130542755
0.46555215120315552 0.37824687361717224 0.18009582161903381
0.56569039821624756 0.38282451033592224 0.18656599521636963
