assets/lut/picturefx analogfx sepia color.cube
# Created by: G'MIC (https://gmic.eu)
TITLE "analogfx_sepia_color"
# LUT size
LUT_3D_SIZE 7
# Data domain
DOMAIN_MIN 0.0 0.0 0.0
DOMAIN_MAX 1.0 1.0 1.0
# LUT data points
0.053123235702514648 0.012159265577793121 0
0.098617404699325562 0.035745643079280853 0
0.1789613664150238 0.09594561904668808 0
0.28345838189125061 0.16157728433609009 0
0.4523213803768158 0.24803173542022705 0
0.63726258277893066 0.3777613639831543 0
0.84486103057861328 0.5030243992805481 0
0.13889998197555542 0.047114130109548569 0
0.1525646448135376 0.058883711695671082 0
0.20849312841892242 0.098952427506446838 0
0.31080323457717896 0.16162978112697601 0
0.47182649374008179 0.24823151528835297 0
0.66070020198822021 0.37919843196868896 0
0.87024128437042236 0.5119280219078064 0
0.27405568957328796 0.096713058650493622 0
0.27399781346321106 0.098994232714176178 0
0.28349095582962036 0.11028438061475754 0
0.35978212952613831 0.15893171727657318 0
0.50553399324417114 0.25491517782211304 0
0.70279937982559204 0.37721127271652222 0
0.89534670114517212 0.50160157680511475 0
0.49012121558189392 0.15147055685520172 0
0.48136895895004272 0.14842882752418518 0
0.48413315415382385 0.1540885716676712 0
0.5010993480682373 0.17163030803203583 0
0.59963971376419067 0.24245201051235199 0
0.77090287208557129 0.36117702722549438 0
0.94541877508163452 0.48513507843017578 0
0.7728722095489502 0.2116396576166153 0
0.77901250123977661 0.21515864133834839 0
0.77764397859573364 0.2237139493227005 0
0.79114997386932373 0.23787263035774231 0
0.78379911184310913 0.25565522909164429 0
0.87832129001617432 0.32510393857955933 0
0.99372917413711548 0.43542402982711792 0
0.99416214227676392 0.24412433803081512 0
0.9947735071182251 0.25888428092002869 0
0.99480587244033813 0.25838693976402283 0
0.99591255187988281 0.27460053563117981 0
0.99494785070419312 0.29411607980728149 0
0.99689751863479614 0.3266376256942749 0
0.99918907880783081 0.39388576149940491 0
1 0.40881845355033875 0
1 0.41309371590614319 0
1 0.41575577855110168 0
1 0.42417839169502258 0
1 0.43391698598861694 0
1 0.44473764300346375 0
1 0.46394982933998108 0
0.13517135381698608 0.060146704316139221 0
0.13976170122623444 0.067240424454212189 0
0.19735635817050934 0.10692185163497925 0
0.30419754981994629 0.17054259777069092 0
0.47527840733528137 0.25939911603927612 0
0.66772997379302979 0.38650047779083252 0
0.87536823749542236 0.51893973350524902 0
0.15989933907985687 0.071819469332695007 0
0.18100585043430328 0.081692054867744446 0
0.24236296117305756 0.11393596976995468 0
0.33664494752883911 0.17340023815631866 0
0.49673157930374146 0.26176553964614868 0
0.68842041492462158 0.38605618476867676 0
0.88705205917358398 0.51783472299575806 0
0.29182925820350647 0.12092301249504089 0
0.29915356636047363 0.1254824697971344 0
0.31178715825080872 0.13342288136482239 0
0.39242690801620483 0.17836414277553558 0
0.54297029972076416 0.26645711064338684 0
0.72974658012390137 0.38588428497314453 0
0.91653198003768921 0.51303976774215698 0
0.50579917430877686 0.17243547737598419 0
0.50802946090698242 0.17313595116138458 0
0.50960451364517212 0.18433776497840881 0
0.51406675577163696 0.19399949908256531 0
0.63082277774810791 0.2648894190788269 0
0.80760186910629272 0.37422960996627808 0
0.96908152103424072 0.4979933500289917 0
0.80090481042861938 0.23036099970340729 0
0.80471694469451904 0.23294717073440552 0
0.80464017391204834 0.24499024450778961 0
0.81008058786392212 0.25840350985527039 0
0.82246750593185425 0.27788570523262024 0
0.91787266731262207 0.33844771981239319 0
0.99784457683563232 0.44555696845054626 0
0.99183636903762817 0.28486153483390808 0
0.99434536695480347 0.28894242644309998 0
0.99295032024383545 0.29807955026626587 0
0.99598187208175659 0.31068333983421326 0
0.99174213409423828 0.33651161193847656 0
0.99527502059936523 0.36985984444618225 0
1 0.42580294609069824 0
1 0.44919514656066895 0.0017908732406795025
1 0.45211008191108704 0.00087794882711023092
1 0.45140084624290466 0.0014948826283216476
1 0.4639732837677002 0.0008313347352668643
1 0.4734438955783844 0.0016405442729592323
1 0.48390966653823853 0.0012739592930302024
1 0.49904793500900269 0.0061710281297564507
0.27370288968086243 0.13889791071414948 0
0.27084723114967346 0.13992808759212494 0
0.25986632704734802 0.14131671190261841 0
0.32456204295158386 0.18070457875728607 0
0.49956700205802917 0.27402010560035706 0
0.70098775625228882 0.40356960892677307 0
0.91083049774169922 0.52996355295181274 0
0.28281933069229126 0.14237296581268311 0
0.28326112031936646 0.14265052974224091 0
0.29118552803993225 0.14571832120418549 0
0.36990600824356079 0.18959799408912659 0
0.54036796092987061 0.28410458564758301 0
0.74557733535766602 0.40256300568580627 0
0.92754608392715454 0.53144830465316772 0
0.32828634977340698 0.14972950518131256 0
0.34832087159156799 0.14905068278312683 0
0.38334015011787415 0.16803279519081116 0.0086204232648015022
0.46810364723205566 0.20959667861461639 0.0008262484916485846
0.61932146549224854 0.29839411377906799 0
0.80061787366867065 0.4106292724609375 0.00013870537804905325
0.95923632383346558 0.53115004301071167 0
0.53492414951324463 0.20968051254749298 0
0.53796541690826416 0.22226813435554504 0
0.5519377589225769 0.24323412775993347 0.00020904540724586695
0.57700389623641968 0.25435182452201843 0.0013613682240247726
0.70825344324111938 0.32296639680862427 0.0034384035971015692
0.86463737487792969 0.42886394262313843 0.0025425930507481098
0.98807483911514282 0.52406710386276245 0
0.81622594594955444 0.32145315408706665 0
0.82030344009399414 0.32875213027000427 0
0.82314789295196533 0.33531284332275391 4.8828125727595761e-05
0.83074384927749634 0.34770825505256653 0.00059696269454434514
0.85102349519729614 0.36795002222061157 0.0010345160262659192
0.94810599088668823 0.42534089088439941 0
0.9994468092918396 0.50288122892379761 0
0.99519306421279907 0.40649828314781189 0.00021582210320048034
0.99331867694854736 0.41032961010932922 0.0033959331922233105
0.99101942777633667 0.41627603769302368 0.0041010240092873573
0.99276483058929443 0.42653587460517883 0.0021094377152621746
0.99173951148986816 0.44138368964195251 0.0050266939215362072
0.9977831244468689 0.4636598527431488 0.0023272794205695391
1 0.50479245185852051 0.012752234004437923
1 0.53283178806304932 0.092880085110664368
1 0.53203016519546509 0.090640172362327576
1 0.53407579660415649 0.085376501083374023
1 0.54290962219238281 0.095077097415924072
1 0.55070334672927856 0.094406649470329285
1 0.56049978733062744 0.1005886122584343
1 0.57847529649734497 0.11488152295351028
0.45001354813575745 0.24561455845832825 0
0.44744777679443359 0.24609582126140594 0
0.45446532964706421 0.23559573292732239 0
0.45642885565757751 0.24046686291694641 0
0.52968746423721313 0.29716825485229492 0
0.72130823135375977 0.42654156684875488 0
0.92173224687576294 0.54713708162307739 0
0.45916315913200378 0.24768228828907013 0
0.45499283075332642 0.24951590597629547 0
0.45532631874084473 0.24632678925991058 0
0.47387188673019409 0.24492518603801727 0
0.56315040588378906 0.31025248765945435 0
0.74986749887466431 0.43161478638648987 0
0.94774770736694336 0.55198782682418823 0
0.48937764763832092 0.24927642941474915 0
0.49618804454803467 0.25244414806365967 0
0.53231692314147949 0.25265777111053467 0.0021111732348799706
0.55080634355545044 0.26332104206085205 0.008257279172539711
0.66602158546447754 0.3345429003238678 0.0085420198738574982
0.83888059854507446 0.44445037841796875 0.0018163942731916904
0.98435556888580322 0.55937403440475464 0.00026565251755528152
0.57206171751022339 0.25556787848472595 0
0.58864438533782959 0.26565736532211304 2.5281718990299851e-05
0.61492908000946045 0.30761095881462097 0.035092942416667938
0.63158702850341797 0.33847323060035706 0.12663988769054413
0.76152604818344116 0.40545928478240967 0.09425748884677887
0.9107782244682312 0.49704137444496155 0.045530743896961212
0.99845033884048462 0.57580649852752686 0.031181111931800842
0.81540238857269287 0.37534373998641968 0
0.81914186477661133 0.39683860540390015 0.00075916963396593928
0.83416569232940674 0.43668323755264282 0.046219546347856522
0.84932386875152588 0.46462062001228333 0.109952412545681
0.88453596830368042 0.48378962278366089 0.11851669102907181
0.9695008397102356 0.52943307161331177 0.098630435764789581
0.99999135732650757 0.57982254028320312 0.082935720682144165
0.99608594179153442 0.51638102531433105 0.0394577756524086
0.99757570028305054 0.52661913633346558 0.066914424300193787
0.99445593357086182 0.54136210680007935 0.11981724947690964
0.99815225601196289 0.54995900392532349 0.13569127023220062
0.9955858588218689 0.55730193853378296 0.14340962469577789
0.99848997592926025 0.56771600246429443 0.15158447623252869
1 0.59432715177536011 0.1668277382850647
1 0.6287115216255188 0.28184735774993896
1 0.62950813770294189 0.2818407416343689
1 0.63285118341445923 0.2836659848690033
1 0.63908028602600098 0.29429185390472412
1 0.64746737480163574 0.30595731735229492
1 0.65073060989379883 0.30370244383811951
1 0.67224335670471191 0.35011452436447144
0.75769197940826416 0.39805004000663757 0
0.75459641218185425 0.39531514048576355 0
0.75646662712097168 0.39992156624794006 0
0.74062752723693848 0.40397587418556213 0
0.7213100790977478 0.41118967533111572 0
0.77011704444885254 0.45590785145759583 0
0.93569749593734741 0.56326276063919067 0
0.76842743158340454 0.4009888768196106 0
0.7679065465927124 0.40118521451950073 0
0.76124858856201172 0.40304538607597351 0
0.74970430135726929 0.40767991542816162 0
0.73525434732437134 0.41622093319892883 0
0.79449057579040527 0.46335598826408386 0
0.96448409557342529 0.57528144121170044 0
0.78356295824050903 0.40670284628868103 0
0.78190147876739502 0.41369485855102539 0
0.78141671419143677 0.41531354188919067 0
0.78066545724868774 0.42269337177276611 0.00046422620653174818
0.78858250379562378 0.42671230435371399 0.001059169415384531
0.86919295787811279 0.48064514994621277 0.00069240498123690486
0.99202466011047363 0.57658714056015015 0.00081709318328648806
0.81125342845916748 0.41305005550384521 0
0.82423132658004761 0.41759642958641052 0
0.83845466375350952 0.43271806836128235 0.0056241205893456936
0.84548705816268921 0.45822548866271973 0.063482679426670074
0.85969465970993042 0.47589960694313049 0.12195409089326859
0.95047563314437866 0.53465551137924194 0.13409344851970673
0.99998170137405396 0.60167759656906128 0.16776379942893982
0.88600105047225952 0.43221855163574219 0.00034140792558901012
0.88502496480941772 0.45179286599159241 0.0086984522640705109
0.89107149839401245 0.48778519034385681 0.10560881346464157
0.9003450870513916 0.53432965278625488 0.2737807035446167
0.9215465784072876 0.5799332857131958 0.38123828172683716
0.99368792772293091 0.6218254566192627 0.38806775212287903
1 0.66657030582427979 0.38424625992774963
0.99734997749328613 0.54953587055206299 0.080434225499629974
0.99464243650436401 0.55965936183929443 0.14074410498142242
0.9959951639175415 0.59375941753387451 0.26532077789306641
0.99610644578933716 0.63328051567077637 0.35867327451705933
0.99948132038116455 0.66320973634719849 0.42100945115089417
1 0.67361354827880859 0.42471134662628174
1 0.70433956384658813 0.43679425120353699
1 0.67520934343338013 0.36099919676780701
1 0.68593800067901611 0.38843169808387756
1 0.70497608184814453 0.43615296483039856
1 0.72531342506408691 0.48695322871208191
1 0.73535370826721191 0.50998222827911377
1 0.74318462610244751 0.52993983030319214
1 0.74679410457611084 0.53221172094345093
0.99125206470489502 0.55068588256835938 0
0.98265546560287476 0.5478021502494812 0
0.98793631792068481 0.55102133750915527 0
0.97928637266159058 0.55385130643844604 0
0.962615966796875 0.55719196796417236 0
0.95127421617507935 0.56625604629516602 0
0.97775435447692871 0.59734785556793213 0
0.98584991693496704 0.55020463466644287 0
0.99001479148864746 0.55032265186309814 0
0.98755937814712524 0.55112028121948242 0
0.98011893033981323 0.55498868227005005 0
0.96881568431854248 0.56029832363128662 0
0.96321398019790649 0.56991481781005859 0
0.98262721300125122 0.59623432159423828 0
0.99082368612289429 0.55511844158172607 0
0.98894780874252319 0.55599391460418701 0
0.98315662145614624 0.55780923366546631 0
0.98586833477020264 0.56547212600708008 0
0.97775685787200928 0.56915462017059326 0
0.97904509305953979 0.57556653022766113 0
0.99672853946685791 0.60021287202835083 0.0015048157656565309
0.99318557977676392 0.5586434006690979 0
0.98987662792205811 0.56066465377807617 0
0.99635815620422363 0.56184929609298706 0.0020585453603416681
0.99378776550292969 0.56873470544815063 0.02033722773194313
0.99680572748184204 0.57644593715667725 0.028558723628520966
0.99759650230407715 0.58843463659286499 0.068056516349315643
1 0.61761629581451416 0.13150757551193237
0.99758487939834595 0.53921258449554443 0.0060439016669988632
0.99756312370300293 0.54995954036712646 0.0056543834507465363
0.99847322702407837 0.58140617609024048 0.0639166459441185
0.99829947948455811 0.61435258388519287 0.28718030452728271
0.99981576204299927 0.64775639772415161 0.40252795815467834
0.99991214275360107 0.66448485851287842 0.44170257449150085
1 0.69875693321228027 0.46344807744026184
0.99998205900192261 0.58960509300231934 0.15235221385955811
1 0.60119593143463135 0.21157169342041016
0.99991428852081299 0.6280519962310791 0.30808964371681213
0.99969577789306641 0.6700102686882019 0.42019745707511902
1 0.71977543830871582 0.53806102275848389
1 0.76150989532470703 0.63342094421386719
1 0.79361850023269653 0.6672743558883667
1 0.69535571336746216 0.40035906434059143
1 0.70505416393280029 0.42528706789016724
1 0.72142970561981201 0.47210666537284851
1 0.75936752557754517 0.56375861167907715
1 0.80269908905029297 0.65892899036407471
1 0.82966476678848267 0.71560978889465332
0.99995452165603638 0.83512711524963379 0.72349947690963745
1 0.66420179605484009 0
1 0.66830903291702271 0
1 0.66571110486984253 0
0.99963235855102539 0.66890925168991089 0
0.9986569881439209 0.67336642742156982 0
0.99979227781295776 0.67973828315734863 0
0.99994611740112305 0.68152278661727905 0
1 0.66453880071640015 0
1 0.66928398609161377 0
1 0.66742533445358276 0
0.99962067604064941 0.66946202516555786 0
0.99942046403884888 0.67208170890808105 0
0.99940633773803711 0.68060290813446045 0
0.99850821495056152 0.68677240610122681 0
1 0.66831362247467041 0
1 0.67082881927490234 0
1 0.6689755916595459 0
1 0.67083168029785156 0
1 0.67366045713424683 0
1 0.67811506986618042 0
1 0.69127953052520752 0.00025981827639043331
1 0.67077302932739258 0
1 0.67755353450775146 0
1 0.67773020267486572 0.0020299125462770462
1 0.6793178915977478 0.0075363758951425552
1 0.67969846725463867 0.012542859651148319
1 0.68405658006668091 0.03682461753487587
1 0.69037199020385742 0.077378593385219574
1 0.67802649736404419 0.035560697317123413
1 0.68441522121429443 0.057262048125267029
1 0.69762259721755981 0.19277475774288177
1 0.7173648476600647 0.34701716899871826
1 0.73174482583999634 0.40350952744483948
1 0.73992747068405151 0.44280868768692017
1 0.74826467037200928 0.47778099775314331
1 0.70753520727157593 0.30188390612602234
1 0.71084004640579224 0.33648884296417236
1 0.71890348196029663 0.39315980672836304
1 0.75067603588104248 0.49672138690948486
1 0.7833670973777771 0.59816932678222656
1 0.81966876983642578 0.69205981492996216
1 0.82828390598297119 0.71954387426376343
1 0.7497260570526123 0.5045662522315979
1 0.75609487295150757 0.52180749177932739
1 0.7595977783203125 0.5359918475151062
1 0.79003071784973145 0.61756002902984619
1 0.82713186740875244 0.70501482486724854
1 0.86258232593536377 0.78522330522537231
0.98946350812911987 0.90582853555679321 0.87313729524612427
