assets/lut/picturefx zilverfx vintage bw.cube
# Created by: G'MIC (https://gmic.eu)
TITLE "zilverfx_vintage_bw"
# LUT size
LUT_3D_SIZE 7
# Data domain
DOMAIN_MIN 0.0 0.0 0.0
DOMAIN_MAX 1.0 1.0 1.0
# LUT data points
0.011430343613028526 0.010647987015545368 0.010526440106332302
0.052909836173057556 0.052274651825428009 0.051201928406953812
0.11527352780103683 0.11175362020730972 0.11045880615711212
0.2002723217010498 0.19062408804893494 0.18079002201557159
0.33807647228240967 0.3170849084854126 0.29947438836097717
0.48705601692199707 0.45314475893974304 0.42305761575698853
0.56417793035507202 0.52443361282348633 0.48575159907341003
0.11885934323072433 0.11762412637472153 0.11419633030891418
0.13992305099964142 0.13651405274868011 0.13320858776569366
0.18966272473335266 0.18078021705150604 0.175135537981987
0.27221304178237915 0.25861352682113647 0.24554905295372009
0.39717808365821838 0.37383690476417542 0.35197168588638306
0.51600897312164307 0.47999638319015503 0.44674953818321228
0.57699930667877197 0.53459465503692627 0.49525409936904907
0.2725062370300293 0.2597009539604187 0.24795828759670258
0.29393684864044189 0.27957385778427124 0.26530835032463074
0.3374367356300354 0.31951797008514404 0.3042912483215332
0.39890491962432861 0.37585228681564331 0.35572317242622375
0.50789427757263184 0.47560158371925354 0.44548088312149048
0.56741482019424438 0.52696788311004639 0.48885670304298401
0.62669384479522705 0.57849681377410889 0.53693825006484985
0.48401924967765808 0.45410588383674622 0.42686900496482849
0.49728035926818848 0.46687191724777222 0.43946117162704468
0.52778089046478271 0.49336510896682739 0.46369186043739319
0.57302498817443848 0.53402990102767944 0.499908447265625
0.63127368688583374 0.58800560235977173 0.5465882420539856
0.66339141130447388 0.6221885085105896 0.58479958772659302
0.70949369668960571 0.67718946933746338 0.6523624062538147
0.66556084156036377 0.6199653148651123 0.57683539390563965
0.67687922716140747 0.63113605976104736 0.58982557058334351
0.68652498722076416 0.64287227392196655 0.60245215892791748
0.7117728590965271 0.67496496438980103 0.64416176080703735
0.75028401613235474 0.72388988733291626 0.70516383647918701
0.78143310546875 0.76624894142150879 0.75015127658843994
0.80135071277618408 0.78691285848617554 0.77550411224365234
0.75967139005661011 0.7322392463684082 0.7085721492767334
0.77287304401397705 0.74785637855529785 0.72590738534927368
0.78429979085922241 0.76390582323074341 0.74535542726516724
0.80594468116760254 0.78854191303253174 0.77551871538162231
0.83491402864456177 0.82083207368850708 0.81250882148742676
0.85387051105499268 0.84346425533294678 0.83654940128326416
0.86285281181335449 0.8529813289642334 0.84614896774291992
0.79036200046539307 0.76772814989089966 0.75105726718902588
0.80816161632537842 0.78657174110412598 0.77027010917663574
0.80746877193450928 0.78934174776077271 0.77458453178405762
0.81535762548446655 0.80284631252288818 0.78869038820266724
0.82455885410308838 0.81156682968139648 0.80183893442153931
0.8429456353187561 0.83366954326629639 0.82579630613327026
0.87141227722167969 0.8634147047996521 0.85572600364685059
0.039054527878761292 0.038026534020900726 0.037421911954879761
0.077921487390995026 0.076697707176208496 0.074817046523094177
0.12969382107257843 0.12475433200597763 0.12141874432563782
0.21499668061733246 0.20205883681774139 0.19322706758975983
0.35005730390548706 0.32878908514976501 0.3088289201259613
0.49034419655799866 0.45593255758285522 0.42496031522750854
0.56369173526763916 0.52393090724945068 0.48568373918533325
0.13994240760803223 0.13481658697128296 0.13247746229171753
0.15917888283729553 0.1533970981836319 0.1489102691411972
0.20860286056995392 0.1993013322353363 0.19106729328632355
0.28587916493415833 0.27021360397338867 0.25750774145126343
0.40778949856758118 0.38280385732650757 0.36030226945877075
0.51564323902130127 0.48003679513931274 0.44639700651168823
0.57668554782867432 0.5342445969581604 0.49482426047325134
0.2875053882598877 0.27366930246353149 0.25943389534950256
0.30535033345222473 0.2885596752166748 0.27567359805107117
0.34398472309112549 0.32554319500923157 0.30976495146751404
0.4104306697845459 0.38703364133834839 0.36593484878540039
0.51375746726989746 0.48126828670501709 0.45047661662101746
0.56739383935928345 0.5267452597618103 0.48784148693084717
0.62394577264785767 0.576244056224823 0.53361696004867554
0.49333950877189636 0.46159839630126953 0.43377229571342468
0.51063412427902222 0.48010656237602234 0.44967472553253174
0.5333249568939209 0.4989636242389679 0.46835461258888245
0.57877075672149658 0.54007989168167114 0.50361377000808716
0.63311350345611572 0.58814841508865356 0.54709964990615845
0.66591799259185791 0.62739282846450806 0.59222805500030518
0.70402687788009644 0.67338460683822632 0.64647722244262695
0.6740717887878418 0.62894684076309204 0.58556640148162842
0.68146562576293945 0.63604617118835449 0.59431236982345581
0.69266033172607422 0.65032058954238892 0.61018353700637817
0.71466660499572754 0.68139755725860596 0.65209364891052246
0.74981105327606201 0.72679752111434937 0.70702022314071655
0.78242844343185425 0.766501784324646 0.75317108631134033
0.80695635080337524 0.79340565204620361 0.78265851736068726
0.7649274468421936 0.74006897211074829 0.7181544303894043
0.78185492753982544 0.75736349821090698 0.73846268653869629
0.79502946138381958 0.77602142095565796 0.75813448429107666
0.81070858240127563 0.7954099178314209 0.78205752372741699
0.8383973240852356 0.82772088050842285 0.81844079494476318
0.85873472690582275 0.84936672449111938 0.84329640865325928
0.87026464939117432 0.85978239774703979 0.85453075170516968
0.80564385652542114 0.78672856092453003 0.77180594205856323
0.82100194692611694 0.80368572473526001 0.78782862424850464
0.82077419757843018 0.80444049835205078 0.79178875684738159
0.8197404146194458 0.80489200353622437 0.79564273357391357
0.83383947610855103 0.82368111610412598 0.81316167116165161
0.8558354377746582 0.84848165512084961 0.84051221609115601
0.88769817352294922 0.88065475225448608 0.87357008457183838
0.09411214292049408 0.092044949531555176 0.090080961585044861
0.12011989206075668 0.11762810498476028 0.11393531411886215
0.16826456785202026 0.16127946972846985 0.15399143099784851
0.25229790806770325 0.23822756111621857 0.22660379111766815
0.37612351775169373 0.35211536288261414 0.33180925250053406
0.50561004877090454 0.47070395946502686 0.43749016523361206
0.56603485345840454 0.52432799339294434 0.48591554164886475
0.1726389080286026 0.1666361540555954 0.16187115013599396
0.19493794441223145 0.18755210936069489 0.1792510449886322
0.24473321437835693 0.23284642398357391 0.22122152149677277
0.31165361404418945 0.29575642943382263 0.27962407469749451
0.42837974429130554 0.40283262729644775 0.37637597322463989
0.52862429618835449 0.49119046330451965 0.45581766963005066
0.57974362373352051 0.53694522380828857 0.49760040640830994
0.31129905581474304 0.29557350277900696 0.28164380788803101
0.33975332975387573 0.3218739926815033 0.30632048845291138
0.37195369601249695 0.35174089670181274 0.33330592513084412
0.42974704504013062 0.40548452734947205 0.38264542818069458
0.52693319320678711 0.49288719892501831 0.46028569340705872
0.57278746366500854 0.53130155801773071 0.49164751172065735
0.63077008724212646 0.58471012115478516 0.54105913639068604
0.50712698698043823 0.47517895698547363 0.44597002863883972
0.52509725093841553 0.49269869923591614 0.46139749884605408
0.55364352464675903 0.51719295978546143 0.48354020714759827
0.5926898717880249 0.55384796857833862 0.51640868186950684
0.63933813571929932 0.59498244524002075 0.55425161123275757
0.66946518421173096 0.63039928674697876 0.59768068790435791
0.71594047546386719 0.68799668550491333 0.66456997394561768
0.67818188667297363 0.63499492406845093 0.59391587972640991
0.68915307521820068 0.64512234926223755 0.60615354776382446
0.71061170101165771 0.67031455039978027 0.63568782806396484
0.73247224092483521 0.70163899660110474 0.67316067218780518
0.76055896282196045 0.73837077617645264 0.72059029340744019
0.79327023029327393 0.77872562408447266 0.76613098382949829
0.81279432773590088 0.79977095127105713 0.78973257541656494
0.78393834829330444 0.75991600751876831 0.74135756492614746
0.80131489038467407 0.78025978803634644 0.7628934383392334
0.82030987739562988 0.80209475755691528 0.7885206937789917
0.84034276008605957 0.82706242799758911 0.81636601686477661
0.85981816053390503 0.85144120454788208 0.8443029522895813
0.88184654712677002 0.87500506639480591 0.86860144138336182
0.89994794130325317 0.8931242823600769 0.88786464929580688
0.842429518699646 0.82666444778442383 0.81539720296859741
0.85941451787948608 0.84486818313598633 0.83413088321685791
0.86645746231079102 0.85572105646133423 0.84451174736022949
0.87201803922653198 0.86251580715179443 0.85211634635925293
0.87337130308151245 0.86394119262695312 0.85817462205886841
0.8913569450378418 0.88662546873092651 0.87961173057556152
0.93015879392623901 0.92608112096786499 0.9226340651512146
0.16374200582504272 0.15766499936580658 0.15011113882064819
0.18650279939174652 0.17743372917175293 0.16931930184364319
0.24043057858943939 0.22707732021808624 0.21539101004600525
0.30884850025177002 0.29064288735389709 0.27490174770355225
0.43362268805503845 0.40516319870948792 0.37911102175712585
0.53310835361480713 0.49490046501159668 0.45901557803153992
0.57635760307312012 0.53342258930206299 0.49340784549713135
0.24506902694702148 0.23186670243740082 0.22167757153511047
0.26233997941017151 0.2503303587436676 0.23730243742465973
0.30353203415870667 0.28735989332199097 0.27198797464370728
0.36642089486122131 0.34638994932174683 0.32606664299964905
0.47201421856880188 0.44146987795829773 0.41157832741737366
0.5438353419303894 0.50413209199905396 0.46741762757301331
0.58476769924163818 0.5396658182144165 0.49923941493034363
0.36664789915084839 0.34734237194061279 0.32921528816223145
0.39222729206085205 0.37136414647102356 0.35068133473396301
0.42530342936515808 0.40069535374641418 0.37893965840339661
0.47844234108924866 0.44879463315010071 0.42210951447486877
0.55368757247924805 0.51525324583053589 0.4796430766582489
0.58966565132141113 0.54410910606384277 0.50430220365524292
0.64646285772323608 0.60016310214996338 0.5592348575592041
0.5437355637550354 0.50908464193344116 0.47623443603515625
0.55499732494354248 0.51873248815536499 0.48542842268943787
0.57953119277954102 0.54221338033676147 0.50464463233947754
0.62084811925888062 0.57749879360198975 0.53674024343490601
0.65439069271087646 0.61138933897018433 0.57222425937652588
0.68263334035873413 0.65043407678604126 0.62101083993911743
0.73396784067153931 0.71068459749221802 0.68979489803314209
0.68914413452148438 0.64961862564086914 0.61271333694458008
0.70560181140899658 0.66670686006546021 0.63259196281433105
0.72769415378570557 0.69419693946838379 0.66510027647018433
0.7562679648399353 0.73086428642272949 0.71018368005752563
0.78911852836608887 0.77179306745529175 0.75760990381240845
0.8280450701713562 0.8180965781211853 0.80774873495101929
0.85345542430877686 0.84219992160797119 0.83621060848236084
0.81195449829101562 0.79478424787521362 0.780059814453125
0.82841330766677856 0.81249690055847168 0.80046135187149048
0.85466247797012329 0.84185910224914551 0.83252954483032227
0.88587683439254761 0.87682569026947021 0.86927741765975952
0.91114288568496704 0.90683281421661377 0.90082216262817383
0.94053465127944946 0.93693745136260986 0.93419057130813599
0.94938367605209351 0.94656813144683838 0.94301050901412964
0.90416991710662842 0.8955119252204895 0.88857275247573853
0.91711950302124023 0.90904432535171509 0.90243029594421387
0.9273676872253418 0.921486496925354 0.9145965576171875
0.93344175815582275 0.92759227752685547 0.92262685298919678
0.93111330270767212 0.9275931715965271 0.92398351430892944
0.94922375679016113 0.94579976797103882 0.94289422035217285
0.98433101177215576 0.98031520843505859 0.98219764232635498
0.31223490834236145 0.29444620013237 0.27728331089019775
0.33523723483085632 0.3148064911365509 0.29783368110656738
0.37296369671821594 0.35068434476852417 0.32925453782081604
0.41517645120620728 0.3873538076877594 0.36415505409240723
0.50399911403656006 0.46944886445999146 0.43610480427742004
0.56089282035827637 0.52049875259399414 0.48123791813850403
0.59186732769012451 0.5458189845085144 0.50417083501815796
0.37718451023101807 0.35516417026519775 0.33486837148666382
0.3881523609161377 0.36592534184455872 0.34505069255828857
0.4150049090385437 0.38980516791343689 0.36649435758590698
0.4555593729019165 0.42697730660438538 0.39925751090049744
0.52737021446228027 0.49014472961425781 0.45460516214370728
0.56981122493743896 0.5270046591758728 0.48702991008758545
0.60592430830001831 0.55989879369735718 0.51631128787994385
0.46130481362342834 0.43287581205368042 0.40702652931213379
0.47453480958938599 0.44641479849815369 0.41888314485549927
0.4936334490776062 0.46331900358200073 0.43447679281234741
0.53861725330352783 0.50192993879318237 0.46861410140991211
0.57400012016296387 0.53153932094573975 0.49262383580207825
0.61346274614334106 0.56836742162704468 0.52515453100204468
0.66172909736633301 0.62056195735931396 0.5850522518157959
0.58215367794036865 0.54167717695236206 0.50565224885940552
0.59580087661743164 0.55576163530349731 0.51797348260879517
0.61277300119400024 0.570537269115448 0.53209877014160156
0.6448216438293457 0.601898193359375 0.56140458583831787
0.67264091968536377 0.63441115617752075 0.60167282819747925
0.71259856224060059 0.68561965227127075 0.66407030820846558
0.75402206182479858 0.735015869140625 0.72022765874862671
0.70926570892333984 0.67672711610794067 0.64884930849075317
0.72665596008300781 0.69671124219894409 0.67046993970870972
0.74256062507629395 0.71864169836044312 0.69793683290481567
0.77634578943252563 0.75928741693496704 0.74437028169631958
0.82520598173141479 0.81487745046615601 0.805400550365448
0.87269240617752075 0.86724072694778442 0.86161953210830688
0.90951412916183472 0.90566009283065796 0.90197700262069702
0.84103405475616455 0.82781761884689331 0.81866163015365601
0.86227673292160034 0.85234111547470093 0.84298503398895264
0.88706755638122559 0.88130652904510498 0.87444502115249634
0.93128496408462524 0.92751908302307129 0.92336040735244751
0.98128819465637207 0.97665727138519287 0.97858953475952148
0.99258840084075928 0.98496252298355103 0.99180680513381958
0.99289679527282715 0.98457962274551392 0.99216002225875854
0.95247882604598999 0.94618850946426392 0.94287610054016113
0.96327519416809082 0.95985186100006104 0.95651578903198242
0.99255824089050293 0.98772603273391724 0.98956453800201416
0.9968300461769104 0.98765355348587036 0.9957391619682312
0.99755793809890747 0.98850876092910767 0.99658983945846558
0.9983830451965332 0.98893058300018311 0.99760669469833374
1 0.98823529481887817 0.99993234872817993
0.42796194553375244 0.40036895871162415 0.37541598081588745
0.44071856141090393 0.41287878155708313 0.38654264807701111
0.45548024773597717 0.425660640001297 0.39940693974494934
0.49029654264450073 0.4558195173740387 0.42601156234741211
0.55096173286437988 0.5115235447883606 0.47317799925804138
0.57628852128982544 0.53172653913497925 0.49120801687240601
0.59762823581695557 0.55089282989501953 0.50722622871398926
0.4531882107257843 0.42353400588035583 0.39742285013198853
0.46244356036186218 0.43279626965522766 0.40561065077781677
0.47601616382598877 0.44411703944206238 0.41554754972457886
0.5173264741897583 0.48046457767486572 0.44903647899627686
0.56085443496704102 0.5198061466217041 0.48154765367507935
0.58488035202026367 0.53973793983459473 0.4976142942905426
0.6062321662902832 0.55783897638320923 0.51456624269485474
0.49985131621360779 0.46674427390098572 0.43685713410377502
0.5160822868347168 0.48207059502601624 0.45099717378616333
0.53178447484970093 0.4961320161819458 0.4628918468952179
0.57020312547683716 0.52885133028030396 0.49101045727729797
0.59767824411392212 0.55386453866958618 0.51123857498168945
0.62959671020507812 0.58496785163879395 0.54299914836883545
0.65802597999572754 0.62215924263000488 0.5902855396270752
0.59765911102294922 0.55394178628921509 0.5143093466758728
0.61483031511306763 0.57282358407974243 0.53506720066070557
0.63678878545761108 0.59091860055923462 0.54992717504501343
0.65866953134536743 0.61786729097366333 0.57951003313064575
0.69495731592178345 0.66427761316299438 0.63693195581436157
0.72152841091156006 0.70148605108261108 0.68230313062667847
0.76772069931030273 0.75337773561477661 0.74108737707138062
0.71954762935638428 0.69412845373153687 0.67196238040924072
0.74318236112594604 0.72055721282958984 0.70035958290100098
0.76196134090423584 0.74289190769195557 0.72623497247695923
0.79773896932601929 0.78432220220565796 0.77316367626190186
0.84908688068389893 0.84071534872055054 0.83354675769805908
0.89136821031570435 0.8857770562171936 0.88266253471374512
0.93468987941741943 0.93185579776763916 0.93030345439910889
0.86168581247329712 0.85364007949829102 0.84693783521652222
0.88842952251434326 0.88106620311737061 0.87458133697509766
0.91659581661224365 0.91262209415435791 0.90744519233703613
0.95683622360229492 0.95267355442047119 0.95280605554580688
0.99273669719696045 0.98422026634216309 0.99185812473297119
0.99948924779891968 0.98791784048080444 0.99942326545715332
0.99930638074874878 0.98823529481887817 0.99888604879379272
0.9782605767250061 0.97510445117950439 0.97524338960647583
0.99536830186843872 0.98825645446777344 0.99458754062652588
0.99868375062942505 0.98824787139892578 0.99622297286987305
0.99991130828857422 0.98823529481887817 0.99971318244934082
0.99922466278076172 0.98823529481887817 0.99837154150009155
1 0.98823529481887817 1
1 0.98823529481887817 1
0.4672245979309082 0.43764355778694153 0.40846174955368042
0.47767093777656555 0.44633632898330688 0.41867744922637939
0.48661437630653381 0.45382174849510193 0.42422387003898621
0.51820176839828491 0.48249146342277527 0.4494856595993042
0.55190324783325195 0.51203292608261108 0.47433733940124512
0.5697597861289978 0.52676522731781006 0.48546674847602844
0.58406245708465576 0.53712773323059082 0.49596571922302246
0.48098492622375488 0.44901010394096375 0.41989034414291382
0.48999008536338806 0.45825201272964478 0.42777284979820251
0.50478678941726685 0.47076207399368286 0.43940815329551697
0.53484046459197998 0.49639958143234253 0.46210148930549622
0.56451272964477539 0.52356100082397461 0.48444446921348572
0.57677167654037476 0.53338092565536499 0.49093607068061829
0.61051702499389648 0.56618726253509521 0.52580177783966064
0.52643126249313354 0.49153447151184082 0.4586338996887207
0.54231148958206177 0.50628423690795898 0.47159287333488464
0.55436545610427856 0.51601672172546387 0.48126161098480225
0.57564389705657959 0.53594112396240234 0.49548354744911194
0.6051182746887207 0.56002306938171387 0.51810604333877563
0.62711876630783081 0.58345705270767212 0.54544711112976074
0.66829055547714233 0.63454055786132812 0.6051444411277771
0.62125056982040405 0.57683992385864258 0.53442752361297607
0.63750404119491577 0.59323364496231079 0.55155962705612183
0.65383988618850708 0.61076009273529053 0.57366931438446045
0.66984820365905762 0.63215190172195435 0.59924471378326416
0.695578932762146 0.66749423742294312 0.64137792587280273
0.7233549952507019 0.70385944843292236 0.68633824586868286
0.76790821552276611 0.75316941738128662 0.74176156520843506
0.72249186038970947 0.69656646251678467 0.67754685878753662
0.74263286590576172 0.72062176465988159 0.70362585783004761
0.77092975378036499 0.75364089012145996 0.73923510313034058
0.8126976490020752 0.80322301387786865 0.79313087463378906
0.8639143705368042 0.85714364051818848 0.8514409065246582
0.89198523759841919 0.88787442445755005 0.88326597213745117
0.94103920459747314 0.93839281797409058 0.93558645248413086
0.85911315679550171 0.84989577531814575 0.84260588884353638
0.87965083122253418 0.87121260166168213 0.8660997748374939
0.90848034620285034 0.90303754806518555 0.89935100078582764
0.95444774627685547 0.95215165615081787 0.95048767328262329
0.99341881275177002 0.98472124338150024 0.99303996562957764
0.9998055100440979 0.98816525936126709 0.99971175193786621
0.99978905916213989 0.98816525936126709 0.99964994192123413
0.99351423978805542 0.98679322004318237 0.99289411306381226
0.9981989860534668 0.98683840036392212 0.99768209457397461
0.99658167362213135 0.98573237657546997 0.99612718820571899
1 0.98823529481887817 0.99997198581695557
0.99692481756210327 0.98823529481887817 0.99650323390960693
1 0.98823529481887817 1
1 0.98823529481887817 1
