assets/lut/picturefx faux infrared color yp1.cube
# Created by: G'MIC (https://gmic.eu)
TITLE "faux_infrared_color_yp1"
# LUT size
LUT_3D_SIZE 5
# Data domain
DOMAIN_MIN 0.0 0.0 0.0
DOMAIN_MAX 1.0 1.0 1.0
# LUT data points
0.12004391849040985 0.094172969460487366 0.087490424513816833
0.70032954216003418 0.50915193557739258 0.13412073254585266
0.98960858583450317 0.86938691139221191 0.20740532875061035
1 0.92552775144577026 0.34121009707450867
1 0.94144308567047119 0.4587731659412384
0.42006111145019531 0.097858279943466187 0.20937150716781616
0.81242901086807251 0.34152090549468994 0.26555526256561279
0.99352729320526123 0.81135565042495728 0.27804583311080933
1 0.90844351053237915 0.40574398636817932
1 0.934856116771698 0.47482591867446899
0.72315782308578491 0.1604912132024765 0.32535383105278015
0.96041113138198853 0.23233485221862793 0.39484897255897522
1 0.62712621688842773 0.42792490124702454
1 0.90111386775970459 0.47733363509178162
1 0.93675225973129272 0.50196081399917603
0.97746658325195312 0.22452381253242493 0.4597841203212738
0.98985934257507324 0.26313823461532593 0.47454512119293213
1 0.31549292802810669 0.51808255910873413
1 0.85352015495300293 0.50337272882461548
1 0.94205844402313232 0.53018480539321899
0.9980124831199646 0.28196266293525696 0.55739271640777588
1 0.29867485165596008 0.54326492547988892
1 0.32903257012367249 0.52597278356552124
1 0.34132558107376099 0.51578032970428467
1 0.52870523929595947 0.50554734468460083
0.036234792321920395 0.27669289708137512 0.18829643726348877
0.50904816389083862 0.57128828763961792 0.18437106907367706
0.9822651743888855 0.88660639524459839 0.22774825990200043
0.99945414066314697 0.9391554594039917 0.41005146503448486
1 0.94639712572097778 0.47034433484077454
0.18195825815200806 0.17620916664600372 0.29148775339126587
0.63344019651412964 0.39382228255271912 0.28817269206047058
0.98861193656921387 0.84213805198669434 0.2949059009552002
1 0.91823917627334595 0.41768911480903625
1 0.93639343976974487 0.47327437996864319
0.52468621730804443 0.19620122015476227 0.37797343730926514
0.86297881603240967 0.23047730326652527 0.42196115851402283
0.9987252950668335 0.65670311450958252 0.43827596306800842
1 0.90718585252761841 0.48244288563728333
1 0.93936306238174438 0.50659948587417603
0.88781672716140747 0.2425457239151001 0.48731738328933716
0.97772705554962158 0.24500611424446106 0.50143295526504517
0.99782860279083252 0.31538784503936768 0.53827506303787231
1 0.86798936128616333 0.50939345359802246
1 0.94339668750762939 0.52883398532867432
0.97602945566177368 0.27675822377204895 0.56779688596725464
0.98739176988601685 0.28391808271408081 0.56844711303710938
0.999847412109375 0.30726397037506104 0.55017924308776855
1 0.35512903332710266 0.52673155069351196
1 0.56672811508178711 0.51105105876922607
0.032506022602319717 0.47578603029251099 0.28967174887657166
0.14758495986461639 0.70008128881454468 0.29184573888778687
0.91591531038284302 0.93991917371749878 0.30369725823402405
0.99064439535140991 0.96448194980621338 0.42978915572166443
0.99607843160629272 0.9611821174621582 0.47484943270683289
0.25278401374816895 0.30085012316703796 0.3924335241317749
0.13897067308425903 0.56854093074798584 0.36537748575210571
0.94190454483032227 0.88649171590805054 0.34077844023704529
0.99460148811340332 0.94435566663742065 0.42844849824905396
0.99607843160629272 0.95015412569046021 0.48886549472808838
0.35565096139907837 0.32070538401603699 0.48595964908599854
0.50944358110427856 0.32814726233482361 0.51616871356964111
0.98418343067169189 0.70625728368759155 0.46154531836509705
1 0.91388982534408569 0.48848152160644531
1 0.94117647409439087 0.51633530855178833
0.58006089925765991 0.35047340393066406 0.5677182674407959
0.86686748266220093 0.29870417714118958 0.57586538791656494
0.99447011947631836 0.31926995515823364 0.60714095830917358
1 0.89168822765350342 0.51975011825561523
1 0.94127333164215088 0.52960765361785889
0.95020049810409546 0.30700251460075378 0.61412918567657471
0.98038893938064575 0.28444460034370422 0.63827264308929443
0.99989086389541626 0.29263591766357422 0.61831933259963989
1 0.38497272133827209 0.55830734968185425
1 0.64984238147735596 0.52666640281677246
0.096910707652568817 0.65768224000930786 0.41015312075614929
0.14814035594463348 0.84283000230789185 0.40671250224113464
0.32288083434104919 0.9934501051902771 0.40670031309127808
0.99593603610992432 0.96836692094802856 0.48750713467597961
0.99607843160629272 0.96860808134078979 0.49195784330368042
0.24515151977539062 0.57567477226257324 0.46889117360115051
0.19095836579799652 0.72460037469863892 0.45928290486335754
0.47479352355003357 0.97103846073150635 0.43660500645637512
0.99564778804779053 0.96243536472320557 0.50166583061218262
0.99340206384658813 0.96163737773895264 0.50499683618545532
0.44225877523422241 0.40304899215698242 0.58992165327072144
0.4351344108581543 0.48412451148033142 0.59950953722000122
0.67066407203674316 0.85028630495071411 0.5166851282119751
0.99543845653533936 0.95220011472702026 0.50669687986373901
0.9956621527671814 0.94916331768035889 0.51788139343261719
0.51132524013519287 0.45057791471481323 0.65858769416809082
0.53392130136489868 0.46773064136505127 0.68100523948669434
0.94741296768188477 0.43565011024475098 0.68620836734771729
0.99951106309890747 0.92736160755157471 0.53761172294616699
0.99713873863220215 0.94638729095458984 0.53060472011566162
0.60789245367050171 0.48831236362457275 0.72074681520462036
0.81563222408294678 0.45460131764411926 0.72404688596725464
0.98275583982467651 0.34502199292182922 0.72322547435760498
1 0.49372926354408264 0.60780638456344604
1 0.75393962860107422 0.54999053478240967
0.032086554914712906 0.85367214679718018 0.48262697458267212
0.029634108766913414 0.94467753171920776 0.48562324047088623
0.10727250576019287 0.99634444713592529 0.44096294045448303
0.93761050701141357 0.98726582527160645 0.46105435490608215
0.99651581048965454 0.96435284614562988 0.51271504163742065
0.19235670566558838 0.79142743349075317 0.52885645627975464
0.11037041246891022 0.88104963302612305 0.52188408374786377
0.12706078588962555 0.9858277440071106 0.47412028908729553
0.95180898904800415 0.98425781726837158 0.47602060437202454
0.99378949403762817 0.96470588445663452 0.51680648326873779
0.48423779010772705 0.558665931224823 0.66038209199905396
0.40092158317565918 0.70735055208206177 0.63385725021362305
0.22965528070926666 0.94303935766220093 0.56787049770355225
0.98230671882629395 0.97775685787200928 0.50508713722229004
0.98760682344436646 0.96533423662185669 0.52018934488296509
0.56666290760040283 0.50967943668365479 0.72807031869888306
0.58568155765533447 0.52265304327011108 0.74926197528839111
0.55408781766891479 0.70616602897644043 0.72977554798126221
0.99454504251480103 0.94795602560043335 0.54730236530303955
0.98612195253372192 0.96026033163070679 0.53178566694259644
0.60957938432693481 0.53787046670913696 0.77636092901229858
0.61931782960891724 0.53871214389801025 0.77785307168960571
0.8014104962348938 0.50752359628677368 0.77601665258407593
1 0.67453247308731079 0.64459562301635742
1 0.85601115226745605 0.57048881053924561
