assets/lut/picturefx faux infrared bw 1.cube
# Created by: G'MIC (https://gmic.eu)
TITLE "faux_infrared_bw_1"
# LUT size
LUT_3D_SIZE 13
# Data domain
DOMAIN_MIN 0.0 0.0 0.0
DOMAIN_MAX 1.0 1.0 1.0
# LUT data points
0.094137303531169891 0.094137303531169891 0.094137303531169891
0.23239073157310486 0.23239073157310486 0.23239073157310486
0.34697797894477844 0.34697797894477844 0.34697797894477844
0.47878485918045044 0.47878485918045044 0.47878485918045044
0.61739373207092285 0.61739373207092285 0.61739373207092285
0.76236820220947266 0.76236820220947266 0.76236820220947266
0.89762181043624878 0.89762181043624878 0.89762181043624878
0.94519370794296265 0.94519370794296265 0.94519370794296265
0.94931042194366455 0.94931042194366455 0.94931042194366455
0.95468652248382568 0.95468652248382568 0.95468652248382568
0.96157592535018921 0.96157592535018921 0.96157592535018921
0.96952730417251587 0.96952730417251587 0.96952730417251587
0.97696220874786377 0.97696220874786377 0.97696220874786377
0.16895201802253723 0.16895201802253723 0.16895201802253723
0.38393214344978333 0.38393214344978333 0.38393214344978333
0.40394958853721619 0.40394958853721619 0.40394958853721619
0.47473737597465515 0.47473737597465515 0.47473737597465515
0.60640150308609009 0.60640150308609009 0.60640150308609009
0.75011742115020752 0.75011742115020752 0.75011742115020752
0.88661360740661621 0.88661360740661621 0.88661360740661621
0.9349173903465271 0.9349173903465271 0.9349173903465271
0.9402540922164917 0.9402540922164917 0.9402540922164917
0.94938206672668457 0.94938206672668457 0.94938206672668457
0.96000844240188599 0.96000844240188599 0.96000844240188599
0.96812421083450317 0.96812421083450317 0.96812421083450317
0.97339147329330444 0.97339147329330444 0.97339147329330444
0.32162600755691528 0.32162600755691528 0.32162600755691528
0.54667472839355469 0.54667472839355469 0.54667472839355469
0.62631940841674805 0.62631940841674805 0.62631940841674805
0.57876503467559814 0.57876503467559814 0.57876503467559814
0.60148113965988159 0.60148113965988159 0.60148113965988159
0.73396962881088257 0.73396962881088257 0.73396962881088257
0.87093210220336914 0.87093210220336914 0.87093210220336914
0.92348229885101318 0.92348229885101318 0.92348229885101318
0.93492382764816284 0.93492382764816284 0.93492382764816284
0.94923591613769531 0.94923591613769531 0.94923591613769531
0.96027958393096924 0.96027958393096924 0.96027958393096924
0.96602088212966919 0.96602088212966919 0.96602088212966919
0.96828740835189819 0.96828740835189819 0.96828740835189819
0.4906180202960968 0.4906180202960968 0.4906180202960968
0.63949179649353027 0.63949179649353027 0.63949179649353027
0.78235447406768799 0.78235447406768799 0.78235447406768799
0.78237819671630859 0.78237819671630859 0.78237819671630859
0.73453670740127563 0.73453670740127563 0.73453670740127563
0.73280107975006104 0.73280107975006104 0.73280107975006104
0.84314501285552979 0.84314501285552979 0.84314501285552979
0.90246355533599854 0.90246355533599854 0.90246355533599854
0.93264532089233398 0.93264532089233398 0.93264532089233398
0.95188748836517334 0.95188748836517334 0.95188748836517334
0.95926523208618164 0.95926523208618164 0.95926523208618164
0.96188253164291382 0.96188253164291382 0.96188253164291382
0.96300917863845825 0.96300917863845825 0.96300917863845825
0.61551749706268311 0.61551749706268311 0.61551749706268311
0.72428393363952637 0.72428393363952637 0.72428393363952637
0.85163211822509766 0.85163211822509766 0.85163211822509766
0.92641979455947876 0.92641979455947876 0.92641979455947876
0.89013218879699707 0.89013218879699707 0.89013218879699707
0.86213225126266479 0.86213225126266479 0.86213225126266479
0.85320931673049927 0.85320931673049927 0.85320931673049927
0.88952505588531494 0.88952505588531494 0.88952505588531494
0.92559987306594849 0.92559987306594849 0.92559987306594849
0.95090985298156738 0.95090985298156738 0.95090985298156738
0.95821577310562134 0.95821577310562134 0.95821577310562134
0.96019512414932251 0.96019512414932251 0.96019512414932251
0.96094292402267456 0.96094292402267456 0.96094292402267456
0.72312241792678833 0.72312241792678833 0.72312241792678833
0.79619801044464111 0.79619801044464111 0.79619801044464111
0.89264178276062012 0.89264178276062012 0.89264178276062012
0.96559739112854004 0.96559739112854004 0.96559739112854004
0.9724729061126709 0.9724729061126709 0.9724729061126709
0.95018619298934937 0.95018619298934937 0.95018619298934937
0.93176406621932983 0.93176406621932983 0.93176406621932983
0.9034804105758667 0.9034804105758667 0.9034804105758667
0.91573572158813477 0.91573572158813477 0.91573572158813477
0.94416195154190063 0.94416195154190063 0.94416195154190063
0.96130907535552979 0.96130907535552979 0.96130907535552979
0.96526843309402466 0.96526843309402466 0.96526843309402466
0.96608853340148926 0.96608853340148926 0.96608853340148926
0.82366174459457397 0.82366174459457397 0.82366174459457397
0.87008744478225708 0.87008744478225708 0.87008744478225708
0.94039559364318848 0.94039559364318848 0.94039559364318848
0.98112332820892334 0.98112332820892334 0.98112332820892334
0.98391187191009521 0.98391187191009521 0.98391187191009521
0.97710317373275757 0.97710317373275757 0.97710317373275757
0.95979166030883789 0.95979166030883789 0.95979166030883789
0.9286201000213623 0.9286201000213623 0.9286201000213623
0.92059516906738281 0.92059516906738281 0.92059516906738281
0.93928992748260498 0.93928992748260498 0.93928992748260498
0.9615446925163269 0.9615446925163269 0.9615446925163269
0.97144657373428345 0.97144657373428345 0.97144657373428345
0.97327244281768799 0.97327244281768799 0.97327244281768799
0.90872687101364136 0.90872687101364136 0.90872687101364136
0.93752533197402954 0.93752533197402954 0.93752533197402954
0.97375315427780151 0.97375315427780151 0.97375315427780151
0.98321342468261719 0.98321342468261719 0.98321342468261719
0.984302818775177 0.984302818775177 0.984302818775177
0.9835318922996521 0.9835318922996521 0.9835318922996521
0.97929394245147705 0.97929394245147705 0.97929394245147705
0.94695806503295898 0.94695806503295898 0.94695806503295898
0.93484556674957275 0.93484556674957275 0.93484556674957275
0.94796061515808105 0.94796061515808105 0.94796061515808105
0.96780878305435181 0.96780878305435181 0.96780878305435181
0.9785531759262085 0.9785531759262085 0.9785531759262085
0.98093217611312866 0.98093217611312866 0.98093217611312866
0.9675368070602417 0.9675368070602417 0.9675368070602417
0.97986698150634766 0.97986698150634766 0.97986698150634766
0.9828033447265625 0.9828033447265625 0.9828033447265625
0.98304414749145508 0.98304414749145508 0.98304414749145508
0.9843137264251709 0.9843137264251709 0.9843137264251709
0.9843137264251709 0.9843137264251709 0.9843137264251709
0.98351025581359863 0.98351025581359863 0.98351025581359863
0.96666544675827026 0.96666544675827026 0.96666544675827026
0.93858671188354492 0.93858671188354492 0.93858671188354492
0.94695580005645752 0.94695580005645752 0.94695580005645752
0.97634381055831909 0.97634381055831909 0.97634381055831909
0.98668539524078369 0.98668539524078369 0.98668539524078369
0.98905521631240845 0.98905521631240845 0.98905521631240845
0.98056042194366455 0.98056042194366455 0.98056042194366455
0.98396205902099609 0.98396205902099609 0.98396205902099609
0.9843137264251709 0.9843137264251709 0.9843137264251709
0.9843137264251709 0.9843137264251709 0.9843137264251709
0.9843137264251709 0.9843137264251709 0.9843137264251709
0.98402178287506104 0.98402178287506104 0.98402178287506104
0.98109692335128784 0.98109692335128784 0.98109692335128784
0.97929733991622925 0.97929733991622925 0.97929733991622925
0.95467472076416016 0.95467472076416016 0.95467472076416016
0.94205778837203979 0.94205778837203979 0.94205778837203979
0.98076218366622925 0.98076218366622925 0.98076218366622925
0.99093461036682129 0.99093461036682129 0.99093461036682129
0.98974549770355225 0.98974549770355225 0.98974549770355225
0.98542803525924683 0.98542803525924683 0.98542803525924683
0.98436003923416138 0.98436003923416138 0.98436003923416138
0.98431450128555298 0.98431450128555298 0.98431450128555298
0.9843137264251709 0.9843137264251709 0.9843137264251709
0.98424059152603149 0.98424059152603149 0.98424059152603149
0.98158544301986694 0.98158544301986694 0.98158544301986694
0.98095071315765381 0.98095071315765381 0.98095071315765381
0.98403000831604004 0.98403000831604004 0.98403000831604004
0.97679281234741211 0.97679281234741211 0.97679281234741211
0.94265735149383545 0.94265735149383545 0.94265735149383545
0.95006072521209717 0.95006072521209717 0.95006072521209717
0.95735245943069458 0.95735245943069458 0.95735245943069458
0.95594966411590576 0.95594966411590576 0.95594966411590576
0.98818361759185791 0.98818361759185791 0.98818361759185791
0.98677670955657959 0.98677670955657959 0.98677670955657959
0.98471862077713013 0.98471862077713013 0.98471862077713013
0.9843137264251709 0.9843137264251709 0.9843137264251709
0.98349159955978394 0.98349159955978394 0.98349159955978394
0.98040395975112915 0.98040395975112915 0.98040395975112915
0.98113018274307251 0.98113018274307251 0.98113018274307251
0.98324179649353027 0.98324179649353027 0.98324179649353027
0.98463064432144165 0.98463064432144165 0.98463064432144165
0.97451412677764893 0.97451412677764893 0.97451412677764893
0.9412916898727417 0.9412916898727417 0.9412916898727417
0.93842905759811401 0.93842905759811401 0.93842905759811401
0.93839365243911743 0.93839365243911743 0.93839365243911743
0.9892541766166687 0.9892541766166687 0.9892541766166687
0.98787808418273926 0.98787808418273926 0.98787808418273926
0.98563730716705322 0.98563730716705322 0.98563730716705322
0.9843137264251709 0.9843137264251709 0.9843137264251709
0.98352652788162231 0.98352652788162231 0.98352652788162231
0.9806329607963562 0.9806329607963562 0.9806329607963562
0.98039215803146362 0.98039215803146362 0.98039215803146362
0.98160684108734131 0.98160684108734131 0.98160684108734131
0.98346138000488281 0.98346138000488281 0.98346138000488281
0.98276913166046143 0.98276913166046143 0.98276913166046143
0.97835063934326172 0.97835063934326172 0.97835063934326172
0.97950154542922974 0.97950154542922974 0.97950154542922974
0.97447353601455688 0.97447353601455688 0.97447353601455688
0.08785662055015564 0.08785662055015564 0.08785662055015564
0.20990002155303955 0.20990002155303955 0.20990002155303955
0.3452359139919281 0.3452359139919281 0.3452359139919281
0.48142486810684204 0.48142486810684204 0.48142486810684204
0.61952108144760132 0.61952108144760132 0.61952108144760132
0.76372724771499634 0.76372724771499634 0.76372724771499634
0.8968389630317688 0.8968389630317688 0.8968389630317688
0.94571405649185181 0.94571405649185181 0.94571405649185181
0.95158129930496216 0.95158129930496216 0.95158129930496216
0.9575621485710144 0.9575621485710144 0.9575621485710144
0.96513074636459351 0.96513074636459351 0.96513074636459351
0.97338008880615234 0.97338008880615234 0.97338008880615234
0.97892272472381592 0.97892272472381592 0.97892272472381592
0.04747302457690239 0.04747302457690239 0.04747302457690239
0.24170097708702087 0.24170097708702087 0.24170097708702087
0.36398491263389587 0.36398491263389587 0.36398491263389587
0.47201213240623474 0.47201213240623474 0.47201213240623474
0.60707157850265503 0.60707157850265503 0.60707157850265503
0.75202804803848267 0.75202804803848267 0.75202804803848267
0.88790041208267212 0.88790041208267212 0.88790041208267212
0.93701446056365967 0.93701446056365967 0.93701446056365967
0.94404321908950806 0.94404321908950806 0.94404321908950806
0.95264214277267456 0.95264214277267456 0.95264214277267456
0.96248418092727661 0.96248418092727661 0.96248418092727661
0.97048592567443848 0.97048592567443848 0.97048592567443848
0.97552239894866943 0.97552239894866943 0.97552239894866943
0.12975980341434479 0.12975980341434479 0.12975980341434479
0.39674574136734009 0.39674574136734009 0.39674574136734009
0.54470092058181763 0.54470092058181763 0.54470092058181763
0.54260629415512085 0.54260629415512085 0.54260629415512085
0.59875130653381348 0.59875130653381348 0.59875130653381348
0.73568367958068848 0.73568367958068848 0.73568367958068848
0.87569904327392578 0.87569904327392578 0.87569904327392578
0.92830497026443481 0.92830497026443481 0.92830497026443481
0.93779492378234863 0.93779492378234863 0.93779492378234863
0.95150399208068848 0.95150399208068848 0.95150399208068848
0.96191447973251343 0.96191447973251343 0.96191447973251343
0.96780562400817871 0.96780562400817871 0.96780562400817871
0.97116744518280029 0.97116744518280029 0.97116744518280029
0.30268111824989319 0.30268111824989319 0.30268111824989319
0.52972996234893799 0.52972996234893799 0.52972996234893799
0.72177904844284058 0.72177904844284058 0.72177904844284058
0.74113172292709351 0.74113172292709351 0.74113172292709351
0.71284377574920654 0.71284377574920654 0.71284377574920654
0.72909033298492432 0.72909033298492432 0.72909033298492432
0.84778040647506714 0.84778040647506714 0.84778040647506714
0.91413921117782593 0.91413921117782593 0.91413921117782593
0.9344862699508667 0.9344862699508667 0.9344862699508667
0.95089042186737061 0.95089042186737061 0.95089042186737061
0.96000933647155762 0.96000933647155762 0.96000933647155762
0.96443700790405273 0.96443700790405273 0.96443700790405273
0.96625804901123047 0.96625804901123047 0.96625804901123047
0.49434587359428406 0.49434587359428406 0.49434587359428406
0.64322680234909058 0.64322680234909058 0.64322680234909058
0.80534142255783081 0.80534142255783081 0.80534142255783081
0.89691519737243652 0.89691519737243652 0.89691519737243652
0.86982917785644531 0.86982917785644531 0.86982917785644531
0.84354174137115479 0.84354174137115479 0.84354174137115479
0.84914016723632812 0.84914016723632812 0.84914016723632812
0.89336025714874268 0.89336025714874268 0.89336025714874268
0.92437887191772461 0.92437887191772461 0.92437887191772461
0.94623279571533203 0.94623279571533203 0.94623279571533203
0.95859783887863159 0.95859783887863159 0.95859783887863159
0.96298903226852417 0.96298903226852417 0.96298903226852417
0.96408498287200928 0.96408498287200928 0.96408498287200928
0.64401257038116455 0.64401257038116455 0.64401257038116455
0.74316412210464478 0.74316412210464478 0.74316412210464478
0.85518980026245117 0.85518980026245117 0.85518980026245117
0.95740598440170288 0.95740598440170288 0.95740598440170288
0.96654915809631348 0.96654915809631348 0.96654915809631348
0.9407888650894165 0.9407888650894165 0.9407888650894165
0.9242444634437561 0.9242444634437561 0.9242444634437561
0.90541857481002808 0.90541857481002808 0.90541857481002808
0.92021089792251587 0.92021089792251587 0.92021089792251587
0.94306647777557373 0.94306647777557373 0.94306647777557373
0.96069729328155518 0.96069729328155518 0.96069729328155518
0.96728420257568359 0.96728420257568359 0.96728420257568359
0.96913355588912964 0.96913355588912964 0.96913355588912964
0.77421122789382935 0.77421122789382935 0.77421122789382935
0.83275055885314941 0.83275055885314941 0.83275055885314941
0.9187198281288147 0.9187198281288147 0.9187198281288147
0.97696787118911743 0.97696787118911743 0.97696787118911743
0.98340010643005371 0.98340010643005371 0.98340010643005371
0.98174142837524414 0.98174142837524414 0.98174142837524414
0.95846861600875854 0.95846861600875854 0.95846861600875854
0.93378400802612305 0.93378400802612305 0.93378400802612305
0.92552781105041504 0.92552781105041504 0.92552781105041504
0.94217139482498169 0.94217139482498169 0.94217139482498169
0.96176707744598389 0.96176707744598389 0.96176707744598389
0.97287225723266602 0.97287225723266602 0.97287225723266602
0.97576868534088135 0.97576868534088135 0.97576868534088135
0.86039847135543823 0.86039847135543823 0.86039847135543823
0.90750175714492798 0.90750175714492798 0.90750175714492798
0.9638858437538147 0.9638858437538147 0.9638858437538147
0.98365920782089233 0.98365920782089233 0.98365920782089233
0.98437339067459106 0.98437339067459106 0.98437339067459106
0.98419713973999023 0.98419713973999023 0.98419713973999023
0.97699141502380371 0.97699141502380371 0.97699141502380371
0.95084166526794434 0.95084166526794434 0.95084166526794434
0.93437355756759644 0.93437355756759644 0.93437355756759644
0.94676780700683594 0.94676780700683594 0.94676780700683594
0.96616172790527344 0.96616172790527344 0.96616172790527344
0.97928535938262939 0.97928535938262939 0.97928535938262939
0.98279643058776855 0.98279643058776855 0.98279643058776855
0.93717581033706665 0.93717581033706665 0.93717581033706665
0.96692854166030884 0.96692854166030884 0.96692854166030884
0.98178917169570923 0.98178917169570923 0.98178917169570923
0.98439329862594604 0.98439329862594604 0.98439329862594604
0.9843137264251709 0.9843137264251709 0.9843137264251709
0.9843137264251709 0.9843137264251709 0.9843137264251709
0.98380148410797119 0.98380148410797119 0.98380148410797119
0.96644294261932373 0.96644294261932373 0.96644294261932373
0.93795609474182129 0.93795609474182129 0.93795609474182129
0.94616478681564331 0.94616478681564331 0.94616478681564331
0.97378021478652954 0.97378021478652954 0.97378021478652954
0.98709654808044434 0.98709654808044434 0.98709654808044434
0.99016398191452026 0.99016398191452026 0.99016398191452026
0.97926622629165649 0.97926622629165649 0.97926622629165649
0.98278695344924927 0.98278695344924927 0.98278695344924927
0.9857412576675415 0.9857412576675415 0.9857412576675415
0.98437327146530151 0.98437327146530151 0.98437327146530151
0.9843137264251709 0.9843137264251709 0.9843137264251709
0.9843137264251709 0.9843137264251709 0.9843137264251709
0.98402100801467896 0.98402100801467896 0.98402100801467896
0.98153465986251831 0.98153465986251831 0.98153465986251831
0.95614510774612427 0.95614510774612427 0.95614510774612427
0.9447517991065979 0.9447517991065979 0.9447517991065979
0.97764253616333008 0.97764253616333008 0.97764253616333008
0.99090617895126343 0.99090617895126343 0.99090617895126343
0.99154561758041382 0.99154561758041382 0.99154561758041382
0.98524689674377441 0.98524689674377441 0.98524689674377441
0.98264795541763306 0.98264795541763306 0.98264795541763306
0.98298430442810059 0.98298430442810059 0.98298430442810059
0.98362505435943604 0.98362505435943604 0.98362505435943604
0.98419767618179321 0.98419767618179321 0.98419767618179321
0.9841645359992981 0.9841645359992981 0.9841645359992981
0.9840434193611145 0.9840434193611145 0.9840434193611145
0.98453086614608765 0.98453086614608765 0.98453086614608765
0.98082119226455688 0.98082119226455688 0.98082119226455688
0.94831663370132446 0.94831663370132446 0.94831663370132446
0.95389008522033691 0.95389008522033691 0.95389008522033691
0.96147042512893677 0.96147042512893677 0.96147042512893677
0.95727038383483887 0.95727038383483887 0.95727038383483887
0.98604947328567505 0.98604947328567505 0.98604947328567505
0.98368877172470093 0.98368877172470093 0.98368877172470093
0.98191565275192261 0.98191565275192261 0.98191565275192261
0.98123598098754883 0.98123598098754883 0.98123598098754883
0.9812624454498291 0.9812624454498291 0.9812624454498291
0.98155337572097778 0.98155337572097778 0.98155337572097778
0.98115092515945435 0.98115092515945435 0.98115092515945435
0.98125308752059937 0.98125308752059937 0.98125308752059937
0.9804917573928833 0.9804917573928833 0.9804917573928833
0.97200846672058105 0.97200846672058105 0.97200846672058105
0.94047260284423828 0.94047260284423828 0.94047260284423828
0.93911564350128174 0.93911564350128174 0.93911564350128174
0.9365239143371582 0.9365239143371582 0.9365239143371582
0.98823529481887817 0.98823529481887817 0.98823529481887817
0.98546719551086426 0.98546719551086426 0.98546719551086426
0.98340153694152832 0.98340153694152832 0.98340153694152832
0.98122137784957886 0.98122137784957886 0.98122137784957886
0.9804084300994873 0.9804084300994873 0.9804084300994873
0.98039215803146362 0.98039215803146362 0.98039215803146362
0.97991937398910522 0.97991937398910522 0.97991937398910522
0.97866737842559814 0.97866737842559814 0.97866737842559814
0.98088109493255615 0.98088109493255615 0.98088109493255615
0.98400366306304932 0.98400366306304932 0.98400366306304932
0.97554832696914673 0.97554832696914673 0.97554832696914673
0.97236591577529907 0.97236591577529907 0.97236591577529907
0.96993339061737061 0.96993339061737061 0.96993339061737061
0.12636949121952057 0.12636949121952057 0.12636949121952057
0.22293291985988617 0.22293291985988617 0.22293291985988617
0.35004094243049622 0.35004094243049622 0.35004094243049622
0.48288363218307495 0.48288363218307495 0.48288363218307495
0.62259268760681152 0.62259268760681152 0.62259268760681152
0.76681661605834961 0.76681661605834961 0.76681661605834961
0.89959263801574707 0.89959263801574707 0.89959263801574707
0.95107793807983398 0.95107793807983398 0.95107793807983398
0.95969033241271973 0.95969033241271973 0.95969033241271973
0.96663445234298706 0.96663445234298706 0.96663445234298706
0.97277486324310303 0.97277486324310303 0.97277486324310303
0.97744977474212646 0.97744977474212646 0.97744977474212646
0.98028749227523804 0.98028749227523804 0.98028749227523804
0.047001872211694717 0.047001872211694717 0.047001872211694717
0.17114122211933136 0.17114122211933136 0.17114122211933136
0.33132600784301758 0.33132600784301758 0.33132600784301758
0.46671876311302185 0.46671876311302185 0.46671876311302185
0.60813122987747192 0.60813122987747192 0.60813122987747192
0.75530940294265747 0.75530940294265747 0.75530940294265747
0.89547455310821533 0.89547455310821533 0.89547455310821533
0.94683897495269775 0.94683897495269775 0.94683897495269775
0.9532892107963562 0.9532892107963562 0.9532892107963562
0.96054923534393311 0.96054923534393311 0.96054923534393311
0.96832758188247681 0.96832758188247681 0.96832758188247681
0.97453844547271729 0.97453844547271729 0.97453844547271729
0.97824585437774658 0.97824585437774658 0.97824585437774658
0.019574766978621483 0.019574766978621483 0.019574766978621483
0.15741217136383057 0.15741217136383057 0.15741217136383057
0.39473038911819458 0.39473038911819458 0.39473038911819458
0.49208107590675354 0.49208107590675354 0.49208107590675354
0.59353786706924438 0.59353786706924438 0.59353786706924438
0.73658901453018188 0.73658901453018188 0.73658901453018188
0.87885850667953491 0.87885850667953491 0.87885850667953491
0.93604779243469238 0.93604779243469238 0.93604779243469238
0.94577765464782715 0.94577765464782715 0.94577765464782715
0.95654284954071045 0.95654284954071045 0.95654284954071045
0.96550232172012329 0.96550232172012329 0.96550232172012329
0.9706001877784729 0.9706001877784729 0.9706001877784729
0.97456437349319458 0.97456437349319458 0.97456437349319458
0.074619084596633911 0.074619084596633911 0.074619084596633911
0.28530517220497131 0.28530517220497131 0.28530517220497131
0.58380240201950073 0.58380240201950073 0.58380240201950073
0.66182065010070801 0.66182065010070801 0.66182065010070801
0.67220377922058105 0.67220377922058105 0.67220377922058105
0.72385710477828979 0.72385710477828979 0.72385710477828979
0.85927879810333252 0.85927879810333252 0.85927879810333252
0.92123633623123169 0.92123633623123169 0.92123633623123169
0.93551194667816162 0.93551194667816162 0.93551194667816162
0.95070981979370117 0.95070981979370117 0.95070981979370117
0.96144062280654907 0.96144062280654907 0.96144062280654907
0.96697872877120972 0.96697872877120972 0.96697872877120972
0.96995264291763306 0.96995264291763306 0.96995264291763306
0.25054997205734253 0.25054997205734253 0.25054997205734253
0.45416224002838135 0.45416224002838135 0.45416224002838135
0.70402467250823975 0.70402467250823975 0.70402467250823975
0.83548253774642944 0.83548253774642944 0.83548253774642944
0.82248497009277344 0.82248497009277344 0.82248497009277344
0.81477206945419312 0.81477206945419312 0.81477206945419312
0.84773468971252441 0.84773468971252441 0.84773468971252441
0.89636856317520142 0.89636856317520142 0.89636856317520142
0.92159461975097656 0.92159461975097656 0.92159461975097656
