assets/lut/picturefx analogfx soft sepia i.cube
# Created by: G'MIC (https://gmic.eu)
TITLE "analogfx_soft_sepia_i"
# LUT size
LUT_3D_SIZE 13
# Data domain
DOMAIN_MIN 0.0 0.0 0.0
DOMAIN_MAX 1.0 1.0 1.0
# LUT data points
0.0007334989495575428 2.5850184101727791e-05 0
0.011723028495907784 0.00072826311225071549 0
0.055291373282670975 0.0080213360488414764 0
0.11165804415941238 0.026062745600938797 0
0.16978254914283752 0.052118681371212006 0
0.23077571392059326 0.082900106906890869 0
0.29635465145111084 0.11635836213827133 0
0.36712101101875305 0.15231071412563324 0
0.44278869032859802 0.19078218936920166 0
0.52372753620147705 0.23187679052352905 0
0.60973387956619263 0.27596640586853027 0
0.69773918390274048 0.32223883271217346 0
0.78179526329040527 0.36799100041389465 0
0.041443198919296265 0.0088204629719257355 0
0.057965580374002457 0.010681361891329288 0.00076130888191983104
0.086263902485370636 0.017253411933779716 0.00075909483712166548
0.13087832927703857 0.032860327512025833 0
0.18386255204677582 0.056685160845518112 0
0.24318350851535797 0.086657717823982239 0
0.30879044532775879 0.12023188173770905 0
0.37965577840805054 0.15633398294448853 0
0.45441418886184692 0.19404642283916473 0
0.53333139419555664 0.23421561717987061 0
0.61706465482711792 0.27733442187309265 0
0.70328342914581299 0.32299822568893433 0
0.7864568829536438 0.36878189444541931 0
0.11527395993471146 0.026947785168886185 0
0.12191192060709 0.030378378927707672 0.00034447465441189706
0.13224723935127258 0.034069135785102844 0.00051413144683465362
0.16127970814704895 0.045415990054607391 0
0.20373079180717468 0.064808741211891174 0
0.25789561867713928 0.091668672859668732 0
0.32272559404373169 0.12447342276573181 0
0.394034743309021 0.16071663796901703 0
0.46818739175796509 0.19803956151008606 0
0.54493355751037598 0.23685075342655182 0
0.62561708688735962 0.27853608131408691 0
0.7098991870880127 0.32395061850547791 0
0.79235196113586426 0.36988148093223572 0
0.19169029593467712 0.054271861910820007 0
0.19543896615505219 0.056817539036273956 0
0.19805586338043213 0.057973645627498627 0
0.21127194166183472 0.064504973590373993 0
0.23763644695281982 0.077694818377494812 0
0.28225404024124146 0.099609225988388062 0
0.34334316849708557 0.13043420016765594 0
0.41369405388832092 0.16613626480102539 0
0.48686590790748596 0.20283500850200653 0
0.56211549043655396 0.24040132761001587 0
0.64079880714416504 0.28222951292991638 0.000152587890625
0.72266346216201782 0.32748875021934509 0.00018974753038492054
0.80269372463226318 0.37307113409042358 1.9387638531043194e-05
0.2748664915561676 0.087317429482936859 0
0.27566337585449219 0.088564790785312653 0
0.27708837389945984 0.087988942861557007 0
0.28208881616592407 0.091146104037761688 0
0.29526379704475403 0.098587483167648315 0
0.32700696587562561 0.11435699462890625 0
0.37832999229431152 0.14015132188796997 0
0.44258913397789001 0.17317427694797516 0
0.51268661022186279 0.20885136723518372 0
0.58657079935073853 0.24702270328998566 2.9979031751281582e-05
0.66418200731277466 0.28918960690498352 0.0013914669398218393
0.74305683374404907 0.33424252271652222 0.0018673316808417439
0.81829839944839478 0.37788870930671692 0.00086675904458388686
0.36819854378700256 0.12107942998409271 0
0.36819854378700256 0.12173637002706528 0
0.36877354979515076 0.12236950546503067 0
0.37199693918228149 0.12482506036758423 0
0.37950313091278076 0.1287122517824173 0
0.39838376641273499 0.13834019005298615 0
0.43412506580352783 0.15710465610027313 0
0.48455360531806946 0.18409630656242371 0
0.54519355297088623 0.21660301089286804 0
0.61512243747711182 0.25410637259483337 0.00051287480164319277
0.69028705358505249 0.2962195873260498 0.0021973554976284504
0.76589006185531616 0.34062954783439636 0.0023284314665943384
0.83628576993942261 0.38250666856765747 0.0016685784794390202
0.46880024671554565 0.15523022413253784 0
0.469185471534729 0.15556763112545013 0
0.47130641341209412 0.15816634893417358 0
0.47426104545593262 0.16175904870033264 0
0.47898375988006592 0.16411773860454559 0
0.48940891027450562 0.17008836567401886 0
0.50927305221557617 0.18192654848098755 0
0.53910344839096069 0.1995750218629837 0
0.58129876852035522 0.22366861999034882 0.00017777984612621367
0.64136910438537598 0.25748452544212341 0.0017856822814792395
0.71466392278671265 0.29998457431793213 0.0020919500384479761
0.78837621212005615 0.34415099024772644 0.0022234150674194098
0.85480445623397827 0.38442853093147278 0.0014939401298761368
0.57780063152313232 0.19277805089950562 3.4107881219824776e-05
0.57911413908004761 0.19355492293834686 1.2566061741381418e-05
0.5798526406288147 0.19588711857795715 0
0.58104240894317627 0.19864244759082794 0
0.58387798070907593 0.20117062330245972 0
0.59017163515090942 0.20601852238178253 0
0.59799790382385254 0.21277640759944916 0
0.60614407062530518 0.21995103359222412 0
0.62341278791427612 0.23231159150600433 1.0471718269400299e-05
0.66868185997009277 0.25937050580978394 0.00049251480959355831
0.73936110734939575 0.30123966932296753 0.00037057913141325116
0.80922824144363403 0.34407952427864075 0.00054405065020546317
0.87173062562942505 0.38305410742759705 0.00038438686169683933
0.68967646360397339 0.23462572693824768 0.00096166273579001427
0.69114530086517334 0.23545986413955688 0.00042046938324347138
0.69004404544830322 0.23626585304737091 7.180606644396903e-06
0.68968760967254639 0.23802861571311951 0.00054128310875967145
0.69121068716049194 0.24084171652793884 0.0012828153558075428
0.69526839256286621 0.2456994354724884 0.00083377317059785128
0.69694048166275024 0.24985089898109436 0.00014513800852000713
0.6931566596031189 0.25112688541412354 1.4361213288793806e-05
0.69153791666030884 0.25385382771492004 0
0.71518528461456299 0.27037101984024048 6.7497705458663404e-05
0.76815342903137207 0.30356398224830627 0.00019531250291038305
0.82574659585952759 0.33988159894943237 0.00019531250291038305
0.88297176361083984 0.37630793452262878 4.5955883251735941e-05
0.80145323276519775 0.2808806300163269 0.00064972520340234041
0.802967369556427 0.28074371814727783 0.0012881110887974501
0.80050772428512573 0.28040745854377747 0.0011988022597506642
0.79912275075912476 0.2817634642124176 0.0027251599822193384
0.79940861463546753 0.28456199169158936 0.0035647074691951275
0.80150038003921509 0.28872174024581909 0.0028457341250032187
0.80183315277099609 0.2920076847076416 0.002049554605036974
0.79818171262741089 0.2934730052947998 0.0010080374777317047
0.79248744249343872 0.29398024082183838 0.00028183881659060717
0.79503071308135986 0.29898405075073242 0.00081701838644221425
0.81338691711425781 0.31366708874702454 0.0010445090010762215
0.8452073335647583 0.33636847138404846 0.00073529413202777505
0.89259958267211914 0.36710160970687866 0.00024988510995171964
0.90695196390151978 0.32533633708953857 0.00092121196212247014
0.90802854299545288 0.3251413106918335 0.0023159850388765335
0.90482968091964722 0.32475975155830383 0.0026133370120078325
0.90180546045303345 0.32551878690719604 0.0032121248077601194
0.90108376741409302 0.32769915461540222 0.0032510196324437857
0.90077692270278931 0.33090761303901672 0.0025252397172152996
0.90019053220748901 0.33376747369766235 0.0023284314665943384
0.89604365825653076 0.3357599675655365 0.0021421245764940977
0.8904528021812439 0.33629706501960754 0.0013953414745628834
0.88567698001861572 0.33616387844085693 0.0014890782767906785
0.88428163528442383 0.33855968713760376 0.0010877422755584121
0.89147597551345825 0.34758287668228149 0.00031325395684689283
0.92103767395019531 0.36855918169021606 2.154182038793806e-05
0.98829388618469238 0.36400982737541199 0.00091536279069259763
0.98879611492156982 0.36412790417671204 0.0011185889597982168
0.98644453287124634 0.36394372582435608 0.001134341349825263
0.98407626152038574 0.36416170001029968 0.0014085507718846202
0.98234283924102783 0.36557969450950623 0.0013978546485304832
0.9809114933013916 0.36757627129554749 0.0015573239652439952
0.97725194692611694 0.36944040656089783 0.001994218910112977
0.96641743183135986 0.37073513865470886 0.0021281971130520105
0.96278440952301025 0.37233811616897583 0.001422941917553544
0.96711540222167969 0.37388426065444946 0.00076483929296955466
0.96865969896316528 0.37501490116119385 0.00014615526015404612
0.96629863977432251 0.37750780582427979 0
0.97039210796356201 0.38677302002906799 0
1 0.39630460739135742 0.0014216104755178094
1 0.39684820175170898 4.8618690016155597e-06
1 0.39684820175170898 0
1 0.39694327116012573 0
1 0.39755237102508545 0
1 0.39845028519630432 0
0.99997305870056152 0.39928990602493286 9.6938187198247761e-05
0.99815696477890015 0.4003002941608429 0.00012709673319477588
0.99871748685836792 0.40319627523422241 0
1 0.40674266219139099 0
1 0.40928485989570618 0
1 0.41035228967666626 0
0.9999159574508667 0.41400235891342163 0
0.0090511096641421318 0.0014023126568645239 2.3696002244832925e-05
0.028692163527011871 0.0050425957888364792 0.00093850528355687857
0.071940615773200989 0.014762743376195431 0.0011242287000641227
0.12211468070745468 0.030901605263352394 5.2014518587384373e-05
0.17652766406536102 0.056107837706804276 0
0.23812447488307953 0.087483271956443787 0
0.30442026257514954 0.12093643844127655 0
0.37555360794067383 0.15686957538127899 0.00099279370624572039
0.4510188102722168 0.1953241229057312 0.001075250911526382
0.5307610034942627 0.23572036623954773 0
0.61449229717254639 0.27852895855903625 0
0.70149123668670654 0.3238547146320343 0
0.78618168830871582 0.37018409371376038 0
0.058484859764575958 0.01507384330034256 0.0025597815401852131
0.074372082948684692 0.019980352371931076 0.0062229232862591743
0.10047899186611176 0.028364742174744606 0.006624304223805666
0.14153271913528442 0.041577957570552826 0.0017495099455118179
0.19258755445480347 0.063732221722602844 1.5797335436218418e-05
0.25222024321556091 0.093496225774288177 0
0.31834179162979126 0.12630876898765564 0
0.38878324627876282 0.16148404777050018 0
0.46247822046279907 0.19866983592510223 0
0.53992336988449097 0.23821340501308441 0
0.62178909778594971 0.28024712204933167 0
0.70712053775787354 0.3251437246799469 0
0.79082930088043213 0.3711702823638916 0
0.11603604257106781 0.038831464946269989 0.0058771767653524876
0.1257343590259552 0.04411691427230835 0.010159705765545368
0.13975438475608826 0.049646548926830292 0.010962601751089096
0.17068690061569214 0.05898633599281311 0.0040228450670838356
0.21462975442409515 0.076085977256298065 0.00051033170893788338
0.26903882622718811 0.10101469606161118 6.1708335124421865e-05
0.33266642689704895 0.13148553669452667 0
0.40215793251991272 0.16552111506462097 0
0.47456634044647217 0.20154571533203125 0
0.55025738477706909 0.2399098128080368 0.00034565644455142319
0.63108617067337036 0.2820567786693573 0.0015455957036465406
0.71560132503509521 0.32773041725158691 0.0003642661904450506
0.79806423187255859 0.37387931346893311 0
0.18921434879302979 0.068637892603874207 0.0050644371658563614
0.1940026730298996 0.071551047265529633 0.0071491464041173458
0.20162566006183624 0.074392803013324738 0.0074764774180948734
0.21978077292442322 0.08118940144777298 0.0051808976568281651
0.24913302063941956 0.092600531876087189 0.0030848185997456312
0.29263937473297119 0.11066269129514694 0.0010773602407425642
0.35107433795928955 0.13738168776035309 0
0.41914021968841553 0.17022702097892761 0
0.49102595448493958 0.20534612238407135 0
0.56610476970672607 0.24309234321117401 0.00014733706484548748
0.64679133892059326 0.28591477870941162 0.0034223818220198154
0.72992920875549316 0.3323071300983429 0.0031844493933022022
0.80969595909118652 0.37813064455986023 0.0012080173473805189
0.27456581592559814 0.10181890428066254 0.0024693359155207872
0.27634996175765991 0.1027524322271347 0.0021311889868229628
0.28107371926307678 0.10422810912132263 0.0019957150798290968
0.28906458616256714 0.10824339836835861 0.0038166570011526346
0.30363893508911133 0.1136472225189209 0.0047231637872755527
0.33151006698608398 0.12428265810012817 0.0015732110477983952
0.38043302297592163 0.14615954458713531 0
0.44501960277557373 0.17744819819927216 0
0.51549762487411499 0.21209980547428131 0
0.59029769897460938 0.24965515732765198 0.00013435214350465685
0.66994112730026245 0.29288244247436523 0.0037327187601476908
0.74961310625076294 0.33886322379112244 0.0054449341259896755
0.82409191131591797 0.38290318846702576 0.0048006395809352398
0.36817070841789246 0.13469390571117401 0.00038871017750352621
0.36848801374435425 0.13502512872219086 0.00020959891844540834
0.37227347493171692 0.13692083954811096 0.00020998786203563213
0.37690162658691406 0.13924029469490051 0.0012853136286139488
0.38353407382965088 0.1407712996006012 0.0018922843737527728
0.39769250154495239 0.1461285799741745 0.00033864041324704885
0.432077556848526 0.16255706548690796 0
0.4847697913646698 0.18928715586662292 0
0.54784679412841797 0.22133588790893555 0
0.6186378002166748 0.25792476534843445 0.0011037490330636501
0.69524514675140381 0.30022731423377991 0.0047583933919668198
0.77074623107910156 0.34478992223739624 0.0082830088213086128
0.84022986888885498 0.38681504130363464 0.0072883008979260921
0.46889397501945496 0.16762067377567291 0
0.47058427333831787 0.16803814470767975 0
0.47381281852722168 0.1704941987991333 0
0.47793138027191162 0.17255024611949921 8.8860006144386716e-06
0.48225504159927368 0.17365778982639313 2.9620001441799104e-05
0.4895082414150238 0.17816254496574402 0
0.50753176212310791 0.18865393102169037 0
0.53861105442047119 0.20551460981369019 0
0.58357477188110352 0.22964905202388763 0.00022011551482137293
0.6445082426071167 0.26262885332107544 0.0031476488802582026
0.71792024374008179 0.30412310361862183 0.005080114584416151
0.79055076837539673 0.34794962406158447 0.0073903999291360378
0.85588556528091431 0.38810679316520691 0.0061877383850514889
0.57750821113586426 0.20333090424537659 7.6742733654100448e-05
0.58054113388061523 0.20464718341827393 4.9965055950451642e-05
0.58252322673797607 0.20731693506240845 2.3037779101287015e-05
0.58356022834777832 0.20797061920166016 0
0.5855831503868103 0.20915721356868744 0
0.59095573425292969 0.21432425081729889 0
0.59703993797302246 0.22027839720249176 0
0.60492920875549316 0.22654639184474945 0
0.62477517127990723 0.23812362551689148 1.1309455658192746e-05
0.67066246271133423 0.26445809006690979 0.0022236094810068607
0.73984408378601074 0.30512252449989319 0.0035920834634453058
0.80916506052017212 0.34733721613883972 0.0028894313145428896
0.87052625417709351 0.38531851768493652 0.002270612632855773
0.68817353248596191 0.24277327954769135 0.0015309202717617154
0.69254505634307861 0.24535959959030151 0.0027064303867518902
0.69371712207794189 0.24702851474285126 0.0022423388436436653
0.69199913740158081 0.24712854623794556 0.0015533297555521131
0.69149899482727051 0.24838189780712128 0.0011466681025922298
0.69529622793197632 0.2535974383354187 0.00058258656645193696
0.69573682546615601 0.25727197527885437 0.00021969663794152439
0.69228464365005493 0.25795421004295349 0.00022541120415553451
0.69231116771697998 0.25977125763893127 0.00046355303493328393
0.71745282411575317 0.2758028507232666 0.0025536182802170515
0.76952743530273438 0.30820038914680481 0.0034692352637648582
0.82679885625839233 0.34426504373550415 0.0022748310584574938
0.88219290971755981 0.37910807132720947 0.00073186837835237384
0.79926866292953491 0.28776142001152039 0.00053423712961375713
0.80359625816345215 0.2895713746547699 0.002800855552777648
0.8034675121307373 0.29095721244812012 0.0039092418737709522
0.80115526914596558 0.29130145907402039 0.0040612015873193741
0.80049794912338257 0.29305526614189148 0.0039947060868144035
0.80129873752593994 0.29668691754341125 0.0036568136420100927
0.80069941282272339 0.29961386322975159 0.0040405574254691601
0.79689621925354004 0.30041825771331787 0.0044209198094904423
0.79236721992492676 0.29983443021774292 0.0038939532823860645
0.79740166664123535 0.30525189638137817 0.0039168563671410084
0.81868785619735718 0.32093188166618347 0.0043708202429115772
0.85227763652801514 0.34406894445419312 0.0050218021497130394
0.89613556861877441 0.37237226963043213 0.0032155204098671675
0.90586209297180176 0.33250331878662109 0.0014249315718188882
0.90811651945114136 0.33356884121894836 0.0031966115348041058
0.90587937831878662 0.33447656035423279 0.0040978826582431793
0.90269750356674194 0.33503037691116333 0.0063707837834954262
0.90120464563369751 0.33670476078987122 0.0070159612223505974
0.90023893117904663 0.33902108669281006 0.0065478156320750713
0.89803910255432129 0.34149155020713806 0.0075158663094043732
0.89435124397277832 0.34272539615631104 0.0073221242055296898
0.89048296213150024 0.34245505928993225 0.0046946508809924126
0.88892441987991333 0.34255161881446838 0.0039172903634607792
0.89139151573181152 0.34641969203948975 0.0041297762654721737
0.90119600296020508 0.35563233494758606 0.0048804637044668198
0.92431145906448364 0.37317934632301331 0.0025349038187414408
0.98813718557357788 0.3717961311340332 0.0036851321347057819
0.98884052038192749 0.37223935127258301 0.0025602902751415968
0.98674815893173218 0.37255051732063293 0.0025931713171303272
0.98440337181091309 0.3730161190032959 0.0032570334151387215
0.98194140195846558 0.37434226274490356 0.0041746553033590317
0.97828632593154907 0.37570542097091675 0.0047808629460632801
0.97134029865264893 0.37706297636032104 0.0059910193085670471
0.96292096376419067 0.37827581167221069 0.0060777254402637482
0.96342426538467407 0.37905499339103699 0.0034004510380327702
0.9688718318939209 0.37992033362388611 0.0017784418305382133
0.97148913145065308 0.38148647546768188 0.0025026658549904823
0.96928107738494873 0.38352081179618835 0.0020359563641250134
0.96714848279953003 0.38860413432121277 0.00028523465152829885
1 0.40449079871177673 0.0031283211428672075
1 0.4048675000667572 1.9447476006462239e-05
1 0.40489083528518677 0
1 0.40518799424171448 0
1 0.40605553984642029 0
1 0.40678796172142029 0.00037321203853935003
0.9997677206993103 0.40687745809555054 0.00098236685153096914
0.99721574783325195 0.40767475962638855 0.0010175966890528798
0.9985840916633606 0.40999370813369751 7.4678311648312956e-05
1 0.41299512982368469 0
1 0.41548407077789307 4.2844287236221135e-05
0.99993538856506348 0.41647270321846008 0.0008453219779767096
0.99863898754119873 0.417755126953125 0.0001026826721499674
0.058298341929912567 0.011253461241722107 8.8321459770668298e-05
0.078209146857261658 0.016632573679089546 0.0012599421897903085
0.10424467921257019 0.025890439748764038 0.0014435711782425642
0.13578033447265625 0.038026008754968643 0.00042886173469014466
0.18502300977706909 0.061956726014614105 0
0.24620483815670013 0.092953354120254517 0
0.31160309910774231 0.12532630562782288 5.7175580877810717e-05
0.38344743847846985 0.16112513840198517 0.0014344458468258381
0.45948424935340881 0.19988703727722168 0.0014208325883373618
0.53746742010116577 0.2402171790599823 0
0.61781072616577148 0.28109347820281982 0
0.70312315225601196 0.32535907626152039 0
0.78904062509536743 0.37193340063095093 0
0.10167566686868668 0.02734101191163063 0.0040946812368929386
0.1100550964474678 0.033485382795333862 0.010354405269026756
0.12577427923679352 0.041923314332962036 0.011828942224383354
0.15658044815063477 0.051326736807823181 0.0088435299694538116
0.20294535160064697 0.071240082383155823 0.0029862946830689907
0.26173010468482971 0.10097750276327133 8.8545857579447329e-05
0.32802745699882507 0.13286927342414856 0
0.39867815375328064 0.16708581149578094 0
0.4708692729473114 0.20390741527080536 0
0.54599189758300781 0.2426915317773819 0
0.62570714950561523 0.28363588452339172 0.00036443074350245297
0.70947945117950439 0.32753902673721313 1.8101112800650299e-05
0.79242002964019775 0.37302759289741516 0
0.13530805706977844 0.052117396146059036 0.013036121614277363
0.13952825963497162 0.058577787131071091 0.024086447432637215
0.15338055789470673 0.066595368087291718 0.02935497835278511
0.18372127413749695 0.073316521942615509 0.025599341839551926
0.22713048756122589 0.08804774284362793 0.015683790668845177
0.2824949324131012 0.11207582056522369 0.005172310397028923
0.34589952230453491 0.14059415459632874 0.00053544883849099278
0.41310378909111023 0.17218561470508575 0
0.48221656680107117 0.2066219300031662 0
0.55600458383560181 0.24457663297653198 0.00020995794329792261
0.63575732707977295 0.28622874617576599 0.0037521810736507177
0.71947449445724487 0.33100458979606628 0.0017770056147128344
0.80119413137435913 0.37680360674858093 0
0.19421891868114471 0.082601346075534821 0.016586752608418465
0.19564324617385864 0.086630560457706451 0.024316884577274323
0.20774686336517334 0.09489479660987854 0.029901705682277679
0.22930881381034851 0.10259242355823517 0.034613337367773056
0.26320356130599976 0.11187458783388138 0.028012383729219437
0.30902001261711121 0.12651148438453674 0.014312115497887135
0.36544308066368103 0.14892496168613434 0.0030362147372215986
0.43000313639640808 0.17849595844745636 0
0.49896320700645447 0.2120414525270462 0
0.57343512773513794 0.24952283501625061 1.5438305126735941e-05
0.65342718362808228 0.29170897603034973 0.0027895011007785797
0.73533886671066284 0.33701181411743164 0.0038372115232050419
0.81414592266082764 0.38227471709251404 0.0013527065748348832
0.27522686123847961 0.11750147491693497 0.012540017254650593
0.27609166502952576 0.11969667673110962 0.014439870603382587
0.28487911820411682 0.127066969871521 0.017088482156395912
0.29619193077087402 0.13313224911689758 0.026676073670387268
0.31451991200447083 0.13673302531242371 0.027396617457270622
0.34441113471984863 0.1429155021905899 0.016164593398571014
0.39233005046844482 0.16023972630500793 0.0029285955242812634
0.45464044809341431 0.18801188468933105 0
0.52265805006027222 0.22050870954990387 0
0.59698241949081421 0.25711539387702942 0
0.6766974925994873 0.2991696298122406 0.0015899508725851774
0.75523370504379272 0.34391647577285767 0.006029854528605938
0.82812440395355225 0.38728019595146179 0.0054946001619100571
0.36454808712005615 0.15033897757530212 0.0066096289083361626
0.36773005127906799 0.1533602774143219 0.0077435211278498173
0.37371009588241577 0.15872655808925629 0.0098588233813643456
0.38055896759033203 0.16248203814029694 0.014134859666228294
0.389015793800354 0.16272062063217163 0.015369146130979061
0.40421608090400696 0.16495314240455627 0.0090439589694142342
0.43850889801979065 0.17745098471641541 0.0011765573872253299
0.49053093791007996 0.20089283585548401 0
0.5518794059753418 0.23001889884471893 0
0.6229557991027832 0.26503977179527283 1.7353133443975821e-05
0.70023685693740845 0.30596372485160828 0.0027159147430211306
0.77490103244781494 0.34996458888053894 0.0098618147894740105
0.84322720766067505 0.39129525423049927 0.0094406576827168465
0.46713963150978088 0.18556320667266846 0.00077104754745960236
0.47078430652618408 0.18810302019119263 0.0035824344959110022
0.47494989633560181 0.19125382602214813 0.0050664716400206089
0.47962465882301331 0.19246993958950043 0.0029975441284477711
0.48530769348144531 0.1928391307592392 0.0020431966986507177
0.49355095624923706 0.19595280289649963 0.0011571098584681749
0.51055407524108887 0.20353789627552032 8.9727662270888686e-05
0.53978484869003296 0.2171621173620224 0
0.584911048412323 0.23922266066074371 0
0.64828157424926758 0.27103924751281738 0.00058233225718140602
0.72203737497329712 0.3110678493976593 0.0055895787663757801
0.7921869158744812 0.35286587476730347 0.010852275416254997
0.85663056373596191 0.39193612337112427 0.0091513385996222496
0.57515788078308105 0.22174042463302612 0
0.57940518856048584 0.22401896119117737 0.0019753249362111092
0.58322668075561523 0.22628304362297058 0.0030843548011034727
0.58540469408035278 0.22596441209316254 0.00014699299936182797
0.58924663066864014 0.22676651179790497 0
0.595012366771698 0.23132643103599548 0
0.59811234474182129 0.23481267690658569 0
0.60531055927276611 0.23899205029010773 0
0.62738299369812012 0.25026983022689819 0
0.67596793174743652 0.27570727467536926 0.0010805466445162892
0.74441051483154297 0.31404450535774231 0.004376519937068224
