assets/lut/picturefx zilverfx vintage bw.cube
# Created by: G'MIC (https://gmic.eu)
TITLE "zilverfx_vintage_bw"
# LUT size
LUT_3D_SIZE 5
# Data domain
DOMAIN_MIN 0.0 0.0 0.0
DOMAIN_MAX 1.0 1.0 1.0
# LUT data points
0.011430343613028526 0.010647987015545368 0.010526440106332302
0.084694445133209229 0.082795463502407074 0.082331247627735138
0.2002723217010498 0.19062408804893494 0.18079002201557159
0.4210905134677887 0.39357316493988037 0.3688805103302002
0.56417793035507202 0.52443361282348633 0.48575159907341003
0.18780843913555145 0.18064543604850769 0.17508256435394287
0.23419998586177826 0.2219666987657547 0.21430434286594391
0.33105412125587463 0.31412497162818909 0.29733681678771973
0.50555980205535889 0.47036385536193848 0.44027525186538696
0.59750556945800781 0.55244404077529907 0.51174592971801758
0.48401924967765808 0.45410588383674622 0.42686900496482849
0.51404178142547607 0.48103636503219604 0.45307201147079468
0.57302498817443848 0.53402990102767944 0.499908447265625
0.6509738564491272 0.60699445009231567 0.56508684158325195
0.70949369668960571 0.67718946933746338 0.6523624062538147
0.71445310115814209 0.67700475454330444 0.64419907331466675
0.73730891942977905 0.70356321334838867 0.67330300807952881
0.76913338899612427 0.74567210674285889 0.72593992948532104
0.81977349519729614 0.80778640508651733 0.79575693607330322
0.8392937183380127 0.82730042934417725 0.81981855630874634
0.79036200046539307 0.76772814989089966 0.75105726718902588
0.80787533521652222 0.78777283430099487 0.77212852239608765
0.81535762548446655 0.80284631252288818 0.78869038820266724
0.83282595872879028 0.82090240716934204 0.81249332427978516
0.87141227722167969 0.8634147047996521 0.85572600364685059
0.069774195551872253 0.067646831274032593 0.06690400093793869
0.12333619594573975 0.1191444993019104 0.11581704765558243
0.23101389408111572 0.21839088201522827 0.20757552981376648
0.43697461485862732 0.40784677863121033 0.38130590319633484
0.56390535831451416 0.52361291646957397 0.48511040210723877
0.2184382826089859 0.20855709910392761 0.19928313791751862
0.26343658566474915 0.24931228160858154 0.23898968100547791
0.3569466769695282 0.33781653642654419 0.31999817490577698
0.51274639368057251 0.47767907381057739 0.44518497586250305
0.59394937753677368 0.55076950788497925 0.50848197937011719
0.50046086311340332 0.46829900145530701 0.44004932045936584
0.52533447742462158 0.49280437827110291 0.46149620413780212
0.58238905668258667 0.54428035020828247 0.50744032859802246
0.652984619140625 0.611194908618927 0.5726170539855957
0.70842170715332031 0.67800247669219971 0.65257436037063599
0.72416597604751587 0.68764489889144897 0.65707457065582275
0.75068658590316772 0.71951186656951904 0.69289851188659668
0.77895194292068481 0.75772899389266968 0.74003100395202637
0.82585328817367554 0.81411647796630859 0.80434602499008179
0.84781533479690552 0.83779823780059814 0.82960242033004761
0.82128065824508667 0.80456924438476562 0.79056644439697266
0.83801901340484619 0.82229864597320557 0.80930244922637939
0.84414577484130859 0.83161717653274536 0.82175666093826294
0.85670250654220581 0.84743291139602661 0.84090226888656616
0.91062158346176147 0.90573108196258545 0.90068787336349487
0.16374200582504272 0.15766499936580658 0.15011113882064819
0.21153223514556885 0.20084689557552338 0.19083753228187561
0.30884850025177002 0.29064288735389709 0.27490174770355225
0.49362701177597046 0.45831361413002014 0.42736524343490601
0.57635760307312012 0.53342258930206299 0.49340784549713135
0.30198347568511963 0.28685548901557922 0.2723272442817688
0.34426608681678772 0.32519137859344482 0.30891039967536926
0.41812834143638611 0.39387595653533936 0.37132880091667175
0.53941589593887329 0.50206851959228516 0.46622571349143982
0.60822802782058716 0.56134283542633057 0.51840680837631226
0.5437355637550354 0.50908464193344116 0.47623443603515625
0.56675797700881958 0.52986592054367065 0.49496909976005554
0.62084811925888062 0.57749879360198975 0.53674024343490601
0.66413134336471558 0.6266980767250061 0.59266388416290283
0.73396784067153931 0.71068459749221802 0.68979489803314209
0.74785691499710083 0.72143328189849854 0.69839227199554443
0.77861088514328003 0.75700885057449341 0.73708206415176392
0.82860559225082397 0.81449466943740845 0.80227720737457275
0.88220536708831787 0.87510627508163452 0.86903280019760132
0.90506649017333984 0.89833015203475952 0.89422690868377686
0.90416991710662842 0.8955119252204895 0.88857275247573853
0.92212033271789551 0.91550242900848389 0.90788793563842773
0.93344175815582275 0.92759227752685547 0.92262685298919678
0.93538469076156616 0.93129235506057739 0.92917650938034058
0.98433101177215576 0.98031520843505859 0.98219764232635498
0.38475006818771362 0.36018404364585876 0.33847913146018982
0.40777713060379028 0.38260984420776367 0.3592681884765625
0.45733487606048584 0.42633569240570068 0.39863258600234985
0.55663418769836426 0.51679062843322754 0.4775080680847168
0.59949111938476562 0.55284053087234497 0.50995540618896484
0.44990000128746033 0.42224210500717163 0.3953741192817688
0.46768301725387573 0.43902167677879333 0.41072884202003479
0.52041447162628174 0.48486217856407166 0.45230486989021301
0.57986980676651001 0.53555440902709961 0.49548059701919556
0.62234479188919067 0.57648134231567383 0.53547924757003784
0.58926767110824585 0.54745966196060181 0.50880527496337891
0.61335873603820801 0.57026398181915283 0.53105735778808594
0.65263539552688599 0.60945636034011841 0.56837546825408936
0.70091170072555542 0.67205125093460083 0.64903783798217773
0.76501196622848511 0.74985367059707642 0.73601901531219482
0.7854996919631958 0.77102088928222656 0.75614321231842041
0.82133626937866211 0.80783790349960327 0.79767298698425293
0.87784606218338013 0.87036550045013428 0.86483800411224365
0.96494382619857788 0.95923739671707153 0.96190571784973145
0.98847925662994385 0.98029285669326782 0.98754680156707764
0.96664202213287354 0.96219712495803833 0.96058952808380127
0.99126714468002319 0.98718917369842529 0.98976653814315796
0.9991602897644043 0.98823529481887817 0.99798935651779175
1 0.98823529481887817 1
1 0.98823529481887817 1
0.4672245979309082 0.43764355778694153 0.40846174955368042
0.48015791177749634 0.44728386402130127 0.4193674623966217
0.51820176839828491 0.48249146342277527 0.4494856595993042
0.5599592924118042 0.51762527227401733 0.47953173518180847
0.58406245708465576 0.53712773323059082 0.49596571922302246
0.50057762861251831 0.46750015020370483 0.43703222274780273
0.51789730787277222 0.48353224992752075 0.45191824436187744
0.55360108613967896 0.51473194360733032 0.47753328084945679
0.58327251672744751 0.53948146104812622 0.49752330780029297
0.6288377046585083 0.5869031548500061 0.55031281709671021
0.62125056982040405 0.57683992385864258 0.53442752361297607
0.64598232507705688 0.60433465242385864 0.56703507900238037
0.66984820365905762 0.63215190172195435 0.59924471378326416
0.70858031511306763 0.68564379215240479 0.66398352384567261
0.76790821552276611 0.75316941738128662 0.74176156520843506
0.79144829511642456 0.77586966753005981 0.7630200982093811
0.81992822885513306 0.80805438756942749 0.79843610525131226
0.88396114110946655 0.87942659854888916 0.87418955564498901
0.96632665395736694 0.95993340015411377 0.96422237157821655
0.99275213479995728 0.98372912406921387 0.99220961332321167
0.99351423978805542 0.98679322004318237 0.99289411306381226
0.99491673707962036 0.98374056816101074 0.99458569288253784
1 0.98823529481887817 0.99997198581695557
1 0.98823529481887817 1
1 0.98823529481887817 1
