assets/lut/picturefx goldfx summer heat.cube
# Created by: G'MIC (https://gmic.eu)
TITLE "goldfx_summer_heat"
# LUT size
LUT_3D_SIZE 5
# Data domain
DOMAIN_MIN 0.0 0.0 0.0
DOMAIN_MAX 1.0 1.0 1.0
# LUT data points
0.0064917020499706268 0.013402886688709259 0.032321527600288391
0.1598728746175766 0.04025593027472496 0.050465542823076248
0.55724608898162842 0.013235234655439854 0.079823076725006104
0.93342256546020508 0.24671538174152374 0.053461141884326935
1 0.53786873817443848 0.14762333035469055
0 0.18333074450492859 0.087117768824100494
0.17440123856067657 0.20326803624629974 0.071050666272640228
0.6066889762878418 0.24290375411510468 0.036833040416240692
0.91244059801101685 0.39805492758750916 4.7930549044394866e-05
0.99608486890792847 0.59114432334899902 0.13735195994377136
0.0025384791661053896 0.58233773708343506 0.069963477551937103
0.10596369951963425 0.58340644836425781 0.070826709270477295
0.6388816237449646 0.60774523019790649 0.011744226329028606
0.89326834678649902 0.62788033485412598 2.1003274014219642e-05
0.99592643976211548 0.68189918994903564 0.016296761110424995
0.41525405645370483 0.82396870851516724 0.24584688246250153
0.50062304735183716 0.82375496625900269 0.26950055360794067
0.68143588304519653 0.82217496633529663 0.2699090838432312
0.86236399412155151 0.82886552810668945 0.21914993226528168
0.99394387006759644 0.83636617660522461 0.20380116999149323
0.77601295709609985 0.96648579835891724 0.52220940589904785
0.78024429082870483 0.96253913640975952 0.54966813325881958
0.8276526927947998 0.96694815158843994 0.57867324352264404
0.9095076322555542 0.97386223077774048 0.57670795917510986
0.99994611740112305 0.98421639204025269 0.57549726963043213
0.0070379069074988365 0.04966258630156517 0.16927114129066467
0.17041081190109253 0.092914760112762451 0.17023953795433044
0.58542656898498535 0.013562669977545738 0.20889532566070557
0.93522846698760986 0.34567955136299133 0.25351336598396301
0.996071457862854 0.59163451194763184 0.32395970821380615
0 0.21328027546405792 0.20271801948547363
0.22242879867553711 0.22563184797763824 0.20760315656661987
0.65677118301391602 0.25741642713546753 0.20473788678646088
0.92854601144790649 0.44714853167533875 0.22650820016860962
0.99723571538925171 0.62334245443344116 0.30958479642868042
0.081017181277275085 0.59616577625274658 0.20555791258811951
0.26059961318969727 0.59898537397384644 0.20708966255187988
0.65082776546478271 0.61317861080169678 0.16478323936462402
0.90266579389572144 0.63501030206680298 0.11341103911399841
0.99829888343811035 0.68990731239318848 0.21576696634292603
0.47318953275680542 0.82486051321029663 0.30352333188056946
0.52297437191009521 0.82461661100387573 0.31441131234169006
0.6906745433807373 0.82535421848297119 0.33451646566390991
0.86663335561752319 0.82973670959472656 0.29300171136856079
0.99656260013580322 0.83522480726242065 0.30163687467575073
0.77183204889297485 0.96479851007461548 0.54730713367462158
0.7704002857208252 0.96189826726913452 0.55906695127487183
0.82430291175842285 0.96474218368530273 0.58948075771331787
0.90004414319992065 0.97056490182876587 0.59664225578308105
0.99778926372528076 0.97925853729248047 0.59237444400787354
0.14792434871196747 0.12563659250736237 0.39171463251113892
0.41422948241233826 0.180442214012146 0.39969092607498169
0.67279928922653198 0.35255539417266846 0.41069468855857849
0.91718125343322754 0.34290951490402222 0.44440987706184387
0.99608415365219116 0.59572023153305054 0.48966509103775024
0.11991263180971146 0.28153735399246216 0.41206514835357666
0.3819459080696106 0.2969261109828949 0.42126622796058655
0.69827914237976074 0.45822125673294067 0.42567658424377441
0.91420799493789673 0.44183215498924255 0.44976139068603516
0.99990689754486084 0.6476738452911377 0.50598001480102539
0.2384168952703476 0.60872715711593628 0.42305469512939453
0.33533784747123718 0.61183154582977295 0.42323237657546997
0.70536881685256958 0.63729125261306763 0.44420504570007324
0.91462600231170654 0.66924893856048584 0.44130900502204895
0.99948078393936157 0.75729924440383911 0.50517982244491577
0.61217057704925537 0.82567399740219116 0.4660092294216156
0.6262316107749939 0.82490217685699463 0.46912753582000732
0.73567014932632446 0.83571237325668335 0.47062122821807861
0.87272101640701294 0.83429914712905884 0.45369148254394531
0.99900370836257935 0.83709776401519775 0.45228302478790283
0.78994745016098022 0.96752655506134033 0.62076753377914429
0.79305899143218994 0.9671177864074707 0.61587083339691162
0.82079732418060303 0.96494454145431519 0.62891572713851929
0.89916247129440308 0.97190779447555542 0.65603601932525635
0.99360555410385132 0.97867780923843384 0.66052919626235962
0.52166122198104858 0.33415430784225464 0.62236255407333374
0.66152536869049072 0.4013180136680603 0.62832939624786377
0.8308371901512146 0.59239768981933594 0.62735700607299805
0.90289765596389771 0.7057916522026062 0.63346916437149048
0.98553884029388428 0.6979784369468689 0.65173053741455078
0.51759237051010132 0.44619187712669373 0.62826097011566162
0.62498348951339722 0.48358544707298279 0.62814736366271973
0.8244282603263855 0.62664198875427246 0.63102251291275024
0.90576279163360596 0.7291533350944519 0.64386451244354248
0.98689669370651245 0.70176935195922852 0.65225625038146973
0.42031809687614441 0.64646899700164795 0.60912024974822998
0.4723721444606781 0.64165699481964111 0.61393791437149048
0.76898247003555298 0.6862635612487793 0.63947415351867676
0.90648096799850464 0.78902512788772583 0.66515231132507324
0.99327385425567627 0.76580905914306641 0.66642510890960693
0.61025285720825195 0.82381284236907959 0.6217876672744751
0.61189424991607666 0.82172662019729614 0.62307548522949219
0.70145690441131592 0.82360827922821045 0.63279920816421509
0.88745474815368652 0.84338176250457764 0.66433703899383545
0.9996345043182373 0.85287511348724365 0.66990739107131958
0.80607211589813232 0.9668349027633667 0.74219036102294922
0.80348509550094604 0.97106140851974487 0.73175543546676636
0.82025039196014404 0.96821725368499756 0.72851228713989258
0.90741807222366333 0.9763827919960022 0.74924159049987793
0.99159055948257446 0.98085981607437134 0.75052094459533691
0.7837986946105957 0.70343559980392456 0.85668754577636719
0.81536006927490234 0.72602689266204834 0.8552241325378418
0.88817799091339111 0.7777552604675293 0.85147058963775635
0.95227766036987305 0.84768342971801758 0.85322767496109009
0.99806791543960571 0.88583219051361084 0.87556630373001099
0.77806740999221802 0.72712874412536621 0.8585619330406189
0.80505174398422241 0.74468719959259033 0.85900044441223145
0.88110369443893433 0.78896605968475342 0.85631299018859863
0.95382821559906006 0.85260343551635742 0.85648912191390991
0.99575704336166382 0.88232678174972534 0.86927598714828491
0.74619323015213013 0.775215744972229 0.86243605613708496
0.75625127553939819 0.77611112594604492 0.86578035354614258
0.84575295448303223 0.80666744709014893 0.86994534730911255
0.94867736101150513 0.86588782072067261 0.87335926294326782
0.99465596675872803 0.90632385015487671 0.88279521465301514
0.64323604106903076 0.85640859603881836 0.86512482166290283
0.63915073871612549 0.85535120964050293 0.86806243658065796
0.6982383131980896 0.84815448522567749 0.87131780385971069
0.9043879508972168 0.87494522333145142 0.88782072067260742
0.99674868583679199 0.94187206029891968 0.91619336605072021
0.78567785024642944 0.98558801412582397 0.9413573145866394
0.76743972301483154 0.97905290126800537 0.91652429103851318
0.78764206171035767 0.97971546649932861 0.9170575737953186
0.86145889759063721 0.97717809677124023 0.92355966567993164
0.98790395259857178 0.99164080619812012 0.95670503377914429
