assets/lut/picturefx analogfx old style iii.cube
# Created by: G'MIC (https://gmic.eu)
TITLE "analogfx_old_style_iii"
# LUT size
LUT_3D_SIZE 13
# Data domain
DOMAIN_MIN 0.0 0.0 0.0
DOMAIN_MAX 1.0 1.0 1.0
# LUT data points
0.012506043538451195 0.0083619961515069008 0.0048122629523277283
0.013419132679700851 0.0089675905182957649 0.0069812401197850704
0.010496356524527073 0.0078431377187371254 0.0052072415128350258
0.0087010404095053673 0.0069212671369314194 0.0043699676170945168
0.032765451818704605 0.019322607666254044 0.014564828015863895
0.10256696492433548 0.058219205588102341 0.042681392282247543
0.17721100151538849 0.10043442994356155 0.071898877620697021
0.25450032949447632 0.14498034119606018 0.10066389292478561
0.37120702862739563 0.21488000452518463 0.14374768733978271
0.51985138654708862 0.30618971586227417 0.20400531589984894
0.65524512529373169 0.38322371244430542 0.25157442688941956
0.77156150341033936 0.44515576958656311 0.2881673276424408
0.86062347888946533 0.4942106306552887 0.32047340273857117
0.012949640862643719 0.0086632370948791504 0.0051119187846779823
0.016479328274726868 0.010850300081074238 0.0083534242585301399
0.0096360603347420692 0.0076527465134859085 0.0057076849043369293
0.020143037661910057 0.013343421742320061 0.010260084643959999
0.070498012006282806 0.042039655148983002 0.031922254711389542
0.14145576953887939 0.080924138426780701 0.060035586357116699
0.21197345852851868 0.12248942255973816 0.087727807462215424
0.29300355911254883 0.17040136456489563 0.11810176819562912
0.40754413604736328 0.24123013019561768 0.16303105652332306
0.5529252290725708 0.33063903450965881 0.22310185432434082
0.68333888053894043 0.40211325883865356 0.26758068799972534
0.79539209604263306 0.45894649624824524 0.29833716154098511
0.86974340677261353 0.50042283535003662 0.32918396592140198
0.025698479264974594 0.016399668529629707 0.011007017455995083
0.034271642565727234 0.021565904840826988 0.016536921262741089
0.049169022589921951 0.030303655192255974 0.023679440841078758
0.093290455639362335 0.055539164692163467 0.043069727718830109
0.14319606125354767 0.083846054971218109 0.064479410648345947
0.20019328594207764 0.11784859746694565 0.087370656430721283
0.2664642333984375 0.1579982191324234 0.11267299205064774
0.34861940145492554 0.20889432728290558 0.14507229626178741
0.47255074977874756 0.2862759530544281 0.1957021951675415
0.61551284790039062 0.37148359417915344 0.25408318638801575
0.73871541023254395 0.437774658203125 0.29444482922554016
0.83613640069961548 0.48705121874809265 0.3210788369178772
0.90823054313659668 0.53208267688751221 0.36690840125083923
0.12136567384004593 0.073342405259609222 0.053252082318067551
0.13371381163597107 0.080635532736778259 0.059828769415616989
0.15649712085723877 0.093701303005218506 0.070266827940940857
0.18703107535839081 0.11093030124902725 0.083771742880344391
0.23509274423122406 0.14134365320205688 0.10446833819150925
0.29251161217689514 0.17799675464630127 0.12876430153846741
0.36492770910263062 0.22269977629184723 0.15807877480983734
0.45512157678604126 0.27863681316375732 0.19457621872425079
0.58052152395248413 0.35571959614753723 0.24615858495235443
0.71463626623153687 0.43399408459663391 0.30029860138893127
0.82968062162399292 0.4932112991809845 0.33633553981781006
0.89837914705276489 0.531463623046875 0.36731353402137756
0.96113920211791992 0.57751607894897461 0.42120355367660522
0.24096149206161499 0.1458527147769928 0.10566233843564987
0.25400936603546143 0.15314891934394836 0.1119496077299118
0.26654195785522461 0.16198679804801941 0.11846534907817841
0.30062130093574524 0.18382832407951355 0.13357651233673096
0.35209405422210693 0.21661101281642914 0.15508309006690979
0.40267717838287354 0.24886052310466766 0.17687016725540161
0.47636324167251587 0.29449814558029175 0.20889455080032349
0.57592296600341797 0.35607066750526428 0.24954625964164734
0.70568126440048218 0.43193376064300537 0.30097487568855286
0.83145594596862793 0.50511544942855835 0.35357463359832764
0.91778099536895752 0.55787187814712524 0.39844971895217896
0.96922785043716431 0.59498119354248047 0.44139471650123596
0.99438315629959106 0.65046054124832153 0.51553630828857422
0.40313601493835449 0.24613863229751587 0.17407757043838501
0.42735061049461365 0.2607417106628418 0.18490025401115417
0.43408221006393433 0.26770567893981934 0.19030553102493286
0.47367140650749207 0.29316461086273193 0.20751515030860901
0.51880401372909546 0.32155215740203857 0.22672028839588165
0.57833480834960938 0.35673666000366211 0.25087016820907593
0.63845443725585938 0.39310860633850098 0.27631595730781555
0.7429271936416626 0.45408332347869873 0.31792357563972473
0.8527148962020874 0.52143663167953491 0.36660772562026978
0.94369423389434814 0.58223116397857666 0.41772946715354919
0.98517942428588867 0.63821893930435181 0.48959502577781677
0.99649560451507568 0.69842529296875 0.57402735948562622
0.99995142221450806 0.79267096519470215 0.70744675397872925
0.64712947607040405 0.39225658774375916 0.27086302638053894
0.6704709529876709 0.40679064393043518 0.28188309073448181
0.67312085628509521 0.4105011522769928 0.28569492697715759
0.70857918262481689 0.43288975954055786 0.30417665839195251
0.74380648136138916 0.45342865586280823 0.31780809164047241
0.79777175188064575 0.48488199710845947 0.33655878901481628
0.85769659280776978 0.5252310037612915 0.3708934485912323
0.91842001676559448 0.57626360654830933 0.42299097776412964
0.96357464790344238 0.63879084587097168 0.49049168825149536
0.99037712812423706 0.70594674348831177 0.57549101114273071
0.9996333122253418 0.79009765386581421 0.69596773386001587
1 0.86439168453216553 0.80432385206222534
1 0.94155597686767578 0.92120957374572754
0.9142376184463501 0.56193691492080688 0.39704009890556335
0.92090833187103271 0.56851089000701904 0.40473350882530212
0.92155110836029053 0.57363104820251465 0.41466981172561646
0.93835294246673584 0.59052681922912598 0.43424299359321594
0.95396304130554199 0.61006194353103638 0.45626509189605713
0.96347653865814209 0.63698804378509521 0.48658758401870728
0.98216038942337036 0.68503069877624512 0.55093097686767578
0.99472904205322266 0.74596959352493286 0.63282358646392822
0.9986843466758728 0.81952571868896484 0.73605549335479736
0.99984478950500488 0.90298712253570557 0.85920292139053345
1 0.9534459114074707 0.93924826383590698
1 0.97520023584365845 0.97759425640106201
1 0.98344379663467407 0.99398380517959595
0.99357122182846069 0.71921360492706299 0.59851360321044922
0.99540072679519653 0.7324633002281189 0.61420214176177979
0.99593847990036011 0.74586683511734009 0.63259702920913696
0.99574762582778931 0.77064377069473267 0.66629987955093384
0.99814319610595703 0.8039441704750061 0.71247667074203491
0.99929922819137573 0.85022211074829102 0.77887827157974243
0.99858546257019043 0.9016457200050354 0.85573285818099976
0.9999319314956665 0.94684535264968872 0.92886614799499512
1 0.96960759162902832 0.96884489059448242
1 0.98252189159393311 0.99423599243164062
1 0.98429352045059204 0.9990655779838562
1 0.9843137264251709 0.99678891897201538
1 0.9843137264251709 0.99720698595046997
0.99989145994186401 0.92798972129821777 0.90274208784103394
0.99988096952438354 0.93609493970870972 0.91398364305496216
0.99991947412490845 0.94481575489044189 0.92439591884613037
0.99996674060821533 0.95842123031616211 0.94178557395935059
1 0.9712715744972229 0.96738648414611816
1 0.97909492254257202 0.98502767086029053
1 0.98325526714324951 0.99296623468399048
1 0.98426997661590576 0.99806392192840576
1 0.98423326015472412 0.99731457233428955
1 0.9843137264251709 0.99829721450805664
1 0.9843137264251709 1
1 0.9843137264251709 1
1 0.9843137264251709 1
1 0.98409581184387207 0.99633383750915527
1 0.9842827320098877 0.99679464101791382
1 0.98679947853088379 0.9970170259475708
1 0.98615449666976929 0.99324721097946167
1 0.9843137264251709 0.994579017162323
1 0.9843137264251709 0.99992376565933228
1 0.9843137264251709 0.99773156642913818
1 0.9843137264251709 0.99734300374984741
1 0.9843137264251709 0.99953734874725342
1 0.9843137264251709 1
1 0.9843137264251709 1
1 0.9843137264251709 1
1 0.9843137264251709 1
1 0.984474778175354 0.99607843160629272
1 0.9843137264251709 0.99607843160629272
1 0.98662149906158447 0.99607843160629272
1 0.98495090007781982 0.99598938226699829
1 0.9843137264251709 0.99681460857391357
1 0.9843137264251709 1
1 0.9843137264251709 0.99974155426025391
1 0.9843137264251709 0.99917131662368774
1 0.9843137264251709 1
1 0.9843137264251709 1
1 0.9843137264251709 1
1 0.9843137264251709 1
1 0.9843137264251709 1
1 0.9878547191619873 0.99726921319961548
1 0.98655152320861816 0.99607843160629272
1 0.98731130361557007 0.99607843160629272
1 0.98438721895217896 0.99607843160629272
1 0.9843137264251709 0.99826514720916748
1 0.9843137264251709 1
1 0.9843137264251709 1
1 0.9843137264251709 1
1 0.9843137264251709 1
1 0.9843137264251709 1
1 0.9843137264251709 1
1 0.9843137264251709 1
1 0.9843137264251709 1
0.011764706112444401 0.0078431377187371254 0.0039215688593685627
0.011762730777263641 0.0078431377187371254 0.0039239022880792618
0.0099118249490857124 0.0076955310069024563 0.0039215688593685627
0.01170037966221571 0.007838021032512188 0.0048221214674413204
0.042033132165670395 0.02502543106675148 0.016805417835712433
0.11612233519554138 0.066034145653247833 0.046284589916467667
0.1881098747253418 0.10648274421691895 0.074936933815479279
0.26722860336303711 0.15239851176738739 0.10471044480800629
0.37680017948150635 0.21905946731567383 0.14642646908760071
0.52580946683883667 0.31217581033706665 0.20823261141777039
0.65531998872756958 0.38301882147789001 0.25146892666816711
0.77201229333877563 0.44300547242164612 0.28612059354782104
0.8569108247756958 0.49018022418022156 0.31748446822166443
0.010866292752325535 0.0078666685149073601 0.0041656643152236938
0.010707436129450798 0.0078567508608102798 0.0042996574193239212
0.0088712656870484352 0.0070969676598906517 0.0038915746845304966
0.025173844769597054 0.016062105074524879 0.011423178017139435
0.079203635454177856 0.047880403697490692 0.03562183678150177
0.15024654567241669 0.087870806455612183 0.063798092305660248
0.21124480664730072 0.1215207576751709 0.087636016309261322
0.28905215859413147 0.16754357516765594 0.11705778539180756
0.41906470060348511 0.2485489696264267 0.16861772537231445
0.5582154393196106 0.33315378427505493 0.22485193610191345
0.68759059906005859 0.40245044231414795 0.26862505078315735
0.79549551010131836 0.45731493830680847 0.29719817638397217
0.86753201484680176 0.49749445915222168 0.32686421275138855
0.032087035477161407 0.020716723054647446 0.014879054389894009
0.029832413420081139 0.019277431070804596 0.014567132107913494
0.05586731806397438 0.033554375171661377 0.025671267881989479
0.098762944340705872 0.058865055441856384 0.044405709952116013
0.14738404750823975 0.089820042252540588 0.066982105374336243
0.20307958126068115 0.12198179960250854 0.09046231210231781
0.26452186703681946 0.15741273760795593 0.11374375224113464
0.34821346402168274 0.2087094634771347 0.14514467120170593
0.48099169135093689 0.29107287526130676 0.19899623095989227
0.6214556097984314 0.37476944923400879 0.25581234693527222
0.74758726358413696 0.44203907251358032 0.29711621999740601
0.84090960025787354 0.48786407709121704 0.32133656740188599
0.90857094526290894 0.53000515699386597 0.36615696549415588
0.13033401966094971 0.078558377921581268 0.057417433708906174
0.13830052316188812 0.082771465182304382 0.061826113611459732
0.16169537603855133 0.095683544874191284 0.072491347789764404
0.19740383327007294 0.11727333813905716 0.088403545320034027
0.2444431483745575 0.14843101799488068 0.10923641175031662
0.29841536283493042 0.18202859163284302 0.13246944546699524
0.36294198036193848 0.22176779806613922 0.15879487991333008
0.4496881365776062 0.27517670392990112 0.19267971813678741
0.58268207311630249 0.35607987642288208 0.24600204825401306
0.71813160181045532 0.43423625826835632 0.29868581891059875
0.83221632242202759 0.49459341168403625 0.33518114686012268
0.89978748559951782 0.5312163233757019 0.36386048793792725
0.9626237154006958 0.58195561170578003 0.42862194776535034
0.24584856629371643 0.14707900583744049 0.1082473024725914
0.25886127352714539 0.15623928606510162 0.11502406001091003
0.27607735991477966 0.16807462275028229 0.12295490503311157
0.30852529406547546 0.1889108270406723 0.13732597231864929
0.3623536229133606 0.22287337481975555 0.16059620678424835
0.41908466815948486 0.25832387804985046 0.18468667566776276
0.48085686564445496 0.29711645841598511 0.21131348609924316
0.57774621248245239 0.35579162836074829 0.25003939867019653
0.71134096384048462 0.43375885486602783 0.30088531970977783
0.8336256742477417 0.50412780046463013 0.348528653383255
0.91890245676040649 0.55428636074066162 0.38891872763633728
0.96592187881469727 0.5922248363494873 0.43416553735733032
0.99148011207580566 0.65523546934127808 0.52161699533462524
0.4031735360622406 0.2456493079662323 0.17536653578281403
0.4256196916103363 0.26058739423751831 0.1855391263961792
0.4393559992313385 0.27149257063865662 0.19282487034797668
0.4777829647064209 0.2957976758480072 0.20974022150039673
0.53539395332336426 0.33069321513175964 0.23354920744895935
0.57908076047897339 0.35725361108779907 0.25227847695350647
0.64405882358551025 0.39605599641799927 0.2780737578868866
0.7449682354927063 0.45580101013183594 0.31846308708190918
0.85985523462295532 0.52266311645507812 0.36351072788238525
0.94554024934768677 0.58288991451263428 0.41695460677146912
0.98561567068099976 0.63608080148696899 0.4852147102355957
0.99741876125335693 0.70351344347000122 0.58086484670639038
0.9997820258140564 0.79834127426147461 0.71494054794311523
0.64948874711990356 0.39335697889328003 0.2728540301322937
0.6646239161491394 0.40306198596954346 0.27977225184440613
0.67450219392776489 0.41088515520095825 0.28466293215751648
0.7089417576789856 0.43402296304702759 0.30454409122467041
0.75954002141952515 0.46413591504096985 0.32718920707702637
0.80318915843963623 0.48768383264541626 0.33977076411247253
0.85978513956069946 0.52253717184066772 0.36392894387245178
0.92836707830429077 0.5748412013053894 0.41428235173225403
0.97466927766799927 0.63475209474563599 0.4795515239238739
0.99358564615249634 0.70357131958007812 0.56980860233306885
0.99955368041992188 0.78062766790390015 0.68019449710845947
1 0.86692392826080322 0.80724072456359863
1 0.94386881589889526 0.92494642734527588
0.91625320911407471 0.56313532590866089 0.39988207817077637
0.91527736186981201 0.56825351715087891 0.4068981409072876
0.91278505325317383 0.57163375616073608 0.41180852055549622
0.93969714641571045 0.59206342697143555 0.43404960632324219
0.9585685133934021 0.61478149890899658 0.46097362041473389
0.96482318639755249 0.63820731639862061 0.48847800493240356
0.98561829328536987 0.68421429395675659 0.54936593770980835
0.99653887748718262 0.74525171518325806 0.63179397583007812
0.99941724538803101 0.82389503717422485 0.74158012866973877
1 0.90517991781234741 0.86183977127075195
1 0.95456451177597046 0.94264394044876099
1 0.97631263732910156 0.98072606325149536
1 0.98327445983886719 0.99411702156066895
0.99593275785446167 0.72170627117156982 0.60285484790802002
0.99295312166213989 0.73476529121398926 0.61799651384353638
0.99451160430908203 0.74624854326248169 0.632110595703125
0.997516930103302 0.77304387092590332 0.66830521821975708
0.99740749597549438 0.80711334943771362 0.71777158975601196
0.99744570255279541 0.85173976421356201 0.78215306997299194
0.99995869398117065 0.90485399961471558 0.8601529598236084
1 0.94713586568832397 0.93028640747070312
1 0.9724280834197998 0.97175467014312744
1 0.98243880271911621 0.99262189865112305
1 0.9842526912689209 0.99839764833450317
1 0.9843137264251709 0.99853396415710449
1 0.9843137264251709 0.99748241901397705
1 0.92910504341125488 0.90577638149261475
0.99984192848205566 0.93665379285812378 0.91458487510681152
0.99989551305770874 0.94632786512374878 0.92671477794647217
1 0.95886522531509399 0.9441789984703064
1 0.9717482328414917 0.96941900253295898
1 0.97875559329986572 0.98502308130264282
1 0.98344624042510986 0.99364781379699707
1 0.98403233289718628 0.9966474175453186
1 0.98431199789047241 0.9973827600479126
1 0.9843137264251709 0.9985308051109314
1 0.9843137264251709 0.99998515844345093
1 0.9843137264251709 1
1 0.9843137264251709 1
1 0.98402875661849976 0.99696487188339233
1 0.98422813415527344 0.99651110172271729
1 0.98692888021469116 0.99712789058685303
1 0.98652607202529907 0.99435049295425415
1 0.9849657416343689 0.99714475870132446
1 0.98434579372406006 0.99998635053634644
1 0.9843137264251709 0.9984748363494873
1 0.9843137264251709 0.99952906370162964
1 0.9843137264251709 1
1 0.9843137264251709 1
1 0.9843137264251709 1
1 0.9843137264251709 1
1 0.9843137264251709 1
1 0.98608243465423584 0.99770772457122803
1 0.98486316204071045 0.99614030122756958
1 0.98741960525512695 0.9964597225189209
1 0.9864991307258606 0.99660015106201172
1 0.98444509506225586 0.99853932857513428
1 0.9843137264251709 1
1 0.9843137264251709 1
1 0.9843137264251709 1
1 0.9843137264251709 1
1 0.9843137264251709 1
1 0.9843137264251709 1
1 0.9843137264251709 1
1 0.9843137264251709 1
1 0.98823314905166626 0.99926292896270752
1 0.98798322677612305 0.99735832214355469
1 0.98819077014923096 0.99744421243667603
1 0.98538517951965332 0.99799960851669312
1 0.9843137264251709 0.99960720539093018
1 0.9843137264251709 1
1 0.9843137264251709 1
1 0.9843137264251709 1
1 0.9843137264251709 1
1 0.9843137264251709 1
1 0.9843137264251709 1
1 0.9843137264251709 1
1 0.9843137264251709 1
0.0099808340892195702 0.0077167288400232792 0.0039215688593685627
0.011058134026825428 0.0078431377187371254 0.0039215688593685627
0.0091515937820076942 0.0065545476973056793 0.0040440876036882401
0.013023047707974911 0.0076762926764786243 0.0055738263763487339
0.065094590187072754 0.036293432116508484 0.024995677173137665
0.13044933974742889 0.072016187012195587 0.049712475389242172
0.19952294230461121 0.11151368170976639 0.077509529888629913
0.27897775173187256 0.15907582640647888 0.10844694823026657
0.38879719376564026 0.2264382392168045 0.15093977749347687
0.53279781341552734 0.31662383675575256 0.21033172309398651
0.66180944442749023 0.38550928235054016 0.25287458300590515
0.77363681793212891 0.44240036606788635 0.28506216406822205
0.86250633001327515 0.49500840902328491 0.32469305396080017
0.01112944632768631 0.008196602575480938 0.0045065488666296005
0.0091509651392698288 0.0077135274186730385 0.0038142185658216476
0.012909818440675735 0.0093539068475365639 0.0058138081803917885
0.037606813013553619 0.023116346448659897 0.017348375171422958
0.094799131155014038 0.055206090211868286 0.04095909371972084
0.16331371665000916 0.09424610435962677 0.068199887871742249
0.22145244479179382 0.12709479033946991 0.090777240693569183
0.2988867461681366 0.17358291149139404 0.12059713900089264
0.42789864540100098 0.25260230898857117 0.17075571417808533
0.56713581085205078 0.33715388178825378 0.22682754695415497
0.69568443298339844 0.40614408254623413 0.27014362812042236
0.79568219184875488 0.45717343688011169 0.29720756411552429
0.87714898586273193 0.50591069459915161 0.33914011716842651
0.045561697334051132 0.02887745201587677 0.02055174857378006
0.046907670795917511 0.029222076758742332 0.020715123042464256
0.071621917188167572 0.043215330690145493 0.031400673091411591
0.1122128814458847 0.067294478416442871 0.050452511757612228
0.16058003902435303 0.097392886877059937 0.072346404194831848
0.2152789980173111 0.12838204205036163 0.094958163797855377
0.27163702249526978 0.16148680448532104 0.11628292500972748
0.36239862442016602 0.21788407862186432 0.15132793784141541
0.49702915549278259 0.29995638132095337 0.20554919540882111
0.63036882877349854 0.37986129522323608 0.25927382707595825
0.75901633501052856 0.44785872101783752 0.30075931549072266
0.84064525365829468 0.48737019300460815 0.32184496521949768
0.90785926580429077 0.53011232614517212 0.36760362982749939
0.14330779016017914 0.086099348962306976 0.062768988311290741
0.15399298071861267 0.092350795865058899 0.068197108805179596
0.17901900410652161 0.10687471181154251 0.080113038420677185
0.21010327339172363 0.12559892237186432 0.094179876148700714
0.25183266401290894 0.15306714177131653 0.11274460703134537
0.30066144466400146 0.18301801383495331 0.13368099927902222
0.36400136351585388 0.22169239819049835 0.15902693569660187
0.4590853750705719 0.28111913800239563 0.19632039964199066
0.58887690305709839 0.35962358117103577 0.24771784245967865
0.72794371843338013 0.43893736600875854 0.30147072672843933
0.83953118324279785 0.49887189269065857 0.33958783745765686
0.8988226056098938 0.53014814853668213 0.36727309226989746
0.9579463005065918 0.57797574996948242 0.4241090714931488
0.25542691349983215 0.15420450270175934 0.11190255731344223
0.26743683218955994 0.16235442459583282 0.11892921477556229
0.29046973586082458 0.17747986316680908 0.12967315316200256
0.32556736469268799 0.20029866695404053 0.14501886069774628
0.36198851466178894 0.22299724817276001 0.16063502430915833
0.42382723093032837 0.26147058606147766 0.18696057796478271
0.4894033670425415 0.30238288640975952 0.21452823281288147
0.58431756496429443 0.36002281308174133 0.25222358107566833
0.71617001295089722 0.43666860461235046 0.30193233489990234
0.84187537431716919 0.50755423307418823 0.35015314817428589
0.92432355880737305 0.55632853507995605 0.38728806376457214
0.96549791097640991 0.59570145606994629 0.4399493932723999
0.99375182390213013 0.65879786014556885 0.52551877498626709
0.41623479127883911 0.2550748884677887 0.17990085482597351
0.43026703596115112 0.26473665237426758 0.18785831332206726
0.45665615797042847 0.28175127506256104 0.19899159669876099
0.49331602454185486 0.30557361245155334 0.21612723171710968
0.54583793878555298 0.33700788021087646 0.23785081505775452
0.59783351421356201 0.36857554316520691 0.25973862409591675
0.65900629758834839 0.4055686891078949 0.28416764736175537
0.75642699003219604 0.46189433336257935 0.32059979438781738
0.86851960420608521 0.52920907735824585 0.36896371841430664
0.95184051990509033 0.58883112668991089 0.42278990149497986
0.98769962787628174 0.6388169527053833 0.48810732364654541
0.99713551998138428 0.70088154077529907 0.57839882373809814
0.99988222122192383 0.80373787879943848 0.72246289253234863
0.66475784778594971 0.40166753530502319 0.27820557355880737
0.66802901029586792 0.40519919991493225 0.28185281157493591
0.69845390319824219 0.42457893490791321 0.29512381553649902
0.7198108434677124 0.43929207324981689 0.30577787756919861
0.76745057106018066 0.46704792976379395 0.32560274004936218
0.81495457887649536 0.49541929364204407 0.34741595387458801
0.87345629930496216 0.53131294250488281 0.37127372622489929
0.93474406003952026 0.58115291595458984 0.41855871677398682
0.97739696502685547 0.64207369089126587 0.49085378646850586
0.99608868360519409 0.71340596675872803 0.58438169956207275
0.99970412254333496 0.78564757108688354 0.68804138898849487
1 0.87001794576644897 0.81402420997619629
1 0.94531553983688354 0.9295954704284668
0.91922128200531006 0.56449693441390991 0.40155237913131714
0.91791021823883057 0.56986141204833984 0.40967738628387451
0.93106132745742798 0.58081257343292236 0.42103305459022522
0.95006424188613892 0.59860944747924805 0.43943214416503906
0.95726394653320312 0.61770546436309814 0.46281653642654419
0.97007554769515991 0.64310050010681152 0.49378818273544312
0.98705685138702393 0.69338607788085938 0.55990290641784668
0.99679124355316162 0.75426650047302246 0.64306390285491943
0.99934321641921997 0.83044874668121338 0.7514299750328064
0.99998772144317627 0.91262906789779663 0.87351524829864502
1 0.95610731840133667 0.94551652669906616
1 0.9765937328338623 0.98116731643676758
1 0.98364681005477905 0.99566954374313354
0.99583929777145386 0.72761636972427368 0.61011028289794922
0.99583405256271362 0.74157965183258057 0.6262022852897644
0.9968075156211853 0.75863957405090332 0.64892196655273438
0.99859517812728882 0.78655785322189331 0.6873544454574585
0.99844789505004883 0.82044088840484619 0.73541003465652466
