assets/lut/picturefx goldfx perfect sunset 05min.cube
# Created by: G'MIC (https://gmic.eu)
TITLE "goldfx_perfect_sunset_05min"
# LUT size
LUT_3D_SIZE 5
# Data domain
DOMAIN_MIN 0.0 0.0 0.0
DOMAIN_MAX 1.0 1.0 1.0
# LUT data points
0.00013786765339318663 0.00069113337667658925 0.00049043545732274652
0.1174713596701622 0.0032917098142206669 0.0050336052663624287
0.32766807079315186 0 0
0.56964397430419922 0.00034538717591203749 0
0.86130315065383911 0 0
0.00024173212295863777 0.14789310097694397 0
0.14336578547954559 0.1483997255563736 0
0.35105776786804199 0.13864065706729889 0
0.59154456853866577 0.070607729256153107 0.00078042724635452032
0.88819438219070435 0.00012952019460499287 0
0 0.37214905023574829 0
0.045059576630592346 0.37253668904304504 3.3255182643188164e-05
0.35712730884552002 0.37745097279548645 0
0.6189950704574585 0.35760432481765747 0.0018653719453141093
0.89403504133224487 0.28588786721229553 0.00031756231328472495
0.0073607051745057106 0.63874465227127075 0.003355362918227911
7.0010915806051344e-05 0.64434534311294556 0.0080383894965052605
0.23024167120456696 0.6341482400894165 0.001218638732098043
0.57535338401794434 0.61960631608963013 0
0.84477365016937256 0.59140199422836304 6.1394188378471881e-05
0 0.87721949815750122 2.5850184101727791e-05
0 0.87549084424972534 0.0010208279127255082
0.04602445662021637 0.85767042636871338 0.00065147550776600838
0.54641330242156982 0.83377009630203247 0
0.77931153774261475 0.81127279996871948 0
0.006911812350153923 0.005015264730900526 0.10552824288606644
0.13951815664768219 0.00018382353300694376 0.14239220321178436
0.3538479208946228 0.0017555237282067537 0.15114578604698181
0.59863734245300293 0.0046461815945804119 0.11721813678741455
0.90652590990066528 0.00058109057135879993 0.090216480195522308
0.0013080372009426355 0.14893864095211029 0.148798868060112
0.13956041634082794 0.14352543652057648 0.14407362043857574
0.37333589792251587 0.09787304699420929 0.11802968382835388
0.62629085779190063 0.0084403688088059425 0.10187778621912003
0.91274499893188477 0.0012740041129291058 0.064444087445735931
0 0.37548118829727173 0.047053169459104538
0.016834303736686707 0.38054236769676208 0.026792174205183983
0.36484578251838684 0.37641018629074097 0.034800317138433456
0.63091123104095459 0.34723985195159912 0.0095120752230286598
0.89507639408111572 0.27741867303848267 3.0697094189235941e-05
0.0019759233109652996 0.64747524261474609 1.6156365063579869e-06
0.001674592262133956 0.65003710985183716 0.00024469412164762616
0.19295845925807953 0.63270163536071777 0
0.57723045349121094 0.61585479974746704 0.00010456758172949776
0.84936320781707764 0.58212816715240479 2.2618911316385493e-05
0.00045161528396420181 0.86868613958358765 0.01260039396584034
0.0060378429479897022 0.86592566967010498 0.0046143624931573868
0.037557147443294525 0.85502821207046509 0.0099228201434016228
0.53515064716339111 0.83316338062286377 0.0031874412670731544
0.78336411714553833 0.8099062442779541 0
0.0011028663720935583 0.0068694916553795338 0.57401841878890991
0.15720348060131073 0 0.57080966234207153
0.52086794376373291 0 0.56474381685256958
0.88829630613327026 0 0.52894258499145508
0.99912667274475098 0.0094219734892249107 0.47252944111824036
0 0.19992288947105408 0.59926354885101318
0.10739043354988098 0.17067457735538483 0.58797740936279297
0.55017220973968506 0.080450631678104401 0.57226502895355225
0.9088127613067627 0.00091953651281073689 0.5168231725692749
1 0.0064337784424424171 0.44556647539138794
7.880715565988794e-05 0.53681635856628418 0.54894047975540161
9.6938192655215971e-06 0.53136235475540161 0.54304653406143188
0.48587679862976074 0.4947378933429718 0.4958149790763855
0.88453537225723267 0.39747020602226257 0.41460001468658447
0.99926543235778809 0.31463614106178284 0.36132785677909851
0 0.8297542929649353 0.3819749653339386
0.0011648739455267787 0.83027535676956177 0.34313806891441345
0.20549537241458893 0.80692917108535767 0.25407177209854126
0.75371861457824707 0.76133376359939575 0.2191479355096817
0.99337631464004517 0.70766109228134155 0.23337292671203613
0 0.99470645189285278 0.10501980036497116
0.01262613944709301 0.98355376720428467 0.16010235249996185
0.086318552494049072 0.97951328754425049 0.086857602000236511
0.64571166038513184 0.9622185230255127 0.083065807819366455
0.93611520528793335 0.93295168876647949 0.016062702983617783
0 0 1
0.030177516862750053 0.00033739875652827322 1
0.67660188674926758 0.0051751676946878433 0.99966531991958618
0.99942749738693237 0 0.99812585115432739
1 0 0.98240506649017334
0.0055024093016982079 0.20865632593631744 0.99934154748916626
0.10155714303255081 0.11627563834190369 0.99980819225311279
0.6612357497215271 0.017342422157526016 0.9993705153465271
0.99662673473358154 0 0.98790460824966431
0.99987053871154785 0 0.95711898803710938
0.0019921245984733105 0.59982043504714966 0.99961793422698975
0 0.5748324990272522 0.99736243486404419
0.521575927734375 0.49745404720306396 0.98807626962661743
0.94523513317108154 0.41028746962547302 0.94784450531005859
1 0.2818581759929657 0.86068034172058105
0 0.90312492847442627 0.91156011819839478
0.0093641094863414764 0.89832723140716553 0.90459787845611572
0.15769003331661224 0.86439162492752075 0.87277781963348389
0.81220406293869019 0.80315274000167847 0.80129885673522949
0.9999842643737793 0.71461331844329834 0.71782618761062622
0.00010735006799222901 1 0.73951160907745361
0.00091018679086118937 1 0.722697913646698
0.025617770850658417 1 0.67978042364120483
0.62641102075576782 0.99938702583312988 0.61592954397201538
0.97550445795059204 0.97626626491546631 0.52934020757675171
0 0 1
0.21932195127010345 0.0050715277902781963 0.9998856782913208
0.63936585187911987 0.00068084115628153086 1
0.97014760971069336 0.00056436576414853334 0.99801814556121826
1 0 1
0.00035719029256142676 0.11842233687639236 1
0.33151417970657349 0.070267423987388611 0.99987000226974487
0.65681314468383789 0.0094468956813216209 1
0.96859145164489746 0 1
1 0 1
0.0012579525355249643 0.50860023498535156 1
0.096869416534900665 0.49606072902679443 0.9984239935874939
0.57393819093704224 0.44252750277519226 1
0.90808093547821045 0.34399813413619995 0.9996877908706665
1 0.24973329901695251 1
0 0.82202017307281494 1
9.4110822828952223e-05 0.80846041440963745 1
0.093971461057662964 0.76681995391845703 1
0.72236311435699463 0.69703584909439087 1
0.99899506568908691 0.63307434320449829 0.99970418214797974
0 0.99840044975280762 0.9794500470161438
8.1140853581018746e-05 0.99616080522537231 0.98876672983169556
0.077530413866043091 0.98764675855636597 0.9858439564704895
0.51546657085418701 0.96634900569915771 0.9625210165977478
0.92639976739883423 0.92619401216506958 0.9249538779258728
