assets/lut/picturefx faux infrared bw 1.cube
# Created by: G'MIC (https://gmic.eu)
TITLE "faux_infrared_bw_1"
# LUT size
LUT_3D_SIZE 7
# Data domain
DOMAIN_MIN 0.0 0.0 0.0
DOMAIN_MAX 1.0 1.0 1.0
# LUT data points
0.094137303531169891 0.094137303531169891 0.094137303531169891
0.34697797894477844 0.34697797894477844 0.34697797894477844
0.61739373207092285 0.61739373207092285 0.61739373207092285
0.89762181043624878 0.89762181043624878 0.89762181043624878
0.94931042194366455 0.94931042194366455 0.94931042194366455
0.96157592535018921 0.96157592535018921 0.96157592535018921
0.97696220874786377 0.97696220874786377 0.97696220874786377
0.32162600755691528 0.32162600755691528 0.32162600755691528
0.62631940841674805 0.62631940841674805 0.62631940841674805
0.60148113965988159 0.60148113965988159 0.60148113965988159
0.87093210220336914 0.87093210220336914 0.87093210220336914
0.93492382764816284 0.93492382764816284 0.93492382764816284
0.96027958393096924 0.96027958393096924 0.96027958393096924
0.96828740835189819 0.96828740835189819 0.96828740835189819
0.61551749706268311 0.61551749706268311 0.61551749706268311
0.85163211822509766 0.85163211822509766 0.85163211822509766
0.89013218879699707 0.89013218879699707 0.89013218879699707
0.85320931673049927 0.85320931673049927 0.85320931673049927
0.92559987306594849 0.92559987306594849 0.92559987306594849
0.95821577310562134 0.95821577310562134 0.95821577310562134
0.96094292402267456 0.96094292402267456 0.96094292402267456
0.82366174459457397 0.82366174459457397 0.82366174459457397
0.94039559364318848 0.94039559364318848 0.94039559364318848
0.98391187191009521 0.98391187191009521 0.98391187191009521
0.95979166030883789 0.95979166030883789 0.95979166030883789
0.92059516906738281 0.92059516906738281 0.92059516906738281
0.9615446925163269 0.9615446925163269 0.9615446925163269
0.97327244281768799 0.97327244281768799 0.97327244281768799
0.9675368070602417 0.9675368070602417 0.9675368070602417
0.9828033447265625 0.9828033447265625 0.9828033447265625
0.9843137264251709 0.9843137264251709 0.9843137264251709
0.98351025581359863 0.98351025581359863 0.98351025581359863
0.93858671188354492 0.93858671188354492 0.93858671188354492
0.97634381055831909 0.97634381055831909 0.97634381055831909
0.98905521631240845 0.98905521631240845 0.98905521631240845
0.98542803525924683 0.98542803525924683 0.98542803525924683
0.98431450128555298 0.98431450128555298 0.98431450128555298
0.98424059152603149 0.98424059152603149 0.98424059152603149
0.98095071315765381 0.98095071315765381 0.98095071315765381
0.97679281234741211 0.97679281234741211 0.97679281234741211
0.95006072521209717 0.95006072521209717 0.95006072521209717
0.95594966411590576 0.95594966411590576 0.95594966411590576
0.9892541766166687 0.9892541766166687 0.9892541766166687
0.98563730716705322 0.98563730716705322 0.98563730716705322
0.98352652788162231 0.98352652788162231 0.98352652788162231
0.98039215803146362 0.98039215803146362 0.98039215803146362
0.98346138000488281 0.98346138000488281 0.98346138000488281
0.97835063934326172 0.97835063934326172 0.97835063934326172
0.97447353601455688 0.97447353601455688 0.97447353601455688
0.12636949121952057 0.12636949121952057 0.12636949121952057
0.35004094243049622 0.35004094243049622 0.35004094243049622
0.62259268760681152 0.62259268760681152 0.62259268760681152
0.89959263801574707 0.89959263801574707 0.89959263801574707
0.95969033241271973 0.95969033241271973 0.95969033241271973
0.97277486324310303 0.97277486324310303 0.97277486324310303
0.98028749227523804 0.98028749227523804 0.98028749227523804
0.019574766978621483 0.019574766978621483 0.019574766978621483
0.39473038911819458 0.39473038911819458 0.39473038911819458
0.59353786706924438 0.59353786706924438 0.59353786706924438
0.87885850667953491 0.87885850667953491 0.87885850667953491
0.94577765464782715 0.94577765464782715 0.94577765464782715
0.96550232172012329 0.96550232172012329 0.96550232172012329
0.97456437349319458 0.97456437349319458 0.97456437349319458
0.25054997205734253 0.25054997205734253 0.25054997205734253
0.70402467250823975 0.70402467250823975 0.70402467250823975
0.82248497009277344 0.82248497009277344 0.82248497009277344
0.84773468971252441 0.84773468971252441 0.84773468971252441
0.92159461975097656 0.92159461975097656 0.92159461975097656
0.9580150842666626 0.9580150842666626 0.9580150842666626
0.96823859214782715 0.96823859214782715 0.96823859214782715
0.65610331296920776 0.65610331296920776 0.65610331296920776
0.85853469371795654 0.85853469371795654 0.85853469371795654
0.98121225833892822 0.98121225833892822 0.98121225833892822
0.94740504026412964 0.94740504026412964 0.94740504026412964
0.92896360158920288 0.92896360158920288 0.92896360158920288
0.96203601360321045 0.96203601360321045 0.96203601360321045
0.97894096374511719 0.97894096374511719 0.97894096374511719
0.88696485757827759 0.88696485757827759 0.88696485757827759
0.96912473440170288 0.96912473440170288 0.96912473440170288
0.9832686185836792 0.9832686185836792 0.9832686185836792
0.9805607795715332 0.9805607795715332 0.9805607795715332
0.93740051984786987 0.93740051984786987 0.93740051984786987
0.98058474063873291 0.98058474063873291 0.98058474063873291
0.99113291501998901 0.99113291501998901 0.99113291501998901
0.98145854473114014 0.98145854473114014 0.98145854473114014
0.97686028480529785 0.97686028480529785 0.97686028480529785
0.98398864269256592 0.98398864269256592 0.98398864269256592
0.98526805639266968 0.98526805639266968 0.98526805639266968
0.97221451997756958 0.97221451997756958 0.97221451997756958
0.95740485191345215 0.95740485191345215 0.95740485191345215
0.96280038356781006 0.96280038356781006 0.96280038356781006
0.98671996593475342 0.98671996593475342 0.98671996593475342
0.98096936941146851 0.98096936941146851 0.98096936941146851
0.98039215803146362 0.98039215803146362 0.98039215803146362
0.97706812620162964 0.97706812620162964 0.97706812620162964
0.98017036914825439 0.98017036914825439 0.98017036914825439
0.97246044874191284 0.97246044874191284 0.97246044874191284
0.97290700674057007 0.97290700674057007 0.97290700674057007
0.23332619667053223 0.23332619667053223 0.23332619667053223
0.37064856290817261 0.37064856290817261 0.37064856290817261
0.62590020895004272 0.62590020895004272 0.62590020895004272
0.90225976705551147 0.90225976705551147 0.90225976705551147
0.98401415348052979 0.98401415348052979 0.98401415348052979
0.98039525747299194 0.98039525747299194 0.98039525747299194
0.98227536678314209 0.98227536678314209 0.98227536678314209
0.064762100577354431 0.064762100577354431 0.064762100577354431
0.28871586918830872 0.28871586918830872 0.28871586918830872
0.58585649728775024 0.58585649728775024 0.58585649728775024
0.88190209865570068 0.88190209865570068 0.88190209865570068
0.97838336229324341 0.97838336229324341 0.97838336229324341
0.97925060987472534 0.97925060987472534 0.97925060987472534
0.98033672571182251 0.98033672571182251 0.98033672571182251
0.020211223512887955 0.020211223512887955 0.020211223512887955
0.1953081488609314 0.1953081488609314 0.1953081488609314
0.64580798149108887 0.64580798149108887 0.64580798149108887
0.83338242769241333 0.83338242769241333 0.83338242769241333
0.94262611865997314 0.94262611865997314 0.94262611865997314
0.96867698431015015 0.96867698431015015 0.96867698431015015
0.97794210910797119 0.97794210910797119 0.97794210910797119
0.15943141281604767 0.15943141281604767 0.15943141281604767
0.51204633712768555 0.51204633712768555 0.51204633712768555
0.934764564037323 0.934764564037323 0.934764564037323
0.94135493040084839 0.94135493040084839 0.94135493040084839
0.92995369434356689 0.92995369434356689 0.92995369434356689
0.96769195795059204 0.96769195795059204 0.96769195795059204
0.98544442653656006 0.98544442653656006 0.98544442653656006
0.60194176435470581 0.60194176435470581 0.60194176435470581
0.81136924028396606 0.81136924028396606 0.81136924028396606
0.98407340049743652 0.98407340049743652 0.98407340049743652
0.98279666900634766 0.98279666900634766 0.98279666900634766
0.93785220384597778 0.93785220384597778 0.93785220384597778
0.98671430349349976 0.98671430349349976 0.98671430349349976
0.99393069744110107 0.99393069744110107 0.99393069744110107
0.88455718755722046 0.88455718755722046 0.88455718755722046
0.96231734752655029 0.96231734752655029 0.96231734752655029
0.9828980565071106 0.9828980565071106 0.9828980565071106
0.98222082853317261 0.98222082853317261 0.98222082853317261
0.97860151529312134 0.97860151529312134 0.97860151529312134
0.96657449007034302 0.96657449007034302 0.96657449007034302
0.96875983476638794 0.96875983476638794 0.96875983476638794
0.98400413990020752 0.98400413990020752 0.98400413990020752
0.98331332206726074 0.98331332206726074 0.98331332206726074
0.98168742656707764 0.98168742656707764 0.98168742656707764
0.97765368223190308 0.97765368223190308 0.97765368223190308
0.9820626974105835 0.9820626974105835 0.9820626974105835
0.96333926916122437 0.96333926916122437 0.96333926916122437
0.95901411771774292 0.95901411771774292 0.95901411771774292
0.34259924292564392 0.34259924292564392 0.34259924292564392
0.4392717182636261 0.4392717182636261 0.4392717182636261
0.62040674686431885 0.62040674686431885 0.62040674686431885
0.89101022481918335 0.89101022481918335 0.89101022481918335
0.97966569662094116 0.97966569662094116 0.97966569662094116
0.98396223783493042 0.98396223783493042 0.98396223783493042
0.98401498794555664 0.98401498794555664 0.98401498794555664
0.23770895600318909 0.23770895600318909 0.23770895600318909
0.36263930797576904 0.36263930797576904 0.36263930797576904
0.58233416080474854 0.58233416080474854 0.58233416080474854
0.88104104995727539 0.88104104995727539 0.88104104995727539
0.98270153999328613 0.98270153999328613 0.98270153999328613
0.98458331823348999 0.98458331823348999 0.98458331823348999
0.9843137264251709 0.9843137264251709 0.9843137264251709
0.034231703728437424 0.034231703728437424 0.034231703728437424
0.13861700892448425 0.13861700892448425 0.13861700892448425
0.49498718976974487 0.49498718976974487 0.49498718976974487
0.83072668313980103 0.83072668313980103 0.83072668313980103
0.98432284593582153 0.98432284593582153 0.98432284593582153
0.98662066459655762 0.98662066459655762 0.98662066459655762
0.98627448081970215 0.98627448081970215 0.98627448081970215
0.044888783246278763 0.044888783246278763 0.044888783246278763
0.067502006888389587 0.067502006888389587 0.067502006888389587
0.51828950643539429 0.51828950643539429 0.51828950643539429
0.84558951854705811 0.84558951854705811 0.84558951854705811
0.95745909214019775 0.95745909214019775 0.95745909214019775
0.9863315224647522 0.9863315224647522 0.9863315224647522
0.98877012729644775 0.98877012729644775 0.98877012729644775
0.11814635246992111 0.11814635246992111 0.11814635246992111
0.29840028285980225 0.29840028285980225 0.29840028285980225
0.77621591091156006 0.77621591091156006 0.77621591091156006
0.97365683317184448 0.97365683317184448 0.97365683317184448
0.94361418485641479 0.94361418485641479 0.94361418485641479
0.99322700500488281 0.99322700500488281 0.99322700500488281
0.99348026514053345 0.99348026514053345 0.99348026514053345
0.45093515515327454 0.45093515515327454 0.45093515515327454
0.64665466547012329 0.64665466547012329 0.64665466547012329
0.94022572040557861 0.94022572040557861 0.94022572040557861
0.98134410381317139 0.98134410381317139 0.98134410381317139
0.96622997522354126 0.96622997522354126 0.96622997522354126
0.97297912836074829 0.97297912836074829 0.97297912836074829
0.97646486759185791 0.97646486759185791 0.97646486759185791
0.79790133237838745 0.79790133237838745 0.79790133237838745
0.90126460790634155 0.90126460790634155 0.90126460790634155
0.97951453924179077 0.97951453924179077 0.97951453924179077
0.98080193996429443 0.98080193996429443 0.98080193996429443
0.98450136184692383 0.98450136184692383 0.98450136184692383
0.96469300985336304 0.96469300985336304 0.96469300985336304
0.96450769901275635 0.96450769901275635 0.96450769901275635
0.44604143500328064 0.44604143500328064 0.44604143500328064
0.52267134189605713 0.52267134189605713 0.52267134189605713
0.6729082465171814 0.6729082465171814 0.6729082465171814
0.8657718300819397 0.8657718300819397 0.8657718300819397
0.96318322420120239 0.96318322420120239 0.96318322420120239
0.97684592008590698 0.97684592008590698 0.97684592008590698
0.98051118850708008 0.98051118850708008 0.98051118850708008
0.3691810667514801 0.3691810667514801 0.3691810667514801
0.4733588695526123 0.4733588695526123 0.4733588695526123
0.63594907522201538 0.63594907522201538 0.63594907522201538
0.87171489000320435 0.87171489000320435 0.87171489000320435
0.95945096015930176 0.95945096015930176 0.95945096015930176
0.97943943738937378 0.97943943738937378 0.97943943738937378
0.9826587438583374 0.9826587438583374 0.9826587438583374
0.1615932434797287 0.1615932434797287 0.1615932434797287
0.31723195314407349 0.31723195314407349 0.31723195314407349
0.53756123781204224 0.53756123781204224 0.53756123781204224
0.81087225675582886 0.81087225675582886 0.81087225675582886
0.97106838226318359 0.97106838226318359 0.97106838226318359
0.98809564113616943 0.98809564113616943 0.98809564113616943
0.98795986175537109 0.98795986175537109 0.98795986175537109
0.062337283045053482 0.062337283045053482 0.062337283045053482
0.067763097584247589 0.067763097584247589 0.067763097584247589
0.29047948122024536 0.29047948122024536 0.29047948122024536
0.72094720602035522 0.72094720602035522 0.72094720602035522
0.9825596809387207 0.9825596809387207 0.9825596809387207
0.98819833993911743 0.98819833993911743 0.98819833993911743
0.98821663856506348 0.98821663856506348 0.98821663856506348
0.073128722608089447 0.073128722608089447 0.073128722608089447
0.07860807329416275 0.07860807329416275 0.07860807329416275
0.2403479665517807 0.2403479665517807 0.2403479665517807
0.76118189096450806 0.76118189096450806 0.76118189096450806
0.95389211177825928 0.95389211177825928 0.95389211177825928
0.99118548631668091 0.99118548631668091 0.99118548631668091
0.99227279424667358 0.99227279424667358 0.99227279424667358
0.094538532197475433 0.094538532197475433 0.094538532197475433
0.16112500429153442 0.16112500429153442 0.16112500429153442
0.4902675449848175 0.4902675449848175 0.4902675449848175
0.93588346242904663 0.93588346242904663 0.93588346242904663
0.95344662666320801 0.95344662666320801 0.95344662666320801
0.98447847366333008 0.98447847366333008 0.98447847366333008
0.9885554313659668 0.9885554313659668 0.9885554313659668
0.34143790602684021 0.34143790602684021 0.34143790602684021
0.47168314456939697 0.47168314456939697 0.47168314456939697
0.75229108333587646 0.75229108333587646 0.75229108333587646
0.97885560989379883 0.97885560989379883 0.97885560989379883
0.98335093259811401 0.98335093259811401 0.98335093259811401
0.94467747211456299 0.94467747211456299 0.94467747211456299
0.94561213254928589 0.94561213254928589 0.94561213254928589
0.5463336706161499 0.5463336706161499 0.5463336706161499
0.60788607597351074 0.60788607597351074 0.60788607597351074
0.73674577474594116 0.73674577474594116 0.73674577474594116
0.85929012298583984 0.85929012298583984 0.85929012298583984
0.94775724411010742 0.94775724411010742 0.94775724411010742
0.98821347951889038 0.98821347951889038 0.98821347951889038
0.98435848951339722 0.98435848951339722 0.98435848951339722
0.50395476818084717 0.50395476818084717 0.50395476818084717
0.5714607834815979 0.5714607834815979 0.5714607834815979
0.6967470645904541 0.6967470645904541 0.6967470645904541
0.84912431240081787 0.84912431240081787 0.84912431240081787
0.94817900657653809 0.94817900657653809 0.94817900657653809
0.98416876792907715 0.98416876792907715 0.98416876792907715
0.984294593334198 0.984294593334198 0.984294593334198
0.36976101994514465 0.36976101994514465 0.36976101994514465
0.45536091923713684 0.45536091923713684 0.45536091923713684
0.60328209400177002 0.60328209400177002 0.60328209400177002
0.81383955478668213 0.81383955478668213 0.81383955478668213
0.94632267951965332 0.94632267951965332 0.94632267951965332
0.9843137264251709 0.9843137264251709 0.9843137264251709
0.9843137264251709 0.9843137264251709 0.9843137264251709
0.08492569625377655 0.08492569625377655 0.08492569625377655
0.16004034876823425 0.16004034876823425 0.16004034876823425
0.42179617285728455 0.42179617285728455 0.42179617285728455
0.7178770899772644 0.7178770899772644 0.7178770899772644
0.96287566423416138 0.96287566423416138 0.96287566423416138
0.98686009645462036 0.98686009645462036 0.98686009645462036
0.98751199245452881 0.98751199245452881 0.98751199245452881
0.090864531695842743 0.090864531695842743 0.090864531695842743
0.094615697860717773 0.094615697860717773 0.094615697860717773
0.10747712105512619 0.10747712105512619 0.10747712105512619
0.51827561855316162 0.51827561855316162 0.51827561855316162
0.94780141115188599 0.94780141115188599 0.94780141115188599
0.99193960428237915 0.99193960428237915 0.99193960428237915
0.99439620971679688 0.99439620971679688 0.99439620971679688
0.10427108407020569 0.10427108407020569 0.10427108407020569
0.10840585827827454 0.10840585827827454 0.10840585827827454
0.13099588453769684 0.13099588453769684 0.13099588453769684
0.57140451669692993 0.57140451669692993 0.57140451669692993
0.89587414264678955 0.89587414264678955 0.89587414264678955
0.99112582206726074 0.99112582206726074 0.99112582206726074
0.99141508340835571 0.99141508340835571 0.99141508340835571
0.11348380148410797 0.11348380148410797 0.11348380148410797
0.12750576436519623 0.12750576436519623 0.12750576436519623
0.33172887563705444 0.33172887563705444 0.33172887563705444
0.74569618701934814 0.74569618701934814 0.74569618701934814
0.98221975564956665 0.98221975564956665 0.98221975564956665
0.93280559778213501 0.93280559778213501 0.93280559778213501
0.93941223621368408 0.93941223621368408 0.93941223621368408
0.64917010068893433 0.64917010068893433 0.64917010068893433
0.69949579238891602 0.69949579238891602 0.69949579238891602
0.80363410711288452 0.80363410711288452 0.80363410711288452
0.85929638147354126 0.85929638147354126 0.85929638147354126
0.8905106782913208 0.8905106782913208 0.8905106782913208
0.97928249835968018 0.97928249835968018 0.97928249835968018
0.98588645458221436 0.98588645458221436 0.98588645458221436
0.61298179626464844 0.61298179626464844 0.61298179626464844
0.65494954586029053 0.65494954586029053 0.65494954586029053
0.77536898851394653 0.77536898851394653 0.77536898851394653
0.85621839761734009 0.85621839761734009 0.85621839761734009
0.89385759830474854 0.89385759830474854 0.89385759830474854
0.96945476531982422 0.96945476531982422 0.96945476531982422
0.9803968071937561 0.9803968071937561 0.9803968071937561
0.51017874479293823 0.51017874479293823 0.51017874479293823
0.57849562168121338 0.57849562168121338 0.57849562168121338
0.69545936584472656 0.69545936584472656 0.69545936584472656
0.84251981973648071 0.84251981973648071 0.84251981973648071
0.89605700969696045 0.89605700969696045 0.89605700969696045
0.98650658130645752 0.98650658130645752 0.98650658130645752
0.98409855365753174 0.98409855365753174 0.98409855365753174
0.24833856523036957 0.24833856523036957 0.24833856523036957
0.36304458975791931 0.36304458975791931 0.36304458975791931
0.55673658847808838 0.55673658847808838 0.55673658847808838
0.78660184144973755 0.78660184144973755 0.78660184144973755
0.90598505735397339 0.90598505735397339 0.90598505735397339
0.9918251633644104 0.9918251633644104 0.9918251633644104
0.99230855703353882 0.99230855703353882 0.99230855703353882
0.10970313847064972 0.10970313847064972 0.10970313847064972
0.10844152420759201 0.10844152420759201 0.10844152420759201
0.20408496260643005 0.20408496260643005 0.20408496260643005
0.57494455575942993 0.57494455575942993 0.57494455575942993
0.89451676607131958 0.89451676607131958 0.89451676607131958
0.99460995197296143 0.99460995197296143 0.99460995197296143
0.99607843160629272 0.99607843160629272 0.99607843160629272
0.11970732361078262 0.11970732361078262 0.11970732361078262
0.11811310797929764 0.11811310797929764 0.11811310797929764
0.12333092838525772 0.12333092838525772 0.12333092838525772
0.21016265451908112 0.21016265451908112 0.21016265451908112
0.7941470742225647 0.7941470742225647 0.7941470742225647
0.99203670024871826 0.99203670024871826 0.99203670024871826
0.99584931135177612 0.99584931135177612 0.99584931135177612
0.1232144683599472 0.1232144683599472 0.1232144683599472
0.12325200438499451 0.12325200438499451 0.12325200438499451
0.12856586277484894 0.12856586277484894 0.12856586277484894
0.31888386607170105 0.31888386607170105 0.31888386607170105
0.75978976488113403 0.75978976488113403 0.75978976488113403
0.92664694786071777 0.92664694786071777 0.92664694786071777
0.9368254542350769 0.9368254542350769 0.9368254542350769
