assets/lut/picturefx goldfx bright spring breeze.cube
# Created by: G'MIC (https://gmic.eu)
TITLE "goldfx_bright_spring_breeze"
# LUT size
LUT_3D_SIZE 7
# Data domain
DOMAIN_MIN 0.0 0.0 0.0
DOMAIN_MAX 1.0 1.0 1.0
# LUT data points
0.039728499948978424 0.057051416486501694 0.053452316671609879
0.1246337890625 0.065468810498714447 0.050278037786483765
0.29001876711845398 0.07398427277803421 0.059172358363866806
0.46739643812179565 0.068328812718391418 0.068284966051578522
0.64623165130615234 0.064659595489501953 0.072939582169055939
0.80659359693527222 0.099897168576717377 0.085417680442333221
0.96913933753967285 0.21917331218719482 0.12936882674694061
0.04605470597743988 0.19143298268318176 0.073001548647880554
0.13864691555500031 0.19669283926486969 0.070809982717037201
0.33693417906761169 0.20183834433555603 0.078849747776985168
0.52268749475479126 0.20764240622520447 0.088006250560283661
0.69346755743026733 0.21589852869510651 0.099487200379371643
0.8344007134437561 0.22878649830818176 0.10388870537281036
0.9813152551651001 0.31195709109306335 0.1492009311914444
0.082955077290534973 0.34473809599876404 0.091176979243755341
0.1306755393743515 0.34618967771530151 0.094929024577140808
0.33909881114959717 0.35978847742080688 0.073845803737640381
0.54334121942520142 0.37252047657966614 0.087206728756427765
0.74406880140304565 0.40390560030937195 0.12482175976037979
0.87876898050308228 0.42261514067649841 0.14333716034889221
0.98907709121704102 0.47266313433647156 0.18877984583377838
0.11883090436458588 0.47555685043334961 0.11199825257062912
0.14827023446559906 0.4807124137878418 0.12290240824222565
0.31924086809158325 0.48252168297767639 0.11253002285957336
0.50030618906021118 0.49360242486000061 0.10207591205835342
0.69221353530883789 0.51217085123062134 0.10833232849836349
0.88104790449142456 0.57739138603210449 0.15639476478099823
0.99316054582595825 0.63459444046020508 0.24083174765110016
0.16743661463260651 0.61948138475418091 0.12921740114688873
0.2074538916349411 0.62548351287841797 0.14119091629981995
0.33263856172561646 0.61498808860778809 0.14336921274662018
0.49613749980926514 0.63347399234771729 0.14393408596515656
0.6663023829460144 0.64952248334884644 0.14728012681007385
0.82648682594299316 0.66987448930740356 0.14799557626247406
0.99358850717544556 0.76702648401260376 0.20333562791347504
0.26826441287994385 0.80677038431167603 0.18349134922027588
0.33354800939559937 0.81705093383789062 0.20862700045108795
0.41895925998687744 0.80564188957214355 0.2017533928155899
0.55426424741744995 0.81709259748458862 0.20933298766613007
0.70486092567443848 0.82366418838500977 0.20856678485870361
0.86266541481018066 0.84925371408462524 0.21387213468551636
0.98910009860992432 0.88054966926574707 0.22611194849014282
0.61168617010116577 0.99414873123168945 0.39063432812690735
0.64556699991226196 0.99346369504928589 0.40854048728942871
0.72810536623001099 0.99535638093948364 0.41760551929473877
0.82031482458114624 0.99741888046264648 0.41814222931861877
0.94148445129394531 0.99659842252731323 0.40962249040603638
0.99228119850158691 0.98846143484115601 0.40366926789283752
0.99985766410827637 0.97647058963775635 0.41282773017883301
0.019365886226296425 0.077048763632774353 0.15016619861125946
0.11138289421796799 0.09082552045583725 0.16927869617938995
0.30053684115409851 0.094903089106082916 0.1703580915927887
0.48093044757843018 0.079094231128692627 0.16792149841785431
0.65947461128234863 0.087850950658321381 0.1668955385684967
0.80389976501464844 0.09709872305393219 0.16277222335338593
0.96489471197128296 0.2074221670627594 0.19467261433601379
0.046509042382240295 0.2189343124628067 0.18689772486686707
0.1435084193944931 0.21541666984558105 0.19989480078220367
0.34968471527099609 0.20383529365062714 0.19089719653129578
0.52944517135620117 0.20211058855056763 0.19355106353759766
0.69206357002258301 0.19780029356479645 0.18073537945747375
0.82968407869338989 0.21249666810035706 0.1824251264333725
0.97506928443908691 0.28115037083625793 0.20320144295692444
0.089970864355564117 0.38134866952896118 0.20082263648509979
0.13826583325862885 0.38533422350883484 0.20282603800296783
0.36202666163444519 0.37656992673873901 0.18134041130542755
0.56569039821624756 0.38282451033592224 0.18656599521636963
0.74737358093261719 0.39953440427780151 0.2107197642326355
0.88084709644317627 0.4140067994594574 0.21049191057682037
0.98856329917907715 0.45535281300544739 0.24138569831848145
0.12055747956037521 0.49866864085197449 0.18602928519248962
0.16020727157592773 0.51029211282730103 0.1944330632686615
0.32699429988861084 0.50301158428192139 0.18438524007797241
0.51180237531661987 0.50466597080230713 0.14792376756668091
0.70768982172012329 0.52277070283889771 0.16086535155773163
0.88939023017883301 0.58259624242782593 0.22073675692081451
0.9948117733001709 0.63310307264328003 0.28633520007133484
0.17221006751060486 0.63707566261291504 0.17108830809593201
0.20113569498062134 0.64582663774490356 0.18087208271026611
0.33120638132095337 0.63196295499801636 0.18512043356895447
0.4923730194568634 0.63603788614273071 0.16412164270877838
0.66443699598312378 0.64566761255264282 0.14840990304946899
0.83284282684326172 0.6752057671546936 0.15997794270515442
0.99310553073883057 0.7687610387802124 0.2381276935338974
0.27895686030387878 0.82169866561889648 0.20599170029163361
0.31814852356910706 0.83497327566146851 0.21382728219032288
0.41228678822517395 0.81719982624053955 0.21066795289516449
0.54026299715042114 0.8064388632774353 0.2077476978302002
0.6979604959487915 0.82391822338104248 0.20684139430522919
0.85763847827911377 0.84602648019790649 0.21422545611858368
0.9904976487159729 0.88444018363952637 0.2293439507484436
0.62109619379043579 0.99654120206832886 0.39944100379943848
0.63572746515274048 0.99757713079452515 0.40600055456161499
0.7182195782661438 0.99642205238342285 0.41938865184783936
0.80913257598876953 0.99617713689804077 0.41764608025550842
0.93445593118667603 0.99788635969161987 0.408985435962677
0.99067491292953491 0.98713928461074829 0.40985232591629028
0.99932944774627686 0.97673660516738892 0.41772663593292236
0.024349616840481758 0.12792274355888367 0.3238568902015686
0.08137984573841095 0.13736817240715027 0.34039756655693054
0.31966695189476013 0.15853501856327057 0.35880875587463379
0.52710330486297607 0.18316899240016937 0.37613794207572937
0.7095305323600769 0.16960567235946655 0.37086713314056396
0.84500008821487427 0.1312592625617981 0.33220171928405762
0.97809553146362305 0.1930834949016571 0.33050858974456787
0.068616203963756561 0.26388758420944214 0.36354202032089233
0.1065451055765152 0.24916547536849976 0.3766215443611145
0.3703334629535675 0.26053977012634277 0.39763733744621277
0.5581246018409729 0.24923820793628693 0.39119622111320496
0.72006011009216309 0.20731480419635773 0.35367864370346069
0.85260862112045288 0.16618764400482178 0.32159996032714844
0.98166751861572266 0.23533384501934052 0.32394444942474365
0.10787699371576309 0.43009805679321289 0.39348357915878296
0.12888926267623901 0.43733730912208557 0.40378853678703308
0.39972242712974548 0.42825034260749817 0.42103731632232666
0.59921568632125854 0.38952115178108215 0.38431715965270996
0.7519562840461731 0.36822611093521118 0.35553699731826782
0.88247537612915039 0.37700548768043518 0.34738379716873169
0.98924201726913452 0.41740372776985168 0.35753902792930603
0.14495518803596497 0.57803446054458618 0.35925120115280151
0.15183500945568085 0.58004617691040039 0.35797446966171265
0.33495992422103882 0.55929452180862427 0.35617423057556152
0.55662250518798828 0.54634153842926025 0.33104977011680603
0.75987690687179565 0.56251996755599976 0.34924805164337158
0.91079545021057129 0.58819633722305298 0.37701377272605896
0.99432706832885742 0.61199945211410522 0.39987364411354065
0.1846403032541275 0.69536250829696655 0.32154881954193115
0.19944670796394348 0.69972771406173706 0.32107827067375183
0.3290134072303772 0.68187165260314941 0.31715944409370422
0.49571168422698975 0.66070914268493652 0.28690525889396667
0.69318127632141113 0.67966043949127197 0.26308673620223999
0.86353415250778198 0.70081460475921631 0.26958462595939636
0.99666094779968262 0.78628003597259521 0.39342892169952393
0.27325603365898132 0.84415823221206665 0.29818850755691528
0.29502007365226746 0.8575366735458374 0.30887711048126221
0.39968129992485046 0.85233926773071289 0.31259298324584961
0.52677345275878906 0.8260350227355957 0.28059694170951843
0.69483298063278198 0.83390825986862183 0.25229161977767944
0.86693006753921509 0.85494828224182129 0.23631936311721802
0.9918789267539978 0.89438939094543457 0.26311978697776794
0.58457517623901367 0.99532794952392578 0.45336729288101196
0.60885757207870483 0.99626666307449341 0.46919280290603638
0.66690635681152344 0.9972270131111145 0.47303023934364319
0.78563380241394043 0.99772727489471436 0.47531816363334656
0.92807447910308838 0.99768078327178955 0.46650528907775879
0.99063330888748169 0.98632025718688965 0.46326702833175659
0.99973142147064209 0.97864824533462524 0.44772571325302124
0.029789300635457039 0.19811812043190002 0.50967866182327271
0.061518441885709763 0.19299618899822235 0.52289390563964844
0.32040351629257202 0.22133666276931763 0.55480331182479858
0.56436645984649658 0.24704326689243317 0.57293933629989624
0.73313063383102417 0.27947938442230225 0.57824718952178955
0.88564115762710571 0.33591285347938538 0.58546543121337891
0.99076032638549805 0.34276428818702698 0.5679246187210083
0.082969799637794495 0.31235423684120178 0.53772139549255371
0.099672324955463409 0.30010432004928589 0.55857867002487183
0.34126931428909302 0.30448752641677856 0.58529895544052124
0.58649832010269165 0.31651946902275085 0.59552466869354248
0.74502813816070557 0.32611817121505737 0.58576542139053345
0.88730084896087646 0.34289407730102539 0.57706964015960693
0.97686982154846191 0.32504346966743469 0.54467082023620605
0.11913321912288666 0.46943974494934082 0.55801159143447876
0.13720813393592834 0.47571513056755066 0.57207655906677246
0.33879870176315308 0.4521944522857666 0.60689926147460938
0.62308955192565918 0.4698868989944458 0.63211780786514282
0.78112494945526123 0.45985192060470581 0.60333585739135742
0.89275139570236206 0.41178196668624878 0.54856377840042114
0.98594850301742554 0.38469016551971436 0.51374512910842896
0.15639001131057739 0.62447655200958252 0.58001112937927246
0.16762079298496246 0.63299429416656494 0.58667832612991333
0.3160540759563446 0.63867318630218506 0.60074782371520996
0.60664719343185425 0.62667179107666016 0.61569672822952271
0.78828871250152588 0.58483272790908813 0.57094448804855347
0.90541452169418335 0.54741650819778442 0.5259242057800293
0.99553042650222778 0.55782461166381836 0.51534771919250488
0.21766816079616547 0.786903977394104 0.54726827144622803
0.22394226491451263 0.78835487365722656 0.54891121387481689
0.32121828198432922 0.78076863288879395 0.54728251695632935
0.50032705068588257 0.73004931211471558 0.49554246664047241
0.71794402599334717 0.71668928861618042 0.46405297517776489
0.89771205186843872 0.74045687913894653 0.49764952063560486
0.99836921691894531 0.79434061050415039 0.57740336656570435
0.27768486738204956 0.89952981472015381 0.48759472370147705
0.29247090220451355 0.91003072261810303 0.49466073513031006
0.34644410014152527 0.9066469669342041 0.48676598072052002
0.4973563551902771 0.86702090501785278 0.45120671391487122
0.66558372974395752 0.84249991178512573 0.39602583646774292
0.86161881685256958 0.8618277907371521 0.36849001049995422
0.99445921182632446 0.90246987342834473 0.40869304537773132
0.56941968202590942 0.9975014328956604 0.58301031589508057
0.59376442432403564 0.99797117710113525 0.59397286176681519
0.61624735593795776 0.99795067310333252 0.59292477369308472
0.72575706243515015 0.99490892887115479 0.57985329627990723
0.86601537466049194 0.99780130386352539 0.55182677507400513
0.98852443695068359 0.99110215902328491 0.55272626876831055
0.99984133243560791 0.97875237464904785 0.53522855043411255
0.027178520336747169 0.28403559327125549 0.6933785080909729
0.047222871333360672 0.27193334698677063 0.7075803279876709
0.24748526513576508 0.29118230938911438 0.72968852519989014
0.56152385473251343 0.33505555987358093 0.74762463569641113
0.75330406427383423 0.38990545272827148 0.75984197854995728
0.86376488208770752 0.42526021599769592 0.74963819980621338
0.98367047309875488 0.576316237449646 0.79202497005462646
0.090908080339431763 0.38465136289596558 0.71940237283706665
0.11099491268396378 0.36881431937217712 0.73846882581710815
0.26874455809593201 0.36141553521156311 0.74871504306793213
0.57579904794692993 0.39254170656204224 0.76094335317611694
0.76041948795318604 0.4263070821762085 0.76842254400253296
0.86768800020217896 0.44770678877830505 0.75308334827423096
0.98221087455749512 0.57339298725128174 0.78708845376968384
0.14113901555538177 0.53474527597427368 0.73227393627166748
0.15469974279403687 0.53740972280502319 0.74898767471313477
0.3084084689617157 0.50254899263381958 0.76319873332977295
0.58272981643676758 0.51997143030166626 0.7835996150970459
0.7820589542388916 0.56438535451889038 0.79659420251846313
0.88610988855361938 0.57542115449905396 0.78051966428756714
0.98894685506820679 0.64083623886108398 0.79993003606796265
0.16510875523090363 0.65867805480957031 0.73065674304962158
0.18553265929222107 0.6642993688583374 0.73839473724365234
0.28124994039535522 0.65910154581069946 0.75227564573287964
0.55945116281509399 0.65030723810195923 0.78703856468200684
0.79501223564147949 0.70274049043655396 0.81865406036376953
0.90506410598754883 0.69259375333786011 0.80012673139572144
0.99345666170120239 0.66780996322631836 0.76660043001174927
0.26135995984077454 0.82140505313873291 0.76667457818984985
0.25344380736351013 0.83347517251968384 0.77638787031173706
0.30676496028900146 0.83730441331863403 0.78379833698272705
0.53916126489639282 0.82446658611297607 0.78447645902633667
0.77218014001846313 0.82288885116577148 0.7999228835105896
0.90574932098388672 0.77019542455673218 0.74743157625198364
0.99065226316452026 0.72507709264755249 0.69981390237808228
0.36468315124511719 0.96746140718460083 0.75911325216293335
0.3654293417930603 0.96886646747589111 0.75985056161880493
0.38631755113601685 0.96288007497787476 0.75051641464233398
0.51194083690643311 0.95018315315246582 0.7275199294090271
0.66228890419006348 0.89056152105331421 0.65519368648529053
0.85623246431350708 0.88208216428756714 0.61338555812835693
0.99590885639190674 0.91593062877655029 0.68495303392410278
0.56415015459060669 0.99975639581680298 0.77387303113937378
0.59479862451553345 1 0.78327405452728271
0.58889132738113403 1 0.77295410633087158
0.63734406232833862 0.99919182062149048 0.74690538644790649
0.7526470422744751 0.99740666151046753 0.69159036874771118
0.93629246950149536 0.99776023626327515 0.66979068517684937
0.99980002641677856 0.98017776012420654 0.66880607604980469
0.029533835127949715 0.39563620090484619 0.8342098593711853
0.045154377818107605 0.38305878639221191 0.84354633092880249
0.24111850559711456 0.39046838879585266 0.85011953115463257
0.54220044612884521 0.43954992294311523 0.8621019721031189
0.74288874864578247 0.52797484397888184 0.87483686208724976
0.86219245195388794 0.57702171802520752 0.87523442506790161
0.95447051525115967 0.63320207595825195 0.88725703954696655
0.086916320025920868 0.46153181791305542 0.84698265790939331
0.11385824531316757 0.46522241830825806 0.86058551073074341
0.27464756369590759 0.44566237926483154 0.86409842967987061
0.54891878366470337 0.48071524500846863 0.86998975276947021
0.74657297134399414 0.55318593978881836 0.88040965795516968
0.86506861448287964 0.59386485815048218 0.87835574150085449
0.9554671049118042 0.63724905252456665 0.88777256011962891
0.18665929138660431 0.59368312358856201 0.85979950428009033
0.19240757822990417 0.60269427299499512 0.87420380115509033
0.34751477837562561 0.57836902141571045 0.88536244630813599
0.56457942724227905 0.58515876531600952 0.89006513357162476
0.7664991021156311 0.65387219190597534 0.90639603137969971
0.88163763284683228 0.68623065948486328 0.9022754430770874
0.96239900588989258 0.7064133882522583 0.9044569730758667
0.21463356912136078 0.7116769552230835 0.86030501127243042
0.23828111588954926 0.72145539522171021 0.87241065502166748
0.37261444330215454 0.71919137239456177 0.88851761817932129
0.55982547998428345 0.69667261838912964 0.89673906564712524
0.75977689027786255 0.74139952659606934 0.91480618715286255
0.89224791526794434 0.77697151899337769 0.92021435499191284
0.97605377435684204 0.79810166358947754 0.92450106143951416
0.23444154858589172 0.83346951007843018 0.87530332803726196
0.2534642219543457 0.84627985954284668 0.88868093490600586
0.30409589409828186 0.84674698114395142 0.89325410127639771
0.48969495296478271 0.83000725507736206 0.89383554458618164
0.72947156429290771 0.82811218500137329 0.91964125633239746
0.90557271242141724 0.87798196077346802 0.94491767883300781
0.98408490419387817 0.88188672065734863 0.94065886735916138
0.42674407362937927 0.97276073694229126 0.92809176445007324
0.44554233551025391 0.97990518808364868 0.93590503931045532
0.4493662416934967 0.98038989305496216 0.93650203943252563
0.56402879953384399 0.97676163911819458 0.93578827381134033
0.73327171802520752 0.96112418174743652 0.93022376298904419
0.8924490213394165 0.95699775218963623 0.93138843774795532
0.99399751424789429 0.93184548616409302 0.90855783224105835
0.71214121580123901 1 0.96734750270843506
0.74304616451263428 1 0.97238051891326904
0.73366880416870117 1 0.96716904640197754
0.72507953643798828 1 0.95145964622497559
0.75955557823181152 1 0.91217559576034546
0.84742683172225952 0.99746185541152954 0.85178351402282715
0.9963570237159729 0.98562169075012207 0.8520047664642334
0.22634367644786835 0.56840163469314575 0.93131977319717407
0.2740180492401123 0.56642687320709229 0.94020205736160278
0.41838085651397705 0.56727308034896851 0.94329667091369629
0.60027307271957397 0.61582356691360474 0.95170450210571289
0.75110280513763428 0.67529869079589844 0.95712393522262573
0.85832303762435913 0.73686385154724121 0.95759207010269165
0.9251096248626709 0.77883511781692505 0.96568375825881958
0.27494663000106812 0.60716253519058228 0.93867278099060059
0.3290044367313385 0.61597490310668945 0.95209962129592896
0.4415132999420166 0.60380738973617554 0.95263862609863281
0.60548681020736694 0.63570988178253174 0.9563060998916626
0.75157022476196289 0.6868736743927002 0.95877289772033691
0.8593938946723938 0.74680161476135254 0.96063554286956787
0.93419069051742554 0.78645592927932739 0.9674256443977356
0.40605294704437256 0.711658775806427 0.96486997604370117
0.4391329288482666 0.72338736057281494 0.97418797016143799
0.51141691207885742 0.70984196662902832 0.97585922479629517
0.62653696537017822 0.71064144372940063 0.97355526685714722
0.76743835210800171 0.75000679492950439 0.97518116235733032
0.86699771881103516 0.79180848598480225 0.97096508741378784
0.94564712047576904 0.82473242282867432 0.98059368133544922
0.47987395524978638 0.80619674921035767 0.97509551048278809
0.49726194143295288 0.81273853778839111 0.98386603593826294
0.54866659641265869 0.81219643354415894 0.98997443914413452
0.62159115076065063 0.77595806121826172 0.97702926397323608
0.76086443662643433 0.80254429578781128 0.98424941301345825
0.8741719126701355 0.84195965528488159 0.98264497518539429
0.94204121828079224 0.86801469326019287 0.98732107877731323
0.444639652967453 0.89388918876647949 0.97692233324050903
0.44315144419670105 0.90610724687576294 0.98943036794662476
0.48603662848472595 0.89948040246963501 0.98730337619781494
0.60792499780654907 0.88854485750198364 0.99095261096954346
0.74078023433685303 0.8634830117225647 0.98902428150177002
0.87124884128570557 0.89286834001541138 0.99300956726074219
0.95973080396652222 0.93398857116699219 0.99700343608856201
0.52893465757369995 0.98851162195205688 0.99543851613998413
0.54147273302078247 0.98913079500198364 0.99526822566986084
0.53634500503540039 0.98669284582138062 0.99356108903884888
0.59587407112121582 0.98223936557769775 0.99527829885482788
0.71245354413986206 0.96321547031402588 0.99419409036636353
0.85789203643798828 0.95171487331390381 0.9972115159034729
0.97570937871932983 0.9874764084815979 1
0.73772519826889038 1 0.99982929229736328
0.78931337594985962 1 1
0.78171241283416748 1 1
0.78633284568786621 1 1
0.84564352035522461 1 1
0.92055338621139526 1 1
0.99499690532684326 0.98989808559417725 0.99783313274383545
