assets/lut/picturefx goldfx summer heat.cube
# Created by: G'MIC (https://gmic.eu)
TITLE "goldfx_summer_heat"
# LUT size
LUT_3D_SIZE 7
# Data domain
DOMAIN_MIN 0.0 0.0 0.0
DOMAIN_MAX 1.0 1.0 1.0
# LUT data points
0.0064917020499706268 0.013402886688709259 0.032321527600288391
0.091927923262119293 0.02908833883702755 0.035917647182941437
0.25874674320220947 0.034977152943611145 0.065101474523544312
0.55724608898162842 0.013235234655439854 0.079823076725006104
0.84347283840179443 0.1287202388048172 0.068275824189186096
0.98821508884429932 0.37027019262313843 0.056881669908761978
1 0.53786873817443848 0.14762333035469055
0.00033102597808465362 0.10619523376226425 0.06598827987909317
0.095387838780879974 0.11474668979644775 0.061955858021974564
0.29902660846710205 0.11986884474754333 0.062362387776374817
0.58773422241210938 0.13470807671546936 0.063929043710231781
0.83916556835174561 0.24649909138679504 0.02340545691549778
0.97922557592391968 0.4244941771030426 0.017721947282552719
0.99653548002243042 0.564980149269104 0.14892524480819702
0 0.30448749661445618 0.086498335003852844
0.017419688403606415 0.31021437048912048 0.088703915476799011
0.30731374025344849 0.33800569176673889 0.043397970497608185
0.62752580642700195 0.37266147136688232 0.0085238590836524963
0.82857173681259155 0.41481688618659973 0.0016183442203328013
0.95925283432006836 0.51479262113571167 0.0018887837650254369
0.99695569276809692 0.61773443222045898 0.10507410019636154
0.0025384791661053896 0.58233773708343506 0.069963477551937103
0.011551561765372753 0.58081299066543579 0.079646185040473938
0.31607934832572937 0.5894281268119812 0.041761990636587143
0.6388816237449646 0.60774523019790649 0.011744226329028606
0.82609456777572632 0.62314009666442871 0.0018435459351167083
0.94442284107208252 0.64111566543579102 0
0.99592643976211548 0.68189918994903564 0.016296761110424995
0.22144132852554321 0.76217514276504517 0.16345909237861633
0.29397618770599365 0.76499611139297485 0.18057961761951447
0.46159392595291138 0.76233381032943726 0.18828059732913971
0.65574437379837036 0.76560127735137939 0.16953787207603455
0.80748116970062256 0.77224016189575195 0.1271837055683136
0.92561119794845581 0.77990269660949707 0.065642997622489929
0.99431294202804565 0.78337687253952026 0.091250337660312653
0.57211077213287354 0.87529069185256958 0.33490008115768433
0.58899533748626709 0.87480318546295166 0.34610199928283691
0.64035570621490479 0.87218391895294189 0.36714863777160645
0.72155934572219849 0.8728492259979248 0.37298375368118286
0.81712710857391357 0.87595272064208984 0.36171832680702209
0.91564571857452393 0.88059431314468384 0.32865691184997559
0.99553453922271729 0.88696581125259399 0.3335895836353302
0.77601295709609985 0.96648579835891724 0.52220940589904785
0.77432793378829956 0.96318340301513672 0.5360943078994751
0.79249721765518188 0.96275496482849121 0.56321793794631958
0.8276526927947998 0.96694815158843994 0.57867324352264404
0.87800097465515137 0.97139370441436768 0.58056008815765381
0.94575232267379761 0.97635829448699951 0.57302892208099365
0.99994611740112305 0.98421639204025269 0.57549726963043213
0.0065237456001341343 0.034786224365234375 0.11756901443004608
0.085392564535140991 0.052286170423030853 0.11672186851501465
0.25888702273368835 0.042581520974636078 0.13904446363449097
0.58989810943603516 0.032416969537734985 0.15965904295444489
0.85249799489974976 0.22613371908664703 0.17639145255088806
0.98172831535339355 0.41320598125457764 0.18563367426395416
0.99691957235336304 0.56189227104187012 0.24862608313560486
0.00076326855923980474 0.12196400761604309 0.14054693281650543
0.10521220415830612 0.12714254856109619 0.14354458451271057
0.31568798422813416 0.13012321293354034 0.14568467438220978
0.61643487215042114 0.1614350825548172 0.15420670807361603
0.850411057472229 0.28665626049041748 0.15243455767631531
0.97973346710205078 0.44220122694969177 0.16147409379482269
0.99575591087341309 0.57634842395782471 0.24179941415786743
0 0.32385727763175964 0.14794787764549255
0.033062279224395752 0.33018654584884644 0.15255680680274963
0.34709727764129639 0.35390156507492065 0.12725731730461121
0.64350634813308716 0.35723349452018738 0.08733629435300827
0.84216094017028809 0.4220682680606842 0.06586495041847229
0.96964222192764282 0.5317954421043396 0.087453551590442657
0.99982106685638428 0.62385135889053345 0.19384349882602692
0.0035181231796741486 0.58980023860931396 0.12879765033721924
0.077253974974155426 0.58838272094726562 0.1391931027173996
0.34394562244415283 0.59521734714508057 0.11594969779253006
0.63971436023712158 0.61126947402954102 0.068410985171794891
0.83244615793228149 0.62422972917556763 0.020495589822530746
0.95000529289245605 0.64561736583709717 0.029706617817282677
0.99817627668380737 0.68494671583175659 0.12387991696596146
0.23249061405658722 0.76601624488830566 0.1970093846321106
0.32351386547088623 0.76697170734405518 0.21146553754806519
0.49335873126983643 0.76432937383651733 0.22240978479385376
0.65870362520217896 0.76606166362762451 0.20688988268375397
0.8116074800491333 0.77404147386550903 0.15681794285774231
0.92700529098510742 0.77629083395004272 0.12253027409315109
0.99517142772674561 0.78215676546096802 0.17153164744377136
0.57753080129623413 0.87445586919784546 0.34937262535095215
0.58841216564178467 0.87178993225097656 0.35336217284202576
0.64702916145324707 0.87156498432159424 0.37712976336479187
0.72667360305786133 0.87324982881546021 0.39003762602806091
0.81631112098693848 0.87536060810089111 0.37528273463249207
0.91374057531356812 0.8793216347694397 0.34872597455978394
0.99359947443008423 0.88455522060394287 0.35772556066513062
0.77076351642608643 0.96447557210922241 0.53122097253799438
0.76024502515792847 0.9605402946472168 0.53750526905059814
0.78474706411361694 0.96190440654754639 0.56116181612014771
0.82433712482452393 0.9661707878112793 0.5826038122177124
0.87046509981155396 0.96952217817306519 0.58816123008728027
0.93518608808517456 0.97380524873733521 0.57957011461257935
0.99853157997131348 0.98047065734863281 0.58078938722610474
0.016520719975233078 0.070450231432914734 0.23145338892936707
0.15860800445079803 0.095110170543193817 0.23457856476306915
0.31096208095550537 0.13720576465129852 0.24393199384212494
0.57419806718826294 0.041738428175449371 0.26778474450111389
0.8594021201133728 0.107075035572052 0.29869353771209717
0.98752313852310181 0.43818756937980652 0.33976650238037109
0.99606674909591675 0.61822903156280518 0.39584794640541077
0.0052996617741882801 0.15010999143123627 0.25518420338630676
0.14368584752082825 0.15014277398586273 0.25742232799530029
0.36114230751991272 0.20436447858810425 0.26123812794685364
0.62368530035018921 0.13500672578811646 0.27542999386787415
0.86724883317947388 0.23683954775333405 0.29559576511383057
0.98393148183822632 0.47814679145812988 0.33841022849082947
0.99430561065673828 0.63612693548202515 0.39914670586585999
0 0.35104739665985107 0.27396118640899658
0.029263515025377274 0.34965136647224426 0.2754160463809967
0.41340234875679016 0.37371042370796204 0.2838188111782074
0.68860518932342529 0.38468524813652039 0.27375945448875427
0.86521953344345093 0.46723717451095581 0.28409811854362488
0.97159069776535034 0.58107590675354004 0.32337459921836853
0.99627763032913208 0.66996461153030396 0.37984052300453186
0.21212007105350494 0.60439246892929077 0.29215601086616516
0.24445918202400208 0.6067618727684021 0.28899392485618591
0.4355073869228363 0.61668384075164795 0.27972453832626343
0.66706377267837524 0.61568683385848999 0.26062089204788208
0.84568601846694946 0.61932140588760376 0.23012740910053253
0.95269638299942017 0.64785832166671753 0.24346546828746796
0.99850547313690186 0.70490336418151855 0.31649470329284668
0.41944107413291931 0.76747149229049683 0.31217694282531738
0.41623437404632568 0.76852041482925415 0.31261387467384338
0.52938050031661987 0.76828849315643311 0.32250607013702393
0.67304623126983643 0.77480590343475342 0.32469019293785095
0.81834381818771362 0.78010362386703491 0.29961168766021729
0.93256634473800659 0.77822667360305786 0.27808362245559692
0.99838966131210327 0.78646576404571533 0.31120562553405762
0.61774677038192749 0.87508648633956909 0.41008815169334412
0.61331814527511597 0.87229609489440918 0.40774738788604736
0.65653818845748901 0.87111669778823853 0.41817021369934082
0.73622870445251465 0.87542402744293213 0.43797537684440613
0.81906473636627197 0.87812423706054688 0.43655639886856079
0.92217230796813965 0.88386261463165283 0.41789352893829346
0.99815148115158081 0.88569092750549316 0.42167094349861145
0.77594900131225586 0.9660460352897644 0.56956696510314941
0.77296102046966553 0.96551740169525146 0.57243359088897705
0.78721332550048828 0.96313399076461792 0.5788152813911438
0.82358157634735107 0.96388274431228638 0.59967029094696045
0.87195205688476562 0.96771979331970215 0.61521482467651367
0.93345451354980469 0.97275388240814209 0.60976934432983398
0.99662643671035767 0.97875559329986572 0.6106560230255127
0.14792434871196747 0.12563659250736237 0.39171463251113892
0.29922506213188171 0.1493312269449234 0.3971608579158783
0.52018922567367554 0.24068789184093475 0.40137174725532532
0.67279928922653198 0.35255539417266846 0.41069468855857849
0.83194291591644287 0.30812177062034607 0.4335305392742157
0.97654753923416138 0.41672453284263611 0.4557003378868103
0.99608415365219116 0.59572023153305054 0.48966509103775024
0.13866916298866272 0.19974856078624725 0.40771880745887756
0.27106735110282898 0.21566691994667053 0.40982723236083984
0.5289304256439209 0.30572545528411865 0.41357818245887756
0.68134409189224243 0.39821571111679077 0.41722351312637329
0.84186315536499023 0.35189083218574524 0.44014626741409302
0.97032636404037476 0.42680186033248901 0.45070555806159973
0.99712091684341431 0.6125374436378479 0.4948846697807312
0.037037808448076248 0.38759377598762512 0.41136839985847473
0.085461348295211792 0.37989097833633423 0.41400513052940369
0.48552516102790833 0.40568551421165466 0.42950218915939331
0.71466779708862305 0.50939673185348511 0.43799027800559998
0.8565680980682373 0.48725911974906921 0.44627112150192261
0.96667051315307617 0.57709300518035889 0.46650826930999756
0.99967342615127563 0.69727915525436401 0.51876378059387207
0.2384168952703476 0.60872715711593628 0.42305469512939453
0.26858830451965332 0.61222326755523682 0.42249894142150879
0.45877975225448608 0.61361217498779297 0.42830246686935425
0.70536881685256958 0.63729125261306763 0.44420504570007324
0.86210423707962036 0.65000432729721069 0.43918296694755554
0.95788133144378662 0.69233208894729614 0.45235523581504822
0.99948078393936157 0.75729924440383911 0.50517982244491577
0.5280756950378418 0.76810747385025024 0.4425736665725708
0.54334497451782227 0.77001321315765381 0.45109018683433533
0.59263867139816284 0.77450573444366455 0.44909155368804932
0.71780705451965332 0.7824866771697998 0.45293861627578735
0.83017838001251221 0.77416706085205078 0.43387991189956665
0.94046801328659058 0.77182143926620483 0.41335746645927429
0.99962300062179565 0.79597193002700806 0.44506385922431946
0.6787574291229248 0.87643337249755859 0.50243502855300903
0.69527047872543335 0.87381625175476074 0.50653988122940063
0.69610953330993652 0.874805748462677 0.4949156641960144
0.75148600339889526 0.88109081983566284 0.50064933300018311
0.82188063859939575 0.88315743207931519 0.50705313682556152
0.9236026406288147 0.8889654278755188 0.4978046715259552
0.99553322792053223 0.88899952173233032 0.49984994530677795
0.78994745016098022 0.96752655506134033 0.62076753377914429
0.79021763801574707 0.96794706583023071 0.61432856321334839
0.79325747489929199 0.96609365940093994 0.61454647779464722
0.82079732418060303 0.96494454145431519 0.62891572713851929
0.87101298570632935 0.96866589784622192 0.65167617797851562
0.93134409189224243 0.97418129444122314 0.65706533193588257
0.99360555410385132 0.97867780923843384 0.66052919626235962
0.39315211772918701 0.23851512372493744 0.5508989691734314
0.50084757804870605 0.26362276077270508 0.55587565898895264
0.67008298635482788 0.36067324876785278 0.55649709701538086
0.79850482940673828 0.53192895650863647 0.55659443140029907
0.85882538557052612 0.61112618446350098 0.56199973821640015
0.93756282329559326 0.58031046390533447 0.5722612738609314
0.99414843320846558 0.64292877912521362 0.59498447179794312
0.39743694663047791 0.30947393178939819 0.55798649787902832
0.48021066188812256 0.32996013760566711 0.55890274047851562
0.66712582111358643 0.4118368923664093 0.56056010723114014
0.7982252836227417 0.55612313747406006 0.56011933088302612
0.86196428537368774 0.62573421001434326 0.5684928297996521
0.9401165246963501 0.5903974175453186 0.57783275842666626
0.99800831079483032 0.63736677169799805 0.59491735696792603
0.38898125290870667 0.4623294472694397 0.5545189380645752
0.40424135327339172 0.4560428261756897 0.55652117729187012
0.62343919277191162 0.49654960632324219 0.56358629465103149
0.79299968481063843 0.61188608407974243 0.57004886865615845
0.86264550685882568 0.67927730083465576 0.57938802242279053
0.93669658899307251 0.64900887012481689 0.58157205581665039
0.99349164962768555 0.68554335832595825 0.59943830966949463
0.33164620399475098 0.62808209657669067 0.54503333568572998
0.3185427188873291 0.62453174591064453 0.54460227489471436
0.48780739307403564 0.61971563100814819 0.55573344230651855
0.73863834142684937 0.65984916687011719 0.57694566249847412
0.86450427770614624 0.74629783630371094 0.59601491689682007
0.93907380104064941 0.71609556674957275 0.59130978584289551
0.99959605932235718 0.76053065061569214 0.62033116817474365
0.53561121225357056 0.76830238103866577 0.55690628290176392
0.52774244546890259 0.7676277756690979 0.55636882781982422
0.56649094820022583 0.77120727300643921 0.55851864814758301
0.69002020359039307 0.76183027029037476 0.56673496961593628
0.84011000394821167 0.78238773345947266 0.58662283420562744
0.94359409809112549 0.79360300302505493 0.58734738826751709
0.99978369474411011 0.82662194967269897 0.61638563871383667
0.69745653867721558 0.8754456639289856 0.59594064950942993
0.7063220739364624 0.87511628866195679 0.59866368770599365
0.70296096801757812 0.87687551975250244 0.59206664562225342
0.75808465480804443 0.8805701732635498 0.59335827827453613
0.82886427640914917 0.88296496868133545 0.59811937808990479
0.9282374382019043 0.88433408737182617 0.59256982803344727
0.99967479705810547 0.88620847463607788 0.58773428201675415
0.81040799617767334 0.96694701910018921 0.7001798152923584
0.81133818626403809 0.96858221292495728 0.69061833620071411
0.81091773509979248 0.9696306586265564 0.68981820344924927
0.8267865777015686 0.96633470058441162 0.68862700462341309
0.87288498878479004 0.97015446424484253 0.69958418607711792
0.93185877799987793 0.97614395618438721 0.71200120449066162
0.99272358417510986 0.980224609375 0.71011477708816528
0.63203108310699463 0.45354124903678894 0.6945871114730835
0.68588411808013916 0.48270145058631897 0.69900274276733398
0.77134448289871216 0.55195164680480957 0.69994908571243286
0.85034936666488647 0.65655422210693359 0.69927871227264404
0.90349847078323364 0.752552330493927 0.70192784070968628
0.93694025278091431 0.76914650201797485 0.70379537343978882
0.98344635963439941 0.7585265040397644 0.72081947326660156
0.63843291997909546 0.50130683183670044 0.69791847467422485
0.67753309011459351 0.51859021186828613 0.69932597875595093
0.76656365394592285 0.57776117324829102 0.69829738140106201
0.84749263525009155 0.66669034957885742 0.70033687353134155
0.90361732244491577 0.75656700134277344 0.70438098907470703
0.93963515758514404 0.77836066484451294 0.71212893724441528
0.98752421140670776 0.7589995265007019 0.72368282079696655
0.62939810752868652 0.58478623628616333 0.6972198486328125
0.62392759323120117 0.57829040288925171 0.69822412729263306
0.73610091209411621 0.62499725818634033 0.70128726959228516
0.83660304546356201 0.69984877109527588 0.70508748292922974
0.9028855562210083 0.77702826261520386 0.71571606397628784
0.93907910585403442 0.80496495962142944 0.72344666719436646
0.97868520021438599 0.77327340841293335 0.71723991632461548
0.55367326736450195 0.67702460289001465 0.68504983186721802
0.55625319480895996 0.67253655195236206 0.6846434473991394
0.64464098215103149 0.67990720272064209 0.69646942615509033
0.79986685514450073 0.72458624839782715 0.71077078580856323
0.8958624005317688 0.79730850458145142 0.72788751125335693
0.94072854518890381 0.83039611577987671 0.73783177137374878
0.98323613405227661 0.80229377746582031 0.73342406749725342
0.52224743366241455 0.772472083568573 0.67482060194015503
0.52396249771118164 0.77073103189468384 0.67474579811096191
0.541759192943573 0.7700810432434082 0.67873740196228027
0.66873914003372192 0.76518046855926514 0.68653607368469238
0.84612643718719482 0.79874056577682495 0.72142070531845093
0.94606536626815796 0.86041021347045898 0.75960624217987061
0.9938960075378418 0.84351319074630737 0.75948148965835571
0.67136472463607788 0.87392288446426392 0.70249325037002563
0.67371386289596558 0.87309229373931885 0.70748549699783325
0.67139315605163574 0.87489742040634155 0.70934844017028809
0.71690088510513306 0.87359750270843506 0.71156764030456543
0.80688828229904175 0.87217265367507935 0.72040945291519165
0.93061250448226929 0.89755368232727051 0.76062095165252686
0.9993976354598999 0.89119523763656616 0.75797706842422485
0.79353636503219604 0.96859675645828247 0.79230839014053345
0.78739476203918457 0.96755105257034302 0.7812269926071167
0.78183972835540771 0.97053921222686768 0.77828061580657959
0.80230820178985596 0.96956956386566162 0.77525359392166138
0.86694931983947754 0.97307407855987549 0.78772222995758057
0.9330674409866333 0.97876286506652832 0.80610030889511108
0.99159759283065796 0.97929239273071289 0.81637555360794067
0.7837986946105957 0.70343559980392456 0.85668754577636719
0.79866522550582886 0.71518093347549438 0.85476827621459961
0.83872872591018677 0.73844778537750244 0.85376274585723877
0.88817799091339111 0.7777552604675293 0.85147058963775635
0.93338757753372192 0.82084470987319946 0.85147058963775635
0.96781545877456665 0.87594759464263916 0.85700440406799316
0.99806791543960571 0.88583219051361084 0.87556630373001099
0.78132110834121704 0.71365272998809814 0.85723185539245605
0.79427045583724976 0.725086510181427 0.85757017135620117
0.83513373136520386 0.74630212783813477 0.85610264539718628
0.8843759298324585 0.78177958726882935 0.85422801971435547
0.93313789367675781 0.82248377799987793 0.8549576997756958
0.96901434659957886 0.8772779107093811 0.85571324825286865
0.99748408794403076 0.88041549921035767 0.8690764307975769
0.77139312028884888 0.74070543050765991 0.85931915044784546
0.77476716041564941 0.74494367837905884 0.85963922739028931
0.8159598708152771 0.76375365257263184 0.86173778772354126
0.87473827600479126 0.79660773277282715 0.86058390140533447
0.93108326196670532 0.83510410785675049 0.86081141233444214
0.96964395046234131 0.8813822865486145 0.86206948757171631
0.99341404438018799 0.88906431198120117 0.8744579553604126
0.74619323015213013 0.775215744972229 0.86243605613708496
0.74968183040618896 0.77449434995651245 0.86231786012649536
0.77935796976089478 0.78173434734344482 0.86932104825973511
0.84575295448303223 0.80666744709014893 0.86994534730911255
0.91988754272460938 0.84561014175415039 0.87076079845428467
0.96875691413879395 0.89224821329116821 0.87550735473632812
0.99465596675872803 0.90632385015487671 0.88279521465301514
0.65146857500076294 0.82139050960540771 0.85880935192108154
0.65289133787155151 0.82048231363296509 0.86225062608718872
0.66260677576065063 0.81978768110275269 0.86326074600219727
0.76138210296630859 0.8204880952835083 0.87111377716064453
0.87746155261993408 0.85006707906723022 0.87910693883895874
0.96630525588989258 0.90275633335113525 0.88904547691345215
0.99476832151412964 0.92738312482833862 0.90192574262619019
0.6809120774269104 0.89627248048782349 0.88085758686065674
0.67282462120056152 0.8951956033706665 0.87719076871871948
0.68065345287322998 0.89556884765625 0.88402438163757324
0.70124977827072144 0.88925862312316895 0.88377004861831665
0.7758069634437561 0.87961089611053467 0.8844413161277771
0.92621314525604248 0.90692365169525146 0.90102994441986084
0.99719643592834473 0.95799005031585693 0.92578458786010742
0.78567785024642944 0.98558801412582397 0.9413573145866394
0.76878547668457031 0.97990667819976807 0.91961956024169922
0.77024149894714355 0.97904282808303833 0.91807913780212402
0.78764206171035767 0.97971546649932861 0.9170575737953186
0.82845813035964966 0.97837692499160767 0.91917699575424194
0.90050601959228516 0.9758065938949585 0.92786425352096558
0.98790395259857178 0.99164080619812012 0.95670503377914429
