assets/lut/picturefx analogfx old style iii.cube
# Created by: G'MIC (https://gmic.eu)
TITLE "analogfx_old_style_iii"
# LUT size
LUT_3D_SIZE 7
# Data domain
DOMAIN_MIN 0.0 0.0 0.0
DOMAIN_MAX 1.0 1.0 1.0
# LUT data points
0.012506043538451195 0.0083619961515069008 0.0048122629523277283
0.010496356524527073 0.0078431377187371254 0.0052072415128350258
0.032765451818704605 0.019322607666254044 0.014564828015863895
0.17721100151538849 0.10043442994356155 0.071898877620697021
0.37120702862739563 0.21488000452518463 0.14374768733978271
0.65524512529373169 0.38322371244430542 0.25157442688941956
0.86062347888946533 0.4942106306552887 0.32047340273857117
0.025698479264974594 0.016399668529629707 0.011007017455995083
0.049169022589921951 0.030303655192255974 0.023679440841078758
0.14319606125354767 0.083846054971218109 0.064479410648345947
0.2664642333984375 0.1579982191324234 0.11267299205064774
0.47255074977874756 0.2862759530544281 0.1957021951675415
0.73871541023254395 0.437774658203125 0.29444482922554016
0.90823054313659668 0.53208267688751221 0.36690840125083923
0.24096149206161499 0.1458527147769928 0.10566233843564987
0.26654195785522461 0.16198679804801941 0.11846534907817841
0.35209405422210693 0.21661101281642914 0.15508309006690979
0.47636324167251587 0.29449814558029175 0.20889455080032349
0.70568126440048218 0.43193376064300537 0.30097487568855286
0.91778099536895752 0.55787187814712524 0.39844971895217896
0.99438315629959106 0.65046054124832153 0.51553630828857422
0.64712947607040405 0.39225658774375916 0.27086302638053894
0.67312085628509521 0.4105011522769928 0.28569492697715759
0.74380648136138916 0.45342865586280823 0.31780809164047241
0.85769659280776978 0.5252310037612915 0.3708934485912323
0.96357464790344238 0.63879084587097168 0.49049168825149536
0.9996333122253418 0.79009765386581421 0.69596773386001587
1 0.94155597686767578 0.92120957374572754
0.99357122182846069 0.71921360492706299 0.59851360321044922
0.99593847990036011 0.74586683511734009 0.63259702920913696
0.99814319610595703 0.8039441704750061 0.71247667074203491
0.99858546257019043 0.9016457200050354 0.85573285818099976
1 0.96960759162902832 0.96884489059448242
1 0.98429352045059204 0.9990655779838562
1 0.9843137264251709 0.99720698595046997
1 0.98409581184387207 0.99633383750915527
1 0.98679947853088379 0.9970170259475708
1 0.9843137264251709 0.994579017162323
1 0.9843137264251709 0.99773156642913818
1 0.9843137264251709 0.99953734874725342
1 0.9843137264251709 1
1 0.9843137264251709 1
1 0.9878547191619873 0.99726921319961548
1 0.98731130361557007 0.99607843160629272
1 0.9843137264251709 0.99826514720916748
1 0.9843137264251709 1
1 0.9843137264251709 1
1 0.9843137264251709 1
1 0.9843137264251709 1
0.0099808340892195702 0.0077167288400232792 0.0039215688593685627
0.0091515937820076942 0.0065545476973056793 0.0040440876036882401
0.065094590187072754 0.036293432116508484 0.024995677173137665
0.19952294230461121 0.11151368170976639 0.077509529888629913
0.38879719376564026 0.2264382392168045 0.15093977749347687
0.66180944442749023 0.38550928235054016 0.25287458300590515
0.86250633001327515 0.49500840902328491 0.32469305396080017
0.045561697334051132 0.02887745201587677 0.02055174857378006
0.071621917188167572 0.043215330690145493 0.031400673091411591
0.16058003902435303 0.097392886877059937 0.072346404194831848
0.27163702249526978 0.16148680448532104 0.11628292500972748
0.49702915549278259 0.29995638132095337 0.20554919540882111
0.75901633501052856 0.44785872101783752 0.30075931549072266
0.90785926580429077 0.53011232614517212 0.36760362982749939
0.25542691349983215 0.15420450270175934 0.11190255731344223
0.29046973586082458 0.17747986316680908 0.12967315316200256
0.36198851466178894 0.22299724817276001 0.16063502430915833
0.4894033670425415 0.30238288640975952 0.21452823281288147
0.71617001295089722 0.43666860461235046 0.30193233489990234
0.92432355880737305 0.55632853507995605 0.38728806376457214
0.99375182390213013 0.65879786014556885 0.52551877498626709
0.66475784778594971 0.40166753530502319 0.27820557355880737
0.69845390319824219 0.42457893490791321 0.29512381553649902
0.76745057106018066 0.46704792976379395 0.32560274004936218
0.87345629930496216 0.53131294250488281 0.37127372622489929
0.97739696502685547 0.64207369089126587 0.49085378646850586
0.99970412254333496 0.78564757108688354 0.68804138898849487
1 0.94531553983688354 0.9295954704284668
0.99583929777145386 0.72761636972427368 0.61011028289794922
0.9968075156211853 0.75863957405090332 0.64892196655273438
0.99844789505004883 0.82044088840484619 0.73541003465652466
0.99998921155929565 0.91131508350372314 0.87005758285522461
1 0.9749913215637207 0.97689878940582275
1 0.98428618907928467 0.99816679954528809
1 0.9843137264251709 0.9968191385269165
1 0.9843137264251709 0.99867480993270874
1 0.98819458484649658 0.99823790788650513
1 0.98780852556228638 0.99925607442855835
1 0.98433709144592285 0.99978506565093994
1 0.9843137264251709 0.99971693754196167
1 0.9843137264251709 1
1 0.9843137264251709 1
1 0.98823529481887817 1
1 0.98823529481887817 0.99999386072158813
1 0.9843137264251709 1
1 0.9843137264251709 1
1 0.9843137264251709 1
1 0.9843137264251709 1
1 0.9843137264251709 1
0.013692713342607021 0.0089300712570548058 0.0055223801173269749
0.041251491755247116 0.025012969970703125 0.016791563481092453
0.1245957612991333 0.071450583636760712 0.048613902181386948
0.23702292144298553 0.13696905970573425 0.093830123543739319
0.44041597843170166 0.26018300652503967 0.1733224093914032
0.69699299335479736 0.40410023927688599 0.26482421159744263
0.86446911096572876 0.49559426307678223 0.32974201440811157
0.10257982462644577 0.062315713614225388 0.04508475586771965
0.14367736876010895 0.087007872760295868 0.064915753901004791
0.21763600409030914 0.12864851951599121 0.094754405319690704
0.32558807730674744 0.1956523060798645 0.13661056756973267
0.55183959007263184 0.33359628915786743 0.22865039110183716
0.78808718919754028 0.46317407488822937 0.3087514340877533
0.92731177806854248 0.54650712013244629 0.38800659775733948
0.3113979697227478 0.18906448781490326 0.13723163306713104
0.33928516507148743 0.20863460004329681 0.15060628950595856
0.42297708988189697 0.26075342297554016 0.18643274903297424
0.55371654033660889 0.34051069617271423 0.23934005200862885
0.77822685241699219 0.47121366858482361 0.32356429100036621
0.93107700347900391 0.57206517457962036 0.41271445155143738
0.99216347932815552 0.66940701007843018 0.54416006803512573
0.6957671046257019 0.42115634679794312 0.29130584001541138
0.74325728416442871 0.45095095038414001 0.31416484713554382
0.80296224355697632 0.48671203851699829 0.33789876103401184
0.90565609931945801 0.55639803409576416 0.39587092399597168
0.97797679901123047 0.66665017604827881 0.52465033531188965
0.99960416555404663 0.80760067701339722 0.72154885530471802
1 0.9533916711807251 0.93934249877929688
0.99469292163848877 0.76117801666259766 0.65475845336914062
0.99754846096038818 0.78521305322647095 0.68633341789245605
0.99993044137954712 0.84419757127761841 0.76954144239425659
1 0.92504209280014038 0.89316278696060181
1 0.9782034158706665 0.9835892915725708
1 0.9843137264251709 0.99879157543182373
1 0.9843137264251709 0.99635529518127441
1 0.98474901914596558 0.99725168943405151
1 0.98680669069290161 0.99490189552307129
1 0.98434734344482422 0.99993681907653809
1 0.9852670431137085 0.99946361780166626
1 0.9843137264251709 0.99625301361083984
1 0.9843137264251709 0.99998801946640015
1 0.9843137264251709 0.99998444318771362
1 0.98823529481887817 0.99999135732650757
1 0.98823529481887817 0.99650609493255615
1 0.9843137264251709 0.99862402677536011
1 0.9843137264251709 1
1 0.9843137264251709 1
1 0.9843137264251709 1
1 0.9843137264251709 1
0.13112016022205353 0.075021050870418549 0.051634665578603745
0.15899550914764404 0.089609600603580475 0.062159907072782516
0.24198725819587708 0.13874930143356323 0.096382081508636475
0.33486485481262207 0.19345557689666748 0.1323736310005188
0.53159719705581665 0.31149670481681824 0.20847220718860626
0.74720048904418945 0.42901191115379333 0.27812546491622925
0.91391736268997192 0.53338313102722168 0.37356558442115784
0.21415345370769501 0.12832599878311157 0.094417348504066467
0.24479281902313232 0.14547410607337952 0.10528241097927094
0.3035108745098114 0.18098761141300201 0.12917053699493408
0.41244277358055115 0.25006306171417236 0.171845942735672
0.63985341787338257 0.38436055183410645 0.26145625114440918
0.82838290929794312 0.48382586240768433 0.32419610023498535
0.95924293994903564 0.57467067241668701 0.42415425181388855
0.41369986534118652 0.25395143032073975 0.17968040704727173
0.42706537246704102 0.263753741979599 0.18812429904937744
0.50934547185897827 0.31375357508659363 0.22135220468044281
0.63976365327835083 0.39100757241249084 0.27270495891571045
0.83802664279937744 0.50639641284942627 0.34964272379875183
0.95907485485076904 0.58200192451477051 0.42718219757080078
0.9969514012336731 0.69895273447036743 0.58337849378585815
0.76265394687652588 0.461713045835495 0.31934815645217896
0.80368238687515259 0.48897570371627808 0.34203922748565674
0.86107742786407471 0.52400070428848267 0.36397761106491089
0.93718451261520386 0.59077078104019165 0.43118467926979065
0.99184077978134155 0.69940638542175293 0.56544679403305054
0.99994206428527832 0.83529925346374512 0.76385724544525146
1 0.96713554859161377 0.96135216951370239
0.99941587448120117 0.80044549703598022 0.70797920227050781
0.99943536520004272 0.82890266180038452 0.74747771024703979
0.99991023540496826 0.88972300291061401 0.8347700834274292
0.99996066093444824 0.94566625356674194 0.92697668075561523
1 0.98185586929321289 0.99064391851425171
1 0.9842531681060791 0.99735552072525024
1 0.9843137264251709 0.9990503191947937
1 0.98541891574859619 0.99537891149520874
1 0.98472309112548828 0.99871248006820679
1 0.9843137264251709 0.99661135673522949
1 0.9843137264251709 0.99607843160629272
1 0.9843137264251709 0.99783468246459961
1 0.9843137264251709 0.99962735176086426
1 0.9843137264251709 0.99997758865356445
1 0.98823529481887817 1
1 0.98823529481887817 0.99622410535812378
1 0.98490244150161743 0.99620676040649414
1 0.9843137264251709 1
1 0.9843137264251709 1
1 0.9843137264251709 1
1 0.9843137264251709 1
0.30471545457839966 0.1779191642999649 0.12141498923301697
0.31815066933631897 0.18515887856483459 0.12622253596782684
0.39607265591621399 0.2358308732509613 0.15843659639358521
0.49536985158920288 0.29266053438186646 0.19537588953971863
0.66341227293014526 0.38724806904792786 0.25431331992149353
0.82343745231628418 0.46923553943634033 0.30370256304740906
0.96824926137924194 0.57874560356140137 0.43348991870880127
0.37962394952774048 0.23121340572834015 0.16111871600151062
0.40333187580108643 0.24547307193279266 0.17028956115245819
0.47057181596755981 0.28712385892868042 0.19853220880031586
0.57783329486846924 0.3484245240688324 0.23833398520946503
0.74963235855102539 0.44005554914474487 0.2950112521648407
0.87606996297836304 0.51059418916702271 0.34659913182258606
0.98333722352981567 0.60284656286239624 0.46340349316596985
0.55922001600265503 0.34626758098602295 0.24264827370643616
0.58552592992782593 0.3618684709072113 0.25458750128746033
0.66155397891998291 0.40544307231903076 0.28296437859535217
0.77726411819458008 0.47064173221588135 0.32630085945129395
0.91153311729431152 0.54567587375640869 0.37877947092056274
0.98181575536727905 0.611641526222229 0.46735432744026184
0.9996572732925415 0.77689343690872192 0.69302773475646973
0.86800068616867065 0.52507472038269043 0.36517459154129028
0.89931339025497437 0.54954618215560913 0.3874174952507019
0.93781840801239014 0.58528363704681396 0.42089784145355225
0.97953170537948608 0.63994467258453369 0.48538210988044739
0.99743092060089111 0.75529205799102783 0.64735466241836548
1 0.88764834403991699 0.84050774574279785
1 0.97789669036865234 0.98201364278793335
0.99996936321258545 0.87201088666915894 0.81082338094711304
1 0.90265899896621704 0.85271322727203369
1 0.93531709909439087 0.9086034893989563
1 0.96993303298950195 0.96473091840744019
1 0.98400759696960449 0.99613559246063232
1 0.98430413007736206 0.9982951283454895
1 0.9843137264251709 0.99876070022583008
1 0.98457729816436768 0.99931317567825317
1 0.98823410272598267 0.99951446056365967
1 0.98600876331329346 0.99748122692108154
1 0.9843137264251709 0.99873411655426025
1 0.9843137264251709 0.99998742341995239
1 0.9843137264251709 1
1 0.9843137264251709 0.99996656179428101
1 0.98823529481887817 0.9996296763420105
1 0.98823529481887817 0.99660170078277588
1 0.98823529481887817 1
1 0.9843137264251709 1
1 0.9843137264251709 1
1 0.9843137264251709 1
1 0.9843137264251709 1
0.46497276425361633 0.27272015810012817 0.18126100301742554
0.48629751801490784 0.28597867488861084 0.19104982912540436
0.52304637432098389 0.3070637583732605 0.20309968292713165
0.61954057216644287 0.36088594794273376 0.23635996878147125
0.77182102203369141 0.43880009651184082 0.28213036060333252
0.89173871278762817 0.5155978798866272 0.36239507794380188
0.99248248338699341 0.62455374002456665 0.49564024806022644
0.51672357320785522 0.31048765778541565 0.21005044877529144
0.54676216840744019 0.32909220457077026 0.22397534549236298
0.60183119773864746 0.35882139205932617 0.24236249923706055
0.72011524438858032 0.42340287566184998 0.2843116819858551
0.83569610118865967 0.48241320252418518 0.31683433055877686
0.93549460172653198 0.54936939477920532 0.39616298675537109
0.99730187654495239 0.67163050174713135 0.55802911520004272
0.69888734817504883 0.42467248439788818 0.29353997111320496
0.71634089946746826 0.43320950865745544 0.29971650242805481
0.77232176065444946 0.46509751677513123 0.32098644971847534
0.87172287702560425 0.52198004722595215 0.35847729444503784
0.95407307147979736 0.57270294427871704 0.41449308395385742
0.99111509323120117 0.662433922290802 0.54197674989700317
1 0.84395778179168701 0.78846985101699829
0.93621158599853516 0.58272165060043335 0.41484564542770386
0.95477664470672607 0.59690850973129272 0.43337813019752502
0.97586452960968018 0.62836366891860962 0.47055205702781677
0.99239492416381836 0.69717156887054443 0.562358558177948
0.99978357553482056 0.80082195997238159 0.71705061197280884
1 0.93014460802078247 0.90535205602645874
1 0.98119544982910156 0.98978900909423828
1 0.92555755376815796 0.8940613865852356
1 0.9433901309967041 0.9214475154876709
1 0.9651639461517334 0.95794576406478882
1 0.98095214366912842 0.98862403631210327
1 0.9843137264251709 0.99703067541122437
1 0.9843137264251709 0.99844145774841309
1 0.9843137264251709 0.99607843160629272
1 0.98455286026000977 0.99610370397567749
1 0.9843137264251709 0.9943850040435791
1 0.9843137264251709 0.99606829881668091
1 0.9843137264251709 0.99833977222442627
1 0.9843137264251709 0.9985281229019165
1 0.9843137264251709 1
1 0.9843137264251709 0.99635791778564453
1 0.98823529481887817 1
1 0.98823529481887817 0.99946308135986328
1 0.98670625686645508 0.99961817264556885
1 0.9843137264251709 1
1 0.9843137264251709 1
1 0.9843137264251709 1
1 0.9843137264251709 1
0.58027130365371704 0.33839944005012512 0.22262571752071381
0.60016226768493652 0.34966304898262024 0.22911271452903748
0.64584958553314209 0.37086114287376404 0.24259836971759796
0.74800288677215576 0.42512720823287964 0.27582457661628723
0.84558403491973877 0.47921979427337646 0.31392055749893188
0.94223618507385254 0.55266642570495605 0.40751823782920837
0.99754804372787476 0.7000691294670105 0.60076606273651123
0.63334691524505615 0.37457332015037537 0.25116816163063049
0.65587770938873291 0.38448536396026611 0.25596398115158081
0.72858601808547974 0.42489182949066162 0.2820761501789093
0.80628395080566406 0.46352839469909668 0.3031240701675415
0.89377963542938232 0.51733112335205078 0.35504263639450073
0.97382605075836182 0.58807224035263062 0.44963416457176208
0.99879932403564453 0.76115065813064575 0.67883557081222534
0.80024987459182739 0.4773288369178772 0.32676517963409424
0.82041585445404053 0.48833635449409485 0.33286526799201965
0.86803197860717773 0.51758021116256714 0.35533741116523743
0.92336547374725342 0.54937827587127686 0.38110888004302979
0.98509478569030762 0.61179882287979126 0.46823388338088989
0.99914205074310303 0.7147374153137207 0.61893975734710693
1 0.89636892080307007 0.8586457371711731
0.9812895655632019 0.61900067329406738 0.46193394064903259
0.97901898622512817 0.63936829566955566 0.48858767747879028
0.99008560180664062 0.6753239631652832 0.53711587190628052
0.9952588677406311 0.75635921955108643 0.65353351831436157
0.99970740079879761 0.85863512754440308 0.79964637756347656
1 0.95648068189620972 0.95120871067047119
1 0.98237442970275879 0.9939570426940918
1 0.95781725645065308 0.94845324754714966
1 0.9664156436920166 0.96097415685653687
1 0.98001176118850708 0.98518925905227661
1 0.98364132642745972 0.9937853217124939
1 0.9843137264251709 0.9978368878364563
1 0.9843137264251709 0.99989497661590576
1 0.9843137264251709 0.99916112422943115
1 0.9843137264251709 0.99916708469390869
1 0.9843137264251709 0.99568599462509155
1 0.9843137264251709 0.99607062339782715
1 0.9843137264251709 0.99666845798492432
1 0.9843137264251709 0.99944460391998291
1 0.9843137264251709 1
1 0.9843137264251709 1
1 0.98523414134979248 1
1 0.98581278324127197 0.99988043308258057
1 0.98772644996643066 0.99900907278060913
1 0.9843137264251709 1
1 0.9843137264251709 1
1 0.9843137264251709 1
1 0.9843137264251709 1
