assets/lut/picturefx analogfx soft sepia i.cube
# Created by: G'MIC (https://gmic.eu)
TITLE "analogfx_soft_sepia_i"
# LUT size
LUT_3D_SIZE 5
# Data domain
DOMAIN_MIN 0.0 0.0 0.0
DOMAIN_MAX 1.0 1.0 1.0
# LUT data points
0.0007334989495575428 2.5850184101727791e-05 0
0.11165804415941238 0.026062745600938797 0
0.29635465145111084 0.11635836213827133 0
0.52372753620147705 0.23187679052352905 0
0.78179526329040527 0.36799100041389465 0
0.19169029593467712 0.054271861910820007 0
0.21127194166183472 0.064504973590373993 0
0.34334316849708557 0.13043420016765594 0
0.56211549043655396 0.24040132761001587 0
0.80269372463226318 0.37307113409042358 1.9387638531043194e-05
0.46880024671554565 0.15523022413253784 0
0.47426104545593262 0.16175904870033264 0
0.50927305221557617 0.18192654848098755 0
0.64136910438537598 0.25748452544212341 0.0017856822814792395
0.85480445623397827 0.38442853093147278 0.0014939401298761368
0.80145323276519775 0.2808806300163269 0.00064972520340234041
0.79912275075912476 0.2817634642124176 0.0027251599822193384
0.80183315277099609 0.2920076847076416 0.002049554605036974
0.79503071308135986 0.29898405075073242 0.00081701838644221425
0.89259958267211914 0.36710160970687866 0.00024988510995171964
1 0.39630460739135742 0.0014216104755178094
1 0.39694327116012573 0
0.99997305870056152 0.39928990602493286 9.6938187198247761e-05
1 0.40674266219139099 0
0.9999159574508667 0.41400235891342163 0
0.12963859736919403 0.033288318663835526 0
0.17476949095726013 0.057114440947771072 2.2618911316385493e-05
0.31635388731956482 0.12815181910991669 7.4678311648312956e-05
0.54405075311660767 0.24418008327484131 0
0.79134261608123779 0.37478548288345337 0
0.2176089733839035 0.09320443868637085 0.022150525823235512
0.24501127004623413 0.1205374002456665 0.068739421665668488
0.37900108098983765 0.16052056849002838 0.016207750886678696
0.58062803745269775 0.25745996832847595 0
0.81516802310943604 0.38430410623550415 5.0937429477926344e-05
0.46278673410415649 0.20277492702007294 0.010583974421024323
0.4751778244972229 0.21612545847892761 0.023130349814891815
0.51266252994537354 0.22374437749385834 0.01442108117043972
0.65198183059692383 0.28324303030967712 2.908145688707009e-05
0.86313676834106445 0.39890351891517639 0.0041331122629344463
0.77767091989517212 0.31889557838439941 1.5752455510664731e-05
0.79027938842773438 0.32019060850143433 0
0.78968620300292969 0.32393470406532288 0
0.80102634429931641 0.3342386782169342 0
0.91551125049591064 0.39908823370933533 2.9036578780505806e-05
1 0.42821523547172546 0.0012393876677379012
1 0.43099132180213928 0.0036608977243304253
1 0.42885330319404602 0
1 0.43179577589035034 0
0.99552649259567261 0.43864616751670837 0
0.59389615058898926 0.24538505077362061 1.2925092050863896e-05
0.61553812026977539 0.26023164391517639 0.0012923745671287179
0.62207543849945068 0.27730163931846619 0
0.800514817237854 0.37909010052680969 0.00027977439458481967
0.99054944515228271 0.52051341533660889 0
0.65909761190414429 0.28899550437927246 0
0.66240185499191284 0.2981141209602356 0.0090388581156730652
0.66359442472457886 0.30758008360862732 0.049356766045093536
0.84105706214904785 0.40605416893959045 0.016601951792836189
0.99616730213165283 0.53640711307525635 0.039151944220066071
0.70100367069244385 0.34793445467948914 0.12072519212961197
0.69920641183853149 0.38041943311691284 0.21293178200721741
0.71517050266265869 0.44865947961807251 0.34321221709251404
0.90008735656738281 0.47704112529754639 0.26629716157913208
0.99932330846786499 0.56071537733078003 0.22549676895141602
0.97393381595611572 0.51409000158309937 0.21610292792320251
0.9663165807723999 0.53102129697799683 0.25367724895477295
0.96415334939956665 0.54874128103256226 0.28617814183235168
0.97804039716720581 0.54131501913070679 0.26855835318565369
1 0.57192385196685791 0.24724443256855011
1 0.62429618835449219 0.34492608904838562
1 0.62137836217880249 0.33565792441368103
1 0.61512339115142822 0.31780678033828735
1 0.60960352420806885 0.30566951632499695
1 0.60005730390548706 0.28552135825157166
0.99911689758300781 0.56438106298446655 0
0.9997984766960144 0.56728333234786987 0.00019015143334399909
0.99993437528610229 0.56577008962631226 0.0036221074406057596
0.99896538257598877 0.56352543830871582 0.000611353840213269
0.99867928028106689 0.60224431753158569 0.0038188411854207516
1 0.58696717023849487 0.00073228724068030715
1 0.58462667465209961 0.00045402377145364881
1 0.5742034912109375 0
0.99998587369918823 0.56206810474395752 0.003978340420871973
0.99829721450805664 0.61397504806518555 0.03300902247428894
1 0.59400033950805664 0.12149678915739059
0.99993830919265747 0.60601645708084106 0.29698675870895386
0.99997901916503906 0.62283265590667725 0.42390793561935425
1 0.61265486478805542 0.44674539566040039
0.99981701374053955 0.68557500839233398 0.47660702466964722
1 0.63640546798706055 0.39866393804550171
0.99999880790710449 0.65644216537475586 0.45977082848548889
0.99990260601043701 0.70988541841506958 0.58202970027923584
0.95057445764541626 0.78776627779006958 0.74101835489273071
1 0.78396153450012207 0.68982869386672974
1 0.71088099479675293 0.56308209896087646
1 0.72929292917251587 0.59210693836212158
1 0.77123868465423584 0.66980892419815063
1 0.80544376373291016 0.71972948312759399
1 0.79241693019866943 0.69490540027618408
1 0.62880665063858032 0.00079656863817945123
1 0.63399958610534668 0.0072336085140705109
1 0.63772118091583252 0.00080201390665024519
1 0.65423572063446045 0.00083103554788976908
1 0.66935259103775024 0
1 0.65025925636291504 0.0031923032365739346
1 0.65206384658813477 0.0043408414348959923
1 0.6568598747253418 0.0045447405427694321
1 0.6762923002243042 0.0038075614720582962
1 0.69890338182449341 0.00036823048139922321
1 0.70599925518035889 0.030888352543115616
1 0.71914541721343994 0.14104697108268738
1 0.72452247142791748 0.15652018785476685
1 0.73192071914672852 0.21067801117897034
0.99971425533294678 0.72973483800888062 0.33245155215263367
1 0.70736825466156006 0.33126550912857056
1 0.72503620386123657 0.40389317274093628
0.9998852014541626 0.76919072866439819 0.5253220796585083
0.99968832731246948 0.80704450607299805 0.65103071928024292
0.9951319694519043 0.80002003908157349 0.67574632167816162
1 0.73123842477798462 0.53820645809173584
0.99982047080993652 0.7435489296913147 0.58099150657653809
0.99607843160629272 0.78481626510620117 0.66458070278167725
0.99999243021011353 0.84898889064788818 0.78351342678070068
0.96598893404006958 0.91735416650772095 0.90338104963302612
