assets/lut/picturefx zilverfx bw solarization.cube
# Created by: G'MIC (https://gmic.eu)
TITLE "zilverfx_bw_solarization"
# LUT size
LUT_3D_SIZE 5
# Data domain
DOMAIN_MIN 0.0 0.0 0.0
DOMAIN_MAX 1.0 1.0 1.0
# LUT data points
0.92589455842971802 0.92589455842971802 0.92589455842971802
0.33097738027572632 0.33097738027572632 0.33097738027572632
0.24006560444831848 0.24006560444831848 0.24006560444831848
0.14928461611270905 0.14928461611270905 0.14928461611270905
0.2416703999042511 0.2416703999042511 0.2416703999042511
0.099579997360706329 0.099579997360706329 0.099579997360706329
0.10850412398576736 0.10850412398576736 0.10850412398576736
0.2320450097322464 0.2320450097322464 0.2320450097322464
0.2640327513217926 0.2640327513217926 0.2640327513217926
0.38245704770088196 0.38245704770088196 0.38245704770088196
0.29841360449790955 0.29841360449790955 0.29841360449790955
0.37442693114280701 0.37442693114280701 0.37442693114280701
0.32133662700653076 0.32133662700653076 0.32133662700653076
0.17854794859886169 0.17854794859886169 0.17854794859886169
0.1083931103348732 0.1083931103348732 0.1083931103348732
0.31052723526954651 0.31052723526954651 0.31052723526954651
0.27263757586479187 0.27263757586479187 0.27263757586479187
0.1799113005399704 0.1799113005399704 0.1799113005399704
0.20639486610889435 0.20639486610889435 0.20639486610889435
0.1564420759677887 0.1564420759677887 0.1564420759677887
0.043693959712982178 0.043693959712982178 0.043693959712982178
0.00020069794845767319 0.00020069794845767319 0.00020069794845767319
0 0 0
0.045690067112445831 0.045690067112445831 0.045690067112445831
0 0 0
0.41851517558097839 0.41851517558097839 0.41851517558097839
0.25899550318717957 0.25899550318717957 0.25899550318717957
0.22989311814308167 0.22989311814308167 0.22989311814308167
0.12666109204292297 0.12666109204292297 0.12666109204292297
0.25769594311714172 0.25769594311714172 0.25769594311714172
0.079463362693786621 0.079463362693786621 0.079463362693786621
0.11244351416826248 0.11244351416826248 0.11244351416826248
0.25488454103469849 0.25488454103469849 0.25488454103469849
0.28561240434646606 0.28561240434646606 0.28561240434646606
0.38258230686187744 0.38258230686187744 0.38258230686187744
0.34002032876014709 0.34002032876014709 0.34002032876014709
0.40829089283943176 0.40829089283943176 0.40829089283943176
0.33102431893348694 0.33102431893348694 0.33102431893348694
0.20676709711551666 0.20676709711551666 0.20676709711551666
0.12426213175058365 0.12426213175058365 0.12426213175058365
0.32872194051742554 0.32872194051742554 0.32872194051742554
0.30304014682769775 0.30304014682769775 0.30304014682769775
0.20826034247875214 0.20826034247875214 0.20826034247875214
0.23321515321731567 0.23321515321731567 0.23321515321731567
0.19723610579967499 0.19723610579967499 0.19723610579967499
0.011704298667609692 0.011704298667609692 0.011704298667609692
0 0 0
0.002245286013931036 0.002245286013931036 0.002245286013931036
0.072890907526016235 0.072890907526016235 0.072890907526016235
0 0 0
0.34442037343978882 0.34442037343978882 0.34442037343978882
0.21718867123126984 0.21718867123126984 0.21718867123126984
0.26878318190574646 0.26878318190574646 0.26878318190574646
0.15860484540462494 0.15860484540462494 0.15860484540462494
0.29567962884902954 0.29567962884902954 0.29567962884902954
0.1292860209941864 0.1292860209941864 0.1292860209941864
0.14117158949375153 0.14117158949375153 0.14117158949375153
0.28513136506080627 0.28513136506080627 0.28513136506080627
0.28529715538024902 0.28529715538024902 0.28529715538024902
0.44006183743476868 0.44006183743476868 0.44006183743476868
0.46539220213890076 0.46539220213890076 0.46539220213890076
0.52955096960067749 0.52955096960067749 0.52955096960067749
0.42540982365608215 0.42540982365608215 0.42540982365608215
0.25307294726371765 0.25307294726371765 0.25307294726371765
0.19851163029670715 0.19851163029670715 0.19851163029670715
0.317181795835495 0.317181795835495 0.317181795835495
0.28156131505966187 0.28156131505966187 0.28156131505966187
0.20277607440948486 0.20277607440948486 0.20277607440948486
0.22177319228649139 0.22177319228649139 0.22177319228649139
0.20511749386787415 0.20511749386787415 0.20511749386787415
0.0034208409488201141 0.0034208409488201141 0.0034208409488201141
0.0044736973941326141 0.0044736973941326141 0.0044736973941326141
0.014307418838143349 0.014307418838143349 0.014307418838143349
0.066723629832267761 0.066723629832267761 0.066723629832267761
0.011811200529336929 0.011811200529336929 0.011811200529336929
0.16161744296550751 0.16161744296550751 0.16161744296550751
0.17841656506061554 0.17841656506061554 0.17841656506061554
0.23588873445987701 0.23588873445987701 0.23588873445987701
0.11317148804664612 0.11317148804664612 0.11317148804664612
0.25366660952568054 0.25366660952568054 0.25366660952568054
0.12927071750164032 0.12927071750164032 0.12927071750164032
0.18877176940441132 0.18877176940441132 0.18877176940441132
0.26577168703079224 0.26577168703079224 0.26577168703079224
0.25827175378799438 0.25827175378799438 0.25827175378799438
0.3723166286945343 0.3723166286945343 0.3723166286945343
0.56318706274032593 0.56318706274032593 0.56318706274032593
0.56743329763412476 0.56743329763412476 0.56743329763412476
0.39729699492454529 0.39729699492454529 0.39729699492454529
0.28411036729812622 0.28411036729812622 0.28411036729812622
0.23989933729171753 0.23989933729171753 0.23989933729171753
0.25799140334129333 0.25799140334129333 0.25799140334129333
0.21240521967411041 0.21240521967411041 0.21240521967411041
0.14751392602920532 0.14751392602920532 0.14751392602920532
0.16461260616779327 0.16461260616779327 0.16461260616779327
0.16663539409637451 0.16663539409637451 0.16663539409637451
0.056574158370494843 0.056574158370494843 0.056574158370494843
0.050935365259647369 0.050935365259647369 0.050935365259647369
0.061641708016395569 0.061641708016395569 0.061641708016395569
0.12002430111169815 0.12002430111169815 0.12002430111169815
0.070060506463050842 0.070060506463050842 0.070060506463050842
0.16474980115890503 0.16474980115890503 0.16474980115890503
0.19332469999790192 0.19332469999790192 0.19332469999790192
0.16876307129859924 0.16876307129859924 0.16876307129859924
0.089133352041244507 0.089133352041244507 0.089133352041244507
0.20355518162250519 0.20355518162250519 0.20355518162250519
0.1772078275680542 0.1772078275680542 0.1772078275680542
0.21911425888538361 0.21911425888538361 0.21911425888538361
0.20009170472621918 0.20009170472621918 0.20009170472621918
0.23419332504272461 0.23419332504272461 0.23419332504272461
0.31954172253608704 0.31954172253608704 0.31954172253608704
0.51645863056182861 0.51645863056182861 0.51645863056182861
0.47596442699432373 0.47596442699432373 0.47596442699432373
0.33071067929267883 0.33071067929267883 0.33071067929267883
0.29536479711532593 0.29536479711532593 0.29536479711532593
0.25415080785751343 0.25415080785751343 0.25415080785751343
0.17302212119102478 0.17302212119102478 0.17302212119102478
0.14324940741062164 0.14324940741062164 0.14324940741062164
0.11257345229387283 0.11257345229387283 0.11257345229387283
0.13674984872341156 0.13674984872341156 0.13674984872341156
0.15094009041786194 0.15094009041786194 0.15094009041786194
0.1056998148560524 0.1056998148560524 0.1056998148560524
0.10015824437141418 0.10015824437141418 0.10015824437141418
0.13484665751457214 0.13484665751457214 0.13484665751457214
0.17773580551147461 0.17773580551147461 0.17773580551147461
0.14379978179931641 0.14379978179931641 0.14379978179931641
