assets/lut/picturefx zilverfx bw solarization.cube
# Created by: G'MIC (https://gmic.eu)
TITLE "zilverfx_bw_solarization"
# LUT size
LUT_3D_SIZE 7
# Data domain
DOMAIN_MIN 0.0 0.0 0.0
DOMAIN_MAX 1.0 1.0 1.0
# LUT data points
0.92589455842971802 0.92589455842971802 0.92589455842971802
0.39953631162643433 0.39953631162643433 0.39953631162643433
0.24238678812980652 0.24238678812980652 0.24238678812980652
0.24006560444831848 0.24006560444831848 0.24006560444831848
0.22133688628673553 0.22133688628673553 0.22133688628673553
0.15014104545116425 0.15014104545116425 0.15014104545116425
0.2416703999042511 0.2416703999042511 0.2416703999042511
0.12434908002614975 0.12434908002614975 0.12434908002614975
0.11027807742357254 0.11027807742357254 0.11027807742357254
0.12938623130321503 0.12938623130321503 0.12938623130321503
0.19439259171485901 0.19439259171485901 0.19439259171485901
0.15587127208709717 0.15587127208709717 0.15587127208709717
0.2077794075012207 0.2077794075012207 0.2077794075012207
0.33009576797485352 0.33009576797485352 0.33009576797485352
0.2008100301027298 0.2008100301027298 0.2008100301027298
0.21606031060218811 0.21606031060218811 0.21606031060218811
0.33274990320205688 0.33274990320205688 0.33274990320205688
0.50365549325942993 0.50365549325942993 0.50365549325942993
0.39723086357116699 0.39723086357116699 0.39723086357116699
0.39999154210090637 0.39999154210090637 0.39999154210090637
0.36358091235160828 0.36358091235160828 0.36358091235160828
0.29841360449790955 0.29841360449790955 0.29841360449790955
0.32225796580314636 0.32225796580314636 0.32225796580314636
0.39841505885124207 0.39841505885124207 0.39841505885124207
0.32133662700653076 0.32133662700653076 0.32133662700653076
0.20096531510353088 0.20096531510353088 0.20096531510353088
0.17356219887733459 0.17356219887733459 0.17356219887733459
0.1083931103348732 0.1083931103348732 0.1083931103348732
0.25392282009124756 0.25392282009124756 0.25392282009124756
0.24156253039836884 0.24156253039836884 0.24156253039836884
0.24173977971076965 0.24173977971076965 0.24173977971076965
0.15403980016708374 0.15403980016708374 0.15403980016708374
0.15792283415794373 0.15792283415794373 0.15792283415794373
0.16873395442962646 0.16873395442962646 0.16873395442962646
0.15239231288433075 0.15239231288433075 0.15239231288433075
0.19318550825119019 0.19318550825119019 0.19318550825119019
0.17804208397865295 0.17804208397865295 0.17804208397865295
0.1494467705488205 0.1494467705488205 0.1494467705488205
0.13043931126594543 0.13043931126594543 0.13043931126594543
0.13185781240463257 0.13185781240463257 0.13185781240463257
0.13803648948669434 0.13803648948669434 0.13803648948669434
0.10444599390029907 0.10444599390029907 0.10444599390029907
0.043693959712982178 0.043693959712982178 0.043693959712982178
0.0086262272670865059 0.0086262272670865059 0.0086262272670865059
0 0 0
0 0 0
0.025881240144371986 0.025881240144371986 0.025881240144371986
0.034105382859706879 0.034105382859706879 0.034105382859706879
0 0 0
0.51373505592346191 0.51373505592346191 0.51373505592346191
0.34575313329696655 0.34575313329696655 0.34575313329696655
0.19197006523609161 0.19197006523609161 0.19197006523609161
0.22253350913524628 0.22253350913524628 0.22253350913524628
0.19023200869560242 0.19023200869560242 0.19023200869560242
0.14174394309520721 0.14174394309520721 0.14174394309520721
0.23419702053070068 0.23419702053070068 0.23419702053070068
0.084019005298614502 0.084019005298614502 0.084019005298614502
0.08356843888759613 0.08356843888759613 0.08356843888759613
0.10821074247360229 0.10821074247360229 0.10821074247360229
0.17770463228225708 0.17770463228225708 0.17770463228225708
0.1475822776556015 0.1475822776556015 0.1475822776556015
0.21871064603328705 0.21871064603328705 0.21871064603328705
0.32053640484809875 0.32053640484809875 0.32053640484809875
0.20016360282897949 0.20016360282897949 0.20016360282897949
0.21540233492851257 0.21540233492851257 0.21540233492851257
0.34669297933578491 0.34669297933578491 0.34669297933578491
0.50142335891723633 0.50142335891723633 0.50142335891723633
0.39278799295425415 0.39278799295425415 0.39278799295425415
0.40940564870834351 0.40940564870834351 0.40940564870834351
0.34695550799369812 0.34695550799369812 0.34695550799369812
0.30653432011604309 0.30653432011604309 0.30653432011604309
0.34338214993476868 0.34338214993476868 0.34338214993476868
0.39128148555755615 0.39128148555755615 0.39128148555755615
0.32955321669578552 0.32955321669578552 0.32955321669578552
0.19506736099720001 0.19506736099720001 0.19506736099720001
0.18641315400600433 0.18641315400600433 0.18641315400600433
0.11397960782051086 0.11397960782051086 0.11397960782051086
0.27143681049346924 0.27143681049346924 0.27143681049346924
0.26016056537628174 0.26016056537628174 0.26016056537628174
0.23245745897293091 0.23245745897293091 0.23245745897293091
0.16491392254829407 0.16491392254829407 0.16491392254829407
0.16010367870330811 0.16010367870330811 0.16010367870330811
0.19297333061695099 0.19297333061695099 0.19297333061695099
0.15907852351665497 0.15907852351665497 0.15907852351665497
0.21304211020469666 0.21304211020469666 0.21304211020469666
0.20061637461185455 0.20061637461185455 0.20061637461185455
0.16454912722110748 0.16454912722110748 0.16454912722110748
0.15131762623786926 0.15131762623786926 0.15131762623786926
0.16544477641582489 0.16544477641582489 0.16544477641582489
0.17601077258586884 0.17601077258586884 0.17601077258586884
0.13392049074172974 0.13392049074172974 0.13392049074172974
0.028804689645767212 0.028804689645767212 0.028804689645767212
0.00011381261720089242 0.00011381261720089242 0.00011381261720089242
0 0 0
4.9546186346560717e-05 4.9546186346560717e-05 4.9546186346560717e-05
0.040887165814638138 0.040887165814638138 0.040887165814638138
0.044811531901359558 0.044811531901359558 0.044811531901359558
0 0 0
0.39292189478874207 0.39292189478874207 0.39292189478874207
0.31986221671104431 0.31986221671104431 0.31986221671104431
0.18978278338909149 0.18978278338909149 0.18978278338909149
0.25254401564598083 0.25254401564598083 0.25254401564598083
0.19084781408309937 0.19084781408309937 0.19084781408309937
0.17148903012275696 0.17148903012275696 0.17148903012275696
0.29896813631057739 0.29896813631057739 0.29896813631057739
0.10476913303136826 0.10476913303136826 0.10476913303136826
0.096112027764320374 0.096112027764320374 0.096112027764320374
0.1416945606470108 0.1416945606470108 0.1416945606470108
0.21624577045440674 0.21624577045440674 0.21624577045440674
0.18879762291908264 0.18879762291908264 0.18879762291908264
0.25269785523414612 0.25269785523414612 0.25269785523414612
0.36620795726776123 0.36620795726776123 0.36620795726776123
0.23312613368034363 0.23312613368034363 0.23312613368034363
0.28036081790924072 0.28036081790924072 0.28036081790924072
0.4366031289100647 0.4366031289100647 0.4366031289100647
0.58258289098739624 0.58258289098739624 0.58258289098739624
0.42865711450576782 0.42865711450576782 0.42865711450576782
0.46077644824981689 0.46077644824981689 0.46077644824981689
0.41394743323326111 0.41394743323326111 0.41394743323326111
0.40300565958023071 0.40300565958023071 0.40300565958023071
0.44674792885780334 0.44674792885780334 0.44674792885780334
0.47455939650535583 0.47455939650535583 0.47455939650535583
0.38042649626731873 0.38042649626731873 0.38042649626731873
0.23935922980308533 0.23935922980308533 0.23935922980308533
0.2318151593208313 0.2318151593208313 0.2318151593208313
0.15256182849407196 0.15256182849407196 0.15256182849407196
0.28599458932876587 0.28599458932876587 0.28599458932876587
0.27169120311737061 0.27169120311737061 0.27169120311737061
0.25356623530387878 0.25356623530387878 0.25356623530387878
0.18428483605384827 0.18428483605384827 0.18428483605384827
0.16938413679599762 0.16938413679599762 0.16938413679599762
0.20266199111938477 0.20266199111938477 0.20266199111938477
0.18059006333351135 0.18059006333351135 0.18059006333351135
0.27655225992202759 0.27655225992202759 0.27655225992202759
0.24976649880409241 0.24976649880409241 0.24976649880409241
0.21987099945545197 0.21987099945545197 0.21987099945545197
0.19513571262359619 0.19513571262359619 0.19513571262359619
0.2065746933221817 0.2065746933221817 0.2065746933221817
0.21847312152385712 0.21847312152385712 0.21847312152385712
0.1891159862279892 0.1891159862279892 0.1891159862279892
0.0067342421971261501 0.0067342421971261501 0.0067342421971261501
4.308364077587612e-05 4.308364077587612e-05 4.308364077587612e-05
0.00096722773741930723 0.00096722773741930723 0.00096722773741930723
0.0063650393858551979 0.0063650393858551979 0.0063650393858551979
0.038810849189758301 0.038810849189758301 0.038810849189758301
0.041801080107688904 0.041801080107688904 0.041801080107688904
0.0019339168211445212 0.0019339168211445212 0.0019339168211445212
0.34442037343978882 0.34442037343978882 0.34442037343978882
0.27531895041465759 0.27531895041465759 0.27531895041465759
0.20822440087795258 0.20822440087795258 0.20822440087795258
0.26878318190574646 0.26878318190574646 0.26878318190574646
0.20606541633605957 0.20606541633605957 0.20606541633605957
0.17543511092662811 0.17543511092662811 0.17543511092662811
0.29567962884902954 0.29567962884902954 0.29567962884902954
0.10981588810682297 0.10981588810682297 0.10981588810682297
0.12228948622941971 0.12228948622941971 0.12228948622941971
0.16310910880565643 0.16310910880565643 0.16310910880565643
0.22558692097663879 0.22558692097663879 0.22558692097663879
0.17847025394439697 0.17847025394439697 0.17847025394439697
0.23723876476287842 0.23723876476287842 0.23723876476287842
0.3784024715423584 0.3784024715423584 0.3784024715423584
0.25060448050498962 0.25060448050498962 0.25060448050498962
0.29442021250724792 0.29442021250724792 0.29442021250724792
0.44868436455726624 0.44868436455726624 0.44868436455726624
0.56025874614715576 0.56025874614715576 0.56025874614715576
0.41619902849197388 0.41619902849197388 0.41619902849197388
0.45175522565841675 0.45175522565841675 0.45175522565841675
0.45303869247436523 0.45303869247436523 0.45303869247436523
0.46539220213890076 0.46539220213890076 0.46539220213890076
0.49328336119651794 0.49328336119651794 0.49328336119651794
0.52207010984420776 0.52207010984420776 0.52207010984420776
0.42540982365608215 0.42540982365608215 0.42540982365608215
0.2549712061882019 0.2549712061882019 0.2549712061882019
0.26966959238052368 0.26966959238052368 0.26966959238052368
0.19851163029670715 0.19851163029670715 0.19851163029670715
0.23854546248912811 0.23854546248912811 0.23854546248912811
0.23099541664123535 0.23099541664123535 0.23099541664123535
0.21224406361579895 0.21224406361579895 0.21224406361579895
0.15661485493183136 0.15661485493183136 0.15661485493183136
0.13867767155170441 0.13867767155170441 0.13867767155170441
0.1738133579492569 0.1738133579492569 0.1738133579492569
0.15880730748176575 0.15880730748176575 0.15880730748176575
0.28230366110801697 0.28230366110801697 0.28230366110801697
0.24941821396350861 0.24941821396350861 0.24941821396350861
0.22018492221832275 0.22018492221832275 0.22018492221832275
0.19438321888446808 0.19438321888446808 0.19438321888446808
0.21451884508132935 0.21451884508132935 0.21451884508132935
0.23298916220664978 0.23298916220664978 0.23298916220664978
0.20108218491077423 0.20108218491077423 0.20108218491077423
0.0034208409488201141 0.0034208409488201141 0.0034208409488201141
0.0025221880059689283 0.0025221880059689283 0.0025221880059689283
0.0047393799759447575 0.0047393799759447575 0.0047393799759447575
0.014307418838143349 0.014307418838143349 0.014307418838143349
0.051002055406570435 0.051002055406570435 0.051002055406570435
0.05662141740322113 0.05662141740322113 0.05662141740322113
0.011811200529336929 0.011811200529336929 0.011811200529336929
0.18905702233314514 0.18905702233314514 0.18905702233314514
0.15977346897125244 0.15977346897125244 0.15977346897125244
0.18666402995586395 0.18666402995586395 0.18666402995586395
0.24323281645774841 0.24323281645774841 0.24323281645774841
0.14110109210014343 0.14110109210014343 0.14110109210014343
0.13634350895881653 0.13634350895881653 0.13634350895881653
0.25107172131538391 0.25107172131538391 0.25107172131538391
0.099955059587955475 0.099955059587955475 0.099955059587955475
0.12404455989599228 0.12404455989599228 0.12404455989599228
0.16291753947734833 0.16291753947734833 0.16291753947734833
0.19432997703552246 0.19432997703552246 0.19432997703552246
0.15750992298126221 0.15750992298126221 0.15750992298126221
0.20749601721763611 0.20749601721763611 0.20749601721763611
0.31249934434890747 0.31249934434890747 0.31249934434890747
0.26819020509719849 0.26819020509719849 0.26819020509719849
0.33136296272277832 0.33136296272277832 0.33136296272277832
0.40490061044692993 0.40490061044692993 0.40490061044692993
0.43577101826667786 0.43577101826667786 0.43577101826667786
0.35263738036155701 0.35263738036155701 0.35263738036155701
0.38784855604171753 0.38784855604171753 0.38784855604171753
0.39957135915756226 0.39957135915756226 0.39957135915756226
0.50605392456054688 0.50605392456054688 0.50605392456054688
0.53013402223587036 0.53013402223587036 0.53013402223587036
0.51302230358123779 0.51302230358123779 0.51302230358123779
0.38597580790519714 0.38597580790519714 0.38597580790519714
0.25998055934906006 0.25998055934906006 0.25998055934906006
0.26649934053421021 0.26649934053421021 0.26649934053421021
0.21039508283138275 0.21039508283138275 0.21039508283138275
0.20936676859855652 0.20936676859855652 0.20936676859855652
0.18183624744415283 0.18183624744415283 0.18183624744415283
0.1765579879283905 0.1765579879283905 0.1765579879283905
0.11582318693399429 0.11582318693399429 0.11582318693399429
0.1036510244011879 0.1036510244011879 0.1036510244011879
0.12283755838871002 0.12283755838871002 0.12283755838871002
0.11860787123441696 0.11860787123441696 0.11860787123441696
0.25688722729682922 0.25688722729682922 0.25688722729682922
0.23287089169025421 0.23287089169025421 0.23287089169025421
0.19498534500598907 0.19498534500598907 0.19498534500598907
0.16298693418502808 0.16298693418502808 0.16298693418502808
0.19270899891853333 0.19270899891853333 0.19270899891853333
0.21094073355197906 0.21094073355197906 0.21094073355197906
0.19006593525409698 0.19006593525409698 0.19006593525409698
0.026797635480761528 0.026797635480761528 0.026797635480761528
0.02772553451359272 0.02772553451359272 0.02772553451359272
0.018624398857355118 0.018624398857355118 0.018624398857355118
0.031135767698287964 0.031135767698287964 0.031135767698287964
0.08475475013256073 0.08475475013256073 0.08475475013256073
0.091505475342273712 0.091505475342273712 0.091505475342273712
0.039534207433462143 0.039534207433462143 0.039534207433462143
0.16370187699794769 0.16370187699794769 0.16370187699794769
0.17951792478561401 0.17951792478561401 0.17951792478561401
0.21764014661312103 0.21764014661312103 0.21764014661312103
0.209498330950737 0.209498330950737 0.209498330950737
0.12133017182350159 0.12133017182350159 0.12133017182350159
0.14713814854621887 0.14713814854621887 0.14713814854621887
0.24418964982032776 0.24418964982032776 0.24418964982032776
0.13645131886005402 0.13645131886005402 0.13645131886005402
0.17463922500610352 0.17463922500610352 0.17463922500610352
0.20389500260353088 0.20389500260353088 0.20389500260353088
0.19412656128406525 0.19412656128406525 0.19412656128406525
0.13669402897357941 0.13669402897357941 0.13669402897357941
0.21670316159725189 0.21670316159725189 0.21670316159725189
0.31037864089012146 0.31037864089012146 0.31037864089012146
0.33700072765350342 0.33700072765350342 0.33700072765350342
0.38648366928100586 0.38648366928100586 0.38648366928100586
0.4159543514251709 0.4159543514251709 0.4159543514251709
0.41271680593490601 0.41271680593490601 0.41271680593490601
0.33829981088638306 0.33829981088638306 0.33829981088638306
0.39821913838386536 0.39821913838386536 0.39821913838386536
0.41054525971412659 0.41054525971412659 0.41054525971412659
0.56496703624725342 0.56496703624725342 0.56496703624725342
0.57452356815338135 0.57452356815338135 0.57452356815338135
0.53171628713607788 0.53171628713607788 0.53171628713607788
0.39712893962860107 0.39712893962860107 0.39712893962860107
0.31167489290237427 0.31167489290237427 0.31167489290237427
0.31424897909164429 0.31424897909164429 0.31424897909164429
0.26781544089317322 0.26781544089317322 0.26781544089317322
0.19298593699932098 0.19298593699932098 0.19298593699932098
0.18189924955368042 0.18189924955368042 0.18189924955368042
0.17247116565704346 0.17247116565704346 0.17247116565704346
0.12311631441116333 0.12311631441116333 0.12311631441116333
0.12017679959535599 0.12017679959535599 0.12017679959535599
0.12746337056159973 0.12746337056159973 0.12746337056159973
0.12700647115707397 0.12700647115707397 0.12700647115707397
0.23945967853069305 0.23945967853069305 0.23945967853069305
0.22667583823204041 0.22667583823204041 0.22667583823204041
0.1919742226600647 0.1919742226600647 0.1919742226600647
0.17141477763652802 0.17141477763652802 0.17141477763652802
0.18883216381072998 0.18883216381072998 0.18883216381072998
0.20585860311985016 0.20585860311985016 0.20585860311985016
0.20259219408035278 0.20259219408035278 0.20259219408035278
0.083320394158363342 0.083320394158363342 0.083320394158363342
0.0817246213555336 0.0817246213555336 0.0817246213555336
0.078831680119037628 0.078831680119037628 0.078831680119037628
0.097626104950904846 0.097626104950904846 0.097626104950904846
0.136908158659935 0.136908158659935 0.136908158659935
0.13966034352779388 0.13966034352779388 0.13966034352779388
0.10952591150999069 0.10952591150999069 0.10952591150999069
0.16474980115890503 0.16474980115890503 0.16474980115890503
0.18544155359268188 0.18544155359268188 0.18544155359268188
0.19892893731594086 0.19892893731594086 0.19892893731594086
0.16876307129859924 0.16876307129859924 0.16876307129859924
0.08886265754699707 0.08886265754699707 0.08886265754699707
0.11997471004724503 0.11997471004724503 0.11997471004724503
0.20355518162250519 0.20355518162250519 0.20355518162250519
0.15337002277374268 0.15337002277374268 0.15337002277374268
0.17570951581001282 0.17570951581001282 0.17570951581001282
0.17525209486484528 0.17525209486484528 0.17525209486484528
0.15192613005638123 0.15192613005638123 0.15192613005638123
0.12826932966709137 0.12826932966709137 0.12826932966709137
0.20425249636173248 0.20425249636173248 0.20425249636173248
0.2725159227848053 0.2725159227848053 0.2725159227848053
0.3573392927646637 0.3573392927646637 0.3573392927646637
0.35911679267883301 0.35911679267883301 0.35911679267883301
0.3824152946472168 0.3824152946472168 0.3824152946472168
0.32603052258491516 0.32603052258491516 0.32603052258491516
0.2894059419631958 0.2894059419631958 0.2894059419631958
0.3498263955116272 0.3498263955116272 0.3498263955116272
0.34862977266311646 0.34862977266311646 0.34862977266311646
0.51645863056182861 0.51645863056182861 0.51645863056182861
0.49231097102165222 0.49231097102165222 0.49231097102165222
0.4311499297618866 0.4311499297618866 0.4311499297618866
0.33071067929267883 0.33071067929267883 0.33071067929267883
0.27934378385543823 0.27934378385543823 0.27934378385543823
0.30816572904586792 0.30816572904586792 0.30816572904586792
0.25415080785751343 0.25415080785751343 0.25415080785751343
0.17164033651351929 0.17164033651351929 0.17164033651351929
0.1426185816526413 0.1426185816526413 0.1426185816526413
0.12800909578800201 0.12800909578800201 0.12800909578800201
0.10389930754899979 0.10389930754899979 0.10389930754899979
0.098403587937355042 0.098403587937355042 0.098403587937355042
0.11880531907081604 0.11880531907081604 0.11880531907081604
0.11934392899274826 0.11934392899274826 0.11934392899274826
0.19259093701839447 0.19259093701839447 0.19259093701839447
0.17280864715576172 0.17280864715576172 0.17280864715576172
0.16448536515235901 0.16448536515235901 0.16448536515235901
0.15224570035934448 0.15224570035934448 0.15224570035934448
0.17507739365100861 0.17507739365100861 0.17507739365100861
0.19194728136062622 0.19194728136062622 0.19194728136062622
0.19096726179122925 0.19096726179122925 0.19096726179122925
0.1056998148560524 0.1056998148560524 0.1056998148560524
0.097353033721446991 0.097353033721446991 0.097353033721446991
0.10834144055843353 0.10834144055843353 0.10834144055843353
0.13484665751457214 0.13484665751457214 0.13484665751457214
0.16894152760505676 0.16894152760505676 0.16894152760505676
0.17432732880115509 0.17432732880115509 0.17432732880115509
0.14379978179931641 0.14379978179931641 0.14379978179931641
