assets/lut/picturefx faux infrared bw 1.cube
# Created by: G'MIC (https://gmic.eu)
TITLE "faux_infrared_bw_1"
# LUT size
LUT_3D_SIZE 5
# Data domain
DOMAIN_MIN 0.0 0.0 0.0
DOMAIN_MAX 1.0 1.0 1.0
# LUT data points
0.094137303531169891 0.094137303531169891 0.094137303531169891
0.47878485918045044 0.47878485918045044 0.47878485918045044
0.89762181043624878 0.89762181043624878 0.89762181043624878
0.95468652248382568 0.95468652248382568 0.95468652248382568
0.97696220874786377 0.97696220874786377 0.97696220874786377
0.4906180202960968 0.4906180202960968 0.4906180202960968
0.78237819671630859 0.78237819671630859 0.78237819671630859
0.84314501285552979 0.84314501285552979 0.84314501285552979
0.95188748836517334 0.95188748836517334 0.95188748836517334
0.96300917863845825 0.96300917863845825 0.96300917863845825
0.82366174459457397 0.82366174459457397 0.82366174459457397
0.98112332820892334 0.98112332820892334 0.98112332820892334
0.95979166030883789 0.95979166030883789 0.95979166030883789
0.93928992748260498 0.93928992748260498 0.93928992748260498
0.97327244281768799 0.97327244281768799 0.97327244281768799
0.98056042194366455 0.98056042194366455 0.98056042194366455
0.9843137264251709 0.9843137264251709 0.9843137264251709
0.98109692335128784 0.98109692335128784 0.98109692335128784
0.94205778837203979 0.94205778837203979 0.94205778837203979
0.98974549770355225 0.98974549770355225 0.98974549770355225
0.9892541766166687 0.9892541766166687 0.9892541766166687
0.9843137264251709 0.9843137264251709 0.9843137264251709
0.98039215803146362 0.98039215803146362 0.98039215803146362
0.98276913166046143 0.98276913166046143 0.98276913166046143
0.97447353601455688 0.97447353601455688 0.97447353601455688
0.177535280585289 0.177535280585289 0.177535280585289
0.4851183295249939 0.4851183295249939 0.4851183295249939
0.90433269739151001 0.90433269739151001 0.90433269739151001
0.97790884971618652 0.97790884971618652 0.97790884971618652
0.98039215803146362 0.98039215803146362 0.98039215803146362
0.016609789803624153 0.016609789803624153 0.016609789803624153
0.52414536476135254 0.52414536476135254 0.52414536476135254
0.86066931486129761 0.86066931486129761 0.86066931486129761
0.95932918787002563 0.95932918787002563 0.95932918787002563
0.97397142648696899 0.97397142648696899 0.97397142648696899
0.42338761687278748 0.42338761687278748 0.42338761687278748
0.90454345941543579 0.90454345941543579 0.90454345941543579
0.94572180509567261 0.94572180509567261 0.94572180509567261
0.9445614218711853 0.9445614218711853 0.9445614218711853
0.98275339603424072 0.98275339603424072 0.98275339603424072
0.89884835481643677 0.89884835481643677 0.89884835481643677
0.98160964250564575 0.98160964250564575 0.98160964250564575
0.98759281635284424 0.98759281635284424 0.98759281635284424
0.95003253221511841 0.95003253221511841 0.95003253221511841
0.99347108602523804 0.99347108602523804 0.99347108602523804
0.98409485816955566 0.98409485816955566 0.98409485816955566
0.98261117935180664 0.98261117935180664 0.98261117935180664
0.97650182247161865 0.97650182247161865 0.97650182247161865
0.9829602837562561 0.9829602837562561 0.9829602837562561
0.96763330698013306 0.96763330698013306 0.96763330698013306
0.34259924292564392 0.34259924292564392 0.34259924292564392
0.52510195970535278 0.52510195970535278 0.52510195970535278
0.89101022481918335 0.89101022481918335 0.89101022481918335
0.98384422063827515 0.98384422063827515 0.98384422063827515
0.98401498794555664 0.98401498794555664 0.98401498794555664
0.09913741797208786 0.09913741797208786 0.09913741797208786
0.40328052639961243 0.40328052639961243 0.40328052639961243
0.86574918031692505 0.86574918031692505 0.86574918031692505
0.98807203769683838 0.98807203769683838 0.98807203769683838
0.98562252521514893 0.98562252521514893 0.98562252521514893
0.044888783246278763 0.044888783246278763 0.044888783246278763
0.21921315789222717 0.21921315789222717 0.21921315789222717
0.84558951854705811 0.84558951854705811 0.84558951854705811
0.97733145952224731 0.97733145952224731 0.97733145952224731
0.98877012729644775 0.98877012729644775 0.98877012729644775
0.25764265656471252 0.25764265656471252 0.25764265656471252
0.6690603494644165 0.6690603494644165 0.6690603494644165
0.98354589939117432 0.98354589939117432 0.98354589939117432
0.96745842695236206 0.96745842695236206 0.96745842695236206
0.99602901935577393 0.99602901935577393 0.99602901935577393
0.79790133237838745 0.79790133237838745 0.79790133237838745
0.957710862159729 0.957710862159729 0.957710862159729
0.98080193996429443 0.98080193996429443 0.98080193996429443
0.98396557569503784 0.98396557569503784 0.98396557569503784
0.96450769901275635 0.96450769901275635 0.96450769901275635
0.49466454982757568 0.49466454982757568 0.49466454982757568
0.63037323951721191 0.63037323951721191 0.63037323951721191
0.86415809392929077 0.86415809392929077 0.86415809392929077
0.97400140762329102 0.97400140762329102 0.97400140762329102
0.98393398523330688 0.98393398523330688 0.98393398523330688
0.3847852349281311 0.3847852349281311 0.3847852349281311
0.54527395963668823 0.54527395963668823 0.54527395963668823
0.83822637796401978 0.83822637796401978 0.83822637796401978
0.98024868965148926 0.98024868965148926 0.98024868965148926
0.9843137264251709 0.9843137264251709 0.9843137264251709
0.069736957550048828 0.069736957550048828 0.069736957550048828
0.18695832788944244 0.18695832788944244 0.18695832788944244
0.70372587442398071 0.70372587442398071 0.70372587442398071
0.98778140544891357 0.98778140544891357 0.98778140544891357
0.98667764663696289 0.98667764663696289 0.98667764663696289
0.089250572025775909 0.089250572025775909 0.089250572025775909
0.10250398516654968 0.10250398516654968 0.10250398516654968
0.68467909097671509 0.68467909097671509 0.68467909097671509
0.98217040300369263 0.98217040300369263 0.98217040300369263
0.99590522050857544 0.99590522050857544 0.99590522050857544
0.15359276533126831 0.15359276533126831 0.15359276533126831
0.38267964124679565 0.38267964124679565 0.38267964124679565
0.91999107599258423 0.91999107599258423 0.91999107599258423
0.97446620464324951 0.97446620464324951 0.97446620464324951
0.9404638409614563 0.9404638409614563 0.9404638409614563
0.64917010068893433 0.64917010068893433 0.64917010068893433
0.74507611989974976 0.74507611989974976 0.74507611989974976
0.85929638147354126 0.85929638147354126 0.85929638147354126
0.94614839553833008 0.94614839553833008 0.94614839553833008
0.98588645458221436 0.98588645458221436 0.98588645458221436
0.57098579406738281 0.57098579406738281 0.57098579406738281
0.68132013082504272 0.68132013082504272 0.68132013082504272
0.84817051887512207 0.84817051887512207 0.84817051887512207
0.93938356637954712 0.93938356637954712 0.93938356637954712
0.98043256998062134 0.98043256998062134 0.98043256998062134
0.24833856523036957 0.24833856523036957 0.24833856523036957
0.45362120866775513 0.45362120866775513 0.45362120866775513
0.78660184144973755 0.78660184144973755 0.78660184144973755
0.96239960193634033 0.96239960193634033 0.96239960193634033
0.99230855703353882 0.99230855703353882 0.99230855703353882
0.11654139310121536 0.11654139310121536 0.11654139310121536
0.1167507991194725 0.1167507991194725 0.1167507991194725
0.38556891679763794 0.38556891679763794 0.38556891679763794
0.97581088542938232 0.97581088542938232 0.97581088542938232
0.99607843160629272 0.99607843160629272 0.99607843160629272
0.1232144683599472 0.1232144683599472 0.1232144683599472
0.12792809307575226 0.12792809307575226 0.12792809307575226
0.31888386607170105 0.31888386607170105 0.31888386607170105
0.87369275093078613 0.87369275093078613 0.87369275093078613
0.9368254542350769 0.9368254542350769 0.9368254542350769
