assets/lut/picturefx faux infrared color r0b.cube
# Created by: G'MIC (https://gmic.eu)
TITLE "faux_infrared_color_r0b"
# LUT size
LUT_3D_SIZE 7
# Data domain
DOMAIN_MIN 0.0 0.0 0.0
DOMAIN_MAX 1.0 1.0 1.0
# LUT data points
0.049663916230201721 0.036338552832603455 0.039092298597097397
0.20873954892158508 0.021643934771418571 0.034967176616191864
0.48371037840843201 0.0049611558206379414 0.062862291932106018
0.74385190010070801 0.00034586587571538985 0.095758311450481415
0.89680582284927368 0.0077240588143467903 0.14543260633945465
0.96424716711044312 0.02846851758658886 0.17858031392097473
0.96871846914291382 0.037366993725299835 0.18076825141906738
0.27889817953109741 0.04998556524515152 0.074229881167411804
0.40319165587425232 0.017439000308513641 0.067990310490131378
0.59624689817428589 0.00023941339168231934 0.07477259635925293
0.77538716793060303 0.0036648469977080822 0.10616621375083923
0.91072726249694824 0.016336388885974884 0.150713250041008
0.9723670482635498 0.055236965417861938 0.18677736818790436
0.97780680656433105 0.067462503910064697 0.19271726906299591
0.59602481126785278 0.054246969521045685 0.13654854893684387
0.65576481819152832 0.018678538501262665 0.1259743869304657
0.75803488492965698 0.0028276930097490549 0.11045379936695099
0.85813063383102417 0.011792874895036221 0.1333807110786438
0.95027196407318115 0.047594856470823288 0.17722451686859131
0.99260431528091431 0.10137498378753662 0.20500016212463379
0.99378705024719238 0.11070723831653595 0.20955120027065277
0.80809587240219116 0.1678277850151062 0.23802778124809265
0.83036959171295166 0.14899377524852753 0.22825615108013153
0.88277029991149902 0.12108664214611053 0.21367421746253967
0.94134867191314697 0.087416902184486389 0.19861140847206116
0.99065828323364258 0.11955210566520691 0.21363538503646851
1 0.1598852276802063 0.2341882735490799
0.9982261061668396 0.17535345256328583 0.24359650909900665
0.9166407585144043 0.29928615689277649 0.34771758317947388
0.93128734827041626 0.29766386747360229 0.34535393118858337
0.96188813447952271 0.27984002232551575 0.32802823185920715
0.99092292785644531 0.25470772385597229 0.30535995960235596
0.99917834997177124 0.23281677067279816 0.28386545181274414
1 0.23341555893421173 0.27913466095924377
1 0.23579877614974976 0.2781379222869873
0.98488283157348633 0.38929629325866699 0.43019625544548035
0.98764348030090332 0.38399562239646912 0.42456695437431335
0.99331480264663696 0.37552386522293091 0.41284072399139404
0.99897831678390503 0.35955283045768738 0.39351814985275269
1 0.33454558253288269 0.36558336019515991
1 0.32162454724311829 0.34921079874038696
1 0.32094162702560425 0.34750211238861084
0.99991816282272339 0.45968508720397949 0.49555912613868713
0.99946630001068115 0.45278164744377136 0.48846727609634399
0.99607843160629272 0.44718298316001892 0.48026397824287415
1 0.43749961256980896 0.46627521514892578
1 0.41405919194221497 0.43757244944572449
1 0.40251824259757996 0.42087188363075256
1 0.4076429009437561 0.4223155677318573
0.011034078896045685 0.29541698098182678 0.33618602156639099
0.018323697149753571 0.28981882333755493 0.32567310333251953
0.30988922715187073 0.25530073046684265 0.29192551970481873
0.70800274610519409 0.13358767330646515 0.21234859526157379
0.90439826250076294 0.027840811759233475 0.1627328097820282
0.96813809871673584 0.060822609812021255 0.19021964073181152
0.96911090612411499 0.074671275913715363 0.19560970366001129
0.030098874121904373 0.31648823618888855 0.35278579592704773
0.11185471713542938 0.30855578184127808 0.34377554059028625
0.43849384784698486 0.26958456635475159 0.31035158038139343
0.74656432867050171 0.14448842406272888 0.22677114605903625
0.91595578193664551 0.034888710826635361 0.17068670690059662
0.97492951154708862 0.063669927418231964 0.19045008718967438
0.97824722528457642 0.071484886109828949 0.19273024797439575
0.32901301980018616 0.34946921467781067 0.3869970440864563
0.42823383212089539 0.33846759796142578 0.37696298956871033
0.61728048324584961 0.3001861572265625 0.34603723883628845
0.82365119457244873 0.18780063092708588 0.26636680960655212
0.95460039377212524 0.077798090875148773 0.19932661950588226
0.99659943580627441 0.11109134554862976 0.20898686349391937
0.99752122163772583 0.11143118143081665 0.20896193385124207
0.60852885246276855 0.38231539726257324 0.42688015103340149
0.6606939435005188 0.37310287356376648 0.41587918996810913
0.7762763500213623 0.34678983688354492 0.39377644658088684
0.90184587240219116 0.26576706767082214 0.32697588205337524
0.99033612012863159 0.17019723355770111 0.24674965441226959
1 0.17397429049015045 0.24315989017486572
1 0.17567902803421021 0.24217778444290161
0.79825633764266968 0.42761024832725525 0.47502279281616211
0.83236181735992432 0.42123889923095703 0.46625262498855591
0.89532899856567383 0.39896821975708008 0.44366252422332764
0.96660608053207397 0.34397086501121521 0.38886609673500061
0.99665230512619019 0.26772341132164001 0.31338739395141602
1 0.2454829066991806 0.28863328695297241
1 0.2567564845085144 0.2969505786895752
0.90754520893096924 0.47690877318382263 0.52221286296844482
0.92575323581695557 0.46733886003494263 0.51255375146865845
0.96170449256896973 0.4510495662689209 0.49431738257408142
0.98809927701950073 0.41493803262710571 0.45315822958946228
0.99597978591918945 0.36781549453735352 0.40041834115982056
1 0.33475175499916077 0.36082124710083008
1 0.3363630473613739 0.36090713739395142
0.98248803615570068 0.51712954044342041 0.56138378381729126
0.98199379444122314 0.51372283697128296 0.55763274431228638
0.98069900274276733 0.5018622875213623 0.5429682731628418
0.99383342266082764 0.47375339269638062 0.50588715076446533
0.99810338020324707 0.43938508629798889 0.46455106139183044
1 0.40953800082206726 0.4264596700668335
1 0.41647714376449585 0.43151387572288513
0.13258595764636993 0.51332306861877441 0.56667995452880859
0.10451172292232513 0.51272046566009521 0.56659555435180664
0.092001430690288544 0.50836026668548584 0.55894666910171509
0.3176054060459137 0.49405708909034729 0.54138433933258057
0.62380611896514893 0.46386617422103882 0.51007091999053955
0.79247957468032837 0.43162652850151062 0.47676140069961548
0.79083353281021118 0.43288981914520264 0.47775751352310181
0.13974334299564362 0.52994859218597412 0.58051985502243042
0.11549555510282516 0.52096188068389893 0.57128214836120605
0.1146295890212059 0.51263159513473511 0.56460905075073242
0.37829363346099854 0.49739140272140503 0.54574239253997803
0.64179134368896484 0.46613231301307678 0.51200789213180542
0.79965448379516602 0.43454790115356445 0.48036488890647888
0.80185359716415405 0.43346723914146423 0.47967261075973511
0.15291024744510651 0.54017108678817749 0.59127676486968994
0.14963778853416443 0.53502345085144043 0.58584630489349365
0.27266672253608704 0.52580255270004272 0.57746940851211548
0.48169612884521484 0.50877082347869873 0.55738037824630737
0.70313096046447754 0.47546422481536865 0.52314537763595581
0.84580683708190918 0.44384884834289551 0.49077379703521729
0.84444499015808105 0.44478872418403625 0.49168586730957031
0.33535522222518921 0.55746787786483765 0.60887032747268677
0.38770642876625061 0.55450946092605591 0.60538548231124878
0.48534846305847168 0.54436051845550537 0.59517097473144531
0.61069577932357788 0.52537918090820312 0.57578408718109131
0.7804332971572876 0.49460801482200623 0.54201191663742065
0.89787000417709351 0.46783351898193359 0.51385664939880371
0.89971059560775757 0.46733605861663818 0.51329576969146729
0.55705559253692627 0.57895141839981079 0.63259649276733398
0.58277720212936401 0.57638853788375854 0.62960672378540039
0.64369052648544312 0.56853365898132324 0.62069785594940186
0.74038279056549072 0.55015432834625244 0.60167509317398071
0.86581021547317505 0.52032804489135742 0.56856036186218262
0.9443436861038208 0.49829310178756714 0.54350703954696655
0.95006495714187622 0.49583026766777039 0.53970009088516235
0.70479333400726318 0.60712242126464844 0.66120171546936035
0.71663582324981689 0.60822546482086182 0.66207349300384521
0.75758099555969238 0.60183042287826538 0.65543878078460693
0.83021336793899536 0.58159083127975464 0.633403480052948
0.92521744966506958 0.55350065231323242 0.60100460052490234
0.9727979302406311 0.53448688983917236 0.57748246192932129
0.98042231798171997 0.53219538927078247 0.57638883590698242
0.82267463207244873 0.63609397411346436 0.69378536939620972
0.83369952440261841 0.63382893800735474 0.68971985578536987
0.86305457353591919 0.62807881832122803 0.68286287784576416
0.92229163646697998 0.61171984672546387 0.66212862730026245
0.97493380308151245 0.58621567487716675 0.63433951139450073
0.99072694778442383 0.57116365432739258 0.61176371574401855
0.99254149198532104 0.57174259424209595 0.61204123497009277
0.31151717901229858 0.73624008893966675 0.79623180627822876
0.27124345302581787 0.72409737110137939 0.78705358505249023
0.27551567554473877 0.71595495939254761 0.77561855316162109
0.25259032845497131 0.70103758573532104 0.7599036693572998
0.28556659817695618 0.68665194511413574 0.74824619293212891
0.38657772541046143 0.68545842170715332 0.74433982372283936
0.39094036817550659 0.68534368276596069 0.74403232336044312
0.31759351491928101 0.73557388782501221 0.79290628433227539
0.29223883152008057 0.72461968660354614 0.78225946426391602
0.2878439724445343 0.7171330451965332 0.77502536773681641
0.2673095166683197 0.70544767379760742 0.76415586471557617
0.29661586880683899 0.68811208009719849 0.74786901473999023
0.38541129231452942 0.68748325109481812 0.74669891595840454
0.40148186683654785 0.68670821189880371 0.74490422010421753
0.32328376173973083 0.73945873975753784 0.79593700170516968
0.31408226490020752 0.7338060736656189 0.79067176580429077
0.29056236147880554 0.72799324989318848 0.7871895432472229
0.27297213673591614 0.71656054258346558 0.77737879753112793
0.34407979249954224 0.7023741602897644 0.76230549812316895
0.45039069652557373 0.69095897674560547 0.74935579299926758
0.45146971940994263 0.68685853481292725 0.74615013599395752
0.31723830103874207 0.75090873241424561 0.81111139059066772
0.31870836019515991 0.7484620213508606 0.80703222751617432
0.30308240652084351 0.7342877984046936 0.79490214586257935
0.3098331093788147 0.72438377141952515 0.78432029485702515
0.41576841473579407 0.71410208940505981 0.77363663911819458
0.5251118540763855 0.69805169105529785 0.75757938623428345
0.52892971038818359 0.69741219282150269 0.75706422328948975
0.3305402398109436 0.75927186012268066 0.82086724042892456
0.34452483057975769 0.75462228059768677 0.81563615798950195
0.35945054888725281 0.75160771608352661 0.8115047812461853
0.40760588645935059 0.7444225549697876 0.80467504262924194
0.53761273622512817 0.72698426246643066 0.78744328022003174
0.63521790504455566 0.70920515060424805 0.76713681221008301
0.63995218276977539 0.70576649904251099 0.76542037725448608
0.41491046547889709 0.77961200475692749 0.83913624286651611
0.42783987522125244 0.77981150150299072 0.84051764011383057
0.46279308199882507 0.77886509895324707 0.83985394239425659
0.51867544651031494 0.76715230941772461 0.82731062173843384
0.64100247621536255 0.74487763643264771 0.80482202768325806
0.71970283985137939 0.73107695579528809 0.79199033975601196
0.71753394603729248 0.73113644123077393 0.79211956262588501
0.5457463264465332 0.8001868724822998 0.86198228597640991
0.56511086225509644 0.79818940162658691 0.85950350761413574
0.60760641098022461 0.78866374492645264 0.85033124685287476
0.6711190938949585 0.77463728189468384 0.83704429864883423
0.74741947650909424 0.76451528072357178 0.82543057203292847
0.79930394887924194 0.75690960884094238 0.81947833299636841
0.80869907140731812 0.75274217128753662 0.81451022624969482
0.43639406561851501 0.86520731449127197 0.92653989791870117
0.44498708844184875 0.87249910831451416 0.93135929107666016
0.4392361044883728 0.86642509698867798 0.92546916007995605
0.42778456211090088 0.85655689239501953 0.91721302270889282
0.41436070203781128 0.84719151258468628 0.90883266925811768
0.41013935208320618 0.8444669246673584 0.90353739261627197
0.41348102688789368 0.84836715459823608 0.90731704235076904
0.44386518001556396 0.86895149946212769 0.92848742008209229
0.44741445779800415 0.87237286567687988 0.93127471208572388
0.43724322319030762 0.86406099796295166 0.92317664623260498
0.43412482738494873 0.86241161823272705 0.92150866985321045
0.41231107711791992 0.84439706802368164 0.9039650559425354
0.41114851832389832 0.84647136926651001 0.90557926893234253
0.41230988502502441 0.84766626358032227 0.90741544961929321
0.4474797248840332 0.87094330787658691 0.92999958992004395
0.4461856484413147 0.8703073263168335 0.92889499664306641
0.43637380003929138 0.86347287893295288 0.92343741655349731
0.43558627367019653 0.86344468593597412 0.92273592948913574
0.42681393027305603 0.85739409923553467 0.91602569818496704
0.4169919490814209 0.85291552543640137 0.91197419166564941
0.41916412115097046 0.85368084907531738 0.91272664070129395
0.45103874802589417 0.87341552972793579 0.93367195129394531
0.44637218117713928 0.86952537298202515 0.92757630348205566
0.45482319593429565 0.87464278936386108 0.93218451738357544
0.4539588987827301 0.87627768516540527 0.93299812078475952
0.44087052345275879 0.86886376142501831 0.92565107345581055
0.43196630477905273 0.86258941888809204 0.9188765287399292
0.43007445335388184 0.86147487163543701 0.9199259877204895
0.47802400588989258 0.89041811227798462 0.94577723741531372
0.47407934069633484 0.88650262355804443 0.94232040643692017
0.48185998201370239 0.89218568801879883 0.94610840082168579
0.47141620516777039 0.88544344902038574 0.93948739767074585
0.46318534016609192 0.88188183307647705 0.93599450588226318
0.45167055726051331 0.8756369948387146 0.93098759651184082
0.45056062936782837 0.87165743112564087 0.9287790060043335
0.52041876316070557 0.91511130332946777 0.96492838859558105
0.515178382396698 0.91092497110366821 0.96251499652862549
0.51800686120986938 0.91355597972869873 0.9643288254737854
0.50630313158035278 0.90597814321517944 0.95832681655883789
0.48916217684745789 0.89735925197601318 0.94909220933914185
0.48486542701721191 0.89139902591705322 0.94365471601486206
0.48384511470794678 0.89068663120269775 0.94297695159912109
0.56739646196365356 0.9395902156829834 0.98193985223770142
0.56250739097595215 0.93858605623245239 0.98088020086288452
0.55730974674224854 0.93448108434677124 0.97917437553405762
0.54181063175201416 0.92662179470062256 0.97419357299804688
0.52882528305053711 0.91707485914230347 0.96581029891967773
0.53578448295593262 0.91281342506408691 0.9639517068862915
0.54010856151580811 0.90631395578384399 0.95808267593383789
0.44593751430511475 0.87147003412246704 0.93153786659240723
0.44717934727668762 0.87450981140136719 0.93333333730697632
0.44593697786331177 0.8725472092628479 0.93222391605377197
0.43261533975601196 0.86131292581558228 0.92184662818908691
0.4096057116985321 0.84321200847625732 0.90391898155212402
0.40588805079460144 0.8401716947555542 0.89971047639846802
0.41445934772491455 0.84933173656463623 0.90829384326934814
0.45481017231941223 0.87823796272277832 0.9370848536491394
0.45239108800888062 0.87655872106552124 0.93498557806015015
0.44535103440284729 0.87091785669326782 0.92977863550186157
0.43697914481163025 0.86478489637374878 0.92366594076156616
0.41601595282554626 0.84786427021026611 0.90703314542770386
0.4106641411781311 0.84513169527053833 0.90413063764572144
0.41523721814155579 0.84832024574279785 0.90718728303909302
0.46086964011192322 0.88228100538253784 0.94064325094223022
0.45740953087806702 0.87941485643386841 0.93708807229995728
0.4484592080116272 0.87296897172927856 0.93174189329147339
0.44294854998588562 0.86922895908355713 0.92753642797470093
0.42656522989273071 0.85661131143569946 0.91467893123626709
0.42340192198753357 0.85570639371871948 0.9136081337928772
0.42592602968215942 0.85650861263275146 0.91456347703933716
0.46362662315368652 0.88326460123062134 0.94092863798141479
0.45841148495674133 0.87840491533279419 0.93519055843353271
0.45356544852256775 0.87511849403381348 0.93239003419876099
0.45042338967323303 0.87446635961532593 0.92956668138504028
0.44219693541526794 0.86974561214447021 0.92627781629562378
0.4393622875213623 0.86768925189971924 0.92399340867996216
0.43855535984039307 0.86725592613220215 0.92403978109359741
0.48748430609703064 0.89710748195648193 0.95077598094940186
0.48407682776451111 0.89377564191818237 0.94792670011520386
0.47590377926826477 0.88821184635162354 0.94172894954681396
0.46626046299934387 0.8817020058631897 0.93579530715942383
0.46645733714103699 0.8851434588432312 0.93972975015640259
0.46568995714187622 0.88483732938766479 0.93984544277191162
0.46672338247299194 0.88453727960586548 0.93981242179870605
0.51848387718200684 0.91306024789810181 0.96251434087753296
0.51725763082504272 0.91141670942306519 0.96224182844161987
0.51632910966873169 0.91086709499359131 0.96110528707504272
0.50572413206100464 0.90472567081451416 0.95556986331939697
0.49939849972724915 0.9028327465057373 0.95407617092132568
0.49788826704025269 0.90229982137680054 0.95461571216583252
0.49921205639839172 0.9001879096031189 0.95256012678146362
0.55800622701644897 0.93406301736831665 0.97820097208023071
0.55447709560394287 0.93246930837631226 0.97699093818664551
0.551921546459198 0.93097406625747681 0.97589361667633057
0.53980648517608643 0.92499822378158569 0.97165274620056152
0.53300684690475464 0.9214058518409729 0.96943825483322144
0.52973192930221558 0.9202311635017395 0.9699326753616333
0.53352528810501099 0.91486769914627075 0.96483957767486572
0.45113208889961243 0.87450981140136719 0.93333333730697632
0.44797405600547791 0.87437587976455688 0.93333333730697632
0.44375264644622803 0.87059682607650757 0.92952537536621094
0.43329793214797974 0.86239123344421387 0.92214000225067139
0.41561287641525269 0.84860926866531372 0.90871733427047729
0.41475790739059448 0.84903544187545776 0.90823590755462646
0.42037522792816162 0.85523921251296997 0.91396671533584595
0.45857945084571838 0.88010597229003906 0.93730545043945312
0.45499879121780396 0.87812560796737671 0.93643158674240112
0.44787034392356873 0.87351244688034058 0.93221127986907959
0.43849378824234009 0.8663020133972168 0.92511957883834839
0.42243322730064392 0.85315173864364624 0.91176271438598633
0.42316848039627075 0.85512197017669678 0.91327404975891113
0.42610558867454529 0.85704994201660156 0.91527879238128662
0.46652114391326904 0.88617879152297974 0.94225066900253296
0.46396675705909729 0.88426727056503296 0.94117087125778198
0.45507603883743286 0.87824046611785889 0.93578863143920898
0.44789746403694153 0.87368869781494141 0.93123698234558105
0.43541353940963745 0.86357396841049194 0.92080515623092651
0.43614819645881653 0.86485779285430908 0.92187917232513428
0.43366071581840515 0.86108481884002686 0.91817790269851685
0.47476446628570557 0.89090549945831299 0.94669115543365479
0.47159653902053833 0.8892708420753479 0.94489294290542603
0.4621160626411438 0.88275951147079468 0.93859869241714478
0.45704251527786255 0.8804619312286377 0.93647938966751099
0.45056045055389404 0.87616032361984253 0.93198865652084351
0.44973504543304443 0.87470012903213501 0.93060851097106934
0.44911918044090271 0.87340503931045532 0.9291762113571167
0.49569356441497803 0.90205174684524536 0.95463007688522339
0.49462297558784485 0.90130305290222168 0.95408284664154053
0.48239776492118835 0.89357113838195801 0.94661170244216919
0.47473317384719849 0.88979589939117432 0.94315928220748901
0.47479555010795593 0.89189261198043823 0.94564646482467651
0.47571036219596863 0.89190816879272461 0.94602757692337036
0.47710689902305603 0.89222460985183716 0.9462430477142334
0.52772331237792969 0.91781342029571533 0.96653074026107788
0.52621769905090332 0.91707050800323486 0.96590530872344971
0.5209585428237915 0.91454994678497314 0.9632912278175354
0.51183652877807617 0.90975064039230347 0.95877218246459961
0.50955969095230103 0.91017407178878784 0.95973747968673706
0.50621157884597778 0.90849810838699341 0.95919227600097656
0.50781947374343872 0.90839171409606934 0.95913851261138916
0.56152874231338501 0.93519288301467896 0.97957831621170044
0.55585265159606934 0.93211489915847778 0.97708052396774292
0.55265462398529053 0.93139171600341797 0.97592431306838989
0.55033206939697266 0.93099290132522583 0.97560733556747437
0.54289710521697998 0.92784732580184937 0.97413867712020874
0.53709250688552856 0.92464601993560791 0.97203993797302246
0.53674250841140747 0.9242483377456665 0.97210699319839478
