assets/lut/picturefx zilverfx infrared.cube
# Created by: G'MIC (https://gmic.eu)
TITLE "zilverfx_infrared"
# LUT size
LUT_3D_SIZE 7
# Data domain
DOMAIN_MIN 0.0 0.0 0.0
DOMAIN_MAX 1.0 1.0 1.0
# LUT data points
0.0043752933852374554 0.0045322342775762081 0.0044384975917637348
0.029432797804474831 0.028916092589497566 0.028981078416109085
0.042073030024766922 0.041956733912229538 0.041999712586402893
0.18322189152240753 0.18322189152240753 0.1831890195608139
0.35486313700675964 0.3548833429813385 0.35486313700675964
0.39782226085662842 0.397857666015625 0.39769837260246277
0.38589087128639221 0.38582512736320496 0.38569620251655579
0.17721237242221832 0.17917633056640625 0.17903980612754822
0.22456862032413483 0.22476796805858612 0.22414505481719971
0.25753754377365112 0.25771084427833557 0.2576981782913208
0.2945675253868103 0.29450935125350952 0.29450935125350952
0.31046649813652039 0.31046149134635925 0.3104993999004364
0.35274091362953186 0.35273626446723938 0.35274091362953186
0.3502204418182373 0.35023617744445801 0.35008388757705688
0.51429510116577148 0.51478582620620728 0.51584035158157349
0.5209355354309082 0.52155768871307373 0.52122533321380615
0.58454304933547974 0.58517545461654663 0.5856626033782959
0.66936749219894409 0.67006486654281616 0.66931682825088501
0.74519455432891846 0.74407505989074707 0.74519455432891846
0.76739406585693359 0.76561218500137329 0.76733744144439697
0.79530835151672363 0.79179912805557251 0.79655325412750244
0.98477184772491455 0.97418105602264404 0.98478585481643677
0.99892973899841309 0.99798583984375 0.99892973899841309
0.99664312601089478 0.9893953800201416 0.99672400951385498
0.99998599290847778 0.99939924478530884 0.99998599290847778
0.99742937088012695 0.99140316247940063 0.99744331836700439
0.99993032217025757 0.99821305274963379 0.99993032217025757
1 0.99859023094177246 1
0.99765431880950928 0.99804437160491943 0.9976494312286377
0.99688577651977539 0.99695289134979248 0.99698430299758911
0.99287194013595581 0.99340474605560303 0.99285328388214111
0.99642717838287354 0.99857008457183838 0.99642717838287354
0.99650305509567261 0.99995118379592896 0.99650305509567261
0.99858343601226807 0.99785405397415161 0.99855059385299683
1 1 1
0.9954180121421814 0.99555355310440063 0.99542266130447388
0.99205851554870605 0.99196100234985352 0.99208921194076538
0.99226683378219604 0.99224358797073364 0.99225127696990967
0.99584269523620605 0.9969591498374939 0.99584269523620605
0.99805730581283569 0.99943244457244873 0.99807751178741455
0.98825931549072266 0.98778730630874634 0.98823541402816772
0.99835371971130371 0.99772614240646362 0.99832093715667725
0.99231284856796265 0.99219155311584473 0.99246031045913696
0.98814678192138672 0.98760873079299927 0.98820745944976807
0.99318104982376099 0.99272060394287109 0.99318104982376099
0.99661660194396973 0.99650770425796509 0.99661660194396973
0.99318188428878784 0.99310535192489624 0.99329519271850586
0.97937113046646118 0.979347825050354 0.97953003644943237
0.99404412508010864 0.99425667524337769 0.99410730600357056
0 0 0
0 0 0
0 0 0
0.081348821520805359 0.081212304532527924 0.081315957009792328
0.2810092568397522 0.28110027313232422 0.28104212880134583
0.35184422135353088 0.35190626978874207 0.35184422135353088
0.3928186297416687 0.39285147190093994 0.39284893870353699
0.037778563797473907 0.038149125874042511 0.038641147315502167
0.064658477902412415 0.064082123339176178 0.0640593022108078
0.087407208979129791 0.087349638342857361 0.087397679686546326
0.12154325842857361 0.12157612293958664 0.12147752195596695
0.29340043663978577 0.29340043663978577 0.29340043663978577
0.36081111431121826 0.36081111431121826 0.36081111431121826
0.38542041182518005 0.38532540202140808 0.38547554612159729
0.51969254016876221 0.51972448825836182 0.52066504955291748
0.55217450857162476 0.55438351631164551 0.55180782079696655
0.61626344919204712 0.61665433645248413 0.61919951438903809
0.65249133110046387 0.65274888277053833 0.65233451128005981
0.71572107076644897 0.7154090404510498 0.71572107076644897
0.70405423641204834 0.70348894596099854 0.70409798622131348
0.73988890647888184 0.74003344774246216 0.73975831270217896
0.99621659517288208 0.99403733015060425 0.99634462594985962
0.99457526206970215 0.98936313390731812 0.99456006288528442
0.9956396222114563 0.98535692691802979 0.9959721565246582
0.99793851375579834 0.99540936946868896 0.99794548749923706
0.99851840734481812 0.99132341146469116 0.99850320816040039
0.99914413690567017 0.99501222372055054 0.99914413690567017
0.99984323978424072 0.99981749057769775 0.99985396862030029
1 1 1
0.99636048078536987 0.99782824516296387 0.99628978967666626
0.98664695024490356 0.9885522723197937 0.98638677597045898
0.99422198534011841 0.99522608518600464 0.99423909187316895
0.99473071098327637 0.99927282333374023 0.99473071098327637
0.99128216505050659 0.997406005859375 0.99140095710754395
0.99903672933578491 0.99950516223907471 0.99903672933578491
0.99859774112701416 0.99867820739746094 0.99863564968109131
0.98460066318511963 0.98483395576477051 0.98465508222579956
0.98335200548171997 0.9846503734588623 0.98337376117706299
0.99263018369674683 0.9934266209602356 0.99263519048690796
0.9951367974281311 0.99723964929580688 0.99513751268386841
0.987263023853302 0.99093210697174072 0.98726385831832886
0.99994200468063354 0.99998992681503296 0.99994200468063354
0.99982529878616333 0.99978101253509521 0.99985569715499878
0.9907374382019043 0.99035722017288208 0.99092024564743042
0.98993146419525146 0.98997735977172852 0.98999118804931641
0.99468833208084106 0.9948609471321106 0.99472373723983765
0.99293607473373413 0.99260252714157104 0.9930119514465332
0.98922610282897949 0.99006026983261108 0.98933988809585571
0.99999570846557617 1 0.99999570846557617
0 0 0
0 0 0
0 0 0
0 0 0
0.073544308543205261 0.073446683585643768 0.073544308543205261
0.17701853811740875 0.17713484168052673 0.17701853811740875
0.22008506953716278 0.22024434804916382 0.22011540830135345
0 0 0
0 0 0
0 0 0
0 0 0
0.11837334930896759 0.11820473521947861 0.11837334930896759
0.23639997839927673 0.23643656075000763 0.23638986051082611
0.26882493495941162 0.26890996098518372 0.26884362101554871
0.16405946016311646 0.16351114213466644 0.16411566734313965
0.18635004758834839 0.18643727898597717 0.18791456520557404
0.27823749184608459 0.27815809845924377 0.27821487188339233
0.26852124929428101 0.26839157938957214 0.26852124929428101
0.32742723822593689 0.32792586088180542 0.32742723822593689
0.35748648643493652 0.3573545515537262 0.35748028755187988
0.45506298542022705 0.45488795638084412 0.4550933837890625
0.97064924240112305 0.96315532922744751 0.97061634063720703
0.98350709676742554 0.98143893480300903 0.98368918895721436
0.99725300073623657 0.99601757526397705 0.99725300073623657
0.99907994270324707 0.99839740991592407 0.99907994270324707
0.99707376956939697 0.99264585971832275 0.99707376956939697
0.99842590093612671 0.99476271867752075 0.99842590093612671
0.99788624048233032 0.99281805753707886 0.99788624048233032
0.99960792064666748 0.99956297874450684 0.99960792064666748
0.98854655027389526 0.98744571208953857 0.98861235380172729
0.98820149898529053 0.99082869291305542 0.98820149898529053
0.98831969499588013 0.98991882801055908 0.98830956220626831
0.98961526155471802 0.99186187982559204 0.98961526155471802
0.98234677314758301 0.98905587196350098 0.98234677314758301
0.99908357858657837 0.99886763095855713 0.99908357858657837
1 1 1
0.9820823073387146 0.98435515165328979 0.9820823073387146
0.9766918420791626 0.98064440488815308 0.97670471668243408
0.98286533355712891 0.98564624786376953 0.98286533355712891
0.99596798419952393 0.99698358774185181 0.99593514204025269
0.99503165483474731 0.99975359439849854 0.99503165483474731
1 1 1
1 1 1
0.99925148487091064 0.99921101331710815 0.99925148487091064
0.99290287494659424 0.99352574348449707 0.99279922246932983
0.9894944429397583 0.99062091112136841 0.98947417736053467
0.9928087592124939 0.99267911911010742 0.99273562431335449
0.99992901086807251 0.99996167421340942 0.99992901086807251
1 1 1
0 0 0
0 0 0
0 0 0
0 0 0
0 0 0
0 0 0
0.00042862238478846848 0.00042862238478846848 0.00042862238478846848
0 0 0
0 0 0
0 0 0
0 0 0
0 0 0
0 0 0
0.00030104693723842502 0.00030104693723842502 0.00030104693723842502
0 0 0
0 0 0
0 0 0
0 0 0
0 0 0
2.7286305339657702e-05 2.7286305339657702e-05 2.7286305339657702e-05
0.01485855970531702 0.014839471317827702 0.01485855970531702
0.49881342053413391 0.50104802846908569 0.49881342053413391
0.48888364434242249 0.48957982659339905 0.48890131711959839
0.47282975912094116 0.47329020500183105 0.47282758355140686
0.53028708696365356 0.52899771928787231 0.53028708696365356
0.55801224708557129 0.55704081058502197 0.557964026927948
0.55756944417953491 0.5553475022315979 0.55756944417953491
0.64064759016036987 0.64031726121902466 0.64067786931991577
0.9928784966468811 0.98825258016586304 0.9928784966468811
0.99625438451766968 0.99625098705291748 0.99625438451766968
0.99842876195907593 0.99838632345199585 0.99842876195907593
0.9994814395904541 0.99713915586471558 0.9994814395904541
1 1 1
0.9991607666015625 0.9968070387840271 0.99917083978652954
1 0.99996411800384521 1
1 1 1
0.99939620494842529 0.9977232813835144 0.99939620494842529
0.99218469858169556 0.99277365207672119 0.99216192960739136
0.99016410112380981 0.99156296253204346 0.99014198780059814
0.99540406465530396 0.99576443433761597 0.99543684720993042
0.99012446403503418 0.99237513542175293 0.9902154803276062
1 1 1
1 1 1
1 1 1
0.99999135732650757 0.99997740983963013 0.99999135732650757
0.99910205602645874 0.9989972710609436 0.99905657768249512
0.9900098443031311 0.99055057764053345 0.9900098443031311
0.99989163875579834 0.9999542236328125 0.99989163875579834
1 1 1
0 0 0
0 0 0
0 0 0
0 0 0
0 0 0
0 0 0
0 0 0
0 0 0
0 0 0
0 0 0
0 0 0
0 0 0
0 0 0
0 0 0
0 0 0
0 0 0
0 0 0
0 0 0
0 0 0
0 0 0
0 0 0
0.040823604911565781 0.040513221174478531 0.040775373578071594
0.013769949786365032 0.013648597523570061 0.013714330270886421
0.0014643949689343572 0.0014737297315150499 0.0014643949689343572
0 0 0
2.0823759768973105e-05 4.2365580156911165e-05 3.9493337681051344e-05
0 0 0
0.00054859835654497147 0.00053926353575661778 0.00054859835654497147
0.70673483610153198 0.70125102996826172 0.70667415857315063
0.71938455104827881 0.71803325414657593 0.71925109624862671
0.70276808738708496 0.70277714729309082 0.70312553644180298
0.67015087604522705 0.66791373491287231 0.67018628120422363
0.77896571159362793 0.77634531259536743 0.77891886234283447
0.74291616678237915 0.74233847856521606 0.74400824308395386
0.7227979302406311 0.72246438264846802 0.72285300493240356
0.95592737197875977 0.94850558042526245 0.95592737197875977
0.98537719249725342 0.98147612810134888 0.98527854681015015
0.99089372158050537 0.9848359227180481 0.99109852313995361
0.99594515562057495 0.99171715974807739 0.99594515562057495
0.99976426362991333 0.99899917840957642 0.99976426362991333
0.99882596731185913 0.99694252014160156 0.99884152412414551
0.99927932024002075 0.99663764238357544 0.99925905466079712
0.99990880489349365 0.99984270334243774 0.99990880489349365
0.99990391731262207 0.99967902898788452 0.99988442659378052
1 1 1
1 1 1
0.99386751651763916 0.99467182159423828 0.99386751651763916
0.9999280571937561 0.99996232986450195 0.9999280571937561
1 1 1
0 0 0
0 0 0
0 0 0
0 0 0
0 0 0
0 0 0
0 0 0
0 0 0
0 0 0
0 0 0
0 0 0
0 0 0
0 0 0
0 0 0
0 0 0
0 0 0
0 0 0
0 0 0
0 0 0
0 0 0
0 0 0
0 0 0
0 0 0
0 0 0
0 0 0
0 0 0
0 0 0
0 0 0
0.35658851265907288 0.35491651296615601 0.35633879899978638
0.31345251202583313 0.31268608570098877 0.31294715404510498
0.21059170365333557 0.21076881885528564 0.21098057925701141
0.083808347582817078 0.084623120725154877 0.08377547562122345
0.034934040158987045 0.035326100885868073 0.035099927335977554
0.045697756111621857 0.045391112565994263 0.045538090169429779
0.01575133390724659 0.015742776915431023 0.015680544078350067
0.76271206140518188 0.76227706670761108 0.7627449631690979
0.78821134567260742 0.78963690996170044 0.78866231441497803
0.77261543273925781 0.77427726984024048 0.77444058656692505
0.76372694969177246 0.76499021053314209 0.76360112428665161
0.80299443006515503 0.80149596929550171 0.80291604995727539
0.88772678375244141 0.87980455160140991 0.88773059844970703
0.8903954029083252 0.88753843307495117 0.89020198583602905
0.91944098472595215 0.92066162824630737 0.91947388648986816
0.89955812692642212 0.89996445178985596 0.89948743581771851
0.9337964653968811 0.93534868955612183 0.93388241529464722
0.95801687240600586 0.95835363864898682 0.95795363187789917
0.94350099563598633 0.94460457563400269 0.94368404150009155
0.99999284744262695 0.99998921155929565 0.99999284744262695
1 1 1
0 0 0
0 0 0
0 0 0
0 0 0
0 0 0
0 0 0
0.0044799204915761948 0.0045102587901055813 0.0044799204915761948
0 0 0
0 0 0
0 0 0
0 0 0
0 0 0
0 0 0
0 0 0
0 0 0
0 0 0
0 0 0
0 0 0
0 0 0
0 0 0
0 0 0
0 0 0
0 0 0
0 0 0
0 0 0
0 0 0
0 0 0
0 0 0
0.084589190781116486 0.084672428667545319 0.084687791764736176
0.048142869025468826 0.047865938395261765 0.048089195042848587
0.014676920138299465 0.014548417180776596 0.014676920138299465
8.6167283370741643e-06 8.6167283370741643e-06 8.6167283370741643e-06
0 0 0
0 0 0
0 0 0
0.59621769189834595 0.5971219539642334 0.59625071287155151
0.60770076513290405 0.60774803161621094 0.60770076513290405
0.55375212430953979 0.55326712131500244 0.55349469184875488
0.47406598925590515 0.47441327571868896 0.47397226095199585
0.34923043847084045 0.3507082462310791 0.35043689608573914
0.37747251987457275 0.37869113683700562 0.37838086485862732
0.41324961185455322 0.41324615478515625 0.41324961185455322
0.81796127557754517 0.82065224647521973 0.81814855337142944
0.79677689075469971 0.79756069183349609 0.79677689075469971
0.77955573797225952 0.77983403205871582 0.77958601713180542
0.77356511354446411 0.77365398406982422 0.77330541610717773
0.77746015787124634 0.77765661478042603 0.77723997831344604
0.90628647804260254 0.90763825178146362 0.90623009204864502
0.98356515169143677 0.98390430212020874 0.98350197076797485
