assets/lut/picturefx goldfx summer heat.cube
# Created by: G'MIC (https://gmic.eu)
TITLE "goldfx_summer_heat"
# LUT size
LUT_3D_SIZE 13
# Data domain
DOMAIN_MIN 0.0 0.0 0.0
DOMAIN_MAX 1.0 1.0 1.0
# LUT data points
0.0064917020499706268 0.013402886688709259 0.032321527600288391
0.043543033301830292 0.018015602603554726 0.029549064114689827
0.091927923262119293 0.02908833883702755 0.035917647182941437
0.1598728746175766 0.04025593027472496 0.050465542823076248
0.25874674320220947 0.034977152943611145 0.065101474523544312
0.39328673481941223 0.011348200961947441 0.07297293096780777
0.55724608898162842 0.013235234655439854 0.079823076725006104
0.71643799543380737 0.051643326878547668 0.080147013068199158
0.84347283840179443 0.1287202388048172 0.068275824189186096
0.93342256546020508 0.24671538174152374 0.053461141884326935
0.98821508884429932 0.37027019262313843 0.056881669908761978
1 0.4653211236000061 0.091897360980510712
1 0.53786873817443848 0.14762333035469055
0.002864837646484375 0.05314616858959198 0.044775571674108505
0.039878126233816147 0.056333445012569427 0.042733944952487946
0.10240872204303741 0.060888897627592087 0.045353129506111145
0.17731359601020813 0.066507153213024139 0.052756860852241516
0.27660635113716125 0.063019335269927979 0.064611621201038361
0.41088339686393738 0.049277689307928085 0.07297217845916748
0.5713304877281189 0.056632623076438904 0.077672235667705536
0.72455346584320068 0.096656635403633118 0.071904592216014862
0.84403592348098755 0.17162208259105682 0.050886310636997223
0.93124544620513916 0.27792656421661377 0.033098258078098297
0.98597919940948486 0.38769632577896118 0.039452556520700455
1 0.47627535462379456 0.084169529378414154
0.99926817417144775 0.54695338010787964 0.15044926106929779
0.00033102597808465362 0.10619523376226425 0.06598827987909317
0.024557614699006081 0.11075013130903244 0.064796403050422668
0.095387838780879974 0.11474668979644775 0.061955858021974564
0.19012266397476196 0.11837147921323776 0.058852341026067734
0.29902660846710205 0.11986884474754333 0.062362387776374817
0.43396168947219849 0.11822141706943512 0.065259389579296112
0.58773422241210938 0.13470807671546936 0.063929043710231781
0.72940343618392944 0.1766861230134964 0.050903934985399246
0.83916556835174561 0.24649909138679504 0.02340545691549778
0.92329227924346924 0.33520975708961487 0.008151080459356308
0.97922557592391968 0.4244941771030426 0.017721947282552719
0.99834835529327393 0.50051814317703247 0.072784349322319031
0.99653548002243042 0.564980149269104 0.14892524480819702
0 0.18333074450492859 0.087117768824100494
0.0034198686480522156 0.18875753879547119 0.088385626673698425
0.054392900317907333 0.19399821758270264 0.08665747195482254
0.17440123856067657 0.20326803624629974 0.071050666272640228
0.31048738956451416 0.21387894451618195 0.057388067245483398
0.45870143175125122 0.22441142797470093 0.045595776289701462
0.6066889762878418 0.24290375411510468 0.036833040416240692
0.73248833417892456 0.27626121044158936 0.023755466565489769
0.83179885149002075 0.33038666844367981 0.0036757525522261858
0.91244059801101685 0.39805492758750916 4.7930549044394866e-05
0.96898031234741211 0.46868434548377991 0.0061779096722602844
0.99291235208511353 0.53335440158843994 0.059764981269836426
0.99608486890792847 0.59114432334899902 0.13735195994377136
0 0.30448749661445618 0.086498335003852844
0 0.30654788017272949 0.088898710906505585
0.017419688403606415 0.31021437048912048 0.088703915476799011
0.13464155793190002 0.32082951068878174 0.071150727570056915
0.30731374025344849 0.33800569176673889 0.043397970497608185
0.48120284080505371 0.35733109712600708 0.018867986276745796
0.62752580642700195 0.37266147136688232 0.0085238590836524963
0.73989742994308472 0.3883357048034668 0.0053471731953322887
0.82857173681259155 0.41481688618659973 0.0016183442203328013
0.90375834703445435 0.46011090278625488 1.4002182979311328e-05
0.95925283432006836 0.51479262113571167 0.0018887837650254369
0.98763316869735718 0.56819736957550049 0.039270468056201935
0.99695569276809692 0.61773443222045898 0.10507410019636154
0 0.45091959834098816 0.071544855833053589
0 0.44914969801902771 0.072574183344841003
0.0050869360566139221 0.4495454728603363 0.075051508843898773
0.10456591099500656 0.45659485459327698 0.060241580009460449
0.30306410789489746 0.47039514780044556 0.027911197394132614
0.493499755859375 0.48657447099685669 0.0031416350975632668
0.63811635971069336 0.49938848614692688 0
0.74522817134857178 0.50894999504089355 4.2784446122823283e-05
0.8287615180015564 0.5191684365272522 0.00035802804632112384
0.89869493246078491 0.53695440292358398 0.0001528571592643857
0.95137441158294678 0.57006633281707764 3.8012334698578343e-05
0.9822961688041687 0.60819178819656372 0.0099200084805488586
0.99706059694290161 0.64575034379959106 0.054763376712799072
0.0025384791661053896 0.58233773708343506 0.069963477551937103
0.0030202679336071014 0.5815930962562561 0.07270551472902298
0.011551561765372753 0.58081299066543579 0.079646185040473938
0.10596369951963425 0.58340644836425781 0.070826709270477295
0.31607934832572937 0.5894281268119812 0.041761990636587143
0.50345420837402344 0.59775340557098389 0.019236216321587563
0.6388816237449646 0.60774523019790649 0.011744226329028606
0.74359095096588135 0.61734747886657715 0.0069635580293834209
0.82609456777572632 0.62314009666442871 0.0018435459351167083
0.89326834678649902 0.62788033485412598 2.1003274014219642e-05
0.94442284107208252 0.64111566543579102 0
0.97723972797393799 0.65962356328964233 6.5178966906387359e-05
0.99592643976211548 0.68189918994903564 0.016296761110424995
0.060019250959157944 0.68383693695068359 0.10069534927606583
0.07845713198184967 0.68606632947921753 0.10647131502628326
0.11172249168157578 0.68580019474029541 0.11696896702051163
0.2034483402967453 0.68535518646240234 0.1172381117939949
0.36774483323097229 0.68647390604019165 0.1038823276758194
0.52235114574432373 0.68997383117675781 0.090137943625450134
0.64224296808242798 0.69549846649169922 0.075963549315929413
0.73824495077133179 0.7021024227142334 0.059139251708984375
0.81727147102355957 0.70676279067993164 0.036186635494232178
0.88357323408126831 0.71055996417999268 0.012277430854737759
0.93639278411865234 0.71637147665023804 0.001625554752536118
0.97228264808654785 0.72054147720336914 0.0020469664596021175
0.99529707431793213 0.7290681004524231 0.022027662023901939
0.22144132852554321 0.76217514276504517 0.16345909237861633
0.25130763649940491 0.76532888412475586 0.16934734582901001
0.29397618770599365 0.76499611139297485 0.18057961761951447
0.36125734448432922 0.76329463720321655 0.18832883238792419
0.46159392595291138 0.76233381032943726 0.18828059732913971
0.56408870220184326 0.76325738430023193 0.18283386528491974
0.65574437379837036 0.76560127735137939 0.16953787207603455
0.73646283149719238 0.76875728368759155 0.15139263868331909
0.80748116970062256 0.77224016189575195 0.1271837055683136
0.8708336353302002 0.77602005004882812 0.094417378306388855
0.92561119794845581 0.77990269660949707 0.065642997622489929
0.96616548299789429 0.78008544445037842 0.063941225409507751
0.99431294202804565 0.78337687253952026 0.091250337660312653
0.41525405645370483 0.82396870851516724 0.24584688246250153
0.43452483415603638 0.82623225450515747 0.24961690604686737
0.46164488792419434 0.82557803392410278 0.25931066274642944
0.50062304735183716 0.82375496625900269 0.26950055360794067
0.55587190389633179 0.821979820728302 0.27572199702262878
0.61737900972366333 0.82152491807937622 0.27562025189399719
0.68143588304519653 0.82217496633529663 0.2699090838432312
0.74520969390869141 0.82429379224777222 0.26002538204193115
0.80491441488265991 0.82593953609466553 0.24481594562530518
0.86236399412155151 0.82886552810668945 0.21914993226528168
0.9162822961807251 0.83173298835754395 0.19291214644908905
0.96113836765289307 0.83278566598892212 0.18656241893768311
0.99394387006759644 0.83636617660522461 0.20380116999149323
0.57211077213287354 0.87529069185256958 0.33490008115768433
0.57842421531677246 0.87606179714202881 0.33760875463485718
0.58899533748626709 0.87480318546295166 0.34610199928283691
0.60934692621231079 0.87339103221893311 0.35751485824584961
0.64035570621490479 0.87218391895294189 0.36714863777160645
0.67791068553924561 0.87158495187759399 0.37240266799926758
0.72155934572219849 0.8728492259979248 0.37298375368118286
0.76923823356628418 0.87413507699966431 0.37015727162361145
0.81712710857391357 0.87595272064208984 0.36171832680702209
0.86616909503936768 0.87831157445907593 0.34547531604766846
0.91564571857452393 0.88059431314468384 0.32865691184997559
0.96133065223693848 0.88253474235534668 0.32415544986724854
0.99553453922271729 0.88696581125259399 0.3335895836353302
0.68593293428421021 0.92098432779312134 0.42669636011123657
0.68659746646881104 0.92074155807495117 0.4301089346408844
0.6886628270149231 0.91948169469833374 0.43888986110687256
0.69937843084335327 0.91801679134368896 0.45174595713615417
0.71852773427963257 0.9179571270942688 0.46413430571556091
0.74315106868743896 0.91893762350082397 0.47243711352348328
0.77241533994674683 0.92045271396636963 0.47676929831504822
0.80600392818450928 0.92242836952209473 0.47746679186820984
0.84229856729507446 0.92436903715133667 0.47352564334869385
0.88229566812515259 0.92664188146591187 0.46486428380012512
0.92544388771057129 0.92887747287750244 0.45638403296470642
0.96849608421325684 0.93130797147750854 0.45467051863670349
0.99822515249252319 0.93629312515258789 0.45983311533927917
0.77601295709609985 0.96648579835891724 0.52220940589904785
0.77465939521789551 0.96489399671554565 0.52631860971450806
0.77432793378829956 0.96318340301513672 0.5360943078994751
0.78024429082870483 0.96253913640975952 0.54966813325881958
0.79249721765518188 0.96275496482849121 0.56321793794631958
0.80822294950485229 0.96442627906799316 0.57267230749130249
0.8276526927947998 0.96694815158843994 0.57867324352264404
0.85095173120498657 0.96922677755355835 0.58108210563659668
0.87800097465515137 0.97139370441436768 0.58056008815765381
0.9095076322555542 0.97386223077774048 0.57670795917510986
0.94575232267379761 0.97635829448699951 0.57302892208099365
0.9838215708732605 0.97942006587982178 0.57226216793060303
0.99994611740112305 0.98421639204025269 0.57549726963043213
0.0055352752096951008 0.022517828270792961 0.071367613971233368
0.039057981222867966 0.028562074527144432 0.069569528102874756
0.0859556645154953 0.03377818688750267 0.075049333274364471
0.15590222179889679 0.043276093900203705 0.08951936662197113
0.26084023714065552 0.045345500111579895 0.10394089668989182
0.40912145376205444 0.019565941765904427 0.11040416359901428
0.57590252161026001 0.029563231393694878 0.11696802824735641
0.7284616231918335 0.086298905313014984 0.11995382606983185
0.84537023305892944 0.16545331478118896 0.11329969763755798
0.93169903755187988 0.26916795969009399 0.10510354489088058
0.98542493581771851 0.38076391816139221 0.11100605875253677
0.99997645616531372 0.47234979271888733 0.14132608473300934
0.99989050626754761 0.54688924551010132 0.19016367197036743
0.002590179443359375 0.060962077230215073 0.084359966218471527
0.040869768708944321 0.063343256711959839 0.085636794567108154
0.10150875151157379 0.063813962042331696 0.087022073566913605
0.1730995774269104 0.069414906203746796 0.092248581349849701
0.27808243036270142 0.072749599814414978 0.10306486487388611
0.42293977737426758 0.060312695801258087 0.10974008589982986
0.58588951826095581 0.071055486798286438 0.11359351873397827
0.73254543542861938 0.11537454277276993 0.11009445041418076
0.84441578388214111 0.18805114924907684 0.099282011389732361
0.92853963375091553 0.29092702269554138 0.092939533293247223
0.98391443490982056 0.39283719658851624 0.099465422332286835
0.99998009204864502 0.47832682728767395 0.13383999466896057
0.99861162900924683 0.5517314076423645 0.18946520984172821
0.00051875395001843572 0.11446812748908997 0.09969552606344223
0.027252526953816414 0.11808313429355621 0.099917873740196228
0.099769383668899536 0.11970925331115723 0.096549719572067261
0.19624526798725128 0.12126822024583817 0.093416817486286163
0.30770856142044067 0.12698027491569519 0.098600797355175018
0.44555753469467163 0.12969855964183807 0.10142276436090469
0.59889107942581177 0.14595109224319458 0.10003145784139633
0.73586785793304443 0.18554973602294922 0.089502193033695221
0.84168136119842529 0.25279662013053894 0.071268774569034576
0.92321932315826416 0.34310021996498108 0.062780909240245819
0.97892153263092041 0.42663919925689697 0.073125429451465607
0.99908995628356934 0.50033080577850342 0.11774306744337082
0.99707627296447754 0.56770515441894531 0.18365268409252167
0 0.19420287013053894 0.11275056004524231
0.0045505301095545292 0.19871719181537628 0.11320146918296814
0.061524171382188797 0.20326904952526093 0.11112593114376068
0.18811808526515961 0.20915628969669342 0.10230889171361923
0.32651031017303467 0.21820180118083954 0.092800185084342957
0.47005635499954224 0.22516152262687683 0.080129913985729218
0.61493486166000366 0.24074806272983551 0.069810844957828522
0.73884129524230957 0.27447196841239929 0.056245885789394379
0.83707988262176514 0.33078655600547791 0.035215757787227631
0.91639739274978638 0.40329465270042419 0.022198457270860672
0.97339940071105957 0.47303652763366699 0.035711999982595444
0.99675458669662476 0.53481733798980713 0.091773286461830139
0.99743115901947021 0.59288299083709717 0.16558633744716644
0 0.31266483664512634 0.10934299975633621
0 0.31524598598480225 0.11051619052886963
0.017233500257134438 0.31790065765380859 0.11380399763584137
0.14422865211963654 0.32661917805671692 0.10222594439983368
0.32240206003189087 0.34310254454612732 0.076458320021629333
0.49199017882347107 0.35837265849113464 0.046477701514959335
0.63413166999816895 0.36632782220840454 0.027590299025177956
0.74431133270263672 0.38095679879188538 0.017165644094347954
0.83307456970214844 0.41416740417480469 0.0085463579744100571
0.90875709056854248 0.46763843297958374 0.0023911120370030403
0.96549636125564575 0.5226094126701355 0.011486846022307873
0.9926033616065979 0.57134997844696045 0.061963412910699844
0.99943119287490845 0.61872678995132446 0.13165555894374847
0 0.45537224411964417 0.090454787015914917
2.994911301357206e-05 0.45557877421379089 0.090432234108448029
0.01660480909049511 0.45550957322120667 0.096522420644760132
0.12670005857944489 0.46152159571647644 0.086388953030109406
0.3102131187915802 0.47536769509315491 0.054876185953617096
0.49313122034072876 0.48960334062576294 0.020534321665763855
0.63961917161941528 0.4982554018497467 0.0038473091553896666
0.74795329570770264 0.50435882806777954 0.00015822765999473631
0.83208394050598145 0.51685261726379395 6.5822227952594403e-06
0.90280044078826904 0.54330426454544067 2.468333605065709e-06
0.95622193813323975 0.57685303688049316 0.0021990158129483461
0.9866136908531189 0.61099106073379517 0.029405571520328522
0.99876481294631958 0.64657562971115112 0.087169378995895386
0 0.58629512786865234 0.082655288279056549
0.0035147573798894882 0.5865018367767334 0.085001960396766663
0.044185936450958252 0.58446282148361206 0.094472117722034454
0.15245737135410309 0.58566021919250488 0.08943677693605423
0.32425126433372498 0.59064435958862305 0.060464058071374893
0.49460166692733765 0.59766769409179688 0.027002476155757904
0.63591873645782471 0.60767096281051636 0.012411453761160374
0.74473041296005249 0.61542272567749023 0.0036417492665350437
0.82852637767791748 0.6216893196105957 0.00011575736425584182
0.89638137817382812 0.63054853677749634 0
0.94762128591537476 0.64389479160308838 4.4459920900408179e-05
0.98037081956863403 0.66089349985122681 0.0087961982935667038
0.99760299921035767 0.68302267789840698 0.052966922521591187
0.027946457266807556 0.68832111358642578 0.1062387228012085
0.067851044237613678 0.68924546241760254 0.11376676708459854
0.1402801126241684 0.68881964683532715 0.12682469189167023
0.24722309410572052 0.68716776371002197 0.12952636182308197
0.38711798191070557 0.6865609884262085 0.11456623673439026
0.52198213338851929 0.68855494260787964 0.093059942126274109
0.64032107591629028 0.6948854923248291 0.077106177806854248
0.7391430139541626 0.70197886228561401 0.056707479059696198
0.81956565380096436 0.7073245644569397 0.027915220707654953
0.88570481538772583 0.71110576391220093 0.008566778153181076
0.93755090236663818 0.71461504697799683 0.00534032192081213
0.97373276948928833 0.71887493133544922 0.017854219302535057
0.9957125186920166 0.72951096296310425 0.05871906504034996
0.20053017139434814 0.7658880352973938 0.16719183325767517
0.24608986079692841 0.76793020963668823 0.17372095584869385
0.31004810333251953 0.76706445217132568 0.18686935305595398
0.38947275280952454 0.76495736837387085 0.19623786211013794
0.48193314671516418 0.76278114318847656 0.19572795927524567
0.57093173265457153 0.76292949914932251 0.18712562322616577
0.65739530324935913 0.76547503471374512 0.1733725517988205
0.73756641149520874 0.76924288272857666 0.15262874960899353
0.80931681394577026 0.77278310060501099 0.12353472411632538
0.87236201763153076 0.77607351541519165 0.093018703162670135
0.92570692300796509 0.77682369947433472 0.076920844614505768
0.96652209758758545 0.77694344520568848 0.085442319512367249
0.99453717470169067 0.78225445747375488 0.11859926581382751
0.40765738487243652 0.82592219114303589 0.24779213964939117
0.436067134141922 0.82753366231918335 0.25177007913589478
0.4712289571762085 0.82609748840332031 0.2618350088596344
0.51523119211196899 0.82472330331802368 0.27327001094818115
0.56874293088912964 0.82249480485916138 0.28022545576095581
0.62486898899078369 0.82175242900848389 0.28067454695701599
0.68474781513214111 0.82272112369537354 0.27477830648422241
0.74638468027114868 0.82448995113372803 0.2621624767780304
0.80572223663330078 0.82632744312286377 0.24233125150203705
0.86271435022354126 0.82847023010253906 0.21816357970237732
0.91562110185623169 0.83027142286300659 0.1994333416223526
0.96007543802261353 0.83110600709915161 0.1988397091627121
0.99339002370834351 0.83463668823242188 0.21907228231430054
0.5688825249671936 0.87579548358917236 0.3359299898147583
0.57767564058303833 0.87523370981216431 0.33726441860198975
0.5892454981803894 0.87390398979187012 0.34463027119636536
0.61242151260375977 0.87275987863540649 0.35675981640815735
0.64510256052017212 0.87234729528427124 0.36831369996070862
0.68225008249282837 0.87204998731613159 0.37490251660346985
0.72386044263839722 0.87325650453567505 0.37640252709388733
0.76875346899032593 0.87417906522750854 0.37229853868484497
0.81544953584671021 0.87575399875640869 0.36165601015090942
0.86350727081298828 0.87780475616455078 0.34561625123023987
0.91275936365127563 0.87975174188613892 0.33137255907058716
0.95814019441604614 0.88131940364837646 0.32812884449958801
0.99353182315826416 0.88520598411560059 0.33899006247520447
0.683574378490448 0.92081445455551147 0.42729416489601135
0.681346595287323 0.91922390460968018 0.42830750346183777
0.68141233921051025 0.91698187589645386 0.43538016080856323
0.69471246004104614 0.91660410165786743 0.44844251871109009
0.7173771858215332 0.91721689701080322 0.46217575669288635
0.74331653118133545 0.918903648853302 0.4724576473236084
0.77197617292404175 0.92062461376190186 0.4784080982208252
0.8038061261177063 0.92222589254379272 0.47927460074424744
0.83824449777603149 0.92388719320297241 0.47483617067337036
0.87666779756546021 0.92636209726333618 0.46597623825073242
0.91958582401275635 0.92796415090560913 0.45737782120704651
0.96310412883758545 0.93014311790466309 0.45475655794143677
0.99627816677093506 0.93419033288955688 0.46035721898078918
0.77318352460861206 0.96566301584243774 0.52285540103912354
0.76853263378143311 0.96331048011779785 0.52514910697937012
0.76620066165924072 0.96158057451248169 0.53324973583221436
0.77330559492111206 0.96107298135757446 0.54620933532714844
0.78781771659851074 0.96235388517379761 0.56007993221282959
0.80576616525650024 0.9643169641494751 0.57136684656143188
0.82540929317474365 0.96687465906143188 0.57917404174804688
0.84692233800888062 0.96863377094268799 0.58292102813720703
0.87223660945892334 0.97071748971939087 0.58223038911819458
0.90220493078231812 0.97304487228393555 0.57842421531677246
0.93797463178634644 0.97509753704071045 0.57394808530807495
0.97625905275344849 0.97764396667480469 0.57243484258651733
0.99941569566726685 0.9820830225944519 0.57561039924621582
0.0065237456001341343 0.034786224365234375 0.11756901443004608
0.040576156228780746 0.043866820633411407 0.11601594090461731
0.085392564535140991 0.052286170423030853 0.11672186851501465
0.15279603004455566 0.054077386856079102 0.12593306601047516
0.25888702273368835 0.042581520974636078 0.13904446363449097
0.41519740223884583 0.014340135268867016 0.14828260242938995
0.58989810943603516 0.032416969537734985 0.15965904295444489
0.7433437705039978 0.11851584911346436 0.1713322252035141
0.85249799489974976 0.22613371908664703 0.17639145255088806
0.93179726600646973 0.31676188111305237 0.17641367018222809
0.98172831535339355 0.41320598125457764 0.18563367426395416
0.99825090169906616 0.49288594722747803 0.21106559038162231
0.99691957235336304 0.56189227104187012 0.24862608313560486
0.0050739962607622147 0.068490214645862579 0.12905865907669067
0.04449830949306488 0.071467258036136627 0.13115270435810089
0.10006984323263168 0.079123660922050476 0.13093307614326477
0.168706014752388 0.078522339463233948 0.13480286300182343
0.2762046754360199 0.070817776024341583 0.14422816038131714
0.42986539006233215 0.059166416525840759 0.15178900957107544
0.60097634792327881 0.074642151594161987 0.1591118723154068
0.74633318185806274 0.13829204440116882 0.16480372846126556
0.85022461414337158 0.23620319366455078 0.16878984868526459
0.92893677949905396 0.33478483557701111 0.17379708588123322
0.98307722806930542 0.41917949914932251 0.18289966881275177
0.99941688776016235 0.49329900741577148 0.20681944489479065
0.99616366624832153 0.56287842988967896 0.24781762063503265
0.00076326855923980474 0.12196400761604309 0.14054693281650543
0.027217939496040344 0.1241617426276207 0.14216163754463196
0.10521220415830612 0.12714254856109619 0.14354458451271057
0.20342615246772766 0.12771916389465332 0.14177368581295013
0.31568798422813416 0.13012321293354034 0.14568467438220978
0.4607328474521637 0.13819824159145355 0.15050652623176575
0.61643487215042114 0.1614350825548172 0.15420670807361603
0.74959778785705566 0.21495476365089417 0.15467998385429382
0.850411057472229 0.28665626049041748 0.15243455767631531
0.92590594291687012 0.36867612600326538 0.15286245942115784
0.97973346710205078 0.44220122694969177 0.16147409379482269
0.99927884340286255 0.50922703742980957 0.19224461913108826
0.99575591087341309 0.57634842395782471 0.24179941415786743
0 0.20439335703849792 0.15011262893676758
0.0043661976233124733 0.20823316276073456 0.15072514116764069
0.072323866188526154 0.21244890987873077 0.15234765410423279
0.20769567787647247 0.21807472407817841 0.1462160050868988
0.34813791513442993 0.22412005066871643 0.14095479249954224
0.49119284749031067 0.22858612239360809 0.13557551801204681
0.63013714551925659 0.24515195190906525 0.13117791712284088
0.75102400779724121 0.29024401307106018 0.12565718591213226
0.84787482023239136 0.34758362174034119 0.11840974539518356
0.92240983247756958 0.41629776358604431 0.11122463643550873
0.97632014751434326 0.48271417617797852 0.12398907542228699
0.99857336282730103 0.54184365272521973 0.16702727973461151
0.99758404493331909 0.6006854772567749 0.22521466016769409
0 0.32385727763175964 0.14794787764549255
0 0.32611972093582153 0.14934246242046356
0.033062279224395752 0.33018654584884644 0.15255680680274963
0.17201007902622223 0.33961772918701172 0.14478744566440582
0.34709727764129639 0.35390156507492065 0.12725731730461121
0.51011031866073608 0.35773810744285583 0.10575951635837555
0.64350634813308716 0.35723349452018738 0.08733629435300827
0.75273227691650391 0.38052308559417725 0.071875505149364471
0.84216094017028809 0.4220682680606842 0.06586495041847229
