assets/lut/picturefx zilverfx bw solarization.cube
# Created by: G'MIC (https://gmic.eu)
TITLE "zilverfx_bw_solarization"
# LUT size
LUT_3D_SIZE 13
# Data domain
DOMAIN_MIN 0.0 0.0 0.0
DOMAIN_MAX 1.0 1.0 1.0
# LUT data points
0.92589455842971802 0.92589455842971802 0.92589455842971802
0.65835320949554443 0.65835320949554443 0.65835320949554443
0.39953631162643433 0.39953631162643433 0.39953631162643433
0.33097738027572632 0.33097738027572632 0.33097738027572632
0.24238678812980652 0.24238678812980652 0.24238678812980652
0.20948314666748047 0.20948314666748047 0.20948314666748047
0.24006560444831848 0.24006560444831848 0.24006560444831848
0.25979503989219666 0.25979503989219666 0.25979503989219666
0.22133688628673553 0.22133688628673553 0.22133688628673553
0.14928461611270905 0.14928461611270905 0.14928461611270905
0.15014104545116425 0.15014104545116425 0.15014104545116425
0.20558597147464752 0.20558597147464752 0.20558597147464752
0.2416703999042511 0.2416703999042511 0.2416703999042511
0.34391945600509644 0.34391945600509644 0.34391945600509644
0.20840717852115631 0.20840717852115631 0.20840717852115631
0.16896121203899384 0.16896121203899384 0.16896121203899384
0.1495303213596344 0.1495303213596344 0.1495303213596344
0.14283822476863861 0.14283822476863861 0.14283822476863861
0.18124394118785858 0.18124394118785858 0.18124394118785858
0.2233753502368927 0.2233753502368927 0.2233753502368927
0.22840766608715057 0.22840766608715057 0.22840766608715057
0.18295298516750336 0.18295298516750336 0.18295298516750336
0.13008424639701843 0.13008424639701843 0.13008424639701843
0.15313978493213654 0.15313978493213654 0.15313978493213654
0.21982571482658386 0.21982571482658386 0.21982571482658386
0.26506754755973816 0.26506754755973816 0.26506754755973816
0.12434908002614975 0.12434908002614975 0.12434908002614975
0.093576662242412567 0.093576662242412567 0.093576662242412567
0.11027807742357254 0.11027807742357254 0.11027807742357254
0.12320143729448318 0.12320143729448318 0.12320143729448318
0.12938623130321503 0.12938623130321503 0.12938623130321503
0.16743448376655579 0.16743448376655579 0.16743448376655579
0.19439259171485901 0.19439259171485901 0.19439259171485901
0.19031091034412384 0.19031091034412384 0.19031091034412384
0.15587127208709717 0.15587127208709717 0.15587127208709717
0.14693094789981842 0.14693094789981842 0.14693094789981842
0.2077794075012207 0.2077794075012207 0.2077794075012207
0.28524765372276306 0.28524765372276306 0.28524765372276306
0.33009576797485352 0.33009576797485352 0.33009576797485352
0.099579997360706329 0.099579997360706329 0.099579997360706329
0.096215344965457916 0.096215344965457916 0.096215344965457916
0.10704702883958817 0.10704702883958817 0.10704702883958817
0.10850412398576736 0.10850412398576736 0.10850412398576736
0.12155227363109589 0.12155227363109589 0.12155227363109589
0.17741137742996216 0.17741137742996216 0.17741137742996216
0.2320450097322464 0.2320450097322464 0.2320450097322464
0.26707243919372559 0.26707243919372559 0.26707243919372559
0.25571799278259277 0.25571799278259277 0.25571799278259277
0.2640327513217926 0.2640327513217926 0.2640327513217926
0.32053953409194946 0.32053953409194946 0.32053953409194946
0.37100541591644287 0.37100541591644287 0.37100541591644287
0.38245704770088196 0.38245704770088196 0.38245704770088196
0.2008100301027298 0.2008100301027298 0.2008100301027298
0.20427897572517395 0.20427897572517395 0.20427897572517395
0.21606031060218811 0.21606031060218811 0.21606031060218811
0.25314569473266602 0.25314569473266602 0.25314569473266602
0.33274990320205688 0.33274990320205688 0.33274990320205688
0.42800867557525635 0.42800867557525635 0.42800867557525635
0.50365549325942993 0.50365549325942993 0.50365549325942993
0.48391741514205933 0.48391741514205933 0.48391741514205933
0.39723086357116699 0.39723086357116699 0.39723086357116699
0.37835177779197693 0.37835177779197693 0.37835177779197693
0.39999154210090637 0.39999154210090637 0.39999154210090637
0.39333230257034302 0.39333230257034302 0.39333230257034302
0.36358091235160828 0.36358091235160828 0.36358091235160828
0.37503966689109802 0.37503966689109802 0.37503966689109802
0.3734830915927887 0.3734830915927887 0.3734830915927887
0.39130890369415283 0.39130890369415283 0.39130890369415283
0.47096601128578186 0.47096601128578186 0.47096601128578186
0.5627480149269104 0.5627480149269104 0.5627480149269104
0.60763007402420044 0.60763007402420044 0.60763007402420044
0.59780561923980713 0.59780561923980713 0.59780561923980713
0.49573639035224915 0.49573639035224915 0.49573639035224915
0.37687680125236511 0.37687680125236511 0.37687680125236511
0.34068253636360168 0.34068253636360168 0.34068253636360168
0.33401966094970703 0.33401966094970703 0.33401966094970703
0.28921112418174744 0.28921112418174744 0.28921112418174744
0.24036717414855957 0.24036717414855957 0.24036717414855957
0.29841360449790955 0.29841360449790955 0.29841360449790955
0.30392494797706604 0.30392494797706604 0.30392494797706604
0.32225796580314636 0.32225796580314636 0.32225796580314636
0.37442693114280701 0.37442693114280701 0.37442693114280701
0.39841505885124207 0.39841505885124207 0.39841505885124207
0.37013718485832214 0.37013718485832214 0.37013718485832214
0.32133662700653076 0.32133662700653076 0.32133662700653076
0.25652176141738892 0.25652176141738892 0.25652176141738892
0.20096531510353088 0.20096531510353088 0.20096531510353088
0.17854794859886169 0.17854794859886169 0.17854794859886169
0.17356219887733459 0.17356219887733459 0.17356219887733459
0.14385874569416046 0.14385874569416046 0.14385874569416046
0.1083931103348732 0.1083931103348732 0.1083931103348732
0.16926814615726471 0.16926814615726471 0.16926814615726471
0.17554095387458801 0.17554095387458801 0.17554095387458801
0.17957599461078644 0.17957599461078644 0.17957599461078644
0.18959358334541321 0.18959358334541321 0.18959358334541321
0.18583253026008606 0.18583253026008606 0.18583253026008606
0.15915966033935547 0.15915966033935547 0.15915966033935547
0.13106371462345123 0.13106371462345123 0.13106371462345123
0.11506178975105286 0.11506178975105286 0.11506178975105286
0.10707481205463409 0.10707481205463409 0.10707481205463409
0.10598514229059219 0.10598514229059219 0.10598514229059219
0.11688986420631409 0.11688986420631409 0.11688986420631409
0.1123315840959549 0.1123315840959549 0.1123315840959549
0.097217321395874023 0.097217321395874023 0.097217321395874023
0.25392282009124756 0.25392282009124756 0.25392282009124756
0.25166207551956177 0.25166207551956177 0.25166207551956177
0.24156253039836884 0.24156253039836884 0.24156253039836884
0.25416678190231323 0.25416678190231323 0.25416678190231323
0.24173977971076965 0.24173977971076965 0.24173977971076965
0.19157809019088745 0.19157809019088745 0.19157809019088745
0.15403980016708374 0.15403980016708374 0.15403980016708374
0.14733628928661346 0.14733628928661346 0.14733628928661346
0.15792283415794373 0.15792283415794373 0.15792283415794373
0.17195995151996613 0.17195995151996613 0.17195995151996613
0.16873395442962646 0.16873395442962646 0.16873395442962646
0.16245496273040771 0.16245496273040771 0.16245496273040771
0.15239231288433075 0.15239231288433075 0.15239231288433075
0.31052723526954651 0.31052723526954651 0.31052723526954651
0.29548487067222595 0.29548487067222595 0.29548487067222595
0.27656283974647522 0.27656283974647522 0.27656283974647522
0.27263757586479187 0.27263757586479187 0.27263757586479187
0.24972493946552277 0.24972493946552277 0.24972493946552277
0.20955926179885864 0.20955926179885864 0.20955926179885864
0.1799113005399704 0.1799113005399704 0.1799113005399704
0.17542745172977448 0.17542745172977448 0.17542745172977448
0.19072212278842926 0.19072212278842926 0.19072212278842926
0.20639486610889435 0.20639486610889435 0.20639486610889435
0.19520838558673859 0.19520838558673859 0.19520838558673859
0.17863520979881287 0.17863520979881287 0.17863520979881287
0.1564420759677887 0.1564420759677887 0.1564420759677887
0.19318550825119019 0.19318550825119019 0.19318550825119019
0.18180301785469055 0.18180301785469055 0.18180301785469055
0.17804208397865295 0.17804208397865295 0.17804208397865295
0.16874119639396667 0.16874119639396667 0.16874119639396667
0.1494467705488205 0.1494467705488205 0.1494467705488205
0.13916675746440887 0.13916675746440887 0.13916675746440887
0.13043931126594543 0.13043931126594543 0.13043931126594543
0.12526547908782959 0.12526547908782959 0.12526547908782959
0.13185781240463257 0.13185781240463257 0.13185781240463257
0.1409294605255127 0.1409294605255127 0.1409294605255127
0.13803648948669434 0.13803648948669434 0.13803648948669434
0.12604919075965881 0.12604919075965881 0.12604919075965881
0.10444599390029907 0.10444599390029907 0.10444599390029907
0.069147519767284393 0.069147519767284393 0.069147519767284393
0.063945010304450989 0.063945010304450989 0.063945010304450989
0.063966311514377594 0.063966311514377594 0.063966311514377594
0.052315071225166321 0.052315071225166321 0.052315071225166321
0.043349038809537888 0.043349038809537888 0.043349038809537888
0.043911654502153397 0.043911654502153397 0.043911654502153397
0.043668441474437714 0.043668441474437714 0.043668441474437714
0.042155694216489792 0.042155694216489792 0.042155694216489792
0.052651096135377884 0.052651096135377884 0.052651096135377884
0.05901043489575386 0.05901043489575386 0.05901043489575386
0.056168872863054276 0.056168872863054276 0.056168872863054276
0.03651878610253334 0.03651878610253334 0.03651878610253334
0.025952057912945747 0.025952057912945747 0.025952057912945747
0.043693959712982178 0.043693959712982178 0.043693959712982178
0.044596891850233078 0.044596891850233078 0.044596891850233078
0.0086262272670865059 0.0086262272670865059 0.0086262272670865059
0.00020069794845767319 0.00020069794845767319 0.00020069794845767319
0 0 0
0 0 0
0 0 0
0.0014019536320120096 0.0014019536320120096 0.0014019536320120096
0.025881240144371986 0.025881240144371986 0.025881240144371986
0.045690067112445831 0.045690067112445831 0.045690067112445831
0.034105382859706879 0.034105382859706879 0.034105382859706879
0.0010582718532532454 0.0010582718532532454 0.0010582718532532454
0 0 0
0.70474499464035034 0.70474499464035034 0.70474499464035034
0.49990630149841309 0.49990630149841309 0.49990630149841309
0.3624722957611084 0.3624722957611084 0.3624722957611084
0.30458176136016846 0.30458176136016846 0.30458176136016846
0.22491054236888885 0.22491054236888885 0.22491054236888885
0.19208319485187531 0.19208319485187531 0.19208319485187531
0.22600047290325165 0.22600047290325165 0.22600047290325165
0.24350135028362274 0.24350135028362274 0.24350135028362274
0.20078526437282562 0.20078526437282562 0.20078526437282562
0.14134441316127777 0.14134441316127777 0.14134441316127777
0.14296989142894745 0.14296989142894745 0.14296989142894745
0.18844197690486908 0.18844197690486908 0.18844197690486908
0.22837033867835999 0.22837033867835999 0.22837033867835999
0.26642251014709473 0.26642251014709473 0.26642251014709473
0.18215763568878174 0.18215763568878174 0.18215763568878174
0.13406689465045929 0.13406689465045929 0.13406689465045929
0.11979001760482788 0.11979001760482788 0.11979001760482788
0.13617387413978577 0.13617387413978577 0.13617387413978577
0.17040790617465973 0.17040790617465973 0.17040790617465973
0.21078452467918396 0.21078452467918396 0.21078452467918396
0.21751457452774048 0.21751457452774048 0.21751457452774048
0.16769774258136749 0.16769774258136749 0.16769774258136749
0.11964881420135498 0.11964881420135498 0.11964881420135498
0.1471550315618515 0.1471550315618515 0.1471550315618515
0.21037010848522186 0.21037010848522186 0.21037010848522186
0.25315025448799133 0.25315025448799133 0.25315025448799133
0.097823217511177063 0.097823217511177063 0.097823217511177063
0.088161110877990723 0.088161110877990723 0.088161110877990723
0.098736613988876343 0.098736613988876343 0.098736613988876343
0.10136208683252335 0.10136208683252335 0.10136208683252335
0.11095395684242249 0.11095395684242249 0.11095395684242249
0.15146613121032715 0.15146613121032715 0.15146613121032715
0.18207104504108429 0.18207104504108429 0.18207104504108429
0.18501868844032288 0.18501868844032288 0.18501868844032288
0.15048505365848541 0.15048505365848541 0.15048505365848541
0.14183008670806885 0.14183008670806885 0.14183008670806885
0.20866014063358307 0.20866014063358307 0.20866014063358307
0.28535127639770508 0.28535127639770508 0.28535127639770508
0.31917563080787659 0.31917563080787659 0.31917563080787659
0.090930640697479248 0.090930640697479248 0.090930640697479248
0.097742073237895966 0.097742073237895966 0.097742073237895966
0.10049757361412048 0.10049757361412048 0.10049757361412048
0.096990443766117096 0.096990443766117096 0.096990443766117096
0.11218272149562836 0.11218272149562836 0.11218272149562836
0.17297886312007904 0.17297886312007904 0.17297886312007904
0.23037834465503693 0.23037834465503693 0.23037834465503693
0.26631277799606323 0.26631277799606323 0.26631277799606323
0.25196444988250732 0.25196444988250732 0.25196444988250732
0.26068168878555298 0.26068168878555298 0.26068168878555298
0.32485789060592651 0.32485789060592651 0.32485789060592651
0.37615504860877991 0.37615504860877991 0.37615504860877991
0.3723178505897522 0.3723178505897522 0.3723178505897522
0.19434939324855804 0.19434939324855804 0.19434939324855804
0.20519782602787018 0.20519782602787018 0.20519782602787018
0.2143835723400116 0.2143835723400116 0.2143835723400116
0.25565347075462341 0.25565347075462341 0.25565347075462341
0.33028936386108398 0.33028936386108398 0.33028936386108398
0.42533084750175476 0.42533084750175476 0.42533084750175476
0.49381875991821289 0.49381875991821289 0.49381875991821289
0.48208564519882202 0.48208564519882202 0.48208564519882202
0.40205633640289307 0.40205633640289307 0.40205633640289307
0.37720301747322083 0.37720301747322083 0.37720301747322083
0.40113124251365662 0.40113124251365662 0.40113124251365662
0.39848107099533081 0.39848107099533081 0.39848107099533081
0.34827196598052979 0.34827196598052979 0.34827196598052979
0.35712352395057678 0.35712352395057678 0.35712352395057678
0.36998218297958374 0.36998218297958374 0.36998218297958374
0.39282268285751343 0.39282268285751343 0.39282268285751343
0.4763912558555603 0.4763912558555603 0.4763912558555603
0.56947606801986694 0.56947606801986694 0.56947606801986694
0.61197030544281006 0.61197030544281006 0.61197030544281006
0.59829246997833252 0.59829246997833252 0.59829246997833252
0.49137136340141296 0.49137136340141296 0.49137136340141296
0.37641361355781555 0.37641361355781555 0.37641361355781555
0.34286913275718689 0.34286913275718689 0.34286913275718689
0.33848321437835693 0.33848321437835693 0.33848321437835693
0.2981724739074707 0.2981724739074707 0.2981724739074707
0.22742976248264313 0.22742976248264313 0.22742976248264313
0.28846567869186401 0.28846567869186401 0.28846567869186401
0.30795198678970337 0.30795198678970337 0.30795198678970337
0.32513177394866943 0.32513177394866943 0.32513177394866943
0.37144574522972107 0.37144574522972107 0.37144574522972107
0.39707663655281067 0.39707663655281067 0.39707663655281067
0.37911468744277954 0.37911468744277954 0.37911468744277954
0.34237825870513916 0.34237825870513916 0.34237825870513916
0.24458546936511993 0.24458546936511993 0.24458546936511993
0.18981796503067017 0.18981796503067017 0.18981796503067017
0.19132833182811737 0.19132833182811737 0.19132833182811737
0.18963252007961273 0.18963252007961273 0.18963252007961273
0.15740805864334106 0.15740805864334106 0.15740805864334106
0.11061432957649231 0.11061432957649231 0.11061432957649231
0.17346642911434174 0.17346642911434174 0.17346642911434174
0.18100178241729736 0.18100178241729736 0.18100178241729736
0.19169603288173676 0.19169603288173676 0.19169603288173676
0.19595582783222198 0.19595582783222198 0.19595582783222198
0.19134201109409332 0.19134201109409332 0.19134201109409332
0.16994762420654297 0.16994762420654297 0.16994762420654297
0.14227709174156189 0.14227709174156189 0.14227709174156189
0.10250180959701538 0.10250180959701538 0.10250180959701538
0.099726416170597076 0.099726416170597076 0.099726416170597076
0.12165979295969009 0.12165979295969009 0.12165979295969009
0.13296894729137421 0.13296894729137421 0.13296894729137421
0.12436468154191971 0.12436468154191971 0.12436468154191971
0.10438405722379684 0.10438405722379684 0.10438405722379684
0.26354962587356567 0.26354962587356567 0.26354962587356567
0.25677740573883057 0.25677740573883057 0.25677740573883057
0.25696673989295959 0.25696673989295959 0.25696673989295959
0.2530951201915741 0.2530951201915741 0.2530951201915741
0.23436306416988373 0.23436306416988373 0.23436306416988373
0.19747957587242126 0.19747957587242126 0.19747957587242126
0.15795417129993439 0.15795417129993439 0.15795417129993439
0.14227259159088135 0.14227259159088135 0.14227259159088135
0.15584555268287659 0.15584555268287659 0.15584555268287659
0.17603768408298492 0.17603768408298492 0.17603768408298492
0.18147650361061096 0.18147650361061096 0.18147650361061096
0.17309339344501495 0.17309339344501495 0.17309339344501495
0.15418343245983124 0.15418343245983124 0.15418343245983124
0.3040919303894043 0.3040919303894043 0.3040919303894043
0.29622134566307068 0.29622134566307068 0.29622134566307068
0.28760918974876404 0.28760918974876404 0.28760918974876404
0.27282601594924927 0.27282601594924927 0.27282601594924927
0.24219687283039093 0.24219687283039093 0.24219687283039093
0.20758162438869476 0.20758162438869476 0.20758162438869476
0.18371562659740448 0.18371562659740448 0.18371562659740448
0.18092754483222961 0.18092754483222961 0.18092754483222961
0.19717144966125488 0.19717144966125488 0.19717144966125488
0.21301929652690887 0.21301929652690887 0.21301929652690887
0.21074454486370087 0.21074454486370087 0.21074454486370087
0.19135516881942749 0.19135516881942749 0.19135516881942749
0.15752322971820831 0.15752322971820831 0.15752322971820831
0.19225108623504639 0.19225108623504639 0.19225108623504639
0.1861611008644104 0.1861611008644104 0.1861611008644104
0.18144877254962921 0.18144877254962921 0.18144877254962921
0.16757366061210632 0.16757366061210632 0.16757366061210632
0.14606373012065887 0.14606373012065887 0.14606373012065887
0.140229731798172 0.140229731798172 0.140229731798172
0.14102442562580109 0.14102442562580109 0.14102442562580109
0.1385025680065155 0.1385025680065155 0.1385025680065155
0.14657694101333618 0.14657694101333618 0.14657694101333618
0.16005575656890869 0.16005575656890869 0.16005575656890869
0.15881456434726715 0.15881456434726715 0.15881456434726715
0.14171694219112396 0.14171694219112396 0.14171694219112396
0.11256641894578934 0.11256641894578934 0.11256641894578934
0.08515668660402298 0.08515668660402298 0.08515668660402298
0.073514856398105621 0.073514856398105621 0.073514856398105621
0.055857192724943161 0.055857192724943161 0.055857192724943161
0.04365970566868782 0.04365970566868782 0.04365970566868782
0.037059947848320007 0.037059947848320007 0.037059947848320007
0.043667662888765335 0.043667662888765335 0.043667662888765335
0.055951870977878571 0.055951870977878571 0.055951870977878571
0.051367919892072678 0.051367919892072678 0.051367919892072678
0.064848974347114563 0.064848974347114563 0.064848974347114563
0.077564865350723267 0.077564865350723267 0.077564865350723267
0.062442105263471603 0.062442105263471603 0.062442105263471603
0.044691797345876694 0.044691797345876694 0.044691797345876694
0.032010409981012344 0.032010409981012344 0.032010409981012344
0.04595508798956871 0.04595508798956871 0.04595508798956871
0.026610115543007851 0.026610115543007851 0.026610115543007851
0.0017642151797190309 0.0017642151797190309 0.0017642151797190309
0 0 0
0 0 0
0 0 0
0 0 0
0.0015155269065871835 0.0015155269065871835 0.0015155269065871835
0.03100484237074852 0.03100484237074852 0.03100484237074852
0.050632178783416748 0.050632178783416748 0.050632178783416748
0.02531217597424984 0.02531217597424984 0.02531217597424984
0.00032154159271158278 0.00032154159271158278 0.00032154159271158278
0 0 0
0.51373505592346191 0.51373505592346191 0.51373505592346191
0.39790055155754089 0.39790055155754089 0.39790055155754089
0.34575313329696655 0.34575313329696655 0.34575313329696655
0.26207613945007324 0.26207613945007324 0.26207613945007324
0.19197006523609161 0.19197006523609161 0.19197006523609161
0.182724729180336 0.182724729180336 0.182724729180336
0.22253350913524628 0.22253350913524628 0.22253350913524628
0.23966169357299805 0.23966169357299805 0.23966169357299805
0.19023200869560242 0.19023200869560242 0.19023200869560242
0.13434270024299622 0.13434270024299622 0.13434270024299622
0.14174394309520721 0.14174394309520721 0.14174394309520721
0.18815657496452332 0.18815657496452332 0.18815657496452332
0.23419702053070068 0.23419702053070068 0.23419702053070068
0.21101406216621399 0.21101406216621399 0.21101406216621399
0.16569884121417999 0.16569884121417999 0.16569884121417999
0.12671424448490143 0.12671424448490143 0.12671424448490143
0.10632479935884476 0.10632479935884476 0.10632479935884476
0.11834531277418137 0.11834531277418137 0.11834531277418137
0.16011396050453186 0.16011396050453186 0.16011396050453186
0.20256122946739197 0.20256122946739197 0.20256122946739197
0.20613290369510651 0.20613290369510651 0.20613290369510651
0.15674665570259094 0.15674665570259094 0.15674665570259094
0.11676169186830521 0.11676169186830521 0.11676169186830521
0.15108306705951691 0.15108306705951691 0.15108306705951691
0.21430122852325439 0.21430122852325439 0.21430122852325439
0.25903618335723877 0.25903618335723877 0.25903618335723877
0.084019005298614502 0.084019005298614502 0.084019005298614502
0.08223462849855423 0.08223462849855423 0.08223462849855423
0.08356843888759613 0.08356843888759613 0.08356843888759613
0.096336543560028076 0.096336543560028076 0.096336543560028076
0.10821074247360229 0.10821074247360229 0.10821074247360229
0.15118560194969177 0.15118560194969177 0.15118560194969177
0.17770463228225708 0.17770463228225708 0.17770463228225708
0.17590804398059845 0.17590804398059845 0.17590804398059845
0.1475822776556015 0.1475822776556015 0.1475822776556015
0.14524839818477631 0.14524839818477631 0.14524839818477631
0.21871064603328705 0.21871064603328705 0.21871064603328705
0.29482552409172058 0.29482552409172058 0.29482552409172058
0.32053640484809875 0.32053640484809875 0.32053640484809875
0.082472950220108032 0.082472950220108032 0.082472950220108032
0.087518893182277679 0.087518893182277679 0.087518893182277679
0.087382674217224121 0.087382674217224121 0.087382674217224121
0.095809981226921082 0.095809981226921082 0.095809981226921082
0.12132448703050613 0.12132448703050613 0.12132448703050613
0.18481625616550446 0.18481625616550446 0.18481625616550446
0.23613317310810089 0.23613317310810089 0.23613317310810089
0.26550754904747009 0.26550754904747009 0.26550754904747009
0.24950087070465088 0.24950087070465088 0.24950087070465088
0.26579499244689941 0.26579499244689941 0.26579499244689941
0.33610785007476807 0.33610785007476807 0.33610785007476807
0.38686186075210571 0.38686186075210571 0.38686186075210571
0.36965516209602356 0.36965516209602356 0.36965516209602356
0.20016360282897949 0.20016360282897949 0.20016360282897949
0.21130363643169403 0.21130363643169403 0.21130363643169403
0.21540233492851257 0.21540233492851257 0.21540233492851257
0.26096245646476746 0.26096245646476746 0.26096245646476746
0.34669297933578491 0.34669297933578491 0.34669297933578491
0.4459737241268158 0.4459737241268158 0.4459737241268158
0.50142335891723633 0.50142335891723633 0.50142335891723633
0.47462993860244751 0.47462993860244751 0.47462993860244751
0.39278799295425415 0.39278799295425415 0.39278799295425415
0.37601527571678162 0.37601527571678162 0.37601527571678162
0.40940564870834351 0.40940564870834351 0.40940564870834351
0.41057175397872925 0.41057175397872925 0.41057175397872925
0.34695550799369812 0.34695550799369812 0.34695550799369812
