assets/lut/picturefx analogfx old style ii.cube
# Created by: G'MIC (https://gmic.eu)
TITLE "analogfx_old_style_ii"
# LUT size
LUT_3D_SIZE 7
# Data domain
DOMAIN_MIN 0.0 0.0 0.0
DOMAIN_MAX 1.0 1.0 1.0
# LUT data points
0.0018027661135420203 0.00061880372231826186 8.1858917837962508e-05
0.0084389634430408478 0.0048443065024912357 0.0039215688593685627
0.0059874439612030983 0.0038040908984839916 0.0028622646350413561
0.073006331920623779 0.041164517402648926 0.02873598039150238
0.24861305952072144 0.14124616980552673 0.096206560730934143
0.68170708417892456 0.39236915111541748 0.25832167267799377
0.91452622413635254 0.53141105175018311 0.37392672896385193
0.0016009012470021844 0.0006956212455406785 0.00018415263912174851
0.011352359317243099 0.0071792751550674438 0.0049696080386638641
0.029893644154071808 0.018759125843644142 0.012789408676326275
0.14081329107284546 0.085870705544948578 0.063327580690383911
0.36844882369041443 0.22233489155769348 0.15717466175556183
0.80704367160797119 0.47666546702384949 0.32349801063537598
0.9764258861541748 0.5943148136138916 0.45035222172737122
0.13848532736301422 0.084149710834026337 0.061656594276428223
0.16446328163146973 0.10001628845930099 0.073151096701622009
0.22535958886146545 0.13868328928947449 0.10086871683597565
0.35008379817008972 0.21538877487182617 0.15640541911125183
0.71085476875305176 0.43737471103668213 0.31171846389770508
0.9747849702835083 0.64893472194671631 0.50683856010437012
0.99923604726791382 0.91803765296936035 0.89444035291671753
0.56425076723098755 0.34383556246757507 0.23967947065830231
0.60202497243881226 0.36946681141853333 0.26100528240203857
0.72390115261077881 0.44596609473228455 0.31765580177307129
0.90436118841171265 0.59587746858596802 0.45688965916633606
0.99818986654281616 0.86806249618530273 0.81809902191162109
1 0.97995948791503906 0.99119168519973755
1 0.9824720025062561 0.99464923143386841
0.99978673458099365 0.935405433177948 0.92167311906814575
0.99974977970123291 0.95607298612594604 0.95054394006729126
1 0.97891032695770264 0.98775184154510498
1 0.9838707447052002 0.99549752473831177
1 0.9819452166557312 0.9952549934387207
1 0.98369473218917847 0.99677193164825439
1 0.98418539762496948 0.99607843160629272
1 0.9843137264251709 0.99973845481872559
1 0.9843137264251709 0.9998786449432373
1 0.9843137264251709 0.99990648031234741
1 0.9843137264251709 0.99774646759033203
1 0.9843137264251709 0.99998444318771362
1 0.9843137264251709 1
1 0.9843137264251709 0.99970442056655884
1 0.9843137264251709 1
1 0.9843137264251709 1
1 0.9843137264251709 1
1 0.9843137264251709 1
1 0.9843137264251709 1
1 0.9843137264251709 1
1 0.9843137264251709 1
0.0036582797765731812 0.0024702034424990416 0.001045286888256669
0.010461111553013325 0.0071212169714272022 0.0039215688593685627
0.012527510523796082 0.0079574137926101685 0.0050387512892484665
0.072923697531223297 0.042079627513885498 0.029303232207894325
0.26647716760635376 0.15209300816059113 0.10382138192653656
0.70578223466873169 0.40405306220054626 0.2631072998046875
0.92494505643844604 0.5383794903755188 0.3885326087474823
0.0074570002034306526 0.0048895892687141895 0.0040525100193917751
0.0080445380881428719 0.0050152796320617199 0.0039359745569527149
0.036039974540472031 0.02240784652531147 0.017346939072012901
0.16750568151473999 0.10074208676815033 0.074883177876472473
0.40858659148216248 0.24608713388442993 0.17168936133384705
0.81573200225830078 0.47840261459350586 0.32257497310638428
0.97570127248764038 0.59290122985839844 0.45064005255699158
0.14486491680145264 0.08713822066783905 0.063304126262664795
0.18493787944316864 0.11255901306867599 0.082361720502376556
0.24239099025726318 0.14835841953754425 0.1078009232878685
0.36847037076950073 0.22760145366191864 0.16428868472576141
0.74013274908065796 0.45026075839996338 0.31672555208206177
0.97832441329956055 0.66221565008163452 0.52741068601608276
1 0.92096060514450073 0.89964717626571655
0.58367705345153809 0.35534760355949402 0.24959357082843781
0.63555848598480225 0.38848567008972168 0.27416753768920898
0.75196927785873413 0.46362689137458801 0.33021318912506104
0.91846567392349243 0.6196284294128418 0.48620206117630005
0.99794495105743408 0.88880014419555664 0.85031592845916748
1 0.98206686973571777 0.99353039264678955
1 0.98430293798446655 0.99671310186386108
0.99949699640274048 0.9420350193977356 0.9297865629196167
0.9997367262840271 0.96101027727127075 0.95878833532333374
1 0.97996091842651367 0.99066764116287231
1 0.98381298780441284 0.99787229299545288
1 0.98428165912628174 0.99891132116317749
1 0.98228883743286133 0.99600636959075928
1 0.9843137264251709 0.99633318185806274
1 0.9843137264251709 0.99949783086776733
1 0.9843137264251709 0.99607843160629272
1 0.9843137264251709 0.99986153841018677
1 0.9843137264251709 1
1 0.9843137264251709 1
1 0.9843137264251709 1
1 0.9843137264251709 0.99906837940216064
1 0.9843137264251709 1
1 0.9843137264251709 1
1 0.9843137264251709 0.99988257884979248
1 0.9843137264251709 1
1 0.9843137264251709 1
1 0.9843137264251709 1
1 0.9843137264251709 1
0.0044428808614611626 0.0033568139187991619 0.0022723628208041191
0.012372140772640705 0.0080093080177903175 0.0048106773756444454
0.018257470801472664 0.010498854331672192 0.0067388797178864479
0.13700461387634277 0.078643783926963806 0.055378858000040054
0.33409148454666138 0.19191141426563263 0.12902440130710602
0.76618939638137817 0.43947672843933105 0.28562119603157043
0.95027661323547363 0.55771917104721069 0.41221678256988525
0.0098310578614473343 0.0067410040646791458 0.0031889970414340496
0.022017234936356544 0.013852586969733238 0.0095324497669935226
0.08517773449420929 0.051459711045026779 0.038454242050647736
0.22181218862533569 0.13167361915111542 0.09708791971206665
0.48611176013946533 0.29003763198852539 0.19946400821208954
0.85492759943008423 0.50515717267990112 0.34430330991744995
0.9865996241569519 0.62314426898956299 0.49400767683982849
0.19602470099925995 0.11815125495195389 0.086327694356441498
0.2280767410993576 0.13778159022331238 0.101248599588871
0.29203447699546814 0.1791648268699646 0.13098795711994171
0.43636080622673035 0.27044987678527832 0.19421674311161041
0.82155650854110718 0.49824482202529907 0.34957459568977356
0.9853057861328125 0.70354557037353516 0.58846265077590942
1 0.94675064086914062 0.93617182970046997
0.65997165441513062 0.40814685821533203 0.29269009828567505
0.71283847093582153 0.4378751814365387 0.31105431914329529
0.82376337051391602 0.51684361696243286 0.37853214144706726
0.9539065957069397 0.68561470508575439 0.56737673282623291
0.99910217523574829 0.92352628707885742 0.90219795703887939
1 0.98268318176269531 0.99551618099212646
1 0.98361766338348389 0.99608546495437622
0.99979305267333984 0.9635852575302124 0.96197801828384399
0.99991345405578613 0.97225028276443481 0.97709000110626221
1 0.98181283473968506 0.99316436052322388
1 0.98394203186035156 0.99690133333206177
1 0.9843137264251709 1
1 0.98435515165328979 1
1 0.9843137264251709 0.99996501207351685
1 0.9843137264251709 0.99998563528060913
1 0.9843137264251709 0.99617022275924683
1 0.98430895805358887 0.99607843160629272
1 0.9843137264251709 0.99729245901107788
1 0.9843137264251709 1
1 0.9843137264251709 1
1 0.9843137264251709 1
1 0.9843137264251709 0.99965929985046387
1 0.9843137264251709 0.99990940093994141
1 0.9843137264251709 0.99633049964904785
1 0.9843137264251709 0.99898618459701538
1 0.9843137264251709 1
1 0.9843137264251709 1
1 0.9843137264251709 1
0.015005702152848244 0.010016482323408127 0.0073233060538768768
0.02996348962187767 0.017643557861447334 0.012864086776971817
0.097329892218112946 0.055580466985702515 0.038700941950082779
0.20809832215309143 0.11862872540950775 0.081749409437179565
0.46956285834312439 0.27045127749443054 0.17529849708080292
0.85120946168899536 0.49294498562812805 0.3320213258266449
0.98362874984741211 0.64689528942108154 0.53066837787628174
0.098637692630290985 0.06041654571890831 0.043828748166561127
0.12726962566375732 0.076444424688816071 0.056868251413106918
0.19190730154514313 0.11346761882305145 0.084279902279376984
0.30554452538490295 0.18422570824623108 0.13160747289657593
0.63409215211868286 0.3760145902633667 0.25430533289909363
0.92799484729766846 0.55975925922393799 0.41121578216552734
0.99573099613189697 0.74265235662460327 0.65617501735687256
0.29100409150123596 0.17693454027175903 0.12748910486698151
0.32662227749824524 0.20058640837669373 0.14500169456005096
0.41394102573394775 0.25556358695030212 0.18415389955043793
0.60553526878356934 0.37408211827278137 0.26618087291717529
0.92593109607696533 0.58190089464187622 0.42509660124778748
0.99907249212265015 0.80991935729980469 0.73775970935821533
1 0.976448655128479 0.98456418514251709
0.80481749773025513 0.49697697162628174 0.3559471070766449
0.83726900815963745 0.53241997957229614 0.39558583498001099
0.92701226472854614 0.62748605012893677 0.49358999729156494
0.9900171160697937 0.80849921703338623 0.73293811082839966
0.999958336353302 0.96862494945526123 0.97198635339736938
1 0.9837108850479126 0.9971739649772644
1 0.9843137264251709 1
1 0.98183828592300415 0.99158912897109985
1 0.9805978536605835 0.99205440282821655
1 0.98033636808395386 0.99239885807037354
1 0.9839898943901062 0.99800550937652588
1 0.9843137264251709 1
1 0.9843137264251709 0.99996793270111084
1 0.9843137264251709 1
1 0.98377400636672974 0.99607843160629272
1 0.9810299277305603 0.99607843160629272
1 0.9804309606552124 0.99606317281723022
1 0.9843137264251709 0.9983406662940979
1 0.9843137264251709 1
1 0.9843137264251709 1
1 0.9843137264251709 1
1 0.98039215803146362 0.99607843160629272
1 0.98191076517105103 0.99607843160629272
1 0.98365169763565063 0.99607843160629272
1 0.9843137264251709 0.99971288442611694
1 0.9843137264251709 1
1 0.9843137264251709 1
1 0.9843137264251709 1
0.17725950479507446 0.099464952945709229 0.068555451929569244
0.20864136517047882 0.11890816688537598 0.08247077465057373
0.29131120443344116 0.16964296996593475 0.1153264194726944
0.43323668837547302 0.25432750582695007 0.16986910998821259
0.75720268487930298 0.43592271208763123 0.28182876110076904
0.95159083604812622 0.58325904607772827 0.44802844524383545
0.9988853931427002 0.79668164253234863 0.73088699579238892
0.30472534894943237 0.18387289345264435 0.13043929636478424
0.33574235439300537 0.20286162197589874 0.14437738060951233
0.40945273637771606 0.24831466376781464 0.17419847846031189
0.56684809923171997 0.34062355756759644 0.23255762457847595
0.87356150150299072 0.51760751008987427 0.35896056890487671
0.98521906137466431 0.66921067237854004 0.55738955736160278
0.99934178590774536 0.90853506326675415 0.8845897912979126
0.53994607925415039 0.33189848065376282 0.23318853974342346
0.58484488725662231 0.360963374376297 0.2556973397731781
0.69091939926147461 0.42364197969436646 0.29869231581687927
0.86024570465087891 0.5298042893409729 0.3775286078453064
0.99316012859344482 0.72431361675262451 0.61338698863983154
0.99979901313781738 0.9395143985748291 0.92829495668411255
1 0.98140096664428711 0.99268645048141479
0.95585864782333374 0.65599310398101807 0.52430695295333862
0.97083395719528198 0.70035248994827271 0.58000969886779785
0.99302452802658081 0.80311447381973267 0.72356349229812622
0.99965983629226685 0.94358456134796143 0.93162983655929565
1 0.98329901695251465 0.99579954147338867
1 0.98389983177185059 0.99606215953826904
1 0.9843137264251709 0.99985134601593018
1 0.98346501588821411 0.9969751238822937
1 0.9837181568145752 0.99674123525619507
1 0.98365509510040283 0.99687683582305908
1 0.98429352045059204 0.99614459276199341
1 0.9843137264251709 0.99993902444839478
1 0.9843137264251709 0.99992507696151733
1 0.9843137264251709 1
1 0.98263585567474365 0.99607843160629272
1 0.98102462291717529 0.99607843160629272
1 0.9843137264251709 0.99936354160308838
1 0.9843137264251709 0.99981141090393066
1 0.9843137264251709 1
1 0.9843137264251709 1
1 0.9843137264251709 1
1 0.98039215803146362 0.99607843160629272
1 0.98043978214263916 0.99607843160629272
1 0.9843137264251709 0.99694651365280151
1 0.9843137264251709 1
1 0.9843137264251709 1
1 0.9843137264251709 1
1 0.9843137264251709 1
0.46180927753448486 0.27572154998779297 0.1883544921875
0.47379592061042786 0.27952823042869568 0.18648536503314972
0.54449939727783203 0.31947240233421326 0.21315784752368927
0.70835155248641968 0.40888035297393799 0.26616275310516357
0.90198469161987305 0.52869105339050293 0.37819212675094604
0.98782670497894287 0.70554244518280029 0.61286008358001709
1 0.87086236476898193 0.83370590209960938
0.53628253936767578 0.32413610816001892 0.22405040264129639
0.57406342029571533 0.34694591164588928 0.23804043233394623
0.63785040378570557 0.38253876566886902 0.26093202829360962
0.81907445192337036 0.48202288150787354 0.32564073801040649
0.96892869472503662 0.5954698920249939 0.45636323094367981
0.99554550647735596 0.78307914733886719 0.71423083543777466
1 0.96515959501266479 0.96369916200637817
0.73870182037353516 0.44596719741821289 0.31017917394638062
0.78223705291748047 0.47862967848777771 0.33803695440292358
0.87779587507247925 0.54246252775192261 0.39051222801208496
0.97886019945144653 0.6468430757522583 0.50122731924057007
0.99970006942749023 0.84681636095046997 0.79439312219619751
1 0.97384786605834961 0.97790908813476562
1 0.9843137264251709 0.99614334106445312
0.99442082643508911 0.79576283693313599 0.71472322940826416
0.99812799692153931 0.85967481136322021 0.80625516176223755
0.99948841333389282 0.93823015689849854 0.92416286468505859
1 0.97952884435653687 0.99043744802474976
1 0.97990840673446655 0.99052190780639648
1 0.98431563377380371 0.99661862850189209
1 0.9843137264251709 1
1 0.98415344953536987 0.99660027027130127
1 0.9843137264251709 0.99748247861862183
1 0.9843137264251709 0.99616026878356934
1 0.98315560817718506 0.99661439657211304
1 0.98127585649490356 0.99499523639678955
1 0.98424237966537476 0.99921125173568726
1 0.98693382740020752 1
1 0.9843137264251709 1
1 0.9843137264251709 0.99616974592208862
1 0.9843137264251709 0.99829530715942383
1 0.9843137264251709 0.99952113628387451
1 0.9843137264251709 0.99996727705001831
1 0.98435360193252563 1
1 0.98823529481887817 1
1 0.9843137264251709 0.99995332956314087
1 0.9843137264251709 0.99840575456619263
1 0.9843137264251709 1
1 0.9843137264251709 1
1 0.9843137264251709 1
1 0.9843137264251709 1
1 0.9843137264251709 1
0.58925622701644897 0.34656012058258057 0.22929361462593079
0.60421669483184814 0.35282605886459351 0.23112186789512634
0.68607258796691895 0.39359340071678162 0.25518128275871277
0.81512892246246338 0.46497851610183716 0.30546760559082031
0.93292254209518433 0.55368697643280029 0.41155031323432922
0.99319452047348022 0.725166916847229 0.64040648937225342
1 0.90501314401626587 0.87822890281677246
0.64646941423416138 0.38294169306755066 0.25750413537025452
0.69134771823883057 0.40984773635864258 0.27444049715995789
0.78866356611251831 0.45975130796432495 0.30511683225631714
0.87757641077041626 0.50817590951919556 0.34490621089935303
0.96910804510116577 0.60120546817779541 0.47261509299278259
0.99365413188934326 0.81075793504714966 0.75495976209640503
1 0.97297930717468262 0.97223424911499023
0.86352699995040894 0.51657187938690186 0.36092516779899597
0.89685308933258057 0.55265301465988159 0.39918625354766846
0.95538103580474854 0.61454564332962036 0.46290194988250732
0.99165403842926025 0.69743061065673828 0.58665388822555542
0.99892240762710571 0.90286117792129517 0.87869399785995483
1 0.98274612426757812 0.99241441488265991
1 0.9843137264251709 0.9956972599029541
0.99882376194000244 0.9344794750213623 0.91826462745666504
0.99940431118011475 0.95436739921569824 0.95132654905319214
1 0.9768645167350769 0.98533350229263306
1 0.98293215036392212 0.99584823846817017
1 0.98039215803146362 0.99216622114181519
1 0.98576253652572632 0.99950176477432251
1 0.98739457130432129 1
1 0.9843137264251709 1
1 0.9843137264251709 1
1 0.98169893026351929 0.99609375
1 0.98039215803146362 0.99257105588912964
1 0.98039215803146362 0.99226242303848267
1 0.98541402816772461 0.99987483024597168
1 0.99190014600753784 1
1 0.9843137264251709 1
1 0.9843137264251709 1
1 0.98428261280059814 0.99786186218261719
1 0.98229122161865234 0.99620097875595093
1 0.98229080438613892 0.99671953916549683
1 0.98527330160140991 1
1 0.98823529481887817 1
1 0.9843137264251709 1
1 0.9843137264251709 1
1 0.9843137264251709 1
1 0.9843137264251709 1
1 0.9843137264251709 1
1 0.9843137264251709 1
1 0.9843137264251709 1
