assets/lut/picturefx analogfx old style iii.cube
# Created by: G'MIC (https://gmic.eu)
TITLE "analogfx_old_style_iii"
# LUT size
LUT_3D_SIZE 5
# Data domain
DOMAIN_MIN 0.0 0.0 0.0
DOMAIN_MAX 1.0 1.0 1.0
# LUT data points
0.012506043538451195 0.0083619961515069008 0.0048122629523277283
0.0087010404095053673 0.0069212671369314194 0.0043699676170945168
0.17721100151538849 0.10043442994356155 0.071898877620697021
0.51985138654708862 0.30618971586227417 0.20400531589984894
0.86062347888946533 0.4942106306552887 0.32047340273857117
0.12136567384004593 0.073342405259609222 0.053252082318067551
0.18703107535839081 0.11093030124902725 0.083771742880344391
0.36492770910263062 0.22269977629184723 0.15807877480983734
0.71463626623153687 0.43399408459663391 0.30029860138893127
0.96113920211791992 0.57751607894897461 0.42120355367660522
0.64712947607040405 0.39225658774375916 0.27086302638053894
0.70857918262481689 0.43288975954055786 0.30417665839195251
0.85769659280776978 0.5252310037612915 0.3708934485912323
0.99037712812423706 0.70594674348831177 0.57549101114273071
1 0.94155597686767578 0.92120957374572754
0.99989145994186401 0.92798972129821777 0.90274208784103394
0.99996674060821533 0.95842123031616211 0.94178557395935059
1 0.98325526714324951 0.99296623468399048
1 0.9843137264251709 0.99829721450805664
1 0.9843137264251709 1
1 0.9878547191619873 0.99726921319961548
1 0.98438721895217896 0.99607843160629272
1 0.9843137264251709 1
1 0.9843137264251709 1
1 0.9843137264251709 1
0.0068057491444051266 0.0052426205947995186 0.0031286950688809156
0.041714731603860855 0.024252424016594887 0.016451487317681313
0.20959433913230896 0.11750232428312302 0.081375584006309509
0.54655730724334717 0.32200378179550171 0.21373800933361053
0.85642606019973755 0.48974025249481201 0.32023948431015015
0.16841484606266022 0.098263725638389587 0.073220223188400269
0.23853236436843872 0.1438155472278595 0.10669715702533722
0.39802592992782593 0.24237677454948425 0.17217576503753662
0.74709302186965942 0.44986492395401001 0.30981925129890442
0.96393471956253052 0.58554995059967041 0.43316948413848877
0.67806977033615112 0.41032400727272034 0.28330332040786743
0.7460017204284668 0.45290884375572205 0.31385722756385803
0.88797539472579956 0.54036599397659302 0.37918016314506531
0.99607270956039429 0.73215866088867188 0.61335045099258423
1 0.94983386993408203 0.9348490834236145
1 0.94230234622955322 0.92170888185501099
1 0.96904838085174561 0.96314060688018799
1 0.98446100950241089 0.99807292222976685
1 0.9843137264251709 0.99848496913909912
1 0.9843137264251709 1
1 0.98823529481887817 0.99995261430740356
1 0.98610526323318481 0.99944192171096802
1 0.9843137264251709 1
1 0.9843137264251709 1
1 0.9843137264251709 1
0.13112016022205353 0.075021050870418549 0.051634665578603745
0.18956029415130615 0.10692811757326126 0.074892036616802216
0.33486485481262207 0.19345557689666748 0.1323736310005188
0.64537042379379272 0.3761601448059082 0.24798847734928131
0.91391736268997192 0.53338313102722168 0.37356558442115784
0.28892788290977478 0.17630249261856079 0.12764450907707214
0.3554026186466217 0.2163127213716507 0.15544436872005463
0.51518076658248901 0.31484138965606689 0.21831487119197845
0.83019596338272095 0.49563607573509216 0.33892416954040527
0.98049187660217285 0.61317545175552368 0.47215726971626282
0.76265394687652588 0.461713045835495 0.31934815645217896
0.83080476522445679 0.50497102737426758 0.35118341445922852
0.93718451261520386 0.59077078104019165 0.43118467926979065
0.99814921617507935 0.764870285987854 0.65822464227676392
1 0.96713554859161377 0.96135216951370239
1 0.96770691871643066 0.96154153347015381
1 0.98036926984786987 0.98488610982894897
1 0.984211266040802 0.9950442910194397
1 0.9843137264251709 0.99644571542739868
1 0.9843137264251709 0.99937409162521362
1 0.98823529481887817 1
1 0.9875262975692749 0.99607843160629272
1 0.9843137264251709 1
1 0.9843137264251709 1
1 0.9843137264251709 1
0.39221140742301941 0.23072540760040283 0.15576727688312531
0.43554586172103882 0.25897312164306641 0.1729213148355484
0.55599206686019897 0.32829621434211731 0.21621978282928467
0.79601818323135376 0.45438158512115479 0.29610040783882141
0.98327875137329102 0.60107302665710449 0.46184831857681274
0.53336066007614136 0.3285290002822876 0.22888973355293274
0.58557546138763428 0.35687023401260376 0.24723441898822784
0.73152381181716919 0.43914178013801575 0.29985249042510986
0.90628409385681152 0.53290355205535889 0.36693868041038513
0.99874383211135864 0.70228427648544312 0.59809547662734985
0.90586298704147339 0.55322438478469849 0.38889807462692261
0.93831461668014526 0.59489649534225464 0.43359091877937317
0.98849737644195557 0.66431009769439697 0.51531523466110229
1 0.8404802680015564 0.77308905124664307
1 0.98126465082168579 0.98872250318527222
1 0.98362237215042114 0.99461323022842407
1 0.98414331674575806 0.99467617273330688
1 0.98404598236083984 0.99432015419006348
1 0.9843137264251709 0.99966603517532349
1 0.9843137264251709 0.99686449766159058
1 0.98823529481887817 0.999980628490448
1 0.98823529481887817 1
1 0.9843137264251709 1
1 0.9843137264251709 1
1 0.9843137264251709 1
0.58027130365371704 0.33839944005012512 0.22262571752071381
0.61886775493621826 0.35884621739387512 0.23465323448181152
0.74800288677215576 0.42512720823287964 0.27582457661628723
0.89496487379074097 0.51551675796508789 0.36096417903900146
0.99754804372787476 0.7000691294670105 0.60076606273651123
0.70843273401260376 0.42165061831474304 0.28657239675521851
0.75777131319046021 0.4460110068321228 0.29837498068809509
0.86372363567352295 0.5044093132019043 0.33703833818435669
0.97279268503189087 0.59360396862030029 0.4522407054901123
0.99997901916503906 0.82091343402862549 0.7581712007522583
0.9812895655632019 0.61900067329406738 0.46193394064903259
0.98161238431930542 0.66542494297027588 0.5258486270904541
0.9952588677406311 0.75635921955108643 0.65353351831436157
1 0.91372513771057129 0.88358944654464722
1 0.98237442970275879 0.9939570426940918
1 0.98429274559020996 0.99684238433837891
1 0.98403316736221313 0.99338823556900024
1 0.9843137264251709 0.99607843160629272
1 0.9843137264251709 0.9999842643737793
1 0.9843137264251709 1
1 0.98523414134979248 1
1 0.98801881074905396 0.99854540824890137
1 0.9843137264251709 1
1 0.9843137264251709 1
1 0.9843137264251709 1
