assets/lut/picturefx goldfx bright summer heat.cube
# Created by: G'MIC (https://gmic.eu)
TITLE "goldfx_bright_summer_heat"
# LUT size
LUT_3D_SIZE 13
# Data domain
DOMAIN_MIN 0.0 0.0 0.0
DOMAIN_MAX 1.0 1.0 1.0
# LUT data points
0.024966714903712273 0.036705944687128067 0.046070441603660583
0.056790459901094437 0.042322706431150436 0.047796376049518585
0.1030438169836998 0.049695033580064774 0.055011659860610962
0.17074297368526459 0.050115324556827545 0.066200479865074158
0.26721477508544922 0.043599911034107208 0.077512018382549286
0.40110766887664795 0.035206303000450134 0.086450941860675812
0.56212019920349121 0.035190865397453308 0.091111607849597931
0.70758706331253052 0.066359482705593109 0.087661787867546082
0.81612789630889893 0.14818161725997925 0.073660217225551605
0.9022984504699707 0.25859010219573975 0.062234692275524139
0.96696567535400391 0.36856773495674133 0.07027704268693924
0.99723011255264282 0.46276012063026428 0.10861535370349884
1 0.54641765356063843 0.16985698044300079
0.032462909817695618 0.07561473548412323 0.066358067095279694
0.06493600457906723 0.078197553753852844 0.065772473812103271
0.11882330477237701 0.083778455853462219 0.070093952119350433
0.19596767425537109 0.087795689702033997 0.079489134252071381
0.29797518253326416 0.085327818989753723 0.088458284735679626
0.43040886521339417 0.077356748282909393 0.09279150515794754
0.58381527662277222 0.07619929313659668 0.090874768793582916
0.72174537181854248 0.10524681210517883 0.081304125487804413
0.82501363754272461 0.18319804966449738 0.064971953630447388
0.90571361780166626 0.28788697719573975 0.055335775017738342
0.96528118848800659 0.3882860541343689 0.068459436297416687
0.99611622095108032 0.478232741355896 0.10997489839792252
1 0.56045687198638916 0.17329779267311096
0.03568599745631218 0.13347847759723663 0.09504593163728714
0.059937361627817154 0.13871894776821136 0.092980481684207916
0.11887500435113907 0.14568749070167542 0.094780653715133667
0.21562622487545013 0.15219718217849731 0.098417975008487701
0.33257949352264404 0.15402105450630188 0.100174680352211
0.4667363166809082 0.15394356846809387 0.095932617783546448
0.61093151569366455 0.16296665370464325 0.085467472672462463
0.73670977354049683 0.19533659517765045 0.069863520562648773
0.83475250005722046 0.26106023788452148 0.053211033344268799
0.91040325164794922 0.34549000859260559 0.048408761620521545
0.96424382925033569 0.43022885918617249 0.067098461091518402
0.99385631084442139 0.51031559705734253 0.11293169111013412
1 0.58775937557220459 0.18079636991024017
0.042473796755075455 0.21926282346248627 0.12093182653188705
0.05016060546040535 0.22752104699611664 0.12238579243421555
0.098615683615207672 0.23639552295207977 0.12570588290691376
0.21276615560054779 0.24649323523044586 0.12228525429964066
0.36070525646209717 0.25629672408103943 0.11136908084154129
0.50881814956665039 0.2674068808555603 0.095247648656368256
0.64465975761413574 0.27950799465179443 0.079391390085220337
0.75595808029174805 0.30458223819732666 0.064176581799983978
0.84572923183441162 0.35341036319732666 0.048821140080690384
0.91567260026931763 0.41594743728637695 0.045933876186609268
0.9652409553527832 0.48378536105155945 0.063549354672431946
0.99228894710540771 0.55256873369216919 0.10956772416830063
0.99997901916503906 0.62285906076431274 0.1844993382692337
0.058023490011692047 0.33981978893280029 0.13096791505813599
0.059311587363481522 0.3477579653263092 0.13590346276760101
0.091350749135017395 0.35679537057876587 0.1430056244134903
0.20053553581237793 0.36915796995162964 0.13723747432231903
0.36702519655227661 0.3856680691242218 0.11828457564115524
0.53400331735610962 0.40341824293136597 0.095872215926647186
0.671142578125 0.41303735971450806 0.082971058785915375
0.77528518438339233 0.42449754476547241 0.075780771672725677
0.85549819469451904 0.44926679134368896 0.065894074738025665
0.91970199346542358 0.48943242430686951 0.059445895254611969
0.96739017963409424 0.54022032022476196 0.065356127917766571
0.99240255355834961 0.5954398512840271 0.098794706165790558
0.99978995323181152 0.65720081329345703 0.17407327890396118
0.08156140148639679 0.47867000102996826 0.12988556921482086
0.093071058392524719 0.48703393340110779 0.1335204690694809
0.11710041761398315 0.49449151754379272 0.14055474102497101
0.19853980839252472 0.50414031744003296 0.14033254981040955
0.35563814640045166 0.51793551445007324 0.12627489864826202
0.52989345788955688 0.53251522779464722 0.10812134295701981
0.67742818593978882 0.54231250286102295 0.10111499577760696
0.78759139776229858 0.54798877239227295 0.10139728337526321
0.86475121974945068 0.55438399314880371 0.094723992049694061
0.92535567283630371 0.57318246364593506 0.085137009620666504
0.97094947099685669 0.60349094867706299 0.080957330763339996
0.99424558877944946 0.63991242647171021 0.097117163240909576
0.999897301197052 0.68765318393707275 0.15236623585224152
0.1089908704161644 0.61252957582473755 0.13798911869525909
0.12924909591674805 0.62100744247436523 0.14351077377796173
0.15023922920227051 0.62577682733535767 0.15271607041358948
0.21744599938392639 0.63057953119277954 0.15780635178089142
0.36636832356452942 0.6368592381477356 0.15019893646240234
0.53351277112960815 0.64523905515670776 0.13655862212181091
0.67874318361282349 0.65354043245315552 0.13105954229831696
0.79055649042129517 0.65952318906784058 0.13133518397808075
0.87194931507110596 0.66335779428482056 0.12559013068675995
0.93350988626480103 0.67125117778778076 0.11640001088380814
0.97689777612686157 0.68259751796722412 0.11038264632225037
0.99709343910217285 0.69747817516326904 0.11286899447441101
1 0.72508639097213745 0.14437903463840485
0.17611712217330933 0.72907888889312744 0.17476995289325714
0.20440337061882019 0.7361443042755127 0.18603146076202393
0.23833394050598145 0.73794448375701904 0.19806380569934845
0.30859342217445374 0.7376326322555542 0.20520654320716858
0.43251901865005493 0.7393220067024231 0.20271039009094238
0.56949138641357422 0.74287921190261841 0.19317124783992767
0.69320803880691528 0.74830055236816406 0.18603210151195526
0.79559820890426636 0.75434249639511108 0.18102557957172394
0.87781322002410889 0.75983273983001709 0.17231342196464539
0.94177901744842529 0.76419878005981445 0.16283236443996429
0.98406326770782471 0.76678383350372314 0.15844520926475525
0.9993167519569397 0.76988530158996582 0.15917077660560608
1 0.78444969654083252 0.18195861577987671
0.32217690348625183 0.82361018657684326 0.24878402054309845
0.35494318604469299 0.83156675100326538 0.26173508167266846
0.39401236176490784 0.83144015073776245 0.27238988876342773
0.45542752742767334 0.8281216025352478 0.27913287281990051
0.53984218835830688 0.82807868719100952 0.28238940238952637
0.63430547714233398 0.83058208227157593 0.27990227937698364
0.72507369518280029 0.83288764953613281 0.27068236470222473
0.8086809515953064 0.83753389120101929 0.25777652859687805
0.88531512022018433 0.84210187196731567 0.24273958802223206
0.9496452808380127 0.84177315235137939 0.23029844462871552
0.99019324779510498 0.83912408351898193 0.22634702920913696
0.99998289346694946 0.84261924028396606 0.23691149055957794
0.99995023012161255 0.85755926370620728 0.26971286535263062
0.50684070587158203 0.90043860673904419 0.34503492712974548
0.53308689594268799 0.90993732213973999 0.35642310976982117
0.55877888202667236 0.90994852781295776 0.36295482516288757
0.59633982181549072 0.90582907199859619 0.36729598045349121
0.64718109369277954 0.90632909536361694 0.37491047382354736
0.70819932222366333 0.9088364839553833 0.37971431016921997
0.76806831359863281 0.91034573316574097 0.36864364147186279
0.83083873987197876 0.91368597745895386 0.3511563241481781
0.89517033100128174 0.9165041446685791 0.33481204509735107
0.9528694748878479 0.91330176591873169 0.32209283113479614
0.98966878652572632 0.908150315284729 0.31812721490859985
0.99971812963485718 0.91034185886383057 0.32992056012153625
0.99960541725158691 0.92141902446746826 0.36296415328979492
0.65932005643844604 0.95848208665847778 0.44359660148620605
0.67574000358581543 0.96807211637496948 0.45254719257354736
0.69321107864379883 0.96860438585281372 0.45916593074798584
0.71629726886749268 0.96647971868515015 0.46479713916778564
0.74455887079238892 0.96766895055770874 0.47147640585899353
0.78073209524154663 0.96995526552200317 0.47657296061515808
0.82041078805923462 0.97165441513061523 0.469758540391922
0.86924558877944946 0.97411370277404785 0.45974749326705933
0.91304314136505127 0.97544223070144653 0.44841650128364563
0.95582085847854614 0.97181993722915649 0.4412752091884613
0.98570358753204346 0.96758311986923218 0.43731001019477844
0.99812197685241699 0.97076660394668579 0.44146153330802917
0.99994629621505737 0.97130513191223145 0.46507394313812256
0.80535262823104858 0.99185216426849365 0.56118297576904297
0.82025247812271118 0.99746102094650269 0.57154691219329834
0.84155702590942383 0.99751561880111694 0.58149057626724243
0.86128395795822144 0.99641567468643188 0.5895998477935791
0.87102031707763672 0.99764007329940796 0.59310394525527954
0.88450348377227783 0.99791187047958374 0.59671366214752197
0.90714424848556519 0.99806654453277588 0.59891128540039062
0.94402378797531128 0.99923205375671387 0.60052645206451416
0.95314252376556396 0.99838006496429443 0.590412437915802
0.97171109914779663 0.99329626560211182 0.58537840843200684
0.98898720741271973 0.98709672689437866 0.58268409967422485
0.99851834774017334 0.98992335796356201 0.58108460903167725
1 0.98880863189697266 0.59290379285812378
0.96551364660263062 0.99990898370742798 0.70432162284851074
0.97995370626449585 1 0.72482407093048096
0.98796230554580688 1 0.73521512746810913
0.99306100606918335 0.99966049194335938 0.74302375316619873
0.99201697111129761 0.99822467565536499 0.74615037441253662
0.99040627479553223 0.99408942461013794 0.75115078687667847
0.9923139214515686 0.98827749490737915 0.75734531879425049
0.99900352954864502 0.9878164529800415 0.7601587176322937
0.99736708402633667 0.98613369464874268 0.75098204612731934
0.99739813804626465 0.9813883900642395 0.74287956953048706
0.99931412935256958 0.97433376312255859 0.73957598209381104
1 0.9758228063583374 0.73715949058532715
1 0.98207628726959229 0.74221175909042358
0.026907572522759438 0.040013153105974197 0.078300252556800842
0.054491303861141205 0.045677755028009415 0.080713845789432526
0.098134450614452362 0.051783468574285507 0.086839385330677032
0.16695892810821533 0.05326702818274498 0.099722094833850861
0.26848500967025757 0.054332807660102844 0.11344637721776962
0.41135749220848083 0.052383765578269958 0.12396912276744843
0.57764506340026855 0.063716411590576172 0.12985959649085999
0.72153675556182861 0.10739617794752121 0.12951642274856567
0.82155030965805054 0.1813119649887085 0.11973237991333008
0.9033428430557251 0.27626484632492065 0.10905318707227707
0.96722269058227539 0.38345253467559814 0.11743173003196716
0.99648791551589966 0.47561341524124146 0.1528148353099823
1 0.55725753307342529 0.21116884052753448
0.031867098063230515 0.079696670174598694 0.099097341299057007
0.06255786120891571 0.081334464251995087 0.10203523933887482
0.1178835853934288 0.086829930543899536 0.106415756046772
0.19657044112682343 0.092311441898345947 0.11596202105283737
0.30393606424331665 0.099388569593429565 0.12555058300495148
0.44284728169441223 0.095758982002735138 0.13018794357776642
0.59721702337265015 0.099972546100616455 0.12968845665454865
0.73036164045333862 0.13731959462165833 0.12300798296928406
0.82590043544769287 0.20213250815868378 0.10929378122091293
0.9043305516242981 0.28743395209312439 0.099731266498565674
0.96521049737930298 0.39067187905311584 0.11291340738534927
0.99567824602127075 0.48323327302932739 0.15142565965652466
1 0.56540536880493164 0.21128146350383759
0.032304201275110245 0.14035426080226898 0.12420347332954407
0.05620015412569046 0.14261583983898163 0.12495169788599014
0.12234277278184891 0.1480715274810791 0.12911094725131989
0.22085730731487274 0.15694159269332886 0.13361974060535431
0.34423020482063293 0.16522575914859772 0.13501818478107452
0.48318326473236084 0.16728201508522034 0.13106279075145721
0.62389510869979858 0.17649364471435547 0.12263635545969009
0.74395668506622314 0.21099583804607391 0.10921653360128403
0.83742928504943848 0.27012872695922852 0.093322604894638062
0.9117656946182251 0.34475994110107422 0.088178880512714386
0.96636825799942017 0.43004485964775085 0.10532186180353165
0.99514001607894897 0.51173031330108643 0.14805988967418671
1 0.58971059322357178 0.21308976411819458
0.041968371719121933 0.22947666049003601 0.14450515806674957
0.046932443976402283 0.23245947062969208 0.1475490927696228
0.099943496286869049 0.2380841076374054 0.1517217606306076
0.22132058441638947 0.25137674808502197 0.14850059151649475
0.37231898307800293 0.26289612054824829 0.13791319727897644
0.52090638875961304 0.26996472477912903 0.12341069430112839
0.65094113349914551 0.27693521976470947 0.1091550812125206
0.75755107402801514 0.30058255791664124 0.093665912747383118
0.84635031223297119 0.35159224271774292 0.07747650146484375
0.91872596740722656 0.41692003607749939 0.075176984071731567
0.97032678127288818 0.48601183295249939 0.091676555573940277
0.99565142393112183 0.55291122198104858 0.13339206576347351
1 0.62283015251159668 0.20551863312721252
0.070147767663002014 0.35190829634666443 0.1521613746881485
0.064952805638313293 0.35529068112373352 0.15610320866107941
0.099346384406089783 0.36046978831291199 0.16017897427082062
0.21463970839977264 0.37508141994476318 0.15331828594207764
0.37841171026229858 0.39106360077857971 0.13562425971031189
0.54032868146896362 0.40166503190994263 0.11417514830827713
0.67114889621734619 0.40372136235237122 0.099120259284973145
0.77163213491439819 0.41264638304710388 0.089147679507732391
0.85381615161895752 0.44115689396858215 0.080761991441249847
0.92294907569885254 0.48792144656181335 0.077726446092128754
0.97468453645706177 0.54279094934463501 0.083956867456436157
0.99734747409820557 0.59499919414520264 0.11275356262922287
1 0.65692353248596191 0.18791832029819489
0.1042664498090744 0.49107462167739868 0.1495959609746933
0.10629965364933014 0.49650454521179199 0.1507415771484375
0.13224132359027863 0.5005156397819519 0.15460069477558136
0.22066681087017059 0.50960886478424072 0.15312789380550385
0.37264683842658997 0.52236443758010864 0.13770782947540283
0.53933477401733398 0.53370308876037598 0.11609411984682083
0.68040198087692261 0.53993159532546997 0.10250959545373917
0.78517717123031616 0.54247736930847168 0.098237358033657074
0.86307024955749512 0.5476679801940918 0.096202269196510315
0.92780196666717529 0.56859391927719116 0.093355424702167511
0.97794049978256226 0.6005522608757019 0.094446606934070587
0.99876117706298828 0.63771599531173706 0.11254924535751343
0.99998503923416138 0.69041568040847778 0.17288076877593994
0.12325221300125122 0.61906927824020386 0.15348953008651733
0.13677971065044403 0.62704837322235107 0.15639787912368774
0.1690516471862793 0.63016539812088013 0.16378508508205414
0.25111603736877441 0.63369333744049072 0.16836223006248474
0.39054548740386963 0.63957804441452026 0.15861812233924866
0.54668939113616943 0.6465267539024353 0.137555330991745
0.68463039398193359 0.65383201837539673 0.12540408968925476
0.79182183742523193 0.65878200531005859 0.12355378270149231
0.87271344661712646 0.66124057769775391 0.12107092142105103
0.93669909238815308 0.66855162382125854 0.11649633944034576
0.98235553503036499 0.67879348993301392 0.11525174230337143
0.99966335296630859 0.69365602731704712 0.12010221183300018
0.99974936246871948 0.7265201210975647 0.15747736394405365
0.17419604957103729 0.72831875085830688 0.18355724215507507
0.2015938013792038 0.73754996061325073 0.19302381575107574
0.24992567300796509 0.74040073156356812 0.20494438707828522
0.33837416768074036 0.74041295051574707 0.21346795558929443
0.45743647217750549 0.7407342791557312 0.20991842448711395
0.58323144912719727 0.74227064847946167 0.1939263641834259
0.69915086030960083 0.74679988622665405 0.18306255340576172
0.79759436845779419 0.75312107801437378 0.17886285483837128
0.87956780195236206 0.75875556468963623 0.17099550366401672
0.94492441415786743 0.76335662603378296 0.1625627875328064
0.98794281482696533 0.76586246490478516 0.15858274698257446
0.99999886751174927 0.76756352186203003 0.1569163054227829
0.99970126152038574 0.78416323661804199 0.18386214971542358
0.31465601921081543 0.82276773452758789 0.25187951326370239
0.34830483794212341 0.83199131488800049 0.2639717161655426
0.39649593830108643 0.83329874277114868 0.27526777982711792
0.47182837128639221 0.83013284206390381 0.28521981835365295
0.55750060081481934 0.8291015625 0.28989452123641968
0.64410877227783203 0.82954156398773193 0.28547492623329163
0.72860884666442871 0.8308180570602417 0.27531030774116516
0.80955427885055542 0.8352426290512085 0.26297751069068909
0.88710039854049683 0.84221994876861572 0.24803851544857025
0.95232087373733521 0.84372431039810181 0.23466543853282928
0.99261420965194702 0.83938086032867432 0.22779414057731628
1 0.83988958597183228 0.23450236022472382
0.99937182664871216 0.85679507255554199 0.26834756135940552
0.50444698333740234 0.90296345949172974 0.34537765383720398
0.52822905778884888 0.91137194633483887 0.35490807890892029
0.55330520868301392 0.9119865894317627 0.36070641875267029
0.59894835948944092 0.90859967470169067 0.36904898285865784
0.65426504611968994 0.90807569026947021 0.3803136944770813
0.71195614337921143 0.90896618366241455 0.3857782781124115
0.76836860179901123 0.9093354344367981 0.37621521949768066
0.83181661367416382 0.91268080472946167 0.36119630932807922
0.89941716194152832 0.91855406761169434 0.34498968720436096
0.95781230926513672 0.91715013980865479 0.33047071099281311
0.99330353736877441 0.90845125913619995 0.32150214910507202
0.9999995231628418 0.90394306182861328 0.32848259806632996
0.99830073118209839 0.91601681709289551 0.36122399568557739
0.66086280345916748 0.96329319477081299 0.44248327612876892
0.67870938777923584 0.96911495923995972 0.45288732647895813
0.68294936418533325 0.97032642364501953 0.45360574126243591
0.70291787385940552 0.96917331218719482 0.45948660373687744
0.74168723821640015 0.96819537878036499 0.47314262390136719
0.78406804800033569 0.9693787693977356 0.48251911997795105
0.82117879390716553 0.97165673971176147 0.47704252600669861
0.87155443429946899 0.97406214475631714 0.47053587436676025
0.9223332405090332 0.97836744785308838 0.46197712421417236
0.96541905403137207 0.97808182239532471 0.45126023888587952
0.99136334657669067 0.96839314699172974 0.44087046384811401
0.99957758188247681 0.96142113208770752 0.4410826563835144
0.99819761514663696 0.95993518829345703 0.46282809972763062
0.81102466583251953 0.99523156881332397 0.56116503477096558
0.8363037109375 0.99705779552459717 0.57917904853820801
0.83068448305130005 0.99785536527633667 0.57636773586273193
0.83641958236694336 0.99785536527633667 0.5791248083114624
0.86913967132568359 0.99785536527633667 0.59395462274551392
0.90331125259399414 0.99785393476486206 0.60651487112045288
0.92161327600479126 0.99799931049346924 0.60725110769271851
0.94751584529876709 0.99832630157470703 0.60865390300750732
0.96404027938842773 0.99870878458023071 0.60320496559143066
0.98092186450958252 0.99835610389709473 0.59344989061355591
0.99398112297058105 0.99091076850891113 0.58359444141387939
0.99943459033966064 0.98438733816146851 0.57916289567947388
0.99905174970626831 0.97833454608917236 0.59051030874252319
0.97295224666595459 1 0.70920592546463013
0.98792821168899536 1 0.73427367210388184
0.9854159951210022 1 0.73459291458129883
0.98639059066772461 0.99972617626190186 0.73768305778503418
0.99399089813232422 0.99825751781463623 0.74985229969024658
0.99841541051864624 0.99466252326965332 0.76009094715118408
0.99918264150619507 0.99077725410461426 0.76473164558410645
0.99981796741485596 0.98714292049407959 0.76445972919464111
0.99905252456665039 0.98420023918151855 0.75601869821548462
0.99901425838470459 0.98284071683883667 0.7452201247215271
0.99987345933914185 0.97893387079238892 0.73792344331741333
1 0.97712093591690063 0.73461925983428955
0.99997431039810181 0.97796565294265747 0.74161249399185181
0.022687321528792381 0.047572657465934753 0.12075681239366531
0.052584689110517502 0.056783128529787064 0.12292314320802689
0.092198356986045837 0.0669570192694664 0.12672555446624756
0.15782035887241364 0.067137911915779114 0.13923691213130951
0.25993651151657104 0.065494999289512634 0.15319302678108215
0.40818995237350464 0.059438008815050125 0.16471907496452332
0.58239305019378662 0.072732932865619659 0.17355762422084808
0.73371845483779907 0.13248196244239807 0.18002228438854218
0.83459764719009399 0.23662009835243225 0.18411979079246521
0.9086068868637085 0.33089131116867065 0.18321265280246735
0.96459817886352539 0.42474621534347534 0.19554942846298218
0.99131888151168823 0.50268471240997314 0.22358919680118561
0.99891120195388794 0.57721507549285889 0.27336317300796509
0.030755599960684776 0.085463628172874451 0.14419840276241302
0.063726760447025299 0.089857064187526703 0.1482023149728775
0.11792495101690292 0.10009422898292542 0.15042892098426819
0.19274066388607025 0.10308404266834259 0.15798580646514893
0.30117100477218628 0.10493934154510498 0.16756200790405273
0.4439045786857605 0.095397651195526123 0.17372298240661621
0.60361725091934204 0.10546530783176422 0.17686931788921356
0.74080944061279297 0.16179913282394409 0.17804810404777527
0.83637410402297974 0.25043711066246033 0.17743407189846039
0.90945142507553101 0.32682755589485168 0.17529293894767761
0.96692681312561035 0.42338532209396362 0.19123744964599609
0.99397510290145874 0.50503236055374146 0.22196091711521149
0.99981117248535156 0.57978934049606323 0.27164927124977112
0.032094888389110565 0.14717404544353485 0.16715705394744873
0.058125171810388565 0.14806751906871796 0.1710241436958313
0.13191916048526764 0.15414740145206451 0.17576640844345093
0.22844527661800385 0.16287171840667725 0.17821532487869263
0.35157015919685364 0.16482940316200256 0.18060021102428436
0.49287641048431396 0.16796492040157318 0.1792939305305481
0.6380077600479126 0.18894578516483307 0.17661093175411224
0.75762331485748291 0.23814411461353302 0.17209146916866302
0.84606671333312988 0.30260857939720154 0.16573514044284821
0.91617733240127563 0.36994832754135132 0.16396859288215637
0.96930158138275146 0.44996282458305359 0.18046075105667114
0.99491220712661743 0.52582651376724243 0.21616828441619873
1 0.60086119174957275 0.27218040823936462
0.043572697788476944 0.23878228664398193 0.18323096632957458
0.050472602248191833 0.24088723957538605 0.18721635639667511
0.11696001142263412 0.24589420855045319 0.19110859930515289
0.24356350302696228 0.2577286958694458 0.18874816596508026
0.38968575000762939 0.25991517305374146 0.18164260685443878
0.53478658199310303 0.26456534862518311 0.17120657861232758
0.6668286919593811 0.28230199217796326 0.16256317496299744
0.76973563432693481 0.31237024068832397 0.15413124859333038
0.8523871898651123 0.3651452362537384 0.14632230997085571
0.92131972312927246 0.43233898282051086 0.14581574499607086
0.97258925437927246 0.49893397092819214 0.16213756799697876
0.9967118501663208 0.56179428100585938 0.20085003972053528
1 0.62987947463989258 0.26359272003173828
0.0764479860663414 0.36348652839660645 0.19046485424041748
0.069096192717552185 0.36723628640174866 0.19324855506420135
0.11516468971967697 0.37194731831550598 0.19470527768135071
0.23866747319698334 0.38334411382675171 0.18861949443817139
0.3961203396320343 0.39037519693374634 0.17422270774841309
0.55229538679122925 0.39281782507896423 0.15528334677219391
0.68148976564407349 0.39847102761268616 0.14109048247337341
0.77842181921005249 0.41173854470252991 0.13256606459617615
0.85786682367324829 0.44734343886375427 0.12802405655384064
0.92604398727416992 0.49799835681915283 0.13043798506259918
0.97823870182037354 0.55276572704315186 0.14697086811065674
0.99908256530761719 0.60324209928512573 0.18514874577522278
1 0.66299819946289062 0.25143313407897949
