assets/lut/picturefx faux infrared color r0a.cube
# Created by: G'MIC (https://gmic.eu)
TITLE "faux_infrared_color_r0a"
# LUT size
LUT_3D_SIZE 5
# Data domain
DOMAIN_MIN 0.0 0.0 0.0
DOMAIN_MAX 1.0 1.0 1.0
# LUT data points
0.051899958401918411 0.034814663231372833 0.037134326994419098
0.23316092789173126 0.018548119813203812 0.033558759838342667
0.55159717798233032 0.0035515879280865192 0.070092998445034027
0.80707347393035889 0.0021529253572225571 0.11094898730516434
0.94502109289169312 0.017054988071322441 0.16706719994544983
0.55523848533630371 0.048866961151361465 0.12757433950901031
0.62958329916000366 0.017184941098093987 0.11118591576814651
0.76544475555419922 0.0024035884998738766 0.10603099316358566
0.89455801248550415 0.0054157632403075695 0.14369823038578033
0.98205447196960449 0.074871644377708435 0.1910519152879715
0.8801308274269104 0.26214617490768433 0.31619292497634888
0.89849722385406494 0.23856370151042938 0.29863151907920837
0.94255673885345459 0.20972524583339691 0.27360266447067261
0.98713523149490356 0.19004327058792114 0.26092463731765747
1 0.20094232261180878 0.2599966824054718
0.99222517013549805 0.43326672911643982 0.47123426198959351
0.98853284120559692 0.42856976389884949 0.46586954593658447
0.99719923734664917 0.40850460529327393 0.44234740734100342
1 0.39471897482872009 0.42463558912277222
1 0.38727602362632751 0.41026315093040466
1 0.55594426393508911 0.58574408292770386
1 0.54778885841369629 0.57756978273391724
1 0.53977477550506592 0.56446385383605957
1 0.52658897638320923 0.54654192924499512
1 0.51069813966751099 0.52471566200256348
0.042230241000652313 0.39303556084632874 0.44083869457244873
0.028569778427481651 0.39415547251701355 0.43736046552658081
0.22175593674182892 0.37963083386421204 0.41957187652587891
0.66647171974182129 0.31603220105171204 0.36620819568634033
0.92985546588897705 0.1568949818611145 0.25017714500427246
0.14570468664169312 0.42800343036651611 0.47145411372184753
0.25360852479934692 0.42158257961273193 0.46515417098999023
0.48868292570114136 0.40370422601699829 0.44587767124176025
0.76200437545776367 0.34616139531135559 0.39391061663627625
0.96009379625320435 0.2093278169631958 0.28126829862594604
0.6395881175994873 0.48249062895774841 0.52952605485916138
0.67896980047225952 0.47321271896362305 0.51994061470031738
0.77137631177902222 0.45414313673973083 0.50171548128128052
0.90962696075439453 0.40450641512870789 0.45106661319732666
0.98948186635971069 0.32118839025497437 0.36792409420013428
0.88200700283050537 0.5507199764251709 0.60016626119613647
0.8958134651184082 0.54443895816802979 0.59219944477081299
0.94632053375244141 0.5253947377204895 0.57066690921783447
0.98389017581939697 0.49582406878471375 0.53546196222305298
0.99704962968826294 0.44022142887115479 0.46850121021270752
0.9918893575668335 0.61642032861709595 0.66334909200668335
0.9899943470954895 0.61734926700592041 0.6622588038444519
0.99355095624923706 0.6066853404045105 0.64595937728881836
0.99275165796279907 0.5847851037979126 0.61759769916534424
0.99977350234985352 0.54826170206069946 0.56667870283126831
0.25439721345901489 0.70494383573532104 0.76748394966125488
0.23502695560455322 0.69165301322937012 0.75571537017822266
0.24486030638217926 0.68408501148223877 0.74182909727096558
0.2335239052772522 0.66371077299118042 0.72297805547714233
0.41762086749076843 0.64652752876281738 0.70343077182769775
0.28192803263664246 0.71416360139846802 0.77202016115188599
0.28508681058883667 0.70705515146255493 0.7644345760345459
0.26379790902137756 0.68709003925323486 0.74554300308227539
0.26800021529197693 0.67320173978805542 0.73205602169036865
0.46995767951011658 0.65453803539276123 0.7121390700340271
0.29796168208122253 0.72132414579391479 0.78125995397567749
0.30596974492073059 0.72068428993225098 0.78075075149536133
0.33492407202720642 0.71488034725189209 0.77572518587112427
0.44307807087898254 0.70661437511444092 0.76693326234817505
0.62200081348419189 0.67775881290435791 0.73742640018463135
0.54377871751785278 0.75779485702514648 0.81911671161651611
0.52838480472564697 0.76652771234512329 0.82536506652832031
0.60367882251739502 0.75097256898880005 0.81146883964538574
0.69433212280273438 0.73393434286117554 0.79495680332183838
0.78576898574829102 0.72206765413284302 0.78275442123413086
0.77819150686264038 0.7989342212677002 0.8615652322769165
0.7891051173210144 0.79668140411376953 0.85850232839584351
0.82096058130264282 0.79162752628326416 0.85390746593475342
0.86445492506027222 0.78493648767471313 0.84659737348556519
0.94136917591094971 0.76498281955718994 0.82409477233886719
0.43960550427436829 0.86754089593887329 0.92870336771011353
0.44693443179130554 0.87437838315963745 0.93321764469146729
0.43411189317703247 0.86402899026870728 0.92362391948699951
0.4326494038105011 0.86193001270294189 0.92212450504302979
0.41806259751319885 0.85378384590148926 0.9130018949508667
0.44817805290222168 0.87267577648162842 0.93032288551330566
0.44405189156532288 0.8693852424621582 0.92817205190658569
0.44680452346801758 0.87132221460342407 0.93017864227294922
0.43333393335342407 0.86227035522460938 0.9217381477355957
0.42441418766975403 0.85491889715194702 0.91383343935012817
0.4878288209438324 0.89670288562774658 0.95075464248657227
0.46715518832206726 0.88188880681991577 0.93871212005615234
0.47953727841377258 0.89107954502105713 0.9472162127494812
0.46068188548088074 0.88053864240646362 0.9363713264465332
0.44739964604377747 0.87154704332351685 0.9298330545425415
0.55332893133163452 0.93191444873809814 0.97747457027435303
0.54587650299072266 0.92717647552490234 0.97590088844299316
0.53754377365112305 0.92392659187316895 0.97218137979507446
0.52031219005584717 0.91601645946502686 0.96484315395355225
0.51167470216751099 0.90412884950637817 0.95534265041351318
0.64238637685775757 0.97378623485565186 0.99909317493438721
0.63880014419555664 0.97180229425430298 0.99793213605880737
0.63291281461715698 0.968902587890625 0.99796372652053833
0.62211275100708008 0.95758366584777832 0.99177640676498413
0.63606840372085571 0.95627599954605103 0.99211406707763672
0.45110175013542175 0.87450981140136719 0.93333333730697632
0.44742485880851746 0.87450981140136719 0.93333333730697632
0.44356557726860046 0.87172210216522217 0.93063664436340332
0.43422505259513855 0.86457854509353638 0.92432510852813721
0.42425322532653809 0.85882353782653809 0.91764706373214722
0.46677371859550476 0.88435417413711548 0.94112211465835571
0.45381560921669006 0.87582159042358398 0.93420416116714478
0.44708627462387085 0.87426275014877319 0.93322169780731201
0.43571582436561584 0.86417537927627563 0.923073410987854
0.43111369013786316 0.86041837930679321 0.91890823841094971
0.49363961815834045 0.90027070045471191 0.95373773574829102
0.4852539598941803 0.89389657974243164 0.9490852952003479
0.48050129413604736 0.89208215475082397 0.94816190004348755
0.46235811710357666 0.88118112087249756 0.93698203563690186
0.4498477578163147 0.8739350438117981 0.93174272775650024
0.55975651741027832 0.93394607305526733 0.97727638483047485
0.55220544338226318 0.9308057427406311 0.97771537303924561
0.5418211817741394 0.9264417290687561 0.97398477792739868
0.52787190675735474 0.91914618015289307 0.967365562915802
0.53667747974395752 0.91352695226669312 0.96219360828399658
0.633098304271698 0.9680137038230896 0.99767154455184937
0.63534164428710938 0.9698677659034729 0.99846816062927246
0.63425946235656738 0.96933591365814209 0.99790811538696289
0.62625390291213989 0.95842522382736206 0.99361127614974976
0.6449776291847229 0.95448166131973267 0.9918513298034668
