assets/lut/picturefx analogfx soft sepia ii.cube
# Created by: G'MIC (https://gmic.eu)
TITLE "analogfx_soft_sepia_ii"
# LUT size
LUT_3D_SIZE 13
# Data domain
DOMAIN_MIN 0.0 0.0 0.0
DOMAIN_MAX 1.0 1.0 1.0
# LUT data points
0.00022206026187632233 2.5850184101727791e-05 8.4013096056878567e-05
0.0082158409059047699 0.0012372035998851061 0
0.050591263920068741 0.0082625299692153931 0
0.10709124058485031 0.024672204628586769 0
0.16205614805221558 0.050395052880048752 0
0.22411780059337616 0.081382036209106445 0
0.29453036189079285 0.11604273319244385 1.2925092050863896e-05
0.36919859051704407 0.15263569355010986 4.308364077587612e-05
0.44437688589096069 0.19037847220897675 0
0.52027368545532227 0.22879879176616669 0
0.59945154190063477 0.26918256282806396 0
0.68236625194549561 0.31083852052688599 0
0.76363074779510498 0.35174852609634399 0
0.038911301642656326 0.0090901991352438927 0.00037105786032043397
0.056855820119380951 0.011609455570578575 0
0.094081684947013855 0.017407331615686417 0
0.13815692067146301 0.03195151686668396 0
0.1847398430109024 0.056530628353357315 0
0.24375377595424652 0.086914226412773132 0
0.31255608797073364 0.12089385837316513 0.0018536286661401391
0.38533869385719299 0.15733729302883148 0.0027332082390785217
0.45898455381393433 0.19479048252105713 0.0014501684345304966
0.53393197059631348 0.23289906978607178 0.00023694505216553807
0.61253011226654053 0.27295184135437012 0
0.69537293910980225 0.31549930572509766 0
0.77709823846817017 0.35724079608917236 7.7012009569443762e-05
0.11606328934431076 0.028331711888313293 0
0.12470514327287674 0.028667375445365906 0
0.14274077117443085 0.032430011779069901 0.00060798792401328683
0.16810467839241028 0.043285638093948364 0.00049468397628515959
0.20764243602752686 0.063604883849620819 0
0.26434740424156189 0.091628298163414001 0
0.33102357387542725 0.12511850893497467 0.002964274026453495
0.40159562230110168 0.16173286736011505 0.0039196237921714783
0.47430029511451721 0.19925811886787415 0.0033420338295400143
0.54923194646835327 0.2371891587972641 0.0016914218431338668
0.62815332412719727 0.27703988552093506 0.00043693991028703749
0.71122062206268311 0.32061085104942322 0.0005087010795250535
0.79276633262634277 0.36305421590805054 0.0012097826693207026
0.19469135999679565 0.053812138736248016 0
0.19768917560577393 0.052155528217554092 0
0.20278629660606384 0.053283959627151489 7.3062670708168298e-05
0.2132289707660675 0.059136036783456802 8.3295039075892419e-05
0.24267494678497314 0.073600798845291138 0
0.29332154989242554 0.098212189972400665 0
0.35438770055770874 0.13007970154285431 0.0022244921419769526
0.42172276973724365 0.16643932461738586 0.0036769192665815353
0.49361148476600647 0.20397351682186127 0.0029248853679746389
0.56909435987472534 0.24243547022342682 0.0017146690515801311
0.64859133958816528 0.28234726190567017 0.00063871493330225348
0.7314649224281311 0.32584625482559204 0.0008690179674886167
0.81199038028717041 0.36865544319152832 0.0015318627702072263
0.27984577417373657 0.083251446485519409 0
0.28036582469940186 0.08075791597366333 0
0.28149354457855225 0.079913675785064697 0
0.28671032190322876 0.08357895165681839 0
0.30519101023674011 0.09343680739402771 0
0.33972012996673584 0.11137659102678299 0.00075664144242182374
0.38871586322784424 0.13856023550033569 0.00286865234375
0.45009735226631165 0.17205856740474701 0.0019390928791835904
0.51924318075180054 0.20849329233169556 0.0013930078130215406
0.59331023693084717 0.24610498547554016 0.00079341215314343572
0.67261910438537598 0.28528112173080444 3.9852366171544418e-05
0.75407475233078003 0.32787486910820007 0.00023019827494863421
0.83130323886871338 0.3695349395275116 0.00097924028523266315
0.37516078352928162 0.11533176153898239 0
0.37444278597831726 0.11351171880960464 0
0.37574055790901184 0.11327523738145828 0
0.38043293356895447 0.11728367209434509 0
0.39094531536102295 0.12399202585220337 0.00021289002324920148
0.408344566822052 0.13451780378818512 0.0031452104449272156
0.43994066119194031 0.15352632105350494 0.0034486060030758381
0.48791471123695374 0.17887730896472931 0.00068233715137466788
0.54894143342971802 0.21093198657035828 0.00012745577259920537
0.61906230449676514 0.24780455231666565 8.2756494521163404e-05
0.69740724563598633 0.28708136081695557 0
0.77672863006591797 0.3272702693939209 0
0.85080736875534058 0.36887255311012268 3.5005457903025672e-05
0.47740998864173889 0.14879469573497772 0
0.47576862573623657 0.14917060732841492 0
0.47688886523246765 0.1510680615901947 0
0.48157936334609985 0.15529298782348633 0
0.48842069506645203 0.15988859534263611 0.00097288243705406785
0.49568110704421997 0.16536663472652435 0.0034583297092467546
0.5089576244354248 0.17413961887359619 0.0034334370866417885
0.53486233949661255 0.18642768263816833 0.0012866898905485868
0.57953011989593506 0.20965355634689331 0.00039367674617096782
0.64493823051452637 0.24783618748188019 0
0.7216416597366333 0.28892409801483154 0
0.79861772060394287 0.3272547721862793 0
0.87117153406143188 0.36673596501350403 0
0.58560508489608765 0.18201510608196259 0
0.58237290382385254 0.18425813317298889 0
0.5836334228515625 0.1870061457157135 0.00019139309006277472
0.58922994136810303 0.18991903960704803 0.00053001852938905358
0.59584099054336548 0.19268798828125 0.0014574088854715228
0.59914201498031616 0.19670325517654419 0.0025483823847025633
0.59988290071487427 0.20059598982334137 0.0026129479520022869
0.60469949245452881 0.20293745398521423 0.0011718750465661287
0.6286933422088623 0.21567076444625854 0.0002830954035744071
0.68119889497756958 0.24795131385326385 0
0.74830824136734009 0.28514590859413147 0
0.82095581293106079 0.32215747237205505 0
0.89301556348800659 0.36025711894035339 0
0.7040897011756897 0.21378602087497711 0
0.70008599758148193 0.21665041148662567 0.00021073584503028542
0.70110315084457397 0.21845901012420654 0.0013179853558540344
0.70718562602996826 0.21870978176593781 0.0012204637750983238
0.71406245231628418 0.21946220099925995 0.00021093031682539731
0.71621572971343994 0.22408370673656464 0.0001595889771124348
0.71278727054595947 0.22961695492267609 0.00023660098668187857
0.70847362279891968 0.2326510101556778 1.0052849575004075e-05
0.71606940031051636 0.24007028341293335 0
0.74186229705810547 0.25256529450416565 0
0.78338849544525146 0.27475094795227051 0
0.84596455097198486 0.30896365642547607 7.1806067580837407e-07
0.9166063666343689 0.35012000799179077 8.6406631453428417e-05
0.83305841684341431 0.24325273931026459 0.00034212597529403865
0.83062237501144409 0.24503187835216522 0.0019101460929960012
0.83102202415466309 0.24473030865192413 0.0021470910869538784
0.83306443691253662 0.24282762408256531 0.00094791484298184514
0.83546847105026245 0.24198335409164429 0
0.83473795652389526 0.24610480666160583 0
0.83172047138214111 0.25259268283843994 0
0.82892435789108276 0.25672101974487305 0
0.82963597774505615 0.26022535562515259 0
0.83197849988937378 0.26172855496406555 0
0.84152710437774658 0.27103781700134277 0
0.88301199674606323 0.29966679215431213 0.0012736301869153976
0.94257271289825439 0.33936882019042969 0.00382258091121912
0.94239336252212524 0.26966533064842224 0.0040809032507240772
0.94756048917770386 0.26968547701835632 0.0050274566747248173
0.94975149631500244 0.26820534467697144 0.0022225773427635431
0.94648945331573486 0.26637670397758484 0.00023369882546830922
0.94140827655792236 0.26599305868148804 0
0.93683904409408569 0.26917263865470886 0
0.93416506052017212 0.27409446239471436 0.00061086018104106188
0.93583625555038452 0.27783498167991638 0.00089111330453306437
0.9404149055480957 0.28031238913536072 0.00011138916306663305
0.93746042251586914 0.28136146068572998 0
0.92677974700927734 0.28671726584434509 0.00046492932597175241
0.93922615051269531 0.30632108449935913 0.0044408463872969151
0.97452414035797119 0.33765432238578796 0.008793804794549942
0.99705612659454346 0.29344546794891357 0.008912733756005764
0.999431312084198 0.29335665702819824 0.0070765027776360512
1 0.29196223616600037 0.0012281978270038962
0.99961638450622559 0.2910802960395813 0
0.99828368425369263 0.29200246930122375 0
0.99636220932006836 0.29472273588180542 0
0.99515813589096069 0.29848209023475647 0.0014977399259805679
0.99637758731842041 0.30169251561164856 0.0035298964940011501
0.99841421842575073 0.30469554662704468 0.0025187025312334299
0.9981313943862915 0.30761492252349854 0.0012802423443645239
0.99213600158691406 0.31224575638771057 0.0038930405862629414
0.9904172420501709 0.32545799016952515 0.0088826650753617287
0.99829107522964478 0.34768664836883545 0.014684953726828098
1 0.31747633218765259 0.0095064649358391762
1 0.31739291548728943 0.0055215423926711082
1 0.31670659780502319 0.00015638762852177024
1 0.3166012167930603 0
1 0.31758195161819458 0
1 0.32025647163391113 0
1 0.32320660352706909 0.00024746166309341788
1 0.32609096169471741 0.0033492294605821371
1 0.32900950312614441 0.0039215688593685627
1 0.33242872357368469 0.004406394436955452
1 0.33767643570899963 0.0080127641558647156
1 0.34775331616401672 0.014123729430139065
1 0.36495098471641541 0.02127470076084137
0.0062228632159531116 0.00096124387346208096 0.00093795178690925241
0.026659063994884491 0.0048207002691924572 7.0010914896556642e-06
0.071490630507469177 0.013563462533056736 0
0.12333888560533524 0.03010265901684761 0
0.17623499035835266 0.055761478841304779 0
0.23806989192962646 0.086400620639324188 0
0.30945560336112976 0.12085673213005066 0.00058098585577681661
0.38469302654266357 0.15755100548267365 0.00075155519880354404
0.45801302790641785 0.19461047649383545 0
0.53042876720428467 0.2322411984205246 0
0.60866820812225342 0.27242115139961243 0
0.69495594501495361 0.31452426314353943 0
0.78159385919570923 0.35589799284934998 2.5670668037491851e-05
0.056371904909610748 0.013206751085817814 0.0036854313220828772
0.078521087765693665 0.017402514815330505 0.0023114671930670738
0.11338812112808228 0.024050274863839149 0.0019979889038950205
0.15301448106765747 0.038931872695684433 0.0010819827439263463
0.19895534217357635 0.063248202204704285 1.5797335436218418e-05
0.25880244374275208 0.092402607202529907 0
0.32841455936431885 0.12585212290287018 0.0034625183325260878
0.39994513988494873 0.16215343773365021 0.0039136698469519615
0.47092002630233765 0.19894781708717346 0.0035012937150895596
0.5424613356590271 0.23628526926040649 0.0021941240411251783
0.62013447284698486 0.27631255984306335 0.0011125302407890558
0.70473355054855347 0.31791189312934875 0.0014190224464982748
0.78973859548568726 0.35775434970855713 0.0026300167664885521
0.12902732193470001 0.035711880773305893 0.00029877308406867087
0.13823466002941132 0.03874620795249939 0.0014341316418722272
0.15479356050491333 0.044772878289222717 0.0063489577732980251
0.18186280131340027 0.055035699158906937 0.0048293620347976685
0.22407723963260651 0.072664909064769745 0.00010788861254695803
0.28171056509017944 0.098006032407283783 0
0.34714308381080627 0.13031347095966339 0.0025016635190695524
0.41404494643211365 0.16635589301586151 0.0038386774249374866
0.48366153240203857 0.20351052284240723 0.0039215688593685627
0.55640387535095215 0.2410612553358078 0.0039205066859722137
0.63401693105697632 0.28067648410797119 0.0038757023867219687
0.71749287843704224 0.32167106866836548 0.0038896000478416681
0.80067950487136841 0.36130711436271667 0.0045599695295095444
0.20134079456329346 0.06453966349363327 0
0.20570704340934753 0.065110072493553162 4.8214780690614134e-05
0.21160700917243958 0.068329140543937683 0.0029950460884720087
0.2272154837846756 0.073947310447692871 0.0020745371002703905
0.25976675748825073 0.084185734391212463 0
0.30762836337089539 0.10440941900014877 0
0.36605426669120789 0.13460591435432434 0.00037155151949264109
0.42961257696151733 0.1707986444234848 0.0028894760180264711
0.49956545233726501 0.2081788182258606 0.0039215688593685627
0.57374060153961182 0.24603497982025146 0.0039215688593685627
0.65245378017425537 0.28530997037887573 0.0039135203696787357
0.73583155870437622 0.32542267441749573 0.0040729749016463757
0.81692975759506226 0.36450815200805664 0.0058553959242999554
0.28516197204589844 0.094546645879745483 0
0.28711554408073425 0.093272656202316284 0
0.29004660248756409 0.093250945210456848 1.5139112292672507e-05
0.29799279570579529 0.095539167523384094 1.9746669295273023e-06
0.3150581419467926 0.10080940276384354 0
0.34467259049415588 0.11420614272356033 0.00018675561295822263
0.39272156357765198 0.14122995734214783 0.00035943422699347138
0.45373943448066711 0.1756083220243454 0.0019678601529449224
0.52295339107513428 0.21184305846691132 0.0039215688593685627
0.59727954864501953 0.24943359196186066 0.0039066239260137081
0.67674964666366577 0.28793454170227051 0.0034834169782698154
0.75936216115951538 0.32707136869430542 0.0038079204969108105
0.83730465173721313 0.36710670590400696 0.0049597197212278843
0.38082867860794067 0.12658710777759552 0
0.38177075982093811 0.12466643005609512 0
0.3837178647518158 0.12380490452051163 0
0.38695904612541199 0.12617270648479462 0
0.39309039711952209 0.12869040668010712 0.00023167928156908602
0.40634417533874512 0.13591468334197998 0.0026567496825009584
0.43865114450454712 0.15577432513237 0.0017255895072594285
0.4883568286895752 0.18243874609470367 0.0018580418545752764
0.55109423398971558 0.21435590088367462 0.0038709153886884451
0.62309938669204712 0.25177174806594849 0.0036185020580887794
0.70278477668762207 0.29014065861701965 0.0016980788204818964
0.78366935253143311 0.32926645874977112 0.0025783164892345667
0.85816538333892822 0.36870884895324707 0.0026201284490525723
0.48291474580764771 0.15838201344013214 0
0.48286375403404236 0.15802103281021118 0
0.48396652936935425 0.15978066623210907 0
0.48582372069358826 0.16351905465126038 4.6673943870700896e-05
0.48947831988334656 0.1656898558139801 0.0019330790964886546
0.4962506890296936 0.16914290189743042 0.0037605585530400276
0.50878691673278809 0.17928701639175415 0.0029150869231671095
0.53518843650817871 0.1921495795249939 0.0024309644941240549
0.58182984590530396 0.21459837257862091 0.0036262960638850927
0.64889281988143921 0.25244584679603577 0.0017978593241423368
0.72755712270736694 0.29281017184257507 3.5065295378444716e-05
0.80718022584915161 0.32924437522888184 0.0013869490940123796
0.87963306903839111 0.36615195870399475 0.00012386546586640179
0.59031462669372559 0.1882224828004837 0
0.58871138095855713 0.19011238217353821 0.00023327996314037591
0.59086591005325317 0.19300383329391479 0.0021650127600878477
0.59498882293701172 0.19590966403484344 0.0034080506302416325
0.5999942421913147 0.19781111180782318 0.003896122332662344
0.60366857051849365 0.20094040036201477 0.004088427871465683
0.6035112738609314 0.20582897961139679 0.0038015926256775856
0.60805094242095947 0.2088196873664856 0.0022534090094268322
0.63321989774703979 0.22099381685256958 0.0019113578600808978
0.68679755926132202 0.25145694613456726 0.00014546712918672711
0.75718128681182861 0.2866571843624115 2.9530245228670537e-05
0.83251988887786865 0.32080003619194031 0.00086835975525900722
0.90355151891708374 0.35718175768852234 0
0.70635336637496948 0.21805195510387421 0
0.70382815599441528 0.22104485332965851 0.0024453855585306883
0.70836079120635986 0.22248625755310059 0.0051093008369207382
0.71449154615402222 0.2218221127986908 0.0050984998233616352
0.72050917148590088 0.22145187854766846 0.0031858256552368402
0.7224692702293396 0.2252519279718399 0.0020580515265464783
0.71928495168685913 0.23186925053596497 0.001751634175889194
0.71624958515167236 0.23357033729553223 5.3734871471533552e-05
0.72394794225692749 0.2405611127614975 0
0.7508232593536377 0.25430861115455627 0
0.79620939493179321 0.2754826545715332 0
0.85980290174484253 0.30623349547386169 0.00050985300913453102
0.92832797765731812 0.3446195125579834 0.00063540891278535128
0.83504706621170044 0.24477396905422211 0.001641501672565937
0.83377939462661743 0.24850274622440338 0.0060991775244474411
0.83638143539428711 0.24837629497051239 0.0076398062519729137
0.83958214521408081 0.24514709413051605 0.005931180901825428
0.8430669903755188 0.24178983271121979 0.0016237745294347405
0.84353089332580566 0.24459987878799438 9.3437643954530358e-05
0.84136772155761719 0.25246039032936096 0.00087561516556888819
0.84051865339279175 0.25380703806877136 0.00045399385271593928
0.84063303470611572 0.25820133090019226 0.00018075681873597205
0.8416820764541626 0.26345840096473694 2.3696002244832925e-05
0.8518751859664917 0.27219966053962708 0
0.89267188310623169 0.29659995436668396 0.0017261729808524251
0.95294106006622314 0.33479410409927368 0.004263649694621563
0.94215494394302368 0.2703930139541626 0.0079911770299077034
0.94807738065719604 0.27331778407096863 0.010564123280346394
0.95149809122085571 0.27274343371391296 0.0071910037659108639
0.9511227011680603 0.27022168040275574 0.0033559312578290701
0.94891339540481567 0.26898467540740967 0.001283802674151957
0.94535446166992188 0.27136135101318359 0.0015984629280865192
0.9431571364402771 0.27624362707138062 0.0040032481774687767
0.94485270977020264 0.27825447916984558 0.0044890609569847584
0.94846177101135254 0.28122678399085999 0.0021047703921794891
0.94293135404586792 0.28409430384635925 5.3316005505621433e-05
0.92939776182174683 0.28777977824211121 0.00032510195160284638
0.9420173168182373 0.30448207259178162 0.0044108969159424305
0.97962427139282227 0.33476716279983521 0.0088916253298521042
0.99534809589385986 0.29766827821731567 0.013523116707801819
0.99902838468551636 0.29870069026947021 0.011702324263751507
0.99999207258224487 0.29792535305023193 0.002440538490191102
0.99997931718826294 0.29704457521438599 0
0.99927926063537598 0.29807642102241516 0
0.99811309576034546 0.30081093311309814 0.00029893763712607324
0.99668550491333008 0.30393803119659424 0.0040678735822439194
0.99740201234817505 0.30617246031761169 0.0070498599670827389
0.99907779693603516 0.30851548910140991 0.0043351417407393456
0.99823838472366333 0.31139254570007324 0.00055960862664505839
0.99083417654037476 0.31529948115348816 0.0031512242276221514
0.98870331048965454 0.32613703608512878 0.0090452460572123528
0.99835836887359619 0.34657132625579834 0.014856480993330479
1 0.32581731677055359 0.011797541752457619
1 0.32561680674552917 0.0061031118966639042
1 0.32445502281188965 6.7647299147211015e-05
1 0.3241022527217865 0
1 0.32577860355377197 0
1 0.32841438055038452 0
1 0.33105906844139099 0.00070232315920293331
1 0.3326326310634613 0.0049602282233536243
1 0.33431744575500488 0.0043864082545042038
1 0.33760091662406921 0.0031669167801737785
1 0.34292033314704895 0.0057625863701105118
1 0.35108810663223267 0.012960187159478664
1 0.36517250537872314 0.020910255610942841
0.05349750816822052 0.0096562402322888374 0
0.077194377779960632 0.016598541289567947 0.00024611529079265893
0.10934740304946899 0.026490110903978348 7.3601215262897313e-05
0.14752274751663208 0.04098096489906311 0
0.19248908758163452 0.062774315476417542 0
0.25049683451652527 0.090523846447467804 0
0.32102581858634949 0.12401185929775238 0.00063186348415911198
0.39642122387886047 0.16070921719074249 0.00032825843663886189
0.46752721071243286 0.19658796489238739 0
0.53449457883834839 0.23272621631622314 0
0.61237800121307373 0.27261874079704285 0
0.70468616485595703 0.3156764805316925 0
0.79935300350189209 0.35713312029838562 0.00029404583619907498
0.10640718042850494 0.023970600217580795 0.0010071549331769347
0.11876703798770905 0.030703719705343246 0.0040881289169192314
0.1413242369890213 0.038372639566659927 0.0058082728646695614
0.17280937731266022 0.050105433911085129 0.0030644733924418688
0.21541197597980499 0.068943589925765991 7.2464288678020239e-05
0.27321353554725647 0.095047160983085632 0
0.34160825610160828 0.12819328904151917 0.0019045063527300954
0.41210383176803589 0.16438998281955719 0.0019399605225771666
0.47998502850532532 0.19982905685901642 0.0020688525401055813
0.54761147499084473 0.23621778190135956 0.0022465426009148359
0.6245492696762085 0.27658814191818237 0.001515122945420444
0.71307897567749023 0.31811493635177612 0.0023632273077964783
0.80147850513458252 0.35643824934959412 0.0038894652388989925
0.15573056042194366 0.047165889292955399 0.00029990999610163271
0.16196459531784058 0.053032100200653076 0.0053344126790761948
0.17204301059246063 0.061643935739994049 0.016573512926697731
0.19882583618164062 0.06937243789434433 0.011710716411471367
0.2431429922580719 0.081199169158935547 0.00070981791941449046
0.30086603760719299 0.10241670906543732 0
0.36353364586830139 0.13312280178070068 0.00029070983873680234
0.42681729793548584 0.16825418174266815 0.00071301928255707026
0.49485614895820618 0.203995481133461 0.0026938794180750847
0.56453138589859009 0.24126759171485901 0.0039170808158814907
0.6394726037979126 0.28106281161308289 0.0038871616125106812
0.72335350513458252 0.31971260905265808 0.0044591417536139488
0.80795407295227051 0.35643348097801208 0.0073549756780266762
0.2141590416431427 0.075217992067337036 0
0.21773892641067505 0.080092772841453552 0.0012242634547874331
0.22281321883201599 0.088582418859004974 0.010223867371678352
0.24283120036125183 0.093722954392433167 0.0088120857253670692
0.27981403470039368 0.098226122558116913 0.00017733106506057084
0.3272053599357605 0.11315160989761353 0
0.38246941566467285 0.14054031670093536 0
0.44179695844650269 0.17398853600025177 0.00011050654575228691
0.51045936346054077 0.20898126065731049 0.0025400498416274786
0.58237797021865845 0.24688217043876648 0.0034101598430424929
0.65742915868759155 0.28569298982620239 0.0028781516011804342
0.74031788110733032 0.32234176993370056 0.005542336031794548
0.82228153944015503 0.35786879062652588 0.0095587931573390961
0.29333105683326721 0.10621462017297745 0
0.29402580857276917 0.10953861474990845 0
0.29868227243423462 0.11419257521629333 0.00048141478328034282
0.31103262305259705 0.11579962074756622 0.0017594730015844107
0.33108684420585632 0.11634476482868195 0.00026433609309606254
0.35940322279930115 0.12632416188716888 0
0.40626871585845947 0.15004505217075348 0
0.46579217910766602 0.18033608794212341 7.3361865361221135e-05
0.53446483612060547 0.21366898715496063 0.0032732198014855385
0.60680204629898071 0.25110724568367004 0.0033809887245297432
0.68414342403411865 0.2893221378326416 0.0017958397511392832
0.76796621084213257 0.32531252503395081 0.004485156387090683
0.84543061256408691 0.36084899306297302 0.0079431720077991486
0.38625076413154602 0.14173559844493866 0
0.38749641180038452 0.14255614578723907 0
0.39086595177650452 0.1432870477437973 0
0.39690271019935608 0.14269208908081055 9.619021147955209e-05
0.4043084979057312 0.14251534640789032 1.2715657248918433e-05
0.41688516736030579 0.14770476520061493 0
0.44962513446807861 0.1652226448059082 0
0.49995672702789307 0.18834595382213593 9.0281166194472462e-05
0.56402349472045898 0.21719649434089661 0.0036072225775569677
0.63500297069549561 0.25375717878341675 0.0029790690168738365
0.71295416355133057 0.29222965240478516 0.00081570196198299527
0.79441970586776733 0.3288014829158783 0.0024680790957063437
0.86746084690093994 0.36490485072135925 0.002343091880902648
0.48815584182739258 0.17320093512535095 0
0.4902273416519165 0.17315113544464111 0
0.49164250493049622 0.17451901733875275 0
0.49419578909873962 0.17627078294754028 0
0.49857509136199951 0.17681719362735748 0.00015137616719584912
0.50718343257904053 0.17856152355670929 0.00086503871716558933
0.52006852626800537 0.18743672966957092 0.0001821330952225253
0.54587286710739136 0.19910484552383423 2.8423235107766232e-06
0.59386450052261353 0.21989652514457703 0.00053384818602353334
0.66045451164245605 0.25601688027381897 0.00035128125455230474
0.73835933208465576 0.29436901211738586 5.0892547733383253e-05
0.81763643026351929 0.32812896370887756 0.0018874224042519927
0.88818091154098511 0.36344256997108459 6.7497705458663404e-05
0.59838700294494629 0.19919461011886597 0
0.59833341836929321 0.20054151117801666 0.00019670373876579106
0.59896695613861084 0.20383140444755554 0.0015553493285551667
0.60290491580963135 0.20575928688049316 0.002589311683550477
