assets/lut/picturefx goldfx hot summer heat.cube
# Created by: G'MIC (https://gmic.eu)
TITLE "goldfx_hot_summer_heat"
# LUT size
LUT_3D_SIZE 13
# Data domain
DOMAIN_MIN 0.0 0.0 0.0
DOMAIN_MAX 1.0 1.0 1.0
# LUT data points
0.009928056038916111 0.020326383411884308 0.027582595124840736
0.046449638903141022 0.01988767646253109 0.020760839805006981
0.093568690121173859 0.024867098778486252 0.029293853789567947
0.15865615010261536 0.031285736709833145 0.042958531528711319
0.25853011012077332 0.023831671103835106 0.056334804743528366
0.39775258302688599 0.0058536604046821594 0.06828741729259491
0.56092560291290283 0.0088367834687232971 0.074904076755046844
0.71752369403839111 0.048651453107595444 0.07422918826341629
0.84399008750915527 0.12849773466587067 0.06131458654999733
0.93110299110412598 0.24307191371917725 0.041369255632162094
0.98368453979492188 0.36222594976425171 0.039274178445339203
0.99986308813095093 0.45621779561042786 0.074666820466518402
1 0.52845597267150879 0.13481646776199341
0.0092964917421340942 0.054779201745986938 0.035006191581487656
0.04269656166434288 0.054690103977918625 0.031369674950838089
0.098020829260349274 0.05548463761806488 0.034788694232702255
0.16839276254177094 0.056950587779283524 0.042136114090681076
0.26957240700721741 0.048786643892526627 0.05111255869269371
0.40949845314025879 0.033406171947717667 0.058631986379623413
0.56885474920272827 0.038505315780639648 0.061823241412639618
0.72007191181182861 0.08465469628572464 0.058572567999362946
0.8425561785697937 0.16700030863285065 0.044834945350885391
0.92933595180511475 0.27141585946083069 0.029119424521923065
0.98123705387115479 0.3793691098690033 0.034316446632146835
0.99926358461380005 0.46890401840209961 0.075246833264827728
1 0.53976482152938843 0.14005909860134125
0.002646277891471982 0.10784395784139633 0.057869929820299149
0.021129010245203972 0.11090587824583054 0.058706559240818024
0.081879667937755585 0.1136012077331543 0.057717341929674149
0.17967158555984497 0.11329830437898636 0.056460961699485779
0.30075928568840027 0.11142273247241974 0.054805368185043335
0.44049224257469177 0.10733470320701599 0.049110770225524902
0.58792436122894287 0.11676079034805298 0.04243093729019165
0.72720593214035034 0.16472227871417999 0.035721410065889359
0.84174102544784546 0.2394467294216156 0.021936394274234772
0.92564404010772705 0.32626762986183167 0.0085285855457186699
0.97698098421096802 0.41633838415145874 0.018068380653858185
0.99551510810852051 0.49385663866996765 0.066982164978981018
0.99705106019973755 0.55920350551605225 0.14076970517635345
0.00031232647597789764 0.18488459289073944 0.086156256496906281
0.0026593974325805902 0.18669551610946655 0.087953858077526093
0.040511112660169601 0.1948702484369278 0.085595615208148956
0.16769392788410187 0.20176789164543152 0.07518303394317627
0.32282710075378418 0.21104815602302551 0.058186117559671402
0.47147494554519653 0.21951991319656372 0.035093929618597031
0.60872310400009155 0.22658345103263855 0.017676753923296928
0.73194032907485962 0.25837570428848267 0.010151298716664314
0.83774769306182861 0.31952330470085144 0.0025318819098174572
0.91883903741836548 0.3902696967124939 2.1945728803984821e-05
0.97061139345169067 0.46198055148124695 0.0029186622705310583
0.99235051870346069 0.52697396278381348 0.04796600341796875
0.99650067090988159 0.58504325151443481 0.1285027414560318
0 0.30397650599479675 0.08746994286775589
0 0.30591848492622375 0.090859420597553253
0.0064782085828483105 0.3121894896030426 0.092547334730625153
0.13122785091400146 0.3218238353729248 0.076974205672740936
0.3223717212677002 0.33870396018028259 0.047849379479885101
0.49122703075408936 0.35547855496406555 0.016274185851216316
0.62833935022354126 0.36163467168807983 0.0015360513934865594
0.73906821012496948 0.37499901652336121 0.00067093793768435717
0.83397567272186279 0.40760436654090881 0.00012621411588042974
0.91036003828048706 0.4550163745880127 0
0.96342617273330688 0.5095362663269043 0.00036724316305480897
0.99080032110214233 0.56317538022994995 0.032012369483709335
0.99869835376739502 0.61418455839157104 0.11095995455980301
0 0.44692286849021912 0.070723108947277069
0 0.45116296410560608 0.070956647396087646
0.0048326379619538784 0.45194455981254578 0.074258618056774139
0.11019717901945114 0.4591735303401947 0.062049567699432373
0.31085240840911865 0.47616139054298401 0.03412170335650444
0.49625849723815918 0.49075791239738464 0.0087221777066588402
0.64172846078872681 0.50008946657180786 0.0002003090048674494
0.74912142753601074 0.50597786903381348 0.00032341154292225838
0.83392935991287231 0.51163351535797119 0.00011901855759788305
0.90453726053237915 0.5330195426940918 0
0.95838296413421631 0.56660377979278564 1.0890586963796522e-05
0.99084550142288208 0.60379576683044434 0.014815909788012505
0.99990987777709961 0.64521688222885132 0.0774260014295578
0 0.58191710710525513 0.06518109142780304
0.000630427326541394 0.5847591757774353 0.064651891589164734
0.0088898753747344017 0.58143973350524902 0.070748336613178253
0.10048050433397293 0.58403974771499634 0.067126236855983734
0.29713445901870728 0.59528356790542603 0.049687791615724564
0.48900866508483887 0.60599392652511597 0.028882270678877831
0.64039504528045654 0.61375594139099121 0.011467443779110909
0.75045496225357056 0.61732739210128784 0.0012740191305056214
0.83338797092437744 0.61952424049377441 0
0.8996395468711853 0.62755489349365234 0
0.95289456844329834 0.63868898153305054 2.3336972390097799e-06
0.98988634347915649 0.65499168634414673 0.0053494921885430813
1 0.68342888355255127 0.050623651593923569
0.027416035532951355 0.69012647867202759 0.092788442969322205
0.053250301629304886 0.68941783905029297 0.095955342054367065
0.080171070992946625 0.68514639139175415 0.10660882294178009
0.16084310412406921 0.68448913097381592 0.11071497946977615
0.32587477564811707 0.68997651338577271 0.10189592093229294
0.49610140919685364 0.69626152515411377 0.084998711943626404
0.63455086946487427 0.70128196477890015 0.062925450503826141
0.74107056856155396 0.70579123497009277 0.032983772456645966
0.82583343982696533 0.71073967218399048 0.0073616774752736092
0.89230996370315552 0.71390122175216675 0.0042182323522865772
0.94428920745849609 0.71312540769577026 0.01459579449146986
0.98322933912277222 0.71691030263900757 0.032649964094161987
0.9998399019241333 0.73170942068099976 0.071840159595012665
0.20161299407482147 0.7672770619392395 0.15795809030532837
0.21807627379894257 0.76686340570449829 0.16237685084342957
0.253082275390625 0.7648739218711853 0.17502439022064209
0.32067561149597168 0.76392757892608643 0.18306209146976471
0.42175590991973877 0.76482605934143066 0.17957028746604919
0.53729212284088135 0.76654160022735596 0.16908186674118042
0.64308524131774902 0.76838237047195435 0.1520133763551712
0.73333394527435303 0.77227592468261719 0.12468297779560089
0.81144362688064575 0.77741867303848267 0.091442063450813293
0.87779438495635986 0.77921104431152344 0.079617984592914581
0.93167674541473389 0.77680075168609619 0.092890672385692596
0.97469967603683472 0.77732092142105103 0.11345768719911575
0.99899935722351074 0.78548026084899902 0.14512677490711212
0.41664189100265503 0.82434475421905518 0.24670663475990295
0.41112622618675232 0.82453185319900513 0.24985295534133911
0.42935612797737122 0.82461482286453247 0.25957658886909485
0.47105598449707031 0.82469111680984497 0.26758548617362976
0.52812570333480835 0.82422792911529541 0.26883840560913086
0.59784281253814697 0.82333171367645264 0.26577663421630859
0.66948932409286499 0.822925865650177 0.25927704572677612
0.73707121610641479 0.82474148273468018 0.24904882907867432
0.80087840557098389 0.82771754264831543 0.23625829815864563
0.86270648241043091 0.82995045185089111 0.22344233095645905
0.91962039470672607 0.8305513858795166 0.22006873786449432
0.96735918521881104 0.83263283967971802 0.22849857807159424
0.99779021739959717 0.83887237310409546 0.24836288392543793
0.57593846321105957 0.87272655963897705 0.34509667754173279
0.56583541631698608 0.87236535549163818 0.34658962488174438
0.5670018196105957 0.8733069896697998 0.35211703181266785
0.58560121059417725 0.87433892488479614 0.35843685269355774
0.6194159984588623 0.8740420937538147 0.36343348026275635
0.6627812385559082 0.87315791845321655 0.36621585488319397
0.71017134189605713 0.87207996845245361 0.36809661984443665
0.75855779647827148 0.87293565273284912 0.36996588110923767
0.80833339691162109 0.87495356798171997 0.3693060576915741
0.86158013343811035 0.87757140398025513 0.36087328195571899
0.91566264629364014 0.88031578063964844 0.35251310467720032
0.9642406702041626 0.88394749164581299 0.3526681661605835
0.99700725078582764 0.89024579524993896 0.36367812752723694
0.6904945969581604 0.91946685314178467 0.44759383797645569
0.68314152956008911 0.919158935546875 0.44805136322975159
0.67797952890396118 0.91980141401290894 0.4509270191192627
0.68375092744827271 0.92075681686401367 0.45534974336624146
0.70206964015960693 0.92101716995239258 0.46154522895812988
0.72900587320327759 0.92057901620864868 0.46788677573204041
0.76053249835968018 0.91967290639877319 0.47369715571403503
0.7948029637336731 0.92120790481567383 0.4780518114566803
0.83299660682678223 0.92301332950592041 0.47842234373092651
0.87608617544174194 0.9261014461517334 0.474069744348526
0.92260193824768066 0.92926543951034546 0.4707997739315033
0.96739846467971802 0.93358218669891357 0.47236832976341248
0.99817448854446411 0.94010448455810547 0.48044094443321228
0.77995258569717407 0.96655017137527466 0.5513569712638855
0.7759474515914917 0.96596050262451172 0.55128616094589233
0.77071553468704224 0.96614956855773926 0.55233323574066162
0.77116400003433228 0.96680307388305664 0.55594563484191895
0.77989590167999268 0.96711546182632446 0.56189632415771484
0.79553258419036865 0.96737957000732422 0.5694383978843689
0.81544530391693115 0.96788817644119263 0.57616293430328369
0.84015285968780518 0.96881532669067383 0.58031737804412842
0.86814379692077637 0.97107994556427002 0.58065402507781982
0.90152645111083984 0.97416675090789795 0.57930809259414673
0.93938815593719482 0.97753894329071045 0.58140832185745239
0.97820687294006348 0.98192787170410156 0.58618378639221191
0.99971961975097656 0.98719668388366699 0.59472644329071045
0.0062073948793113232 0.022151108831167221 0.069617733359336853
0.038635987788438797 0.024069318547844887 0.062063973397016525
0.090879492461681366 0.026894005015492439 0.068747907876968384
0.16007699072360992 0.036455940455198288 0.080377675592899323
0.26610523462295532 0.036088831722736359 0.0923447385430336
0.41280254721641541 0.011767817661166191 0.10250048339366913
0.57943975925445557 0.014921689406037331 0.1085381880402565
0.73372524976730347 0.070823192596435547 0.10746477544307709
0.85347479581832886 0.1590709388256073 0.09405575692653656
0.93770051002502441 0.26527249813079834 0.074352294206619263
0.9885297417640686 0.37674069404602051 0.072138212621212006
1 0.46738269925117493 0.10365536063909531
1 0.53805291652679443 0.15915122628211975
0.0038925171829760075 0.056998457759618759 0.078332386910915375
0.036101575940847397 0.057109400629997253 0.073305763304233551
0.10455726087093353 0.055115673691034317 0.072326332330703735
0.17692163586616516 0.053393255919218063 0.076041080057621002
0.278786301612854 0.047501955181360245 0.083333157002925873
0.42420145869255066 0.026622487232089043 0.090422645211219788
0.58522552251815796 0.020527604967355728 0.09402388334274292
0.73101723194122314 0.073629863560199738 0.093225620687007904
0.84736418724060059 0.16811950504779816 0.081469640135765076
0.93342012166976929 0.27439293265342712 0.065042279660701752
0.98609626293182373 0.38249918818473816 0.068925134837627411
0.99999821186065674 0.47092545032501221 0.10204196721315384
1 0.54152274131774902 0.15895974636077881
5.5170992709463462e-05 0.11435813456773758 0.092034026980400085
0.015194208361208439 0.11766022443771362 0.090834692120552063
0.09335220605134964 0.11830655485391617 0.083005033433437347
0.19549340009689331 0.11256784200668335 0.079968050122261047
0.31063318252563477 0.10945171117782593 0.079835794866085052
0.45187050104141235 0.098775573074817657 0.075805798172950745
0.60101610422134399 0.097793206572532654 0.072143226861953735
0.73583078384399414 0.14801421761512756 0.06794661283493042
0.84606474637985229 0.23064740002155304 0.053674779832363129
0.92924374341964722 0.31967204809188843 0.038793228566646576
0.98158168792724609 0.41156107187271118 0.046284932643175125
0.99908351898193359 0.49079999327659607 0.085366673767566681
0.99769812822341919 0.55656278133392334 0.15277402102947235
0 0.19793267548084259 0.10611972957849503
0.00089222029782831669 0.20027139782905579 0.10542447119951248
0.04467315599322319 0.20397847890853882 0.099034927785396576
0.17418895661830902 0.20600816607475281 0.08832848072052002
0.32621085643768311 0.21075363457202911 0.072549976408481598
0.47820413112640381 0.21357883512973785 0.051856081932783127
0.61847859621047974 0.21660996973514557 0.038400687277317047
0.73948699235916138 0.25186151266098022 0.031616315245628357
0.842795729637146 0.31623980402946472 0.016622640192508698
0.92340457439422607 0.38833460211753845 0.0047419681213796139
0.97532117366790771 0.4583590030670166 0.0078654568642377853
0.99560832977294922 0.52460950613021851 0.048125952482223511
0.99588131904602051 0.58373510837554932 0.13471789658069611
0 0.31573522090911865 0.099251419305801392
0 0.3148859441280365 0.099910572171211243
0.0070319529622793198 0.31531929969787598 0.10034644603729248
0.12536396086215973 0.32413795590400696 0.084560468792915344
0.31707870960235596 0.33928978443145752 0.053196102380752563
0.49373862147331238 0.35240963101387024 0.020796921104192734
0.63291746377944946 0.35562235116958618 0.0061341081745922565
0.74266189336776733 0.36747905611991882 0.0039308737032115459
0.83654159307479858 0.4024662971496582 0.00080015894491225481
0.91351079940795898 0.45594385266304016 0
0.96628719568252563 0.50958985090255737 8.5868086898699403e-06
0.99111413955688477 0.56389176845550537 0.026025541126728058
0.99604111909866333 0.61582738161087036 0.11687079071998596
0 0.4544048011302948 0.074897587299346924
0 0.45301884412765503 0.073084861040115356
0.0020138758700340986 0.45074158906936646 0.077104203402996063
0.097551055252552032 0.45889043807983398 0.067245468497276306
0.29843840003013611 0.47450727224349976 0.038938917219638824
0.49296534061431885 0.48941010236740112 0.0093034179881215096
0.64086335897445679 0.49766558408737183 4.0316113881999627e-05
0.74892914295196533 0.49982038140296936 0
0.83446532487869263 0.50615328550338745 0
0.90483587980270386 0.53097623586654663 0
0.95710450410842896 0.56580179929733276 0
0.98666727542877197 0.60547566413879395 0.011855091899633408
0.99709254503250122 0.6468120813369751 0.075134053826332092
0 0.58580189943313599 0.061579219996929169
0.0012034846004098654 0.58476114273071289 0.058347020298242569
0.013495202176272869 0.58170026540756226 0.066758356988430023
0.10378262400627136 0.58473533391952515 0.068521372973918915
0.29054781794548035 0.59481990337371826 0.054677851498126984
0.48654288053512573 0.60636383295059204 0.031483039259910583
0.63884949684143066 0.61491435766220093 0.0087600406259298325
0.74899226427078247 0.61737656593322754 0.00050856644520536065
0.83178329467773438 0.61830472946166992 0
0.89706778526306152 0.62679111957550049 0
0.94852471351623535 0.63928866386413574 0
0.98294281959533691 0.65710246562957764 0.00051963655278086662
0.99830949306488037 0.68295383453369141 0.028773125261068344
0.028996337205171585 0.69137084484100342 0.085084162652492523
0.059711694717407227 0.69049876928329468 0.086063221096992493
0.099118776619434357 0.68738305568695068 0.099183462560176849
0.18322852253913879 0.68746203184127808 0.10880152136087418
0.33547291159629822 0.69183456897735596 0.10524284839630127
0.50193488597869873 0.69787085056304932 0.090894035995006561
0.63652163743972778 0.70324265956878662 0.067172080278396606
0.73961561918258667 0.70742648839950562 0.036951117217540741
0.82222926616668701 0.71148449182510376 0.013512974604964256
0.88819855451583862 0.71451520919799805 0.0090445578098297119
0.94057512283325195 0.71415841579437256 0.011349262669682503
0.97888433933258057 0.71700435876846313 0.014648213051259518
0.99881076812744141 0.72993987798690796 0.04172026738524437
0.19306908547878265 0.76800334453582764 0.14831624925136566
0.22154530882835388 0.76769661903381348 0.15240009129047394
0.27055779099464417 0.76698935031890869 0.16806615889072418
0.34350177645683289 0.76697713136672974 0.18128196895122528
0.43725347518920898 0.76706075668334961 0.18213357031345367
0.54722392559051514 0.76797258853912354 0.17665329575538635
0.64547312259674072 0.7687985897064209 0.16402781009674072
0.73028361797332764 0.77281183004379272 0.13712047040462494
0.80771040916442871 0.77829575538635254 0.10311285406351089
0.87445080280303955 0.78020656108856201 0.08724212646484375
0.9302179217338562 0.77740877866744995 0.087580598890781403
0.97405022382736206 0.77678340673446655 0.094719827175140381
0.99873709678649902 0.78307873010635376 0.11894518136978149
0.40107610821723938 0.82469362020492554 0.23787528276443481
0.41133409738540649 0.82469362020492554 0.24146640300750732
0.44128763675689697 0.82537543773651123 0.25365617871284485
0.48639130592346191 0.82591027021408081 0.26523321866989136
0.54049158096313477 0.82562947273254395 0.27019977569580078
0.60582935810089111 0.82453566789627075 0.27169129252433777
0.67146676778793335 0.82389205694198608 0.26923871040344238
0.73529839515686035 0.82532030344009399 0.25666823983192444
0.79962253570556641 0.82906079292297363 0.23725913465023041
0.86102598905563354 0.83085554838180542 0.22406786680221558
0.91966885328292847 0.83119100332260132 0.21630991995334625
0.9695243239402771 0.83231180906295776 0.21609233319759369
0.99860918521881104 0.83655786514282227 0.23033024370670319
0.56973826885223389 0.87236541509628296 0.33954420685768127
0.56608051061630249 0.87185180187225342 0.34109732508659363
0.57200288772583008 0.8732714056968689 0.34750312566757202
0.59130567312240601 0.87458604574203491 0.35555577278137207
0.62572258710861206 0.87469363212585449 0.36287587881088257
0.66741007566452026 0.8736647367477417 0.36908289790153503
0.71145117282867432 0.8732839822769165 0.37235149741172791
0.75772523880004883 0.87373512983322144 0.37138989567756653
0.80748623609542847 0.87608379125595093 0.36617502570152283
0.86033427715301514 0.87812960147857666 0.35900035500526428
0.91571903228759766 0.88026171922683716 0.35064196586608887
0.96627318859100342 0.88333475589752197 0.34657090902328491
0.99809366464614868 0.88785469532012939 0.35269036889076233
0.68967932462692261 0.91895943880081177 0.44598686695098877
0.68429183959960938 0.91795808076858521 0.44614917039871216
0.68020892143249512 0.91896015405654907 0.44870927929878235
0.68604093790054321 0.92026311159133911 0.45358255505561829
0.70517504215240479 0.92099785804748535 0.46107590198516846
0.73132085800170898 0.920909583568573 0.46902015805244446
0.76122498512268066 0.9204716682434082 0.47547644376754761
0.79387986660003662 0.92154574394226074 0.47840198874473572
0.83130818605422974 0.92311054468154907 0.47746250033378601
0.87375533580780029 0.92575204372406006 0.47366967797279358
0.92069929838180542 0.92828714847564697 0.47022753953933716
0.9658084511756897 0.93185698986053467 0.4694516658782959
0.99761629104614258 0.93701595067977905 0.47402474284172058
0.77921497821807861 0.96572732925415039 0.55217427015304565
0.77642947435379028 0.96489495038986206 0.55182290077209473
0.7721981406211853 0.96510392427444458 0.5524669885635376
0.77269852161407471 0.96588218212127686 0.55576127767562866
0.78135085105895996 0.96653622388839722 0.5620802640914917
0.79694408178329468 0.96660619974136353 0.57053583860397339
0.81643712520599365 0.96714699268341064 0.57795792818069458
0.83882033824920654 0.96812731027603149 0.58203983306884766
0.86543041467666626 0.96999067068099976 0.58195716142654419
0.89741432666778564 0.97258436679840088 0.58090132474899292
0.93455380201339722 0.97548979520797729 0.58274072408676147
0.97304779291152954 0.97926992177963257 0.58574312925338745
0.99902880191802979 0.98426556587219238 0.59124553203582764
0.0048575755208730698 0.029740218073129654 0.12053117901086807
0.037331435829401016 0.03788655623793602 0.11386197805404663
0.083996221423149109 0.052281145006418228 0.11406373977661133
0.14807085692882538 0.054329473525285721 0.1229979395866394
0.25662729144096375 0.038891363888978958 0.13466900587081909
0.41822800040245056 0.0088494094088673592 0.14547201991081238
0.59751981496810913 0.027156336233019829 0.15216362476348877
0.75344216823577881 0.11703495681285858 0.15525439381599426
0.86309647560119629 0.21711649000644684 0.14913524687290192
0.94047170877456665 0.30596482753753662 0.1337515264749527
0.9876362681388855 0.40076622366905212 0.13619981706142426
1 0.48176723718643188 0.15973007678985596
1 0.54952234029769897 0.2040216475725174
0.001988325035199523 0.06100107729434967 0.13170470297336578
0.030111365020275116 0.063001461327075958 0.12865327298641205
0.09433436393737793 0.068347036838531494 0.12513522803783417
0.16938357055187225 0.060698818415403366 0.12605105340480804
0.27613705396652222 0.04677436500787735 0.13022725284099579
0.435182124376297 0.018450105562806129 0.13460586965084076
0.61058109998703003 0.014993226155638695 0.13901366293430328
0.75233656167984009 0.092699654400348663 0.14346511662006378
0.8585582971572876 0.20476686954498291 0.13789178431034088
0.93802744150161743 0.30180078744888306 0.12696826457977295
0.98804718255996704 0.39783355593681335 0.13369481265544891
1 0.47808542847633362 0.15665878355503082
0.99973213672637939 0.54525715112686157 0.19908571243286133
0 0.11946044862270355 0.14323835074901581
0.0092100556939840317 0.12072832882404327 0.14363089203834534
0.091705992817878723 0.12068650126457214 0.13663975894451141
0.20795361697673798 0.11555672436952591 0.12914758920669556
0.32140690088272095 0.10650627315044403 0.12809520959854126
0.4674619734287262 0.08895188570022583 0.12455990165472031
0.62494409084320068 0.083818964660167694 0.12346816807985306
0.75513714551925659 0.14701946079730988 0.12352275103330612
0.856342613697052 0.24145510792732239 0.11589617282152176
0.9351506233215332 0.32739093899726868 0.10733964294195175
0.98654770851135254 0.4153096079826355 0.11536319553852081
0.99997103214263916 0.4910237193107605 0.14058716595172882
0.99712914228439331 0.55621403455734253 0.19149263203144073
0 0.20829600095748901 0.14866642653942108
0.00020687626965809613 0.21097621321678162 0.14759765565395355
0.050597861409187317 0.21383532881736755 0.14133866131305695
0.20040592551231384 0.21324038505554199 0.13182163238525391
0.35046032071113586 0.21070127189159393 0.11815282702445984
0.49838468432426453 0.2051645964384079 0.10296513885259628
0.63791584968566895 0.20765265822410583 0.095290392637252808
0.75713080167770386 0.25788435339927673 0.088580124080181122
0.85349768400192261 0.31806331872940063 0.073067307472229004
0.92998623847961426 0.38566157221794128 0.058186370879411697
0.98115080595016479 0.4545314610004425 0.063396096229553223
0.99924969673156738 0.52098822593688965 0.097658224403858185
0.99608725309371948 0.5822942852973938 0.17009076476097107
0 0.32940295338630676 0.13398174941539764
0 0.32927575707435608 0.13295039534568787
0.013052741996943951 0.33211967349052429 0.13161388039588928
0.14100734889507294 0.33987182378768921 0.11882666498422623
0.3339255154132843 0.34573665261268616 0.092170789837837219
0.5086938738822937 0.3425116240978241 0.065012164413928986
0.64493733644485474 0.34250572323799133 0.04770805686712265
0.75419896841049194 0.36601918935775757 0.037839282304048538
0.8452533483505249 0.40158531069755554 0.026280121877789497
0.91977107524871826 0.45568996667861938 0.015242797322571278
0.97123962640762329 0.50717616081237793 0.024988600984215736
0.99416214227676392 0.56246328353881836 0.065170615911483765
0.9954683780670166 0.61517369747161865 0.14565159380435944
0 0.46682193875312805 0.10360196977853775
