assets/lut/picturefx goldfx perfect sunset 10min.cube
# Created by: G'MIC (https://gmic.eu)
TITLE "goldfx_perfect_sunset_10min"
# LUT size
LUT_3D_SIZE 13
# Data domain
DOMAIN_MIN 0.0 0.0 0.0
DOMAIN_MAX 1.0 1.0 1.0
# LUT data points
0.0048021203838288784 0.0064458209089934826 0.0065949833951890469
0.014229299500584602 0.006663633044809103 0.0059199612587690353
0.05808054655790329 0.0054335799068212509 0.0050454530864953995
0.13001696765422821 0.0055566076189279556 0.0026509154122322798
0.19453343749046326 0.0061561283655464649 0.0017831241711974144
0.26980900764465332 0.0062298495322465897 0.002743829507380724
0.35334771871566772 0.005792700219899416 0.0041678636334836483
0.43283823132514954 0.0033672407735139132 0.0049870060756802559
0.50909733772277832 0.0014555089874193072 0.0030186222866177559
0.58126527070999146 0.00090545951388776302 0.0005676568835042417
0.67098367214202881 0.00035759419552050531 0.001107324380427599
0.7746809720993042 0 0.00024773093173280358
0.87269741296768188 0 0
0.0078999092802405357 0.028214443475008011 0.0050956127233803272
0.031167812645435333 0.03300163522362709 0.010052654892206192
0.074116215109825134 0.034734118729829788 0.0077240141108632088
0.13849367201328278 0.034035626798868179 0.0028887579683214426
0.20542697608470917 0.032644759863615036 0.0014942842535674572
0.2681615948677063 0.022583186626434326 0.0011983833974227309
0.34304893016815186 0.013356108218431473 0.0022361606825143099
0.42552125453948975 0.0050589167512953281 0.0031727361492812634
0.50415360927581787 0.0033880197443068027 0.00099129765294492245
0.58534979820251465 0.0038813871797174215 0.00041647517355158925
0.67789316177368164 0.0039309333078563213 0.0010517045157030225
0.78192996978759766 0.0018069996731355786 0.00040117150638252497
0.87317514419555664 0 0
0.0067205093801021576 0.087506659328937531 0.0024663887452334166
0.032302197068929672 0.086021348834037781 0.0056538600474596024
0.087487824261188507 0.085058026015758514 0.0027864642906934023
0.15122178196907043 0.089218541979789734 0.00085854623466730118
0.21053142845630646 0.090673215687274933 0.0001916324399644509
0.27202257513999939 0.081968583166599274 7.180606644396903e-06
0.34456241130828857 0.065132513642311096 0.00012410481576807797
0.42341434955596924 0.044170860201120377 0.00069799984339624643
0.5020071268081665 0.026245340704917908 9.8553828138392419e-05
0.58718305826187134 0.010955586098134518 8.9757581008598208e-05
0.68032586574554443 0.0075885546393692493 0.00025168026331812143
0.78598368167877197 0.0040799160487949848 3.9493338590546045e-06
0.87830966711044312 0.00011488970631035045 0
0.0027975044213235378 0.15688450634479523 0.00068682502023875713
0.019316220656037331 0.15498277544975281 0.00029789045220240951
0.077000096440315247 0.15316511690616608 0.00010006474622059613
0.14950850605964661 0.15501800179481506 0
0.21429938077926636 0.15748484432697296 0
0.28079420328140259 0.15439999103546143 0
0.35553997755050659 0.14627255499362946 0
0.43134784698486328 0.13402515649795532 0
0.50903373956680298 0.1187392920255661 0
0.59189838171005249 0.088706746697425842 0
0.68204933404922485 0.042835760861635208 0
0.7867286205291748 0.014288225211203098 0
0.88221192359924316 0.007935602217912674 0
0.0011653526453301311 0.22662197053432465 0.00073529413202777505
0.0051076849922537804 0.22379417717456818 0.00056924257660284638
0.046368438750505447 0.22192205488681793 4.6673944780195598e-06
0.13632556796073914 0.22262932360172272 0
0.21371050179004669 0.22420293092727661 0
0.2875860333442688 0.22680677473545074 0
0.36103850603103638 0.22273242473602295 0
0.43717014789581299 0.21467478573322296 0
0.51726949214935303 0.20401714742183685 0
0.59917879104614258 0.18672855198383331 0
0.68814754486083984 0.15324009954929352 0
0.7929307222366333 0.081197567284107208 0
0.89183938503265381 0.036358028650283813 0
0.0013133927714079618 0.29508289694786072 0.0002978156553581357
0.0056034908629953861 0.29722291231155396 1.4899758753017522e-05
0.027397140860557556 0.29821979999542236 0
0.1109355092048645 0.29701286554336548 0
0.20055907964706421 0.2976033091545105 0
0.28156602382659912 0.30041387677192688 0
0.36187553405761719 0.29677727818489075 0
0.44294658303260803 0.29097157716751099 0
0.52567118406295776 0.28485593199729919 0
0.60715991258621216 0.27244788408279419 0
0.69766092300415039 0.25015276670455933 0
0.79807311296463013 0.19929215312004089 0
0.89969515800476074 0.12237305194139481 0
0.003064518328756094 0.37430694699287415 0
0.010695438832044601 0.37724080681800842 0
0.021241087466478348 0.37748605012893677 0
0.063886247575283051 0.3748515248298645 0
0.17493638396263123 0.3749288022518158 0
0.26817065477371216 0.37635248899459839 0
0.35309317708015442 0.37623122334480286 0
0.43870919942855835 0.37206703424453735 0
0.52557188272476196 0.3657982349395752 0
0.61031758785247803 0.35657152533531189 0
0.70026731491088867 0.34124630689620972 0
0.7919192910194397 0.31567475199699402 0
0.8947862982749939 0.26543843746185303 0
0.0033980426378548145 0.46321585774421692 0
0.0097499769181013107 0.46287688612937927 0
0.015289306640625 0.46234363317489624 0
0.039196569472551346 0.45999476313591003 0
0.13916932046413422 0.45961430668830872 0
0.23730981349945068 0.45947715640068054 0
0.3273518979549408 0.4610956609249115 0
0.41941371560096741 0.45703282952308655 0
0.51732438802719116 0.45035767555236816 0
0.60680216550827026 0.4421638548374176 0
0.69649100303649902 0.43280968070030212 0
0.78049343824386597 0.42086759209632874 0
0.87454301118850708 0.39821377396583557 0
0.0028426225762814283 0.55277180671691895 0
0.0060744490474462509 0.55143040418624878 0
0.0087393363937735558 0.55139142274856567 0
0.030836965888738632 0.55133152008056641 0
0.1055888757109642 0.54731070995330811 0
0.18709380924701691 0.54540914297103882 0
0.28874650597572327 0.54647207260131836 0
0.39058130979537964 0.54581815004348755 0
0.48921531438827515 0.5389677882194519 0
0.59035545587539673 0.52765041589736938 0
0.68776810169219971 0.51773929595947266 0
0.77147805690765381 0.50940608978271484 0
0.84831839799880981 0.5026623010635376 0
0.00044976029312238097 0.64350211620330811 0
0.0027218088507652283 0.64019608497619629 0
0.003160753520205617 0.64043110609054565 0
0.008875708095729351 0.64104545116424561 0
0.042974390089511871 0.63266491889953613 0
0.10206811875104904 0.62809550762176514 0
0.23269444704055786 0.62627458572387695 0
0.36844256520271301 0.6253848671913147 0
0.4668821394443512 0.62201327085494995 0
0.56010037660598755 0.61527597904205322 0
0.66349035501480103 0.60435336828231812 0
0.75544804334640503 0.59347176551818848 0
0.83789581060409546 0.58380734920501709 0
0 0.7275015115737915 0
0 0.72890454530715942 0
0 0.72562992572784424 0
0.0020644993055611849 0.71978753805160522 0
0.0075099123641848564 0.71279102563858032 0
0.026204546913504601 0.71051555871963501 0
0.16631427407264709 0.70425903797149658 0
0.33811670541763306 0.69948893785476685 0
0.45146322250366211 0.69607353210449219 0
0.52763122320175171 0.69419914484024048 0
0.63096648454666138 0.68422001600265503 0
0.73407691717147827 0.67180389165878296 0
0.82535052299499512 0.66176748275756836 0
0 0.80924022197723389 0
0 0.80683350563049316 0
0 0.80433636903762817 0
0.001035847351886332 0.79985564947128296 0
0.003596197348088026 0.79301148653030396 0
0.014415412209928036 0.78808259963989258 0
0.09357134997844696 0.78259211778640747 0
0.26123234629631042 0.77561104297637939 0
0.42621603608131409 0.76885640621185303 0
0.51956123113632202 0.7662850022315979 0
0.59710985422134399 0.76019793748855591 0
0.69979804754257202 0.75034493207931519 0
0.79623138904571533 0.7394644021987915 0
0 0.87322384119033813 0
0 0.87531447410583496 0
0 0.87301456928253174 0
0 0.87058740854263306 0
0.00012835334928240627 0.86242598295211792 0
0.0059291315264999866 0.85751157999038696 0
0.041795305907726288 0.85169446468353271 0
0.18750406801700592 0.84511512517929077 0
0.38835078477859497 0.83625334501266479 0
0.51628130674362183 0.82952606678009033 0
0.5726504921913147 0.82938468456268311 0
0.67212826013565063 0.82129359245300293 0
0.7667275071144104 0.80936092138290405 0
0.0055220657959580421 0.0080247614532709122 0.012591238133609295
0.016681894659996033 0.0067670932039618492 0.017737504094839096
0.06463584303855896 0.0052578644827008247 0.029641738161444664
0.14661839604377747 0.0013100866926833987 0.029742656275629997
0.21797788143157959 0.0013564315158873796 0.020594548434019089
0.28704032301902771 0.0024186377413570881 0.013031888753175735
0.36298865079879761 0.0015391929773613811 0.010567354969680309
0.44788864254951477 0.00029374664882197976 0.010978205129504204
0.53039169311523438 0.00032121245749294758 0.0044863233342766762
0.61051803827285767 0.00028180889785289764 0.0029643638990819454
0.69989299774169922 1.7951516610992257e-06 0.004552250262349844
0.80039519071578979 0 0.0027986564673483372
0.89138281345367432 0 0
0.0068991417065262794 0.029074022546410561 0.027432700619101524
0.030452968552708626 0.030875829979777336 0.031113568693399429
0.079871281981468201 0.031521275639533997 0.035139493644237518
0.15158876776695251 0.02231680229306221 0.024013742804527283
0.22235199809074402 0.012689987197518349 0.014504346996545792
0.29005062580108643 0.0094593269750475883 0.011597681790590286
0.36468711495399475 0.0066418368369340897 0.0094246659427881241
0.44472265243530273 0.0049451938830316067 0.0094006853178143501
0.52585947513580322 0.0050083682872354984 0.0046762800775468349
0.61334717273712158 0.0037122091744095087 0.0046143028885126114
0.70564615726470947 0.0029015634208917618 0.0039610620588064194
0.80820691585540771 0.00067002541618421674 0.0030018824618309736
0.89772552251815796 0 0
0.0017885245615616441 0.086200565099716187 0.017900219187140465
0.020950227975845337 0.085849061608314514 0.019648503512144089
0.079294838011264801 0.088980130851268768 0.015349952504038811
0.15598540008068085 0.086938448250293732 0.010924305766820908
0.22410443425178528 0.071903318166732788 0.0082091689109802246
0.2908632755279541 0.058977164328098297 0.0051090465858578682
0.36552980542182922 0.045901849865913391 0.0038148169405758381
0.44353580474853516 0.032824184745550156 0.0070420210249722004
0.52271246910095215 0.016311017796397209 0.0043929154053330421
0.61180746555328369 0.0095442980527877808 0.0030537624843418598
0.70849990844726562 0.0066862967796623707 0.0033188315574079752
0.81328046321868896 0.0037149316631257534 0.0017857421189546585
0.90705156326293945 0.0001401714253006503 2.5670668037491851e-05
0.00040296665974892676 0.1596129983663559 0.0054351505823433399
0.0078212367370724678 0.15780629217624664 0.0057234070263803005
0.063968673348426819 0.15740156173706055 0.0021019282285124063
0.14948238432407379 0.15601424872875214 0.002139177406206727
0.22233521938323975 0.15257780253887177 0.0014989965129643679
0.29223901033401489 0.14515607059001923 0.0032916946802288294
0.36539384722709656 0.13382752239704132 0.0024659400805830956
0.44475451111793518 0.12027010321617126 0.0021502177696675062
0.5239223837852478 0.092491760849952698 0.0014311696868389845
0.60933589935302734 0.05678577721118927 0.00016005273209884763
0.70466798543930054 0.024976558983325958 0.00044563144911080599
0.81260573863983154 0.0098415296524763107 5.4303336582961492e-06
0.91038632392883301 0.003493140684440732 0
8.7064858234953135e-05 0.23026242852210999 0.0048915790393948555
0.0035090427845716476 0.22868974506855011 0.00627899169921875
0.034340951591730118 0.22681599855422974 0.0013500438071787357
0.12578293681144714 0.22648288309574127 0.0014736849116161466
0.2118334025144577 0.22512799501419067 0.00074826407944783568
0.29055294394493103 0.22199758887290955 0.0002806869160849601
0.36669144034385681 0.21698497235774994 0.00054062489653006196
0.4429289698600769 0.20776022970676422 3.784778164117597e-05
0.52812892198562622 0.19318218529224396 6.2351602537091821e-05
0.61260920763015747 0.16687555611133575 8.9353670773562044e-05
0.7042805552482605 0.12491323798894882 0
0.81101042032241821 0.055650103837251663 0
0.9133535623550415 0.015475733205676079 0
0.0012163498904556036 0.30202192068099976 0.0027374716009944677
0.0052858837880194187 0.30293232202529907 0.0017999536357820034
0.017438298091292381 0.30061951279640198 0.00065861124312505126
0.097005657851696014 0.29978317022323608 7.3062670708168298e-05
0.19410103559494019 0.29870694875717163 2.1392223061411642e-05
0.28131762146949768 0.29903602600097656 0
0.36554798483848572 0.29394716024398804 0
0.44951608777046204 0.28831258416175842 0
0.53308588266372681 0.27875873446464539 0
0.61554670333862305 0.26212579011917114 0
0.7074773907661438 0.2373037189245224 0
0.80996394157409668 0.17703542113304138 0
0.91195982694625854 0.10216939449310303 0
0.0016427133232355118 0.38045230507850647 0.00011666990030789748
0.0085584158077836037 0.38248416781425476 0.000822972331661731
0.020438594743609428 0.38320359587669373 0.001141776330769062
0.061443731188774109 0.3808387815952301 2.8632668545469642e-05
0.16422563791275024 0.37856492400169373 0
0.26450961828231812 0.37768140435218811 0
0.35234373807907104 0.37654101848602295 0
0.44546818733215332 0.36991485953330994 0
0.53465336561203003 0.36106583476066589 0
0.61725020408630371 0.3519233763217926 0
0.70708388090133667 0.33318647742271423 0
0.80090099573135376 0.30462497472763062 0
0.90865319967269897 0.24130953848361969 0
0.0016044466756284237 0.46510279178619385 0
0.007388006430119276 0.46682077646255493 0.00034260470420122147
0.01550476998090744 0.46796897053718567 0.001341651426628232
0.03832734003663063 0.46634367108345032 5.9404559578979388e-05
0.12343908846378326 0.463918536901474 0
0.22405482828617096 0.46075481176376343 0
0.32364815473556519 0.46140345931053162 0
0.41868835687637329 0.45754489302635193 0
0.52191787958145142 0.44491744041442871 0
0.61428064107894897 0.43920508027076721 0
0.7005314826965332 0.42917630076408386 0
0.78689032793045044 0.41661342978477478 0
0.88455557823181152 0.38651901483535767 0
0.00078880460932850838 0.55746662616729736 0
0.0042782505042850971 0.55666238069534302 1.4480890058621299e-05
0.0086811892688274384 0.55593270063400269 0.00034076467272825539
0.026559103280305862 0.55482500791549683 1.0367000868427567e-05
0.08084520697593689 0.55131310224533081 0
0.15654963254928589 0.54742264747619629 0
0.27875906229019165 0.54802495241165161 0
0.38612422347068787 0.54702258110046387 0
0.48658955097198486 0.53793996572494507 0
0.59115844964981079 0.52570855617523193 0
0.68601572513580322 0.51494908332824707 0
0.77724575996398926 0.50681936740875244 0
0.85228466987609863 0.4972018301486969 0
2.2618911316385493e-05 0.64639866352081299 0
0.0016549951396882534 0.645377516746521 0
0.0033775928895920515 0.64548617601394653 0
0.009864133782684803 0.64305943250656128 0
0.032506592571735382 0.63700801134109497 0
0.080846287310123444 0.63134765625 0
0.21591554582118988 0.62758558988571167 0
0.36144271492958069 0.6247938871383667 0
0.45524287223815918 0.62504798173904419 0
0.55718225240707397 0.61383461952209473 0
0.66225177049636841 0.60166656970977783 0
0.75973057746887207 0.59003788232803345 0
0.84340816736221313 0.58222848176956177 0
0 0.73064637184143066 0
0 0.72996503114700317 0
1.9447476006462239e-05 0.7312018871307373 0
0.0030747656710445881 0.72435557842254639 0
0.0085072387009859085 0.71688127517700195 0
0.033776570111513138 0.71350574493408203 0
0.13747489452362061 0.70825004577636719 0
0.31700882315635681 0.70290493965148926 0
0.44169682264328003 0.70110762119293213 0
0.5284348726272583 0.69683033227920532 0
0.63079220056533813 0.68542909622192383 0
0.73631560802459717 0.67410755157470703 0
0.82847422361373901 0.66041892766952515 0
0 0.81056153774261475 0
0 0.80858451128005981 0
0 0.80752426385879517 0
0.0011149985948577523 0.8034406304359436 0
0.0049115200527012348 0.79738724231719971 0
0.025809522718191147 0.79175126552581787 0
0.093960389494895935 0.78510969877243042 0
0.23571217060089111 0.7793005108833313 0
0.42126420140266418 0.77208608388900757 0
0.52466857433319092 0.76548582315444946 0
0.59649616479873657 0.76191449165344238 0
0.70113873481750488 0.7514074444770813 0
0.79862481355667114 0.73749101161956787 0
0 0.87829941511154175 0
0 0.87722063064575195 0
0 0.87530118227005005 0
0 0.87343215942382812 0
0.0016157861100509763 0.86793315410614014 0
0.014296902343630791 0.86032724380493164 0
0.068845324218273163 0.8508639931678772 0
0.17596173286437988 0.84479761123657227 0
0.38137656450271606 0.83027011156082153 0
0.51921993494033813 0.82570767402648926 0
0.57534372806549072 0.82830095291137695 0
0.67273259162902832 0.82063764333724976 0
0.76137435436248779 0.80520963668823242 0
0.0058312807232141495 0.0061012119986116886 0.050880894064903259
0.026951508596539497 0.0055661071091890335 0.062519863247871399
0.078508146107196808 0.0043096654117107391 0.084169991314411163
0.15200521051883698 0.0010634777136147022 0.088403962552547455
0.22689925134181976 0 0.089547760784626007
0.29884755611419678 0 0.075501792132854462
0.37279766798019409 0 0.074825629591941833
0.45402166247367859 0 0.068621315062046051
0.54295998811721802 0 0.04662608727812767
0.62966883182525635 0 0.037306047976016998
0.72388052940368652 0 0.027876626700162888
0.82479465007781982 0 0.017919398844242096
0.91421973705291748 0 0.011755356565117836
0.0031122094951570034 0.030999710783362389 0.078200802206993103
0.025639552623033524 0.030831774696707726 0.089032642543315887
0.084424041211605072 0.024767244234681129 0.095901980996131897
0.16147541999816895 0.012435269542038441 0.08596879243850708
0.23503375053405762 0.004130928311496973 0.080403394997119904
0.30910903215408325 0.0017463683616369963 0.069093398749828339
0.38308531045913696 0.00040673647890798748 0.065707743167877197
0.4651418924331665 0.00072545069269835949 0.050605535507202148
0.55136054754257202 0.00039892757195048034 0.038374356925487518
0.63920378684997559 0.00011771707067964599 0.028379268944263458
0.73319345712661743 0.00022401996830012649 0.017988869920372963
0.83331084251403809 0 0.01405410747975111
0.92567843198776245 0 0.010434753261506557
0.00038176891393959522 0.08902633935213089 0.082610949873924255
0.017814202234148979 0.086153574287891388 0.085445284843444824
0.07819848507642746 0.083571217954158783 0.08181317150592804
0.165382981300354 0.071315839886665344 0.068654172122478485
0.2394508570432663 0.045147616416215897 0.067858003079891205
0.31149566173553467 0.031409785151481628 0.054677162319421768
0.3863787055015564 0.014681153930723667 0.046991623938083649
0.4690375030040741 0.011118586175143719 0.038495905697345734
0.55677598714828491 0.0058793011121451855 0.027052471414208412
0.64726990461349487 0.0035304499324411154 0.019672513008117676
0.74189668893814087 0.0017101811245083809 0.013742903247475624
0.84703236818313599 0.0007301479927264154 0.0074058384634554386
0.94480675458908081 5.0264246965525672e-05 0.0053845127113163471
0 0.16139957308769226 0.054349802434444427
0.0035850673448294401 0.1598832756280899 0.050816331058740616
0.043074261397123337 0.15971723198890686 0.04155363142490387
0.14721472561359406 0.15498346090316772 0.038993939757347107
0.23121155798435211 0.14089731872081757 0.033454746007919312
0.30651119351387024 0.12744566798210144 0.030594142153859138
0.38073638081550598 0.10801693797111511 0.027537327259778976
0.46438825130462646 0.081346936523914337 0.026374742388725281
0.55456364154815674 0.049107138067483902 0.014723848551511765
0.64176511764526367 0.021103713661432266 0.013019277714192867
0.74061185121536255 0.0092905526980757713 0.0088073881343007088
0.84952956438064575 0.0059890146367251873 0.0037456736899912357
0.95246618986129761 0.0011119768023490906 0.0023184982128441334
0 0.23136736452579498 0.030956044793128967
0.00086369231576099992 0.23112750053405762 0.024235490709543228
0.023082120344042778 0.23100101947784424 0.019003011286258698
0.10494670271873474 0.22893863916397095 0.014426646754145622
0.20983217656612396 0.2235017716884613 0.01259511336684227
0.29643112421035767 0.21619179844856262 0.011777601204812527
0.37673848867416382 0.20746350288391113 0.013663631863892078
0.46109062433242798 0.19089925289154053 0.0052468245849013329
0.55040138959884644 0.16416254639625549 0.0041037467308342457
0.63686394691467285 0.12858432531356812 0.0091779967769980431
0.73632913827896118 0.059955567121505737 0.0055136736482381821
0.8444482684135437 0.027025170624256134 0.0019755943212658167
0.95273089408874512 0.0065421760082244873 0.00078388286055997014
0.00040040857857093215 0.3053489625453949 0.0096558816730976105
0.0023003371898084879 0.30814945697784424 0.01098206453025341
0.011181730777025223 0.30629438161849976 0.013709723018109798
0.063303850591182709 0.30473694205284119 0.006773974746465683
0.17815309762954712 0.30091419816017151 0.003025309182703495
0.27998107671737671 0.29800218343734741 0.0033358405344188213
0.36808550357818604 0.29199141263961792 0.0039898441173136234
0.46070420742034912 0.28206774592399597 0.0022529901470988989
0.54645460844039917 0.26818662881851196 0.0010990217560902238
0.63396495580673218 0.24234479665756226 0.00062089809216558933
0.73044592142105103 0.20309647917747498 0.00042096307151950896
0.83459508419036865 0.12370900064706802 0.00036039165570400655
0.94095051288604736 0.046792451292276382 0.00012371587217785418
0.00020889581355731934 0.38595938682556152 0.0069610294885933399
0.0050017265602946281 0.38778653740882874 0.0064075845293700695
0.013924064114689827 0.38827455043792725 0.0077656018547713757
0.026257414370775223 0.38416650891304016 0.0036021214909851551
0.12010601162910461 0.38073396682739258 0.00061403162544593215
0.25169089436531067 0.37969544529914856 0.00087823305511847138
0.34994587302207947 0.37744715809822083 0.0035139345563948154
0.45082038640975952 0.367939293384552 0.0021976395510137081
0.54333460330963135 0.35591942071914673 0.00063201307784765959
0.62805420160293579 0.3425503671169281 0
0.71951901912689209 0.32181614637374878 0
0.81700390577316284 0.2835220992565155 0
0.92659622430801392 0.19219577312469482 0
6.3189341744873673e-05 0.47000709176063538 0.0028287400491535664
0.0042175892740488052 0.473356693983078 0.0050425063818693161
0.010541519150137901 0.47397813200950623 0.0058223200030624866
0.023253288120031357 0.47189468145370483 0.0027611525729298592
0.072027631103992462 0.46728485822677612 0.00014292399282567203
0.19915793836116791 0.46204018592834473 6.1783139244653285e-05
0.31471553444862366 0.46346479654312134 7.9270903370343149e-05
0.42047262191772461 0.4614328145980835 6.7018998379353434e-05
0.52639961242675781 0.44426831603050232 3.5603839933173731e-05
0.62208288908004761 0.43452167510986328 0
0.70908081531524658 0.42279726266860962 0
0.79913997650146484 0.40954381227493286 0
0.8969082236289978 0.3710639476776123 0
0 0.56390905380249023 0.0015255797188729048
0.0035521562676876783 0.56444907188415527 0.0033765006810426712
0.0055767581798136234 0.56325924396514893 0.0046344082802534103
0.014527474530041218 0.56208342313766479 0.0023726369254291058
0.042880278080701828 0.55816376209259033 3.5903034586226568e-05
0.099555447697639465 0.55503690242767334 0
0.24978291988372803 0.55161601305007935 0
0.38181918859481812 0.5489957332611084 0
0.48559409379959106 0.53865045309066772 0
0.5925402045249939 0.526630699634552 0
0.69190514087677002 0.51474601030349731 0
0.78614157438278198 0.50516980886459351 0
0.85922408103942871 0.49144446849822998 0
0 0.65364545583724976 0.00013828651572111994
0.0020405040122568607 0.65241533517837524 0.0011577232507988811
0.0031706267036497593 0.65255177021026611 0.0010599023662507534
0.003532604081556201 0.65293234586715698 0.00021193260909058154
0.021323289722204208 0.64660954475402832 0
0.060213934630155563 0.63663852214813232 0
0.1841217428445816 0.63224667310714722 0
0.35100555419921875 0.62885719537734985 0
0.453550785779953 0.62453866004943848 0
0.55475789308547974 0.61404943466186523 0
0.66629171371459961 0.60286074876785278 0
0.77001231908798218 0.59070533514022827 0
0.85032325983047485 0.57959139347076416 0
0 0.73775684833526611 0
0 0.73716706037521362 0
0 0.73536646366119385 0
0.0012249366845935583 0.73099267482757568 0
0.01335480622947216 0.72494733333587646 0
