assets/lut/picturefx faux infrared color r0a.cube
# Created by: G'MIC (https://gmic.eu)
TITLE "faux_infrared_color_r0a"
# LUT size
LUT_3D_SIZE 13
# Data domain
DOMAIN_MIN 0.0 0.0 0.0
DOMAIN_MAX 1.0 1.0 1.0
# LUT data points
0.051899958401918411 0.034814663231372833 0.037134326994419098
0.089203886687755585 0.032865442335605621 0.03678913414478302
0.14935167133808136 0.024949332699179649 0.030771637335419655
0.23316092789173126 0.018548119813203812 0.033558759838342667
0.3351576030254364 0.016329208388924599 0.051277324557304382
0.44361034035682678 0.005353336688131094 0.059835173189640045
0.55159717798233032 0.0035515879280865192 0.070092998445034027
0.65843814611434937 0.0031521515920758247 0.087245568633079529
0.7425040602684021 0 0.097508691251277924
0.80707347393035889 0.0021529253572225571 0.11094898730516434
0.85745155811309814 0.007307389285415411 0.13080751895904541
0.90392017364501953 0.011976698413491249 0.15042692422866821
0.94502109289169312 0.017054988071322441 0.16706719994544983
0.17282694578170776 0.043541207909584045 0.054441787302494049
0.20624557137489319 0.037497695535421371 0.050872907042503357
0.26361829042434692 0.033001530915498734 0.056085415184497833
0.33622556924819946 0.017939010635018349 0.053578738123178482
0.42041519284248352 0.0086885485798120499 0.060140661895275116
0.50959593057632446 0.0042213439010083675 0.068345256149768829
0.59808260202407837 0.00041822544881142676 0.074783876538276672
0.68844705820083618 0.00029063504189252853 0.088734030723571777
0.76438885927200317 0 0.10161790996789932
0.82125580310821533 0.0024008806794881821 0.11568839848041534
0.87001436948776245 0.011326135136187077 0.13686574995517731
0.91498571634292603 0.021072313189506531 0.15692034363746643
0.95204108953475952 0.032144524157047272 0.1723218709230423
0.36478769779205322 0.044750556349754333 0.085749641060829163
0.38919329643249512 0.036869663745164871 0.082563631236553192
0.42982968688011169 0.027669435366988182 0.082562796771526337
0.48252144455909729 0.014033298939466476 0.078982047736644745
0.5406651496887207 0.0028327342588454485 0.074948526918888092
0.60886204242706299 0.00089622946688905358 0.076856993138790131
0.6800726056098938 0 0.086006492376327515
0.7515224814414978 0 0.098687551915645599
0.80982136726379395 7.180606644396903e-06 0.11242841929197311
0.85329091548919678 0.0038314519915729761 0.1274615079164505
0.8931700587272644 0.014452347531914711 0.14620079100131989
0.93008434772491455 0.03537503257393837 0.16487298905849457
0.96342009305953979 0.05284431204199791 0.1801828145980835
0.55523848533630371 0.048866961151361465 0.12757433950901031
0.57315278053283691 0.038938321173191071 0.12282173335552216
0.59548157453536987 0.029610622674226761 0.11820755153894424
0.62958329916000366 0.017184941098093987 0.11118591576814651
0.6709892749786377 0.0058181611821055412 0.10839343816041946
0.71526557207107544 0.0050841835327446461 0.10441365092992783
0.76544475555419922 0.0024035884998738766 0.10603099316358566
0.81720322370529175 0.0022960139904171228 0.11549574881792068
0.86076909303665161 0.0022538129705935717 0.12930083274841309
0.89455801248550415 0.0054157632403075695 0.14369823038578033
0.92490559816360474 0.015333617106080055 0.15874031186103821
0.95428735017776489 0.044960439205169678 0.17555445432662964
0.98205447196960449 0.074871644377708435 0.1910519152879715
0.70832043886184692 0.096198141574859619 0.18036700785160065
0.71830242872238159 0.083948321640491486 0.1759459525346756
0.72989827394485474 0.069837488234043121 0.17141346633434296
0.74878191947937012 0.060645759105682373 0.16595099866390228
0.77559208869934082 0.050640568137168884 0.16275143623352051
0.80508273839950562 0.040585938841104507 0.15634773671627045
0.83609616756439209 0.036415159702301025 0.15191234648227692
0.8700065016746521 0.040999364107847214 0.15538321435451508
0.90590941905975342 0.028113197535276413 0.15888744592666626
0.93593913316726685 0.027025438845157623 0.16705931723117828
0.96059441566467285 0.045691173523664474 0.1789858341217041
0.98317199945449829 0.079888269305229187 0.19524459540843964
0.99750387668609619 0.11058494448661804 0.20945785939693451
0.80875587463378906 0.17836475372314453 0.24631288647651672
0.81098276376724243 0.16798052191734314 0.24117261171340942
0.82238608598709106 0.16428007185459137 0.23675596714019775
0.83710819482803345 0.15028373897075653 0.22894980013370514
0.85212546586990356 0.14450331032276154 0.22693754732608795
0.87347692251205444 0.12640151381492615 0.21964925527572632
0.89595592021942139 0.11412950605154037 0.21090294420719147
0.91925203800201416 0.1162179708480835 0.210926353931427
0.94443297386169434 0.10617396235466003 0.20741184055805206
0.96809035539627075 0.10332264751195908 0.20760875940322876
0.98737150430679321 0.10937241464853287 0.21057772636413574
0.99690103530883789 0.13188754022121429 0.22104842960834503
0.99994957447052002 0.15383355319499969 0.23244042694568634
0.8801308274269104 0.26214617490768433 0.31619292497634888
0.88150274753570557 0.25259798765182495 0.30917909741401672
0.88970768451690674 0.24424037337303162 0.3013853132724762
0.89849722385406494 0.23856370151042938 0.29863151907920837
0.91051673889160156 0.232185959815979 0.29349479079246521
0.92575728893280029 0.2259480357170105 0.28672194480895996
0.94255673885345459 0.20972524583339691 0.27360266447067261
0.95805150270462036 0.20217366516590118 0.26871350407600403
0.97243368625640869 0.19582220911979675 0.2650509774684906
0.98713523149490356 0.19004327058792114 0.26092463731765747
0.99684149026870728 0.18049825727939606 0.25374820828437805
1 0.1881965845823288 0.2539670467376709
1 0.20094232261180878 0.2599966824054718
0.94051545858383179 0.32993388175964355 0.37584048509597778
0.93672376871109009 0.32265156507492065 0.37005287408828735
0.94153821468353271 0.32156354188919067 0.36856329441070557
0.95156294107437134 0.32284057140350342 0.36895632743835449
0.96025323867797852 0.31335747241973877 0.35988977551460266
0.97108030319213867 0.30392223596572876 0.35021698474884033
0.97949618101119995 0.29478967189788818 0.34182259440422058
0.98706203699111938 0.2882087230682373 0.33570599555969238
0.98973238468170166 0.27549499273300171 0.32501962780952454
0.99477690458297729 0.26796519756317139 0.31859669089317322
0.99864399433135986 0.26153525710105896 0.31280264258384705
1 0.26398351788520813 0.30917283892631531
1 0.26476776599884033 0.30691137909889221
0.97903847694396973 0.38755893707275391 0.42795756459236145
0.97138875722885132 0.38182720541954041 0.4240303635597229
0.97284597158432007 0.38243725895881653 0.42390799522399902
0.97513329982757568 0.38109159469604492 0.42137905955314636
0.98509871959686279 0.37417131662368774 0.41331440210342407
0.99350547790527344 0.36680960655212402 0.40498483180999756
0.99485588073730469 0.35732370615005493 0.39562419056892395
0.99581640958786011 0.34850737452507019 0.3864625096321106
0.99796390533447266 0.34208327531814575 0.37927696108818054
0.99964344501495361 0.33930844068527222 0.37529900670051575
1 0.33712393045425415 0.37215828895568848
1 0.33558696508407593 0.3685247004032135
1 0.33273464441299438 0.36180856823921204
0.99222517013549805 0.43326672911643982 0.47123426198959351
0.99256670475006104 0.43050548434257507 0.46899664402008057
0.99152153730392456 0.42977672815322876 0.46812427043914795
0.98853284120559692 0.42856976389884949 0.46586954593658447
0.99188530445098877 0.42475655674934387 0.46035575866699219
0.99610275030136108 0.41795015335083008 0.45273318886756897
0.99719923734664917 0.40850460529327393 0.44234740734100342
0.99945235252380371 0.39954933524131775 0.43275183439254761
1 0.39440235495567322 0.42632260918617249
1 0.39471897482872009 0.42463558912277222
1 0.39515620470046997 0.4233546257019043
1 0.39317023754119873 0.41857287287712097
1 0.38727602362632751 0.41026315093040466
0.99602013826370239 0.47533479332923889 0.5114402174949646
0.99860793352127075 0.47342169284820557 0.51003223657608032
0.99896806478500366 0.4722665548324585 0.50770419836044312
0.99750030040740967 0.4721178412437439 0.50671029090881348
0.99786084890365601 0.47098365426063538 0.5031658411026001
0.99936598539352417 0.46552607417106628 0.49691352248191833
1 0.45685610175132751 0.48712137341499329
1 0.44811880588531494 0.4777064323425293
1 0.44420051574707031 0.47224500775337219
1 0.44459930062294006 0.47085651755332947
1 0.44299525022506714 0.46692955493927002
1 0.43868976831436157 0.45994225144386292
1 0.43268993496894836 0.45176547765731812
0.99835938215255737 0.5179065465927124 0.55019718408584595
0.99999570846557617 0.51543068885803223 0.54860204458236694
1 0.5139736533164978 0.54692816734313965
1 0.51368808746337891 0.54573935270309448
1 0.51114529371261597 0.54138857126235962
1 0.50664913654327393 0.53494644165039062
1 0.50243300199508667 0.52946233749389648
1 0.49636402726173401 0.5220416784286499
1 0.49300447106361389 0.51745271682739258
1 0.49113482236862183 0.51382380723953247
1 0.48532947897911072 0.50680840015411377
1 0.47915464639663696 0.49790850281715393
1 0.47361227869987488 0.4900628924369812
1 0.55594426393508911 0.58574408292770386
1 0.55239629745483398 0.58307111263275146
1 0.54993683099746704 0.58089733123779297
1 0.54778885841369629 0.57756978273391724
1 0.54584842920303345 0.57400774955749512
1 0.54149359464645386 0.56786650419235229
1 0.53977477550506592 0.56446385383605957
1 0.54106754064559937 0.56350898742675781
1 0.5367550253868103 0.55773591995239258
1 0.52658897638320923 0.54654192924499512
1 0.51874017715454102 0.53730463981628418
1 0.51325255632400513 0.52998274564743042
1 0.51069813966751099 0.52471566200256348
0.018272833898663521 0.13424675166606903 0.14975826442241669
0.033237695693969727 0.1283816397190094 0.14273220300674438
0.077400147914886475 0.12130653858184814 0.1348792165517807
0.18031008541584015 0.10744848847389221 0.12379789352416992
0.31183335185050964 0.079916231334209442 0.11066222935914993
0.4387814998626709 0.042560279369354248 0.095062121748924255
0.55555576086044312 0.015938613563776016 0.087083436548709869
0.66289103031158447 0.0037344987504184246 0.088750876486301422
0.74649661779403687 0.00016258089453913271 0.098275430500507355
0.81058299541473389 0.0018622903153300285 0.11091107875108719
0.86285227537155151 0.0050713485106825829 0.13147389888763428
0.90825062990188599 0.0091103352606296539 0.15111668407917023
0.94208258390426636 0.012561514042317867 0.16534768044948578
0.081933386623859406 0.14959660172462463 0.16655179858207703
0.12036211788654327 0.14405757188796997 0.16182702779769897
0.18879367411136627 0.13405446708202362 0.15432226657867432
0.29017689824104309 0.11203709244728088 0.14009301364421844
0.40019631385803223 0.079009503126144409 0.12332748621702194
0.5056646466255188 0.042149577289819717 0.10553742945194244
0.6009070873260498 0.016870206221938133 0.09547366201877594
0.69521325826644897 0.002802171977236867 0.092999041080474854
0.76753365993499756 9.5771341875661165e-05 0.10306694358587265
0.82454109191894531 0.0022032046690583229 0.11561189591884613
0.87283462285995483 0.0084583209827542305 0.13730737566947937
0.91602534055709839 0.016230924054980278 0.15573886036872864
0.94835978746414185 0.023483516648411751 0.16964256763458252
0.27573230862617493 0.17030400037765503 0.19740462303161621
0.3125307559967041 0.16226844489574432 0.19205623865127563
0.37072029709815979 0.14760677516460419 0.18284237384796143
0.44574069976806641 0.12217516452074051 0.16843710839748383
0.52669572830200195 0.087103314697742462 0.14920644462108612
0.60398411750793457 0.053120706230401993 0.12965638935565948
0.6821931004524231 0.021316932514309883 0.11278246343135834
0.7533334493637085 0.0067481244914233685 0.1061626672744751
0.80952465534210205 0.0008326810784637928 0.11267147958278656
0.85527253150939941 0.0038618200924247503 0.12797798216342926
0.89557492733001709 0.011338626965880394 0.14712049067020416
0.9330936074256897 0.026762060821056366 0.16458193957805634
0.96062296628952026 0.042241744697093964 0.17874214053153992
0.4865759015083313 0.19106659293174744 0.23562955856323242
0.51196068525314331 0.18168477714061737 0.22889463603496552
0.55156034231185913 0.16787919402122498 0.21958088874816895
0.60191524028778076 0.14283442497253418 0.20469683408737183
0.65549522638320923 0.11355522274971008 0.18651652336120605
0.70838069915771484 0.078772000968456268 0.16531983017921448
0.7620539665222168 0.042811226099729538 0.14269250631332397
0.81592470407485962 0.015550411306321621 0.12849366664886475
0.8595002293586731 0.0039899786934256554 0.13147921860218048
0.895527184009552 0.0057280445471405983 0.14505629241466522
0.92716282606124878 0.010085371322929859 0.15959295630455017
0.9568895697593689 0.036365896463394165 0.17676517367362976
0.97983348369598389 0.071630038321018219 0.19148683547973633
0.65515506267547607 0.22464330494403839 0.27711889147758484
0.67116093635559082 0.21765512228012085 0.27182993292808533
0.69380003213882446 0.20548513531684875 0.26419132947921753
0.71956580877304077 0.18370509147644043 0.24903573095798492
0.76005977392196655 0.1543729305267334 0.22985132038593292
0.7966805100440979 0.11661679297685623 0.20968768000602722
0.83267879486083984 0.079170435667037964 0.18491253256797791
0.87037020921707153 0.059672784060239792 0.17141702771186829
0.90736174583435059 0.028122382238507271 0.16170918941497803
0.93629872798919678 0.027993490919470787 0.16866494715213776
0.96165996789932251 0.043367978185415268 0.17978590726852417
0.98228305578231812 0.077362909913063049 0.19543448090553284
0.99627101421356201 0.11109813302755356 0.20915499329566956
0.77010065317153931 0.27235627174377441 0.32313019037246704
0.77358353137969971 0.26401925086975098 0.31707900762557983
0.79156386852264404 0.25259032845497131 0.30795413255691528
0.81249755620956421 0.23851494491100311 0.2972712516784668
0.83552879095077515 0.21699517965316772 0.28157505393028259
0.86330950260162354 0.18519303202629089 0.2586117684841156
0.89122307300567627 0.15493588149547577 0.2372271865606308
0.92068016529083252 0.13293130695819855 0.22259418666362762
0.94694381952285767 0.11072755604982376 0.21042275428771973
0.96988779306411743 0.10705289989709854 0.20991635322570801
0.98929512500762939 0.10733931511640549 0.2089863121509552
0.99675559997558594 0.13304495811462402 0.22096444666385651
0.99970155954360962 0.15498323738574982 0.23215629160404205
0.84815704822540283 0.32445937395095825 0.37277790904045105
0.85239940881729126 0.31386277079582214 0.36366632580757141
0.86824989318847656 0.30508854985237122 0.35567334294319153
0.88045585155487061 0.2960948646068573 0.34840956330299377
0.89680838584899902 0.28062814474105835 0.33425357937812805
0.91512453556060791 0.25738674402236938 0.31381568312644958
0.93899250030517578 0.23752674460411072 0.29679927229881287
0.96266955137252808 0.21717476844787598 0.28148803114891052
0.97703588008880615 0.20499126613140106 0.27019938826560974
0.98921287059783936 0.1946403831243515 0.26281881332397461
0.99773716926574707 0.17955747246742249 0.25245773792266846
1 0.19232548773288727 0.25597316026687622
1 0.20232056081295013 0.260019451379776
0.9159051775932312 0.37201634049415588 0.41632530093193054
0.91824430227279663 0.36242133378982544 0.40810903906822205
0.93053305149078369 0.35554963350296021 0.40116146206855774
0.94193226099014282 0.3498845100402832 0.39534175395965576
0.94975775480270386 0.34100010991096497 0.38635623455047607
0.96360546350479126 0.32614237070083618 0.37143906950950623
0.98038190603256226 0.31152251362800598 0.35711365938186646
0.99081867933273315 0.29660165309906006 0.34258434176445007
0.99206358194351196 0.28320187330245972 0.33028164505958557
0.99509400129318237 0.27368411421775818 0.32231611013412476
0.9986606240272522 0.2651461660861969 0.31442528963088989
1 0.26584729552268982 0.3100380003452301
1 0.2661527693271637 0.30682426691055298
0.96782499551773071 0.40679511427879333 0.44764032959938049
0.96055525541305542 0.40611693263053894 0.44812428951263428
0.96512031555175781 0.39998084306716919 0.44229993224143982
0.96911609172821045 0.3957277238368988 0.43696892261505127
0.97899514436721802 0.38991290330886841 0.42987701296806335
0.9893043041229248 0.38093671202659607 0.41940811276435852
0.99202620983123779 0.36982151865959167 0.4082704484462738
0.99510645866394043 0.3574414849281311 0.3952157199382782
0.9983832836151123 0.3466554582118988 0.38300573825836182
0.9991229772567749 0.34176337718963623 0.37737876176834106
0.99988353252410889 0.33729887008666992 0.37151890993118286
1 0.33423194289207458 0.3661549985408783
1 0.33189636468887329 0.36030182242393494
0.98688501119613647 0.44660985469818115 0.48556232452392578
0.98875027894973755 0.44402310252189636 0.48404636979103088
0.98788535594940186 0.44237366318702698 0.48180806636810303
0.98445457220077515 0.44016394019126892 0.4781767725944519
0.98768311738967896 0.43438959121704102 0.47093385457992554
0.9938046932220459 0.4267861545085907 0.46189874410629272
0.99557757377624512 0.41747477650642395 0.45207452774047852
0.99811536073684692 0.40705302357673645 0.44064471125602722
0.99971038103103638 0.39974063634872437 0.43141508102416992
1 0.39636299014091492 0.42589190602302551
1 0.39377963542938232 0.42106664180755615
1 0.39078214764595032 0.41523373126983643
1 0.3852786123752594 0.40784338116645813
0.99246871471405029 0.48653671145439148 0.52391499280929565
0.99646967649459839 0.48512506484985352 0.522960364818573
0.99713259935379028 0.48433232307434082 0.52168047428131104
0.99625545740127563 0.48140606284141541 0.51672458648681641
0.99747163057327271 0.47489660978317261 0.50783622264862061
0.99907666444778442 0.46884831786155701 0.50041472911834717
0.99911022186279297 0.46304011344909668 0.49403631687164307
0.99944621324539185 0.45577517151832581 0.48545184731483459
0.9999697208404541 0.45027777552604675 0.47854045033454895
1 0.44710034132003784 0.47309160232543945
1 0.44206255674362183 0.46546977758407593
1 0.43653443455696106 0.45732012391090393
1 0.43173748254776001 0.45006749033927917
0.99728047847747803 0.52510744333267212 0.55904108285903931
0.99833613634109497 0.52587747573852539 0.56094551086425781
0.99886572360992432 0.52526867389678955 0.5601995587348938
0.9994310736656189 0.52068823575973511 0.55323004722595215
0.99993288516998291 0.51576519012451172 0.54625672101974487
1 0.51084166765213013 0.54007804393768311
1 0.50763332843780518 0.5354081392288208
1 0.50265753269195557 0.52873486280441284
1 0.49860873818397522 0.52317315340042114
1 0.49356982111930847 0.51665651798248291
1 0.48651978373527527 0.50752717256546021
1 0.47936990857124329 0.4979710578918457
1 0.4732133150100708 0.48895829916000366
1 0.55367231369018555 0.58538389205932617
1 0.56055730581283569 0.59346336126327515
1 0.55922311544418335 0.59181559085845947
1 0.55378907918930054 0.58365225791931152
1 0.55039125680923462 0.57851344347000122
1 0.54757440090179443 0.57462501525878906
1 0.54639279842376709 0.57256555557250977
1 0.54572772979736328 0.57004719972610474
1 0.53755956888198853 0.55943953990936279
1 0.52843362092971802 0.54891955852508545
1 0.52094626426696777 0.53998112678527832
1 0.51501119136810303 0.5315781831741333
1 0.5109332799911499 0.52492213249206543
0.0089556528255343437 0.28290548920631409 0.32089805603027344
0.012715642340481281 0.27785959839820862 0.31344234943389893
0.011783883906900883 0.27653995156288147 0.31003230810165405
0.026123644784092903 0.27117788791656494 0.30234375596046448
0.10681650787591934 0.26139551401138306 0.29250487685203552
0.26806753873825073 0.24366837739944458 0.27762457728385925
0.45406046509742737 0.2061179131269455 0.25236266851425171
0.61470288038253784 0.14816193282604218 0.21550101041793823
0.72577840089797974 0.093993291258811951 0.18234145641326904
0.80622953176498413 0.052883658558130264 0.15751373767852783
0.86541122198104858 0.024328973144292831 0.14937452971935272
0.91179162263870239 0.011529376730322838 0.15653024613857269
0.94403880834579468 0.014565067365765572 0.16672134399414062
0.015101414173841476 0.29426610469818115 0.32995092868804932
0.020489636808633804 0.28969833254814148 0.32380542159080505
0.034622911363840103 0.28678831458091736 0.31980669498443604
0.081663660705089569 0.28189665079116821 0.3149646520614624
0.19386546313762665 0.27025440335273743 0.30367323756217957
0.34774976968765259 0.25150838494300842 0.28849008679389954
0.50205790996551514 0.2126380056142807 0.26199173927307129
0.64678782224655151 0.15441226959228516 0.22412925958633423
0.74545371532440186 0.10219424217939377 0.19062940776348114
0.81736165285110474 0.05473390594124794 0.16322220861911774
0.87225842475891113 0.02773284912109375 0.15486128628253937
0.91746050119400024 0.015484544448554516 0.15939232707023621
0.94781374931335449 0.022232834249734879 0.1708509773015976
0.079671822488307953 0.310951828956604 0.34611085057258606
0.10071144998073578 0.31016194820404053 0.34427472949028015
0.14977127313613892 0.30636546015739441 0.34018546342849731
0.23592369258403778 0.29875835776329041 0.33351951837539673
0.34470576047897339 0.28591135144233704 0.3225017786026001
0.46321955323219299 0.26596471667289734 0.30650597810745239
0.58528262376785278 0.22749702632427216 0.28086137771606445
0.70227932929992676 0.17621380090713501 0.24478627741336823
0.78357118368148804 0.12119999527931213 0.209385946393013
0.84507912397384644 0.067526906728744507 0.17875288426876068
0.89403784275054932 0.036870095878839493 0.16680784523487091
0.93354910612106323 0.029611160978674889 0.17102089524269104
0.96072280406951904 0.038732193410396576 0.18035635352134705
0.29786482453346252 0.33007112145423889 0.36805859208106995
0.32409718632698059 0.32912546396255493 0.36587607860565186
0.36720046401023865 0.32447603344917297 0.36155992746353149
0.42588692903518677 0.31727805733680725 0.35547360777854919
0.49819141626358032 0.30484265089035034 0.34513148665428162
0.5841938853263855 0.28523623943328857 0.32969343662261963
0.67388558387756348 0.25318136811256409 0.30664247274398804
0.7633557915687561 0.20188131928443909 0.27080947160720825
0.8300899863243103 0.14660723507404327 0.23383602499961853
0.88149833679199219 0.093537122011184692 0.2026183158159256
0.92311519384384155 0.05843619629740715 0.18667101860046387
0.95692050457000732 0.05615774542093277 0.18768277764320374
0.98091363906860352 0.078444764018058777 0.19540023803710938
0.49292469024658203 0.35070416331291199 0.39162132143974304
0.51062917709350586 0.34938421845436096 0.38997578620910645
0.53605949878692627 0.34570786356925964 0.38648608326911926
0.57554256916046143 0.3380810022354126 0.37961351871490479
0.63089913129806519 0.32764706015586853 0.37100958824157715
0.69037717580795288 0.30987679958343506 0.35708397626876831
0.75427639484405518 0.28314736485481262 0.33594816923141479
0.82142347097396851 0.24115630984306335 0.30449014902114868
0.87496525049209595 0.18678213655948639 0.26753091812133789
0.91756361722946167 0.13744018971920013 0.23437970876693726
0.95418798923492432 0.10567118227481842 0.21382249891757965
0.9823840856552124 0.10247400403022766 0.20749947428703308
0.9973452091217041 0.11752301454544067 0.21239712834358215
0.63989365100860596 0.37534108757972717 0.41908347606658936
0.64720743894577026 0.37099292874336243 0.41571125388145447
0.66473907232284546 0.36948105692863464 0.41322851181030273
0.70113247632980347 0.36475580930709839 0.40831515192985535
0.73543912172317505 0.35245388746261597 0.39741182327270508
0.77691924571990967 0.33880689740180969 0.38657012581825256
0.82431638240814209 0.31614896655082703 0.36802276968955994
0.87714928388595581 0.2816985547542572 0.33923441171646118
0.91613477468490601 0.23839366436004639 0.30617746710777283
0.95202308893203735 0.19649338722229004 0.27297484874725342
0.98191910982131958 0.16368962824344635 0.24562327563762665
0.99608123302459717 0.15846565365791321 0.23699809610843658
0.99988365173339844 0.1650061160326004 0.23736274242401123
0.75534045696258545 0.40698921680450439 0.45209550857543945
0.76003766059875488 0.39971315860748291 0.44660300016403198
0.77589589357376099 0.39724671840667725 0.4441511332988739
0.79992353916168213 0.3940466046333313 0.44014570116996765
