assets/lut/picturefx goldfx perfect sunset 10min.cube
# Created by: G'MIC (https://gmic.eu)
TITLE "goldfx_perfect_sunset_10min"
# LUT size
LUT_3D_SIZE 5
# Data domain
DOMAIN_MIN 0.0 0.0 0.0
DOMAIN_MAX 1.0 1.0 1.0
# LUT data points
0.0048021203838288784 0.0064458209089934826 0.0065949833951890469
0.13001696765422821 0.0055566076189279556 0.0026509154122322798
0.35334771871566772 0.005792700219899416 0.0041678636334836483
0.58126527070999146 0.00090545951388776302 0.0005676568835042417
0.87269741296768188 0 0
0.0027975044213235378 0.15688450634479523 0.00068682502023875713
0.14950850605964661 0.15501800179481506 0
0.35553997755050659 0.14627255499362946 0
0.59189838171005249 0.088706746697425842 0
0.88221192359924316 0.007935602217912674 0
0.003064518328756094 0.37430694699287415 0
0.063886247575283051 0.3748515248298645 0
0.35309317708015442 0.37623122334480286 0
0.61031758785247803 0.35657152533531189 0
0.8947862982749939 0.26543843746185303 0
0.00044976029312238097 0.64350211620330811 0
0.008875708095729351 0.64104545116424561 0
0.23269444704055786 0.62627458572387695 0
0.56010037660598755 0.61527597904205322 0
0.83789581060409546 0.58380734920501709 0
0 0.87322384119033813 0
0 0.87058740854263306 0
0.041795305907726288 0.85169446468353271 0
0.51628130674362183 0.82952606678009033 0
0.7667275071144104 0.80936092138290405 0
0.0056584528647363186 0.0074488623067736626 0.14030666649341583
0.16022780537605286 0.00085754395695403218 0.16841024160385132
0.38889423012733459 0 0.16636544466018677
0.63277047872543335 0 0.12871970236301422
0.91367477178573608 0 0.084441810846328735
0 0.16176290810108185 0.16410353779792786
0.14213941991329193 0.14593957364559174 0.1482512354850769
0.39822757244110107 0.076932422816753387 0.11879961937665939
0.67192578315734863 0.0089998282492160797 0.082138970494270325
0.97168481349945068 2.5850184101727791e-05 0.032217450439929962
0 0.39093771576881409 0.040261033922433853
0.027377752587199211 0.3899100124835968 0.015168013982474804
0.35523000359535217 0.37729302048683167 0.015544023364782333
0.6427655816078186 0.33179211616516113 0.0036861344706267118
0.93758833408355713 0.18522906303405762 0.0013830147217959166
0 0.66332179307937622 0.0023437500931322575
0.0028270198963582516 0.65960943698883057 0.00063145958120003343
0.11933394521474838 0.63911157846450806 0
0.5595782995223999 0.61703294515609741 0
0.86066752672195435 0.5805964469909668 0
0 0.88780564069747925 0
0 0.88411277532577515 0
0.069305136799812317 0.86303341388702393 0
0.5126151442527771 0.83034420013427734 0
0.76697993278503418 0.81351989507675171 0
2.6927275030175224e-05 0.0064470027573406696 0.6651732325553894
0.2019420862197876 0 0.5796857476234436
0.53472912311553955 0 0.56608748435974121
0.87218397855758667 0 0.52965003252029419
0.99724513292312622 0 0.4752027690410614
0 0.21793453395366669 0.68407547473907471
0.12939780950546265 0.14940075576305389 0.65321987867355347
0.59341812133789062 0.046911187469959259 0.62021559476852417
0.94806331396102905 0.0012243383098393679 0.51970815658569336
0.99857038259506226 0.00022439395252149552 0.45362654328346252
0 0.53865945339202881 0.56607067584991455
0.0010343514150008559 0.53172731399536133 0.5534173846244812
0.4650760293006897 0.4809207022190094 0.48540416359901428
0.9024232029914856 0.32808879017829895 0.38124793767929077
0.99936366081237793 0.18121133744716644 0.3122408390045166
0 0.8418695330619812 0.31872370839118958
0 0.83562380075454712 0.2432790994644165
0.099247291684150696 0.8104056715965271 0.11995565146207809
0.73834061622619629 0.75718355178833008 0.076601661741733551
0.99108779430389404 0.68528860807418823 0.11485794931650162
0 0.99103224277496338 0.031786076724529266
0 0.98316913843154907 0.026978196576237679
0.010517270304262638 0.9854845404624939 0.01980183832347393
0.55572909116744995 0.95835870504379272 0.0065728579647839069
0.91380304098129272 0.92495125532150269 0.00073325959965586662
0.01429335679858923 0.0021119359880685806 0.99981725215911865
0.13378576934337616 0 0.99909067153930664
0.67193925380706787 0 0.98873615264892578
0.99145233631134033 0 0.98653817176818848
1 0 0.95814621448516846
0.0033587436191737652 0.1592356264591217 1
0.23546858131885529 0.068513549864292145 1
0.7347184419631958 0.019912704825401306 0.99871450662612915
0.99538320302963257 0.00023511999461334199 0.99188077449798584
1 3.6755729524884373e-05 0.97090727090835571
0 0.61285179853439331 0.99909228086471558
0.0058820387348532677 0.57630789279937744 0.99759358167648315
0.48301872611045837 0.47139385342597961 0.99540090560913086
0.9740607738494873 0.30047893524169922 0.97353577613830566
1 0.10041461884975433 0.88646531105041504
0 0.91305577754974365 0.92519640922546387
0 0.90034043788909912 0.90629130601882935
0.053165975958108902 0.87114447355270386 0.87645810842514038
0.80084621906280518 0.80197274684906006 0.80055320262908936
0.99772745370864868 0.68298137187957764 0.68288493156433105
0 0.99893790483474731 0.69819402694702148
0 0.99890536069869995 0.67982012033462524
0.0091206571087241173 0.9989359974861145 0.61089253425598145
0.5250048041343689 0.99741101264953613 0.53339773416519165
0.96754080057144165 0.97102242708206177 0.4341825544834137
0.28308513760566711 0.0010639564134180546 1
0.45615890622138977 0 1
0.72471553087234497 0 1
0.96908462047576904 0 1
0.99913328886032104 0 0.99846816062927246
0.27946949005126953 0.034067776054143906 1
0.48890063166618347 0.018082069233059883 1
0.78612089157104492 0.013726881705224514 1
0.99339067935943604 0.0049695782363414764 0.99946540594100952
1 0.0062277847900986671 0.99217784404754639
0.0018393273930996656 0.51446735858917236 1
0.16893932223320007 0.47887837886810303 1
0.63593524694442749 0.3853151798248291 1
0.97313600778579712 0.19441279768943787 1
1 0.040491726249456406 0.99993103742599487
0 0.83319956064224243 1
0 0.82060092687606812 1
0.079472564160823822 0.77583861351013184 1
0.71260964870452881 0.68818181753158569 0.99979621171951294
0.99127429723739624 0.60022008419036865 0.99421238899230957
0 0.99649053812026978 0.99450922012329102
0 0.9950675368309021 0.98989111185073853
0.00068619672674685717 0.98358464241027832 0.97827672958374023
0.39788579940795898 0.96944665908813477 0.96903532743453979
0.92041325569152832 0.92150551080703735 0.92053687572479248
