assets/lut/picturefx goldfx spring breeze.cube
# Created by: G'MIC (https://gmic.eu)
TITLE "goldfx_spring_breeze"
# LUT size
LUT_3D_SIZE 13
# Data domain
DOMAIN_MIN 0.0 0.0 0.0
DOMAIN_MAX 1.0 1.0 1.0
# LUT data points
0.016891030594706535 0.038390651345252991 0.029820984229445457
0.050920940935611725 0.039883632212877274 0.029264757409691811
0.11889950931072235 0.050567597150802612 0.033647604286670685
0.19758230447769165 0.055505700409412384 0.037829171866178513
0.28167816996574402 0.055822934955358505 0.041287872940301895
0.38000565767288208 0.054064191877841949 0.048966396600008011
0.47802889347076416 0.045021265745162964 0.055088505148887634
0.57074421644210815 0.024701496586203575 0.057317279279232025
0.65684795379638672 0.023106683045625687 0.062657482922077179
0.74122053384780884 0.035024873912334442 0.068665474653244019
0.81606411933898926 0.069179147481918335 0.074162274599075317
0.89315623044967651 0.11594000458717346 0.085341267287731171
0.96485412120819092 0.17197829484939575 0.099396452307701111
0.0099609820172190666 0.092400841414928436 0.031742949038743973
0.042592484503984451 0.0955071821808815 0.02954133041203022
0.11682399362325668 0.097792744636535645 0.031167753040790558
0.2067338228225708 0.10198044031858444 0.036614902317523956
0.29215648770332336 0.10312195122241974 0.039027567952871323
0.39038673043251038 0.10176815092563629 0.048628401011228561
0.48406162858009338 0.09512658417224884 0.054797377437353134
0.57278358936309814 0.085358276963233948 0.057104717940092087
0.66212213039398193 0.086421117186546326 0.062899872660636902
0.74542295932769775 0.097226344048976898 0.068428337574005127
0.82357281446456909 0.12284258753061295 0.075607031583786011
0.89656800031661987 0.16033332049846649 0.087057344615459442
0.95810467004776001 0.19679421186447144 0.098500289022922516
0.0029815374873578548 0.1630348414182663 0.039777405560016632
0.021505767479538918 0.16548502445220947 0.036331702023744583
0.10425899922847748 0.16625656187534332 0.026496617123484612
0.21023993194103241 0.17199358344078064 0.026816947385668755
0.3065083920955658 0.1766272634267807 0.034992396831512451
0.40839627385139465 0.18126241862773895 0.049330152571201324
0.5042380690574646 0.17645984888076782 0.056119222193956375
0.59506142139434814 0.16761781275272369 0.062240868806838989
0.67714834213256836 0.17216292023658752 0.065934307873249054
0.7553093433380127 0.18387444317340851 0.069241389632225037
0.83222073316574097 0.2059246301651001 0.07703748345375061
0.90597033500671387 0.23866328597068787 0.092019356787204742
0.97235280275344849 0.26683342456817627 0.10751975327730179
0.0011559430276975036 0.23704786598682404 0.044519342482089996
0.0093904836103320122 0.238543301820755 0.0418991819024086
0.082388937473297119 0.2407720685005188 0.031986866146326065
0.20134355127811432 0.24653527140617371 0.018952298909425735
0.30712172389030457 0.2515408992767334 0.019980635493993759
0.41313824057579041 0.25861474871635437 0.036023575812578201
0.51712000370025635 0.26385581493377686 0.050651416182518005
0.61410164833068848 0.26623672246932983 0.061615902930498123
0.69242429733276367 0.27171558141708374 0.067270241677761078
0.7694970965385437 0.28060421347618103 0.07255389541387558
0.84254944324493408 0.29674944281578064 0.081587471067905426
0.91233408451080322 0.32268983125686646 0.099427424371242523
0.97590607404708862 0.3444875180721283 0.11671082675457001
5.5290671298280358e-05 0.30983364582061768 0.044023506343364716
0.0035653058439493179 0.30782273411750793 0.045196428894996643
0.057823061943054199 0.3058629035949707 0.042058337479829788
0.18531531095504761 0.31264898180961609 0.027903657406568527
0.29267892241477966 0.31852224469184875 0.01013635378330946
0.39650622010231018 0.32030364871025085 0.010503522120416164
0.50236934423446655 0.33119463920593262 0.022668994963169098
0.61537450551986694 0.34806528687477112 0.044032976031303406
0.70677846670150757 0.36135104298591614 0.063300579786300659
0.78037089109420776 0.37456420063972473 0.076669536530971527
0.84815239906311035 0.38434180617332458 0.088269419968128204
0.91726356744766235 0.4023585319519043 0.10621390491724014
0.96865630149841309 0.41793408989906311 0.12163288146257401
0 0.3773617148399353 0.044224534183740616
0.0025189868174493313 0.37364909052848816 0.046052761375904083
0.038726102560758591 0.36735996603965759 0.047168642282485962
0.15882977843284607 0.3701932430267334 0.035230286419391632
0.26783841848373413 0.37654855847358704 0.013371530920267105
0.37433335185050964 0.38321763277053833 0.0068165799602866173
0.4779125452041626 0.39139619469642639 0.013086940161883831
0.58265668153762817 0.40400964021682739 0.021738134324550629
0.68572676181793213 0.42174151539802551 0.02711772546172142
0.77095335721969604 0.44559961557388306 0.055848408490419388
0.85021984577178955 0.46645724773406982 0.092411845922470093
0.91237860918045044 0.480947345495224 0.11483100801706314
0.95650345087051392 0.4916166365146637 0.13367801904678345
0 0.44116899371147156 0.040498323738574982
0.004381231963634491 0.43539315462112427 0.042407825589179993
0.032120048999786377 0.43085631728172302 0.047593690454959869
0.13442334532737732 0.42681029438972473 0.03732631728053093
0.24930694699287415 0.43017756938934326 0.020044334232807159
0.35140201449394226 0.43954122066497803 0.0088617065921425819
0.44914311170578003 0.44709998369216919 0.006795546505600214
0.54561853408813477 0.44858506321907043 0.0056583331897854805
0.64722388982772827 0.46669545769691467 0.0041804742068052292
0.74439156055450439 0.49588719010353088 0.012222514487802982
0.82928699254989624 0.52423417568206787 0.047271668910980225
0.9043005108833313 0.55207067728042603 0.099263571202754974
0.95973610877990723 0.57088690996170044 0.15209195017814636
0.0019701041746884584 0.50922513008117676 0.030028669163584709
0.0046416488476097584 0.50302523374557495 0.032221101224422455
0.030366411432623863 0.49701112508773804 0.035719987004995346
0.12790842354297638 0.48593714833259583 0.034430995583534241
0.23486694693565369 0.48325315117835999 0.026001904159784317
0.33193850517272949 0.49147355556488037 0.012078064493834972
0.42442759871482849 0.5002518892288208 0.0044673099182546139
0.51757073402404785 0.50715923309326172 0.00026750750839710236
0.61244285106658936 0.51694202423095703 0.00095075718127191067
0.70463418960571289 0.53796744346618652 0.0030705619137734175
0.79531145095825195 0.56906974315643311 0.012572015635669231
0.88463091850280762 0.60622549057006836 0.037433207035064697
0.95667695999145508 0.63630300760269165 0.12250462174415588
0.0038284750189632177 0.57665550708770752 0.015646645799279213
0.007778421975672245 0.571857750415802 0.012583534233272076
0.041652169078588486 0.56484782695770264 0.014808430336415768
0.13655093312263489 0.55586594343185425 0.018351759761571884
0.23472407460212708 0.55095279216766357 0.014520084485411644
0.32621279358863831 0.55315756797790527 0.0075602959841489792
0.41350886225700378 0.56051170825958252 0.0028296527452766895
0.50431478023529053 0.57082623243331909 0.00059519748901948333
0.5976942777633667 0.58446848392486572 0
0.67697083950042725 0.58910447359085083 0.00044579600216820836
0.7640419602394104 0.61144429445266724 0.0043757571838796139
0.85912072658538818 0.64927893877029419 0.0070480797439813614
0.93918716907501221 0.68466907739639282 0.035772018134593964
0.013646951876580715 0.64458739757537842 0.0038997277151793242
0.038070216774940491 0.64282482862472534 0.0026743870694190264
0.075334899127483368 0.63985413312911987 0.0034012438263744116
0.15522947907447815 0.63290107250213623 0.0057118432596325874
0.24795632064342499 0.62778407335281372 0.0056851105764508247
0.33792769908905029 0.62624013423919678 0.0041766446083784103
0.41999524831771851 0.6303563117980957 0.0020200691651552916
0.50377988815307617 0.63955551385879517 0.00035910512087866664
0.59260982275009155 0.65323430299758911 0
0.67447447776794434 0.66327416896820068 0
0.75369846820831299 0.67315000295639038 0.0003651487932074815
0.83828437328338623 0.69555091857910156 0.0023571688216179609
0.92606437206268311 0.7320600152015686 0.0076649682596325874
0.094496995210647583 0.73002737760543823 0.0048507987521588802
0.12407801300287247 0.73063784837722778 0.0055114296264946461
0.15541850030422211 0.72917634248733521 0.0054116640239953995
0.21462704241275787 0.72326546907424927 0.0054855644702911377
0.2842441201210022 0.71297240257263184 0.0036867179442197084
0.35577824711799622 0.70669841766357422 0.0019762825686484575
0.43682119250297546 0.71218228340148926 0.0046434737741947174
0.51781189441680908 0.72310137748718262 0.005063673947006464
0.60164254903793335 0.73390036821365356 0.0037925122305750847
0.68218666315078735 0.74642527103424072 0.0018523272592574358
0.75939851999282837 0.75722360610961914 0.00013816684077028185
0.83585250377655029 0.76662981510162354 4.6673944780195598e-06
0.91542190313339233 0.78773742914199829 0.00023687025532126427
0.22548291087150574 0.83163297176361084 0.014010635204613209
0.23639515042304993 0.83245968818664551 0.012902742251753807
0.25786870718002319 0.83082789182662964 0.018496779724955559
0.30513253808021545 0.82809239625930786 0.016826793551445007
0.35913735628128052 0.8217809796333313 0.013234097510576248
0.41642794013023376 0.81648224592208862 0.012242649681866169
0.48878765106201172 0.82152217626571655 0.02384897880256176
0.56420230865478516 0.83024966716766357 0.018985508009791374
0.64642083644866943 0.84258913993835449 0.013368643820285797
0.72266072034835815 0.85439938306808472 0.0084509607404470444
0.79251474142074585 0.86146926879882812 0.0044901231303811073
0.86477267742156982 0.86846637725830078 0.0041578854434192181
0.92322850227355957 0.872569739818573 0.011058582924306393
0.38126516342163086 0.93444222211837769 0.1609635055065155
0.37882953882217407 0.9328998327255249 0.15603451430797577
0.39229390025138855 0.93230682611465454 0.16213540732860565
0.42197591066360474 0.92923122644424438 0.15837371349334717
0.46620669960975647 0.92945575714111328 0.16383254528045654
0.51102250814437866 0.92803323268890381 0.15815030038356781
0.56493020057678223 0.93103063106536865 0.16465897858142853
0.63068944215774536 0.93273138999938965 0.14904105663299561
0.70212787389755249 0.93954974412918091 0.13203813135623932
0.77049905061721802 0.94496947526931763 0.11777079105377197
0.8377339243888855 0.94914925098419189 0.10619723796844482
0.90052908658981323 0.95462936162948608 0.087268978357315063
0.94008278846740723 0.95630687475204468 0.081541933119297028
0.0071839424781501293 0.046962648630142212 0.075661316514015198
0.043575555086135864 0.047477558255195618 0.077064484357833862
0.11566738039255142 0.05538259819149971 0.078230388462543488
0.20208302140235901 0.059071648865938187 0.081644691526889801
0.28767424821853638 0.057239606976509094 0.084013126790523529
0.38422331213951111 0.05663725733757019 0.092025235295295715
0.47822067141532898 0.048265077173709869 0.095706731081008911
0.56826239824295044 0.03122812882065773 0.097629353404045105
0.6533704400062561 0.025456087663769722 0.10035208612680435
0.73553746938705444 0.044334322214126587 0.10389464348554611
0.81361037492752075 0.074495799839496613 0.10737887769937515
0.89165723323822021 0.11602557450532913 0.11445511132478714
0.96471589803695679 0.17106367647647858 0.12205340713262558
0.0038964813575148582 0.10101445764303207 0.080887734889984131
0.034028325229883194 0.10054894536733627 0.08335450291633606
0.11938855051994324 0.098754093050956726 0.080712951719760895
0.21347518265247345 0.10201147943735123 0.082896828651428223
0.29785659909248352 0.10261543095111847 0.08430442214012146
0.39246612787246704 0.099813632667064667 0.091544777154922485
0.48458203673362732 0.093525007367134094 0.096777580678462982
0.57188695669174194 0.085087090730667114 0.09751930832862854
0.65992885828018188 0.081758581101894379 0.099569641053676605
0.74146395921707153 0.094235651195049286 0.10136986523866653
0.81998628377914429 0.1166447177529335 0.10639851540327072
0.89128512144088745 0.1470649242401123 0.11381526291370392
0.96313035488128662 0.19297471642494202 0.12378192692995071
0.00054337742039933801 0.16984014213085175 0.081529237329959869
0.020306665450334549 0.17120203375816345 0.084928594529628754
0.11007742583751678 0.16997449100017548 0.077590674161911011
0.21873974800109863 0.17103897035121918 0.076965957880020142
0.31630834937095642 0.17780463397502899 0.082207456231117249
0.41432386636734009 0.18087160587310791 0.094739831984043121
0.5058903694152832 0.17556171119213104 0.099876269698143005
0.59471851587295532 0.16948972642421722 0.10089700669050217
0.67687326669692993 0.17426499724388123 0.10214396566152573
0.7537769079208374 0.18433317542076111 0.10352974385023117
0.82929235696792603 0.19856223464012146 0.10711276531219482
0.90324932336807251 0.23031920194625854 0.11746954917907715
0.97015708684921265 0.26093548536300659 0.13011071085929871
0.00087658752454444766 0.24376247823238373 0.082672908902168274
0.0073386994190514088 0.24503330886363983 0.084112398326396942
0.079955726861953735 0.24536445736885071 0.076453879475593567
0.20876158773899078 0.25092288851737976 0.065102599561214447
0.31858837604522705 0.25593402981758118 0.066604629158973694
0.42223751544952393 0.26230144500732422 0.082322366535663605
0.52123153209686279 0.26437008380889893 0.095048896968364716
0.61177116632461548 0.26455017924308777 0.097999364137649536
0.69248872995376587 0.27083244919776917 0.1020285040140152
0.76824265718460083 0.27933767437934875 0.10623287409543991
0.83984553813934326 0.29191136360168457 0.10958590358495712
0.91070640087127686 0.31644770503044128 0.12181508541107178
0.97437179088592529 0.33885449171066284 0.13491502404212952
0.00019997989875264466 0.31699171662330627 0.081939220428466797
0.0050034318119287491 0.31712928414344788 0.082536987960338593
0.058283429592847824 0.31299769878387451 0.078282423317432404
0.18880176544189453 0.31776213645935059 0.065997794270515442
0.30068370699882507 0.3249727189540863 0.049076244235038757
0.4042460024356842 0.32528784871101379 0.043519381433725357
0.50915765762329102 0.3332197368144989 0.059367910027503967
0.61893582344055176 0.34902626276016235 0.081816159188747406
0.70627099275588989 0.35988134145736694 0.095133043825626373
0.7793731689453125 0.37122917175292969 0.10461654514074326
0.84617084264755249 0.38077232241630554 0.11218846589326859
0.91392570734024048 0.39696115255355835 0.12559203803539276
0.97408080101013184 0.41480728983879089 0.14028908312320709
0 0.38380259275436401 0.076102524995803833
0.0050388113595545292 0.38100585341453552 0.074188113212585449
0.042689424008131027 0.37420946359634399 0.075895734131336212
0.16305254399776459 0.37627169489860535 0.070419996976852417
0.27766317129135132 0.38406389951705933 0.052190907299518585
0.3793887197971344 0.3867306113243103 0.025298831984400749
0.47999536991119385 0.3928007185459137 0.024319952353835106
0.5859609842300415 0.4044729471206665 0.035362705588340759
0.68859517574310303 0.42282313108444214 0.048356898128986359
0.77494525909423828 0.44629356265068054 0.080418333411216736
0.85068756341934204 0.46361881494522095 0.10830456763505936
0.9139588475227356 0.47757202386856079 0.12822341918945312
0.97008097171783447 0.4918912947177887 0.15013960003852844
0 0.4400331974029541 0.064791031181812286
0.0052042193710803986 0.43718507885932922 0.064810328185558319
0.044594887644052505 0.4368150532245636 0.072612524032592773
0.14656926691532135 0.43126541376113892 0.06681525707244873
0.25709095597267151 0.4355815052986145 0.051354922354221344
0.35703611373901367 0.44195359945297241 0.024047387763857841
0.45206552743911743 0.44817841053009033 0.013302582316100597
0.55008560419082642 0.44857695698738098 0.0080522270873188972
0.6487116813659668 0.46702989935874939 0.014727499336004257
0.74759167432785034 0.49631592631340027 0.023685634136199951
0.83113545179367065 0.52461570501327515 0.062139056622982025
0.90972614288330078 0.55252206325531006 0.12015825510025024
0.96797734498977661 0.57119667530059814 0.16671162843704224
0.00010883106733672321 0.50090301036834717 0.045057632029056549
0.0059339334256947041 0.49605110287666321 0.045897211879491806
0.050282124429941177 0.49823924899101257 0.052110828459262848
0.13932426273822784 0.48895555734634399 0.048101149499416351
0.23770491778850555 0.4869377613067627 0.036222420632839203
0.33654972910881042 0.49424323439598083 0.016006873920559883
0.42935088276863098 0.50212657451629639 0.0098990797996520996
0.52146530151367188 0.50740265846252441 0.0052295462228357792
0.61389470100402832 0.51430165767669678 0.0031217089854180813
0.70678085088729858 0.53772121667861938 0.005381475668400526
0.8000866174697876 0.56836891174316406 0.01798635721206665
0.88960236310958862 0.60475867986679077 0.057581733912229538
0.96459269523620605 0.63900542259216309 0.14620015025138855
0.0023652021773159504 0.57047563791275024 0.019662385806441307
0.005236517172306776 0.56996113061904907 0.020999548956751823
0.048289265483617783 0.56711488962173462 0.019825175404548645
0.14622241258621216 0.55678045749664307 0.020630989223718643
0.23724645376205444 0.55207175016403198 0.013175994157791138
0.32482075691223145 0.5525435209274292 0.0053957323543727398
0.41714543104171753 0.5617142915725708 0.0056031020358204842
0.50796365737915039 0.57264053821563721 0.0043950397521257401
0.59878742694854736 0.5850178599357605 0.0018500384176149964
0.67797482013702393 0.58927488327026367 0.0010581072419881821
0.76490300893783569 0.61001425981521606 0.0054489434696733952
0.85848402976989746 0.64723902940750122 0.012535514310002327
0.94013071060180664 0.68471479415893555 0.06091327965259552
0.025724014267325401 0.64298975467681885 0.0051362430676817894
0.035437654703855515 0.64419198036193848 0.0058844024315476418
0.085222102701663971 0.64188998937606812 0.0071224137209355831
0.1660781055688858 0.63347351551055908 0.0060910242609679699
0.25486114621162415 0.62773579359054565 0.0049004796892404556
0.3379020094871521 0.62533962726593018 0.0043981214985251427
0.42290672659873962 0.63261175155639648 0.0038913502357900143
0.50632619857788086 0.64155465364456177 0.0033189661335200071
0.5933038592338562 0.65370535850524902 0.0014219695003703237
0.67468798160552979 0.66289597749710083 0.0012862262083217502
0.7529107928276062 0.67182284593582153 0.00053483550436794758
0.83804798126220703 0.69366639852523804 0.001256097573786974
0.92614740133285522 0.73233282566070557 0.011514551937580109
0.10970895737409592 0.73296159505844116 0.0063972324132919312
0.10936493426561356 0.73046553134918213 0.006885947659611702
0.15332114696502686 0.7293095588684082 0.0093253636732697487
0.21943451464176178 0.72140467166900635 0.0066876281052827835
0.28527683019638062 0.71217852830886841 0.0041400985792279243
0.35425123572349548 0.70701426267623901 0.0029703776817768812
0.43984889984130859 0.71583086252212524 0.0071908538229763508
0.52334058284759521 0.72550421953201294 0.0071986778639256954
0.60440415143966675 0.73546439409255981 0.0051177232526242733
0.68591129779815674 0.74862545728683472 0.0045743607915937901
0.76221370697021484 0.75964879989624023 0.0018236646428704262
0.83739513158798218 0.76774996519088745 4.727232862933306e-06
0.91794627904891968 0.7886853814125061 0.00051561242435127497
0.22995391488075256 0.83433133363723755 0.013367491774260998
0.23045268654823303 0.83357858657836914 0.015648128464818001
0.25632765889167786 0.83256417512893677 0.01975962333381176
0.30565083026885986 0.82798951864242554 0.018727650865912437
0.35766690969467163 0.82137066125869751 0.015920691192150116
0.41447216272354126 0.81798249483108521 0.015662891790270805
0.49422556161880493 0.82999777793884277 0.034713968634605408
0.57209545373916626 0.83722144365310669 0.027868323028087616
0.6464269757270813 0.84252357482910156 0.019248753786087036
0.72482401132583618 0.85611480474472046 0.013465447351336479
0.79436850547790527 0.86310243606567383 0.01023712195456028
0.86662459373474121 0.86928647756576538 0.0052226944826543331
0.93197369575500488 0.87542682886123657 0.01473083533346653
0.38079088926315308 0.93493318557739258 0.15930555760860443
0.38198596239089966 0.93514055013656616 0.16210246086120605
0.38898119330406189 0.93170315027236938 0.15813584625720978
0.42323404550552368 0.93388289213180542 0.1663849800825119
0.46066194772720337 0.92833054065704346 0.15733437240123749
0.50815695524215698 0.92667967081069946 0.15637581050395966
0.56239485740661621 0.93020081520080566 0.15541493892669678
0.63160717487335205 0.93399924039840698 0.14590069651603699
0.70250773429870605 0.93969607353210449 0.14065596461296082
0.76984626054763794 0.9451097846031189 0.12060640752315521
0.83697718381881714 0.94938474893569946 0.11224760115146637
0.90020328760147095 0.95531511306762695 0.091141432523727417
0.9545409083366394 0.95764380693435669 0.082042858004570007
0.0033995984122157097 0.067174755036830902 0.14795038104057312
0.022834703326225281 0.067220322787761688 0.15054847300052643
0.10043827444314957 0.072738334536552429 0.14976678788661957
0.19894132018089294 0.081098742783069611 0.15461041033267975
0.29355555772781372 0.083061307668685913 0.15892156958580017
0.38608136773109436 0.069316685199737549 0.15431110560894012
0.47905132174491882 0.059094864875078201 0.1534762978553772
0.57268756628036499 0.044098991900682449 0.1578308492898941
0.66000276803970337 0.029670326039195061 0.15868900716304779
0.73858833312988281 0.04090532660484314 0.15813836455345154
0.81563198566436768 0.071185648441314697 0.16366474330425262
0.89479631185531616 0.11904735118150711 0.17200784385204315
0.96403402090072632 0.1678873747587204 0.17587704956531525
0.001700861263088882 0.11793769150972366 0.15437488257884979
0.019748343154788017 0.11260665953159332 0.15621174871921539
0.10815238207578659 0.11325131356716156 0.16045947372913361
0.21524599194526672 0.11481000483036041 0.15951545536518097
0.30505424737930298 0.10974438488483429 0.1556272953748703
0.39239054918289185 0.097068294882774353 0.15527117252349854
0.48721107840538025 0.089650847017765045 0.16087526082992554
0.58125042915344238 0.088689543306827545 0.16463376581668854
0.66388547420501709 0.07006315141916275 0.1562105119228363
0.74097663164138794 0.076229587197303772 0.15713182091712952
0.81823313236236572 0.094986572861671448 0.16159547865390778
0.89372175931930542 0.13558652997016907 0.17039534449577332
0.96308785676956177 0.18281459808349609 0.17692497372627258
0.00011399212962714955 0.18387211859226227 0.15907293558120728
0.011416042223572731 0.18444684147834778 0.15885500609874725
0.10741783678531647 0.18061025440692902 0.16409629583358765
0.22889615595340729 0.18149314820766449 0.16023966670036316
0.32522541284561157 0.1789705753326416 0.1584460437297821
0.4136364758014679 0.16590367257595062 0.16291852295398712
0.50682550668716431 0.16293039917945862 0.16587020456790924
0.5993536114692688 0.16978372633457184 0.16748347878456116
0.68138366937637329 0.16447694599628448 0.16250839829444885
0.75442516803741455 0.16494429111480713 0.16110309958457947
0.82640141248703003 0.17550742626190186 0.16298305988311768
0.90119749307632446 0.21008855104446411 0.16957588493824005
0.97001874446868896 0.24411769211292267 0.17536687850952148
7.8986677181092091e-06 0.26577496528625488 0.16032023727893829
0.0040497276932001114 0.26831147074699402 0.15727220475673676
0.073986604809761047 0.26447716355323792 0.15602488815784454
0.22077597677707672 0.26564931869506836 0.14787159860134125
0.33540549874305725 0.26390615105628967 0.1492081880569458
0.4373190701007843 0.26380664110183716 0.16618083417415619
0.53110367059707642 0.26198956370353699 0.17050686478614807
0.61929714679718018 0.26180824637413025 0.1666448712348938
0.6958504319190979 0.26308450102806091 0.16530501842498779
0.76739001274108887 0.26899993419647217 0.16644960641860962
0.83859264850616455 0.27751526236534119 0.16536006331443787
0.90952837467193604 0.30395904183387756 0.17359773814678192
0.97335171699523926 0.33026686310768127 0.18363694846630096
1.4361213516167481e-06 0.34131333231925964 0.15766696631908417
0.004611968994140625 0.34294325113296509 0.15742996335029602
