assets/lut/picturefx analogfx old style ii.cube
# Created by: G'MIC (https://gmic.eu)
TITLE "analogfx_old_style_ii"
# LUT size
LUT_3D_SIZE 13
# Data domain
DOMAIN_MIN 0.0 0.0 0.0
DOMAIN_MAX 1.0 1.0 1.0
# LUT data points
0.0018027661135420203 0.00061880372231826186 8.1858917837962508e-05
0.0059512718580663204 0.0037348729092627764 0.0031895656138658524
0.0084389634430408478 0.0048443065024912357 0.0039215688593685627
0.0077620265074074268 0.0048198327422142029 0.003898815019056201
0.0059874439612030983 0.0038040908984839916 0.0028622646350413561
0.019977031275629997 0.011646599508821964 0.0076393578201532364
0.073006331920623779 0.041164517402648926 0.02873598039150238
0.14844167232513428 0.082409575581550598 0.057400092482566833
0.24861305952072144 0.14124616980552673 0.096206560730934143
0.42705988883972168 0.24613633751869202 0.16432370245456696
0.68170708417892456 0.39236915111541748 0.25832167267799377
0.82957208156585693 0.47259923815727234 0.30886569619178772
0.91452622413635254 0.53141105175018311 0.37392672896385193
0.0018150180112570524 0.0007827459485270083 0.00013786765339318663
0.0054503045976161957 0.0035102544352412224 0.0029136058874428272
0.010447409003973007 0.0068121068179607391 0.0043092616833746433
0.013449485413730145 0.0087542217224836349 0.0057797450572252274
0.013946802355349064 0.0091624241322278976 0.0058598686009645462
0.021211976185441017 0.013817327097058296 0.0090629132464528084
0.075634419918060303 0.045062016695737839 0.032201759517192841
0.17380766570568085 0.10111897438764572 0.072236217558383942
0.28886705636978149 0.16936793923377991 0.1174890547990799
0.48981004953384399 0.28787529468536377 0.19426228106021881
0.72636127471923828 0.42251661419868469 0.28075933456420898
0.8572089672088623 0.49482014775276184 0.33290407061576843
0.94531750679016113 0.55834919214248657 0.40583646297454834
0.0016009012470021844 0.0006956212455406785 0.00018415263912174851
0.0041690152138471603 0.0027758281212300062 0.0019124498357996345
0.011352359317243099 0.0071792751550674438 0.0049696080386638641
0.015640018507838249 0.010414227843284607 0.0066558239050209522
0.029893644154071808 0.018759125843644142 0.012789408676326275
0.058485202491283417 0.03642253577709198 0.025951310992240906
0.14081329107284546 0.085870705544948578 0.063327580690383911
0.23354572057723999 0.14218880236148834 0.1033574566245079
0.36844882369041443 0.22233489155769348 0.15717466175556183
0.60373514890670776 0.36138489842414856 0.24631667137145996
0.80704367160797119 0.47666546702384949 0.32349801063537598
0.90999138355255127 0.54070454835891724 0.38601404428482056
0.9764258861541748 0.5943148136138916 0.45035222172737122
0.023590641096234322 0.014364654198288918 0.010534847155213356
0.027324182912707329 0.016643747687339783 0.012161972932517529
0.047103222459554672 0.028772555291652679 0.020894309505820274
0.06498495489358902 0.04013684019446373 0.028543658554553986
0.1053595170378685 0.0643501877784729 0.046473216265439987
0.16760639846324921 0.10181376338005066 0.074438847601413727
0.2333204448223114 0.1421390026807785 0.10485664755105972
0.33322635293006897 0.20555694401264191 0.1490672379732132
0.52125412225723267 0.31968978047370911 0.22745618224143982
0.73988151550292969 0.44684615731239319 0.30883321166038513
0.89813226461410522 0.54276555776596069 0.38071495294570923
0.96567302942276001 0.60884791612625122 0.46763116121292114
0.99415987730026245 0.7136881947517395 0.61005508899688721
0.13848532736301422 0.084149710834026337 0.061656594276428223
0.14720942080020905 0.089819170534610748 0.065619342029094696
0.16446328163146973 0.10001628845930099 0.073151096701622009
0.19169783592224121 0.11767907440662384 0.085453689098358154
0.22535958886146545 0.13868328928947449 0.10086871683597565
0.28175240755081177 0.17287759482860565 0.12577426433563232
0.35008379817008972 0.21538877487182617 0.15640541911125183
0.49190697073936462 0.30572029948234558 0.21892371773719788
0.71085476875305176 0.43737471103668213 0.31171846389770508
0.89019566774368286 0.54687464237213135 0.39259269833564758
0.9747849702835083 0.64893472194671631 0.50683856010437012
0.9953647255897522 0.78632944822311401 0.70456641912460327
0.99923604726791382 0.91803765296936035 0.89444035291671753
0.27684015035629272 0.16891080141067505 0.12225859612226486
0.29323428869247437 0.1797146201133728 0.12987534701824188
0.30475714802742004 0.18680363893508911 0.13509979844093323
0.34632736444473267 0.21356934309005737 0.15308356285095215
0.38633361458778381 0.23919536173343658 0.17100249230861664
0.46400481462478638 0.28654378652572632 0.20451992750167847
0.57590293884277344 0.3561255931854248 0.25178232789039612
0.7583652138710022 0.46974578499794006 0.33562234044075012
0.92427074909210205 0.60124778747558594 0.45636072754859924
0.98956847190856934 0.73916471004486084 0.63055044412612915
0.99928134679794312 0.87042135000228882 0.82311445474624634
1 0.9576261043548584 0.95475763082504272
1 0.97905910015106201 0.98932933807373047
0.56425076723098755 0.34383556246757507 0.23967947065830231
0.57858467102050781 0.35492956638336182 0.24952569603919983
0.60202497243881226 0.36946681141853333 0.26100528240203857
0.6590195894241333 0.40534639358520508 0.28815227746963501
0.72390115261077881 0.44596609473228455 0.31765580177307129
0.80751776695251465 0.50469887256622314 0.36712083220481873
0.90436118841171265 0.59587746858596802 0.45688965916633606
0.97316819429397583 0.74254775047302246 0.64129936695098877
0.99818986654281616 0.86806249618530273 0.81809902191162109
1 0.95455235242843628 0.94966375827789307
1 0.97995948791503906 0.99119168519973755
1 0.98313367366790771 0.99544739723205566
1 0.9824720025062561 0.99464923143386841
0.94902002811431885 0.65631717443466187 0.52770012617111206
0.95324796438217163 0.66614997386932373 0.54005569219589233
0.95958507061004639 0.68461239337921143 0.56503409147262573
0.96566307544708252 0.72063213586807251 0.61424547433853149
0.98084664344787598 0.77418547868728638 0.68617761135101318
0.99459528923034668 0.84121823310852051 0.7824476957321167
0.9989960789680481 0.91837918758392334 0.89527934789657593
0.99950498342514038 0.96516686677932739 0.9666714072227478
0.9999890923500061 0.97860801219940186 0.99009948968887329
1 0.98062139749526978 0.99423950910568237
1 0.98239755630493164 0.99513024091720581
1 0.98429381847381592 0.99611258506774902
1 0.9838109016418457 0.99581599235534668
0.99978673458099365 0.935405433177948 0.92167311906814575
0.9998287558555603 0.94019687175750732 0.92817330360412598
0.99974977970123291 0.95607298612594604 0.95054394006729126
0.99973863363265991 0.96858221292495728 0.9688916802406311
1 0.97891032695770264 0.98775184154510498
1 0.98269712924957275 0.99307560920715332
1 0.9838707447052002 0.99549752473831177
1 0.98393064737319946 0.99681395292282104
1 0.9819452166557312 0.9952549934387207
1 0.9831547737121582 0.99691897630691528
1 0.98369473218917847 0.99677193164825439
1 0.9843137264251709 0.99607843160629272
1 0.98418539762496948 0.99607843160629272
1 0.98301005363464355 0.99628949165344238
1 0.98358184099197388 0.9972158670425415
1 0.98428243398666382 0.99965596199035645
1 0.98410409688949585 0.9969448447227478
1 0.9843137264251709 0.99847251176834106
1 0.9843137264251709 0.99632495641708374
1 0.9843137264251709 0.9963337779045105
1 0.9843137264251709 0.99765175580978394
1 0.9843137264251709 0.99847620725631714
1 0.9843137264251709 1
1 0.9843137264251709 0.99971747398376465
1 0.9843137264251709 0.9977116584777832
1 0.98377203941345215 0.99617356061935425
1 0.9843137264251709 0.99973845481872559
1 0.9843137264251709 0.99980145692825317
1 0.9843137264251709 0.9998786449432373
1 0.9843137264251709 0.99977767467498779
1 0.9843137264251709 0.99990648031234741
1 0.9843137264251709 0.99750185012817383
1 0.9843137264251709 0.99774646759033203
1 0.9843137264251709 0.99907958507537842
1 0.9843137264251709 0.99998444318771362
1 0.9843137264251709 1
1 0.9843137264251709 1
1 0.9843137264251709 1
1 0.9843137264251709 0.99970442056655884
1 0.9843137264251709 1
1 0.9843137264251709 1
1 0.9843137264251709 1
1 0.9843137264251709 1
1 0.9843137264251709 1
1 0.9843137264251709 0.99974250793457031
1 0.9843137264251709 0.99968588352203369
1 0.9843137264251709 0.99993950128555298
1 0.9843137264251709 1
1 0.9843137264251709 1
1 0.9843137264251709 1
1 0.9843137264251709 1
1 0.9843137264251709 1
1 0.9843137264251709 1
1 0.9843137264251709 1
1 0.9843137264251709 1
1 0.9843137264251709 1
1 0.9843137264251709 1
1 0.9843137264251709 1
1 0.9843137264251709 1
1 0.9843137264251709 1
1 0.9843137264251709 1
1 0.9843137264251709 1
1 0.9843137264251709 1
1 0.9843137264251709 1
1 0.9843137264251709 1
0.003399763023480773 0.0019826551433652639 0.0008776496397331357
0.0074246423318982124 0.0039215688593685627 0.0039135953411459923
0.009481736458837986 0.0063946591690182686 0.0039682425558567047
0.010985639877617359 0.0072976355440914631 0.0043365778401494026
0.012369612231850624 0.0078324861824512482 0.004935799166560173
0.020633488893508911 0.012527137063443661 0.0085759181529283524
0.051748089492321014 0.030085664242506027 0.020092908293008804
0.14945189654827118 0.085142068564891815 0.05829620361328125
0.25466787815093994 0.14592207968235016 0.098823860287666321
0.43593060970306396 0.25057163834571838 0.1654990017414093
0.68739527463912964 0.39396810531616211 0.2576659619808197
0.83656197786331177 0.47722801566123962 0.31509160995483398
0.9260898232460022 0.53943628072738647 0.38696515560150146
0.004560388159006834 0.0033258923795074224 0.0019280078122392297
0.0078170923516154289 0.0039215688593685627 0.0039215688593685627
0.010469952598214149 0.0067409141920506954 0.0047203660942614079
0.01605643518269062 0.01032695360481739 0.0076854182407259941
0.012491278350353241 0.0079854326322674751 0.0052726147696375847
0.026804711669683456 0.016376346349716187 0.011430044658482075
0.081706836819648743 0.048751261085271835 0.034448660910129547
0.18647781014442444 0.10998903214931488 0.077438876032829285
0.29769718647003174 0.1742846667766571 0.12073169648647308
0.49268379807472229 0.28663063049316406 0.19206729531288147
0.73217320442199707 0.42350679636001587 0.27885821461677551
0.86444932222366333 0.50306791067123413 0.34599882364273071
0.94771754741668701 0.56051826477050781 0.40973144769668579
0.0040528988465666771 0.003064518328756094 0.0015083312755450606
0.0078241089358925819 0.0043022604659199715 0.0039406269788742065
0.013392997905611992 0.0084044812247157097 0.0060709337703883648
0.018658926710486412 0.012542799115180969 0.0086989905685186386
0.027367057278752327 0.017498599365353584 0.013067117892205715
0.070785686373710632 0.042193111032247543 0.03178049623966217
0.15222930908203125 0.09033387154340744 0.067208863794803619
0.24387544393539429 0.14799897372722626 0.10712455213069916
0.37938705086708069 0.22888366878032684 0.16096697747707367
0.60296231508255005 0.35941514372825623 0.24474506080150604
0.80374813079833984 0.47250756621360779 0.32004359364509583
0.9098784327507019 0.53743153810501099 0.38345739245414734
0.97482526302337646 0.59147936105728149 0.44739887118339539
0.023261664435267448 0.014076128602027893 0.010080240666866302
0.041382510215044022 0.024907205253839493 0.018493367359042168
0.059420071542263031 0.035205483436584473 0.026509229093790054
0.071226544678211212 0.043347466737031937 0.032027643173933029
0.10486279428005219 0.062546476721763611 0.04723021388053894
0.17037799954414368 0.10167299211025238 0.076334230601787567
0.2392009049654007 0.14399765431880951 0.10680322349071503
0.34534883499145508 0.21163764595985413 0.15268166363239288
0.52175241708755493 0.31790816783905029 0.22431066632270813
0.74822402000427246 0.45027786493301392 0.30936908721923828
0.89727461338043213 0.54334753751754761 0.38467186689376831
0.96670544147491455 0.60761308670043945 0.4660702645778656
0.99411636590957642 0.70326560735702515 0.59566539525985718
0.1411542147397995 0.085349045693874359 0.062732979655265808
0.15651315450668335 0.095136173069477081 0.069835245609283447
0.16761477291584015 0.1010110154747963 0.074765972793102264
0.1892896443605423 0.11443682014942169 0.084101311862468719
0.2275848388671875 0.13821551203727722 0.10137845575809479
0.27784633636474609 0.17028129100799561 0.12453734129667282
0.3661409318447113 0.22592797875404358 0.16361168026924133
0.50687903165817261 0.31349882483482361 0.2251228541135788
0.71737092733383179 0.43897125124931335 0.31284382939338684
0.90160977840423584 0.55433374643325806 0.39605832099914551
0.97535675764083862 0.65412366390228271 0.517566978931427
0.99577659368515015 0.78641211986541748 0.70599895715713501
0.99939483404159546 0.91975021362304688 0.89593696594238281
0.28417664766311646 0.17266726493835449 0.12521326541900635
0.29925596714019775 0.18354780972003937 0.13299904763698578
0.31083959341049194 0.19073116779327393 0.13813596963882446
0.35714098811149597 0.22044557332992554 0.15793028473854065
0.40468946099281311 0.25053006410598755 0.17826841771602631
0.47638401389122009 0.29548615217208862 0.2103939950466156
0.58685779571533203 0.36355265974998474 0.25838741660118103
0.76126527786254883 0.47684946656227112 0.34696152806282043
0.9242023229598999 0.60966587066650391 0.47112730145454407
0.98916459083557129 0.74780857563018799 0.64492923021316528
0.9988715648651123 0.88037192821502686 0.83616536855697632
0.99996793270111084 0.95979756116867065 0.95848202705383301
1 0.98003232479095459 0.99055403470993042
0.5825008749961853 0.35513150691986084 0.25009381771087646
0.58611536026000977 0.36178028583526611 0.25635886192321777
0.62228477001190186 0.38119608163833618 0.26940461993217468
0.6620904803276062 0.40835067629814148 0.29163727164268494
0.73933202028274536 0.45550459623336792 0.3258090615272522
0.81399434804916382 0.51230651140213013 0.37620267271995544
0.91266649961471558 0.60832774639129639 0.47167530655860901
0.97467434406280518 0.74218744039535522 0.64254319667816162
0.99765241146087646 0.87690705060958862 0.8332136869430542
0.99969768524169922 0.95778119564056396 0.95568764209747314
1 0.9796636700630188 0.99013912677764893
1 0.98273015022277832 0.99498492479324341
1 0.98219650983810425 0.99467664957046509
0.95315736532211304 0.66236639022827148 0.53627693653106689
0.95541167259216309 0.67410874366760254 0.55100113153457642
0.96618020534515381 0.69213283061981201 0.57292944192886353
0.97068750858306885 0.72039306163787842 0.6120750904083252
0.98487329483032227 0.77578222751617432 0.68810123205184937
0.99470144510269165 0.8507576584815979 0.79647690057754517
0.99843871593475342 0.92869478464126587 0.91118752956390381
0.99960744380950928 0.96611422300338745 0.9686809778213501
0.9999890923500061 0.98104596138000488 0.99272072315216064
1 0.98041266202926636 0.99230533838272095
1 0.9805377721786499 0.99279677867889404
1 0.98405760526657104 0.99613267183303833
1 0.98385739326477051 0.99593657255172729
0.99976652860641479 0.94030916690826416 0.92791545391082764
0.99972653388977051 0.94895589351654053 0.93971151113510132
0.9999997615814209 0.9586416482925415 0.95418626070022583
0.99988174438476562 0.96996796131134033 0.97243547439575195
1 0.97879528999328613 0.98809373378753662
1 0.98285788297653198 0.99459302425384521
1 0.98299247026443481 0.99573725461959839
1 0.98426955938339233 0.997081458568573
1 0.98420190811157227 0.99626827239990234
1 0.98162531852722168 0.99483251571655273
1 0.98066806793212891 0.99417966604232788
1 0.98305964469909668 0.99607843160629272
1 0.98417216539382935 0.99607843160629272
1 0.98401826620101929 0.99696648120880127
1 0.98428440093994141 0.99904799461364746
1 0.9843137264251709 0.99737560749053955
1 0.98430848121643066 0.99782258272171021
1 0.9843137264251709 0.99899214506149292
1 0.9843137264251709 0.99955952167510986
1 0.9843137264251709 0.99966692924499512
1 0.9843137264251709 0.99986302852630615
1 0.9843137264251709 0.99960565567016602
1 0.9843137264251709 0.99922066926956177
1 0.98413783311843872 0.99829232692718506
1 0.98295557498931885 0.9965328574180603
1 0.98250275850296021 0.99608594179153442
1 0.9843137264251709 0.99954837560653687
1 0.9843137264251709 0.99863451719284058
1 0.9843137264251709 0.99617356061935425
1 0.9843137264251709 0.99660730361938477
1 0.9843137264251709 0.99986797571182251
1 0.9843137264251709 0.99999511241912842
1 0.9843137264251709 0.99999910593032837
1 0.9843137264251709 1
1 0.9843137264251709 1
1 0.9843137264251709 1
1 0.9843137264251709 1
1 0.9843137264251709 0.99987387657165527
1 0.9843137264251709 0.99913680553436279
1 0.9843137264251709 1
1 0.9843137264251709 0.99950873851776123
1 0.9843137264251709 0.99820876121520996
1 0.9843137264251709 0.99747872352600098
1 0.9843137264251709 0.99968785047531128
1 0.9843137264251709 1
1 0.9843137264251709 1
1 0.9843137264251709 1
1 0.9843137264251709 1
1 0.9843137264251709 1
1 0.9843137264251709 1
1 0.9843137264251709 1
1 0.9843137264251709 1
1 0.9843137264251709 1
1 0.9843137264251709 1
1 0.9843137264251709 1
1 0.9843137264251709 1
1 0.9843137264251709 1
1 0.9843137264251709 1
1 0.9843137264251709 1
1 0.9843137264251709 1
1 0.9843137264251709 1
1 0.9843137264251709 1
1 0.9843137264251709 1
1 0.9843137264251709 1
1 0.9843137264251709 1
0.0036582797765731812 0.0024702034424990416 0.001045286888256669
0.0071289809420704842 0.0039215688593685627 0.0039126225747168064
0.010461111553013325 0.0071212169714272022 0.0039215688593685627
0.011620599776506424 0.0077906292863190174 0.004674963653087616
0.012527510523796082 0.0079574137926101685 0.0050387512892484665
0.024405669420957565 0.014866488985717297 0.010318082757294178
0.072923697531223297 0.042079627513885498 0.029303232207894325
0.15848629176616669 0.090132124722003937 0.062899045646190643
0.26647716760635376 0.15209300816059113 0.10382138192653656
0.4627041220664978 0.26526722311973572 0.17503535747528076
0.70578223466873169 0.40405306220054626 0.2631072998046875
0.84831386804580688 0.48757964372634888 0.33165881037712097
0.92494505643844604 0.5383794903755188 0.3885326087474823
0.0050510182045400143 0.0039141788147389889 0.0026287003420293331
0.0078083709813654423 0.0039215688593685627 0.0039215688593685627
0.0094266999512910843 0.0059131397865712643 0.0039215688593685627
0.01365839596837759 0.0084950616583228111 0.0076464186422526836
0.015735447406768799 0.009663555771112442 0.0077443742193281651
0.03726857528090477 0.022766336798667908 0.016897598281502724
0.10046920925378799 0.059630930423736572 0.043055247515439987
0.19807739555835724 0.11561726778745651 0.082506902515888214
0.31195873022079468 0.18317089974880219 0.12626425921916962
0.51588022708892822 0.30029222369194031 0.20046991109848022
0.74695384502410889 0.4314156174659729 0.28322282433509827
0.87354534864425659 0.5076143741607666 0.35054421424865723
0.94974774122238159 0.56142878532409668 0.41272363066673279
0.0074570002034306526 0.0048895892687141895 0.0040525100193917751
0.0093008605763316154 0.0053268284536898136 0.0042487350292503834
0.0080445380881428719 0.0050152796320617199 0.0039359745569527149
0.020043481141328812 0.012680667452514172 0.0097664324566721916
0.036039974540472031 0.02240784652531147 0.017346939072012901
0.092971473932266235 0.056067224591970444 0.042132344096899033
0.16750568151473999 0.10074208676815033 0.074883177876472473
0.26223766803741455 0.15798912942409515 0.11449608951807022
0.40858659148216248 0.24608713388442993 0.17168936133384705
0.62645119428634644 0.37183505296707153 0.25227534770965576
0.81573200225830078 0.47840261459350586 0.32257497310638428
0.90665072202682495 0.53165131807327271 0.37739869952201843
0.97570127248764038 0.59290122985839844 0.45064005255699158
0.03599923849105835 0.021573683246970177 0.015339825302362442
0.050737328827381134 0.03086821548640728 0.022338179871439934
0.05858154222369194 0.035358026623725891 0.025919446721673012
0.089927449822425842 0.054454907774925232 0.040630415081977844
0.12565520405769348 0.075629845261573792 0.056989990174770355
0.18526551127433777 0.11224915832281113 0.083226479589939117
0.24772512912750244 0.15110179781913757 0.11150045692920685
0.35926598310470581 0.22072713077068329 0.15915900468826294
0.54996752738952637 0.3340609073638916 0.23398393392562866
0.76436358690261841 0.45821505784988403 0.31532937288284302
0.90417945384979248 0.54451709985733032 0.38437914848327637
0.96828180551528931 0.61111903190612793 0.47001436352729797
0.99706059694290161 0.7043755054473877 0.59713411331176758
0.14486491680145264 0.08713822066783905 0.063304126262664795
0.17003752291202545 0.10350362956523895 0.075289934873580933
0.18493787944316864 0.11255901306867599 0.082361720502376556
0.20600581169128418 0.1253853440284729 0.09195399284362793
0.24239099025726318 0.14835841953754425 0.1078009232878685
0.2913825511932373 0.17916335165500641 0.12970875203609467
0.36847037076950073 0.22760145366191864 0.16428868472576141
0.5250510573387146 0.32459118962287903 0.23207953572273254
0.74013274908065796 0.45026075839996338 0.31672555208206177
0.91224163770675659 0.56278020143508911 0.40386337041854858
0.97832441329956055 0.66221565008163452 0.52741068601608276
0.9967225193977356 0.78706413507461548 0.70820003747940063
1 0.92096060514450073 0.89964717626571655
0.29180583357810974 0.17670153081417084 0.12742689251899719
0.31246769428253174 0.19098514318466187 0.13748146593570709
0.33177167177200317 0.20362535119056702 0.1469791978597641
0.36441433429718018 0.22452469170093536 0.1614762544631958
0.40729621052742004 0.25248298048973083 0.18012544512748718
0.48693263530731201 0.30139297246932983 0.21488665044307709
0.59525203704833984 0.36725461483001709 0.26078864932060242
0.7750440239906311 0.48384419083595276 0.35003325343132019
0.94095760583877563 0.61911958456039429 0.47465533018112183
0.99180054664611816 0.75583398342132568 0.65486031770706177
0.99942642450332642 0.88801544904708862 0.84815889596939087
1 0.96145319938659668 0.96035856008529663
1 0.98289960622787476 0.99577945470809937
0.58367705345153809 0.35534760355949402 0.24959357082843781
0.60030966997146606 0.3696727454662323 0.26123699545860291
0.63555848598480225 0.38848567008972168 0.27416753768920898
0.6795654296875 0.41935351490974426 0.29963436722755432
0.75196927785873413 0.46362689137458801 0.33021318912506104
0.82846558094024658 0.52417004108428955 0.38779687881469727
0.91846567392349243 0.6196284294128418 0.48620206117630005
0.98042088747024536 0.75699567794799805 0.66091030836105347
0.99794495105743408 0.88880014419555664 0.85031592845916748
0.99986141920089722 0.96140569448471069 0.96117323637008667
1 0.98206686973571777 0.99353039264678955
1 0.9839024543762207 0.99666398763656616
1 0.98430293798446655 0.99671310186386108
0.94972032308578491 0.66378998756408691 0.53908741474151611
0.95623856782913208 0.68233728408813477 0.56238210201263428
0.9670637845993042 0.69603347778320312 0.57908457517623901
0.97658520936965942 0.73193281888961792 0.62868636846542358
0.98868131637573242 0.78516674041748047 0.70147925615310669
0.99537992477416992 0.86060827970504761 0.81185704469680786
0.99880892038345337 0.93404853343963623 0.91944015026092529
0.99982517957687378 0.96937274932861328 0.97347736358642578
1 0.9819750189781189 0.99472242593765259
1 0.98301166296005249 0.99723440408706665
1 0.98323303461074829 0.99659651517868042
1 0.98429709672927856 0.99896585941314697
1 0.9843137264251709 0.99662786722183228
0.99949699640274048 0.9420350193977356 0.9297865629196167
0.99966371059417725 0.95350664854049683 0.94635540246963501
0.9997367262840271 0.96101027727127075 0.95878833532333374
0.99985641241073608 0.9720308780670166 0.97675895690917969
1 0.97996091842651367 0.99066764116287231
1 0.98315036296844482 0.99613946676254272
1 0.98381298780441284 0.99787229299545288
1 0.98423129320144653 0.99867409467697144
1 0.98428165912628174 0.99891132116317749
1 0.98342251777648926 0.99757391214370728
1 0.98228883743286133 0.99600636959075928
1 0.98366409540176392 0.99689948558807373
1 0.9843137264251709 0.99633318185806274
1 0.98415130376815796 0.99634206295013428
1 0.98431199789047241 0.99736905097961426
1 0.9843137264251709 0.99680829048156738
1 0.9843137264251709 0.9976733922958374
1 0.9843137264251709 0.99991476535797119
