assets/lut/picturefx goldfx hot summer heat.cube
# Created by: G'MIC (https://gmic.eu)
TITLE "goldfx_hot_summer_heat"
# LUT size
LUT_3D_SIZE 5
# Data domain
DOMAIN_MIN 0.0 0.0 0.0
DOMAIN_MAX 1.0 1.0 1.0
# LUT data points
0.009928056038916111 0.020326383411884308 0.027582595124840736
0.15865615010261536 0.031285736709833145 0.042958531528711319
0.56092560291290283 0.0088367834687232971 0.074904076755046844
0.93110299110412598 0.24307191371917725 0.041369255632162094
1 0.52845597267150879 0.13481646776199341
0.00031232647597789764 0.18488459289073944 0.086156256496906281
0.16769392788410187 0.20176789164543152 0.07518303394317627
0.60872310400009155 0.22658345103263855 0.017676753923296928
0.91883903741836548 0.3902696967124939 2.1945728803984821e-05
0.99650067090988159 0.58504325151443481 0.1285027414560318
0 0.58191710710525513 0.06518109142780304
0.10048050433397293 0.58403974771499634 0.067126236855983734
0.64039504528045654 0.61375594139099121 0.011467443779110909
0.8996395468711853 0.62755489349365234 0
1 0.68342888355255127 0.050623651593923569
0.41664189100265503 0.82434475421905518 0.24670663475990295
0.47105598449707031 0.82469111680984497 0.26758548617362976
0.66948932409286499 0.822925865650177 0.25927704572677612
0.86270648241043091 0.82995045185089111 0.22344233095645905
0.99779021739959717 0.83887237310409546 0.24836288392543793
0.77995258569717407 0.96655017137527466 0.5513569712638855
0.77116400003433228 0.96680307388305664 0.55594563484191895
0.81544530391693115 0.96788817644119263 0.57616293430328369
0.90152645111083984 0.97416675090789795 0.57930809259414673
0.99971961975097656 0.98719668388366699 0.59472644329071045
0.003125418908894062 0.044328171759843826 0.17155840992927551
0.15703777968883514 0.083662383258342743 0.17106691002845764
0.59325671195983887 0.027540422976016998 0.20499256253242493
0.94039654731750488 0.36497205495834351 0.22248581051826477
0.99987053871154785 0.57461702823638916 0.27095982432365417
0 0.21317547559738159 0.20351633429527283
0.211538165807724 0.21807099878787994 0.20217078924179077
0.66035169363021851 0.19191798567771912 0.17348314821720123
0.93915826082229614 0.40056005120277405 0.17323383688926697
0.99677813053131104 0.58874040842056274 0.24478533864021301
0.033613841980695724 0.60370290279388428 0.14842790365219116
0.042211510241031647 0.59781408309936523 0.14403370022773743
0.64773738384246826 0.61513382196426392 0.068472720682621002
0.91122370958328247 0.61829173564910889 0.019306572154164314
0.99739682674407959 0.67975586652755737 0.12721936404705048
0.41755607724189758 0.82645660638809204 0.25568538904190063
0.4592297375202179 0.82567769289016724 0.27302238345146179
0.66440564393997192 0.82389706373214722 0.28704103827476501
0.86557406187057495 0.83298510313034058 0.2280881404876709
1 0.82958287000656128 0.23506519198417664
0.77220660448074341 0.96676927804946899 0.55361717939376831
0.77266210317611694 0.9652702808380127 0.55778193473815918
0.81265270709991455 0.96554708480834961 0.57503795623779297
0.89375990629196167 0.96931624412536621 0.58602958917617798
0.99578547477722168 0.97843503952026367 0.58895021677017212
0.15569645166397095 0.11798183619976044 0.38406747579574585
0.39532038569450378 0.17006611824035645 0.39805558323860168
0.67272615432739258 0.35390487313270569 0.40756803750991821
0.92013907432556152 0.3509804904460907 0.44158393144607544
0.99818712472915649 0.62463223934173584 0.49751701951026917
0.13995063304901123 0.24296063184738159 0.41480451822280884
0.30130547285079956 0.24112258851528168 0.41598311066627502
0.69242352247238159 0.40320417284965515 0.42044556140899658
0.94522500038146973 0.35443121194839478 0.42584019899368286
0.99747359752655029 0.61457961797714233 0.46973469853401184
0.26870337128639221 0.61047637462615967 0.42714595794677734
0.23121322691440582 0.6050419807434082 0.4168950617313385
0.69771850109100342 0.62893879413604736 0.43350479006767273
0.93186402320861816 0.635822594165802 0.39666721224784851
0.99670398235321045 0.71165907382965088 0.4350736141204834
0.60686016082763672 0.82875198125839233 0.43144333362579346
0.60541814565658569 0.82816755771636963 0.42791849374771118
0.66094279289245605 0.83022183179855347 0.42250803112983704
0.87205415964126587 0.83465778827667236 0.38506397604942322
0.99888569116592407 0.81729662418365479 0.36156883835792542
0.77804338932037354 0.97092658281326294 0.57841521501541138
0.78188967704772949 0.96758437156677246 0.58595883846282959
0.80450916290283203 0.96414321660995483 0.60062122344970703
0.88834935426712036 0.97058749198913574 0.61845308542251587
0.99588620662689209 0.98247373104095459 0.6149105429649353
0.53127115964889526 0.33103758096694946 0.62377017736434937
0.64880746603012085 0.38990285992622375 0.62785637378692627
0.82890462875366211 0.59257060289382935 0.62971174716949463
0.90514224767684937 0.70361202955245972 0.6371077299118042
0.98522567749023438 0.68602514266967773 0.64294260740280151
0.52749180793762207 0.41000425815582275 0.62773197889328003
0.59268027544021606 0.43139886856079102 0.628326416015625
0.82340049743652344 0.58846306800842285 0.63166618347167969
0.90565884113311768 0.70882958173751831 0.63739019632339478
0.99334675073623657 0.69670790433883667 0.65434831380844116
0.46387332677841187 0.62716054916381836 0.61322104930877686
0.47521182894706726 0.6118093729019165 0.61812746524810791
0.72888040542602539 0.6325991153717041 0.63889783620834351
0.90866827964782715 0.76872104406356812 0.65743845701217651
0.99629688262939453 0.72254949808120728 0.64554071426391602
0.61715173721313477 0.82552838325500488 0.62398707866668701
0.60154831409454346 0.82065266370773315 0.62273997068405151
0.62028217315673828 0.82037639617919922 0.62178951501846313
0.88072890043258667 0.83554691076278687 0.65157061815261841
0.99882256984710693 0.82848131656646729 0.61905509233474731
0.79718625545501709 0.97560328245162964 0.71325016021728516
0.80760860443115234 0.96941530704498291 0.71108710765838623
0.8137022852897644 0.97394740581512451 0.70442157983779907
0.88111972808837891 0.97783946990966797 0.71272414922714233
0.99290210008621216 0.97762644290924072 0.70495712757110596
0.78297972679138184 0.68966066837310791 0.86036175489425659
0.81387424468994141 0.72137194871902466 0.85601997375488281
0.89011746644973755 0.78056091070175171 0.85151493549346924
0.95137447118759155 0.84717851877212524 0.85550355911254883
0.99801445007324219 0.89365607500076294 0.87237906455993652
0.78486263751983643 0.72076082229614258 0.86042183637619019
0.79327720403671265 0.7237926721572876 0.8584672212600708
0.87813615798950195 0.78022646903991699 0.85797238349914551
0.95288079977035522 0.84602469205856323 0.85878920555114746
0.99652779102325439 0.88081550598144531 0.87039518356323242
0.76194232702255249 0.75906091928482056 0.86768609285354614
0.76870423555374146 0.76116323471069336 0.866413414478302
0.82720035314559937 0.7840920090675354 0.86871844530105591
0.94368636608123779 0.85201990604400635 0.8700566291809082
0.99493700265884399 0.89335209131240845 0.87620788812637329
0.66121727228164673 0.84786927700042725 0.86936789751052856
0.63920050859451294 0.84075057506561279 0.86756473779678345
0.67326110601425171 0.82864135503768921 0.87266832590103149
0.88221848011016846 0.85053002834320068 0.88570201396942139
0.99676775932312012 0.93190944194793701 0.91162210702896118
0.79159730672836304 0.99074798822402954 0.93918424844741821
0.7771952748298645 0.98103052377700806 0.92008882761001587
0.77067703008651733 0.97840142250061035 0.91504573822021484
0.7884785532951355 0.96375638246536255 0.91146326065063477
0.97734576463699341 0.99050807952880859 0.95207923650741577
