assets/lut/picturefx goldfx spring breeze.cube
# Created by: G'MIC (https://gmic.eu)
TITLE "goldfx_spring_breeze"
# LUT size
LUT_3D_SIZE 5
# Data domain
DOMAIN_MIN 0.0 0.0 0.0
DOMAIN_MAX 1.0 1.0 1.0
# LUT data points
0.016891030594706535 0.038390651345252991 0.029820984229445457
0.19758230447769165 0.055505700409412384 0.037829171866178513
0.47802889347076416 0.045021265745162964 0.055088505148887634
0.74122053384780884 0.035024873912334442 0.068665474653244019
0.96485412120819092 0.17197829484939575 0.099396452307701111
0.0011559430276975036 0.23704786598682404 0.044519342482089996
0.20134355127811432 0.24653527140617371 0.018952298909425735
0.51712000370025635 0.26385581493377686 0.050651416182518005
0.7694970965385437 0.28060421347618103 0.07255389541387558
0.97590607404708862 0.3444875180721283 0.11671082675457001
0 0.44116899371147156 0.040498323738574982
0.13442334532737732 0.42681029438972473 0.03732631728053093
0.44914311170578003 0.44709998369216919 0.006795546505600214
0.74439156055450439 0.49588719010353088 0.012222514487802982
0.95973610877990723 0.57088690996170044 0.15209195017814636
0.013646951876580715 0.64458739757537842 0.0038997277151793242
0.15522947907447815 0.63290107250213623 0.0057118432596325874
0.41999524831771851 0.6303563117980957 0.0020200691651552916
0.67447447776794434 0.66327416896820068 0
0.92606437206268311 0.7320600152015686 0.0076649682596325874
0.38126516342163086 0.93444222211837769 0.1609635055065155
0.42197591066360474 0.92923122644424438 0.15837371349334717
0.56493020057678223 0.93103063106536865 0.16465897858142853
0.77049905061721802 0.94496947526931763 0.11777079105377197
0.94008278846740723 0.95630687475204468 0.081541933119297028
0.00017332189599983394 0.091604433953762054 0.23122029006481171
0.20065619051456451 0.10911070555448532 0.25177249312400818
0.50188517570495605 0.11336497962474823 0.26055929064750671
0.75193315744400024 0.047366872429847717 0.23751461505889893
0.96632832288742065 0.15130211412906647 0.2358715683221817
0 0.28569167852401733 0.25580015778541565
0.22984117269515991 0.28832623362541199 0.27437075972557068
0.54043638706207275 0.25515663623809814 0.25211817026138306
0.76980465650558472 0.23904970288276672 0.23401911556720734
0.97523808479309082 0.30358898639678955 0.23964802920818329
0 0.49250230193138123 0.2137940526008606
0.14858539402484894 0.47877520322799683 0.20769520103931427
0.477946937084198 0.47162503004074097 0.16907970607280731
0.76918554306030273 0.51369136571884155 0.19941659271717072
0.97323834896087646 0.56321460008621216 0.27772989869117737
0.03241392970085144 0.6722598671913147 0.12817926704883575
0.14724667370319366 0.65977877378463745 0.11765030771493912
0.41507631540298462 0.64145904779434204 0.077315494418144226
0.68201452493667603 0.67364472150802612 0.015549767762422562
0.93432533740997314 0.7360832691192627 0.068406902253627777
0.37281918525695801 0.93517458438873291 0.21812251210212708
0.39941790699958801 0.93376392126083374 0.21517573297023773
0.54951560497283936 0.92855674028396606 0.1920924037694931
0.76283222436904907 0.94283807277679443 0.15779359638690948
0.95937705039978027 0.95843499898910522 0.10999820381402969
0 0.19552142918109894 0.51204127073287964
0.12241794168949127 0.19829052686691284 0.54115569591522217
0.56707644462585449 0.2354566901922226 0.57833707332611084
0.8077392578125 0.28929993510246277 0.57567101716995239
0.98335826396942139 0.28407567739486694 0.53300565481185913
0 0.36880382895469666 0.52015656232833862
0.12654916942119598 0.34856966137886047 0.55836409330368042
0.58540135622024536 0.36076265573501587 0.59447574615478516
0.81422823667526245 0.36136901378631592 0.56404083967208862
0.97983664274215698 0.29416099190711975 0.50033754110336304
0 0.57976663112640381 0.53438842296600342
0.054985210299491882 0.59020006656646729 0.54784184694290161
0.55368447303771973 0.57547861337661743 0.5645439624786377
0.80479109287261963 0.50982654094696045 0.49538713693618774
0.9776119589805603 0.50129860639572144 0.46240568161010742
0.035816807299852371 0.76419234275817871 0.42980360984802246
0.063622646033763885 0.76375728845596313 0.42566558718681335
0.39712151885032654 0.71551394462585449 0.3807411789894104
0.70603471994400024 0.7113836407661438 0.32079625129699707
0.9516332745552063 0.75840204954147339 0.41746982932090759
0.33545130491256714 0.9480399489402771 0.42114230990409851
0.35023793578147888 0.95136392116546631 0.42434635758399963
0.49744114279747009 0.94242590665817261 0.40784373879432678
0.72689938545227051 0.94270318746566772 0.36547550559043884
0.94984859228134155 0.95700258016586304 0.32634487748146057
0 0.34903976321220398 0.78969788551330566
0.046322062611579895 0.32646125555038452 0.80834007263183594
0.55211448669433594 0.38198816776275635 0.82365083694458008
0.82057112455368042 0.47732856869697571 0.8302728533744812
0.95753622055053711 0.58397501707077026 0.8292049765586853
0.0002893784549087286 0.47414863109588623 0.78714430332183838
0.060483835637569427 0.44894403219223022 0.80479109287261963
0.54976773262023926 0.47101488709449768 0.82326781749725342
0.81967908143997192 0.54510343074798584 0.83399361371994019
0.9562000036239624 0.61527633666992188 0.83074063062667847
0.026734864339232445 0.64352720975875854 0.75758028030395508
0.098054744303226471 0.64569461345672607 0.76888281106948853
0.50522083044052124 0.62835001945495605 0.80842047929763794
0.80817884206771851 0.69214671850204468 0.83667027950286865
0.9380297064781189 0.71236640214920044 0.82429337501525879
0.19158554077148438 0.8318292498588562 0.76674866676330566
0.14247891306877136 0.82869905233383179 0.77142900228500366
0.43733155727386475 0.82729458808898926 0.77880460023880005
0.76480674743652344 0.8250967264175415 0.80103963613510132
0.94216561317443848 0.76981455087661743 0.7457154393196106
0.3964686393737793 0.97336256504058838 0.73497039079666138
0.40262040495872498 0.97707879543304443 0.73036754131317139
0.44992327690124512 0.97258394956588745 0.70969599485397339
0.67054629325866699 0.95732647180557251 0.65617197751998901
0.93700480461120605 0.95882648229598999 0.61247867345809937
0.22453252971172333 0.59156030416488647 0.96613842248916626
0.33241301774978638 0.57264703512191772 0.96700984239578247
0.60463929176330566 0.61891430616378784 0.9652741551399231
0.81310486793518066 0.70816516876220703 0.96552425622940063
0.92295932769775391 0.76978135108947754 0.96319562196731567
0.32243746519088745 0.65643954277038574 0.95879650115966797
0.40273180603981018 0.65061491727828979 0.96354413032531738
0.60155904293060303 0.66326916217803955 0.96413034200668335
0.81085199117660522 0.73449259996414185 0.96418935060501099
0.9246860146522522 0.7833065390586853 0.96060347557067871
0.43601417541503906 0.77542108297348022 0.95021682977676392
0.45599141716957092 0.77563929557800293 0.95183032751083374
0.59288543462753296 0.75083363056182861 0.95351117849349976
0.79604238271713257 0.79724293947219849 0.96158480644226074
0.91200733184814453 0.8340994119644165 0.95935004949569702
0.36295756697654724 0.88954895734786987 0.94178080558776855
0.36865535378456116 0.88914161920547485 0.9441034197807312
0.51101028919219971 0.87736237049102783 0.94544905424118042
0.75158196687698364 0.86404621601104736 0.95789575576782227
0.91482871770858765 0.91141331195831299 0.96721798181533813
0.59269946813583374 0.99028056859970093 0.95724982023239136
0.58380997180938721 0.98954480886459351 0.94785529375076294
0.60670530796051025 0.99045568704605103 0.95802944898605347
0.74161052703857422 0.98181396722793579 0.95725482702255249
0.90516382455825806 0.98356294631958008 0.95842015743255615
