assets/lut/picturefx analogfx soft sepia ii.cube
# Created by: G'MIC (https://gmic.eu)
TITLE "analogfx_soft_sepia_ii"
# LUT size
LUT_3D_SIZE 7
# Data domain
DOMAIN_MIN 0.0 0.0 0.0
DOMAIN_MAX 1.0 1.0 1.0
# LUT data points
0.00022206026187632233 2.5850184101727791e-05 8.4013096056878567e-05
0.050591263920068741 0.0082625299692153931 0
0.16205614805221558 0.050395052880048752 0
0.29453036189079285 0.11604273319244385 1.2925092050863896e-05
0.44437688589096069 0.19037847220897675 0
0.59945154190063477 0.26918256282806396 0
0.76363074779510498 0.35174852609634399 0
0.11606328934431076 0.028331711888313293 0
0.14274077117443085 0.032430011779069901 0.00060798792401328683
0.20764243602752686 0.063604883849620819 0
0.33102357387542725 0.12511850893497467 0.002964274026453495
0.47430029511451721 0.19925811886787415 0.0033420338295400143
0.62815332412719727 0.27703988552093506 0.00043693991028703749
0.79276633262634277 0.36305421590805054 0.0012097826693207026
0.27984577417373657 0.083251446485519409 0
0.28149354457855225 0.079913675785064697 0
0.30519101023674011 0.09343680739402771 0
0.38871586322784424 0.13856023550033569 0.00286865234375
0.51924318075180054 0.20849329233169556 0.0013930078130215406
0.67261910438537598 0.28528112173080444 3.9852366171544418e-05
0.83130323886871338 0.3695349395275116 0.00097924028523266315
0.47740998864173889 0.14879469573497772 0
0.47688886523246765 0.1510680615901947 0
0.48842069506645203 0.15988859534263611 0.00097288243705406785
0.5089576244354248 0.17413961887359619 0.0034334370866417885
0.57953011989593506 0.20965355634689331 0.00039367674617096782
0.7216416597366333 0.28892409801483154 0
0.87117153406143188 0.36673596501350403 0
0.7040897011756897 0.21378602087497711 0
0.70110315084457397 0.21845901012420654 0.0013179853558540344
0.71406245231628418 0.21946220099925995 0.00021093031682539731
0.71278727054595947 0.22961695492267609 0.00023660098668187857
0.71606940031051636 0.24007028341293335 0
0.78338849544525146 0.27475094795227051 0
0.9166063666343689 0.35012000799179077 8.6406631453428417e-05
0.94239336252212524 0.26966533064842224 0.0040809032507240772
0.94975149631500244 0.26820534467697144 0.0022225773427635431
0.94140827655792236 0.26599305868148804 0
0.93416506052017212 0.27409446239471436 0.00061086018104106188
0.9404149055480957 0.28031238913536072 0.00011138916306663305
0.92677974700927734 0.28671726584434509 0.00046492932597175241
0.97452414035797119 0.33765432238578796 0.008793804794549942
1 0.31747633218765259 0.0095064649358391762
1 0.31670659780502319 0.00015638762852177024
1 0.31758195161819458 0
1 0.32320660352706909 0.00024746166309341788
1 0.32900950312614441 0.0039215688593685627
1 0.33767643570899963 0.0080127641558647156
1 0.36495098471641541 0.02127470076084137
0.05349750816822052 0.0096562402322888374 0
0.10934740304946899 0.026490110903978348 7.3601215262897313e-05
0.19248908758163452 0.062774315476417542 0
0.32102581858634949 0.12401185929775238 0.00063186348415911198
0.46752721071243286 0.19658796489238739 0
0.61237800121307373 0.27261874079704285 0
0.79935300350189209 0.35713312029838562 0.00029404583619907498
0.15573056042194366 0.047165889292955399 0.00029990999610163271
0.17204301059246063 0.061643935739994049 0.016573512926697731
0.2431429922580719 0.081199169158935547 0.00070981791941449046
0.36353364586830139 0.13312280178070068 0.00029070983873680234
0.49485614895820618 0.203995481133461 0.0026938794180750847
0.6394726037979126 0.28106281161308289 0.0038871616125106812
0.80795407295227051 0.35643348097801208 0.0073549756780266762
0.29333105683326721 0.10621462017297745 0
0.29868227243423462 0.11419257521629333 0.00048141478328034282
0.33108684420585632 0.11634476482868195 0.00026433609309606254
0.40626871585845947 0.15004505217075348 0
0.53446483612060547 0.21366898715496063 0.0032732198014855385
0.68414342403411865 0.2893221378326416 0.0017958397511392832
0.84543061256408691 0.36084899306297302 0.0079431720077991486
0.48815584182739258 0.17320093512535095 0
0.49164250493049622 0.17451901733875275 0
0.49857509136199951 0.17681719362735748 0.00015137616719584912
0.52006852626800537 0.18743672966957092 0.0001821330952225253
0.59386450052261353 0.21989652514457703 0.00053384818602353334
0.73835933208465576 0.29436901211738586 5.0892547733383253e-05
0.88818091154098511 0.36344256997108459 6.7497705458663404e-05
0.71448951959609985 0.22951510548591614 0
0.71257323026657104 0.23318597674369812 0.0072826310060918331
0.72162604331970215 0.23495587706565857 0.0062326020561158657
0.72173100709915161 0.24573379755020142 0.0020106297452002764
0.73034679889678955 0.24479363858699799 0
0.81101834774017334 0.28133556246757507 0.00059060490457341075
0.94061434268951416 0.34344017505645752 1.8549901142250746e-05
0.94387388229370117 0.27791950106620789 0.0090479385107755661
0.95097720623016357 0.28421282768249512 0.0085854474455118179
0.95088875293731689 0.28294527530670166 0.0055326125584542751
0.94748884439468384 0.28911387920379639 0.0073852390050888062
0.9469878077507019 0.29066964983940125 0.0067083621397614479
0.92980962991714478 0.29705074429512024 0.0041454839520156384
0.98689979314804077 0.33752492070198059 0.0042494679801166058
0.99923032522201538 0.33839714527130127 0.0054243649356067181
1 0.33654493093490601 0
1 0.339231938123703 0
1 0.34335938096046448 0.00029310339596122503
1 0.34229567646980286 0.0029083252884447575
0.99991470575332642 0.35214179754257202 0.0011334737064316869
1 0.36856949329376221 0.018744435161352158
0.21304354071617126 0.068234734237194061 0
0.22302469611167908 0.081612557172775269 0
0.25957569479942322 0.10047097504138947 0.00017930573085322976
0.34340620040893555 0.13734181225299835 0.00030727012199349701
0.4826018214225769 0.20409002900123596 0
0.64114630222320557 0.2837616503238678 0
0.85283994674682617 0.35935899615287781 0
0.26505330204963684 0.091379471123218536 0
0.27849569916725159 0.092088855803012848 0.0018794190837070346
0.2947198748588562 0.10219958424568176 0.011099826544523239
0.38004195690155029 0.1344992071390152 0.00013804716581944376
0.52783763408660889 0.20846246182918549 0
0.6890484094619751 0.29212218523025513 0
0.86820167303085327 0.36490333080291748 0.0051806583069264889
0.33781048655509949 0.12665915489196777 0.0013926636893302202
0.33855429291725159 0.14202234148979187 0.024866783991456032
0.3636842668056488 0.16199271380901337 0.076111376285552979
0.45067867636680603 0.18642936646938324 0.027383511886000633
0.58681154251098633 0.22900739312171936 0.00050917977932840586
0.7481386661529541 0.3086305558681488 0
0.89133942127227783 0.36842131614685059 0.0057106618769466877
0.49559953808784485 0.20794489979743958 0.0075268466025590897
0.49254882335662842 0.22093626856803894 0.017479017376899719
0.51550024747848511 0.23502209782600403 0.024737952277064323
0.54473358392715454 0.23577184975147247 0.012460432015359402
0.64476382732391357 0.26130816340446472 0.00027765013510361314
0.78974336385726929 0.3214188814163208 0
0.92241370677947998 0.382505863904953 0
0.71510028839111328 0.29095068573951721 9.7775926406029612e-05
0.71711200475692749 0.29809463024139404 0.00033907423494383693
0.73415076732635498 0.29995441436767578 3.2552085031056777e-05
0.72251135110855103 0.30022436380386353 1.8190870832768269e-05
0.74632078409194946 0.30361607670783997 0
0.82530158758163452 0.33373540639877319 0
0.95102638006210327 0.38016101717948914 0
0.94664829969406128 0.34550553560256958 0.0053871753625571728
0.94606512784957886 0.34749439358711243 0.00034691306063905358
0.95821511745452881 0.34061405062675476 5.5051318668120075e-06
0.94898515939712524 0.34756124019622803 0.00045855651842430234
0.94253849983215332 0.34983417391777039 0
0.94049692153930664 0.35275563597679138 0.0011249467497691512
0.99452805519104004 0.37800747156143188 0
1 0.39686614274978638 0
1 0.39445003867149353 0
1 0.4019014835357666 0
1 0.39919584989547729 0
0.99978780746459961 0.38770046830177307 0
1 0.39931544661521912 0
1 0.40150636434555054 0.004678674042224884
0.59276485443115234 0.24703934788703918 0
0.60534375905990601 0.25867190957069397 0
0.62157195806503296 0.27168142795562744 0
0.62251347303390503 0.28252103924751282 0
0.69361031055450439 0.32668507099151611 0
0.896076500415802 0.42743468284606934 0
0.99708497524261475 0.480001300573349 0
0.62720686197280884 0.26959449052810669 0
0.63757622241973877 0.27975007891654968 0.00012978946324437857
0.65650659799575806 0.28710976243019104 1.8938850189442746e-05
0.66218066215515137 0.29315102100372314 0.0025578965432941914
0.74336922168731689 0.32997661828994751 0.0038773929700255394
0.94309443235397339 0.41304925084114075 0
0.99953407049179077 0.47970268130302429 0.0015486024785786867
0.69106680154800415 0.28179368376731873 0.00010157566430279985
0.70707458257675171 0.29389962553977966 0.0028395708650350571
0.7046319842338562 0.31003043055534363 0.054795611649751663
0.71207720041275024 0.31516945362091064 0.097287856042385101
0.81639331579208374 0.36589351296424866 0.040767237544059753
0.95692843198776245 0.44065484404563904 0.011402399279177189
0.99988895654678345 0.50330913066864014 0.029600540176033974
0.73274612426757812 0.32693859934806824 0.025540459901094437
0.73403251171112061 0.34814953804016113 0.079834878444671631
0.74974709749221802 0.38920921087265015 0.20076072216033936
0.75083440542221069 0.43141528964042664 0.29864534735679626
0.8696250319480896 0.43982389569282532 0.22246240079402924
0.98194539546966553 0.47669681906700134 0.1323443204164505
0.9976353645324707 0.52483868598937988 0.081853486597537994
0.91284984350204468 0.43676072359085083 0.023530878126621246
0.90633475780487061 0.45463100075721741 0.066401131451129913
0.90486747026443481 0.48431575298309326 0.16075949370861053
0.9087904691696167 0.50422990322113037 0.20600050687789917
0.92813378572463989 0.49748691916465759 0.18015669286251068
0.9891895055770874 0.50545305013656616 0.12994466722011566
0.99828577041625977 0.53486114740371704 0.097206324338912964
0.99951779842376709 0.5289233922958374 0.10161276161670685
0.99880814552307129 0.54126334190368652 0.14004464447498322
0.99910461902618408 0.5524975061416626 0.15391653776168823
0.99910169839859009 0.55311471223831177 0.18316096067428589
0.99808555841445923 0.54022789001464844 0.13587671518325806
0.9957306981086731 0.53214806318283081 0.13426220417022705
0.99994021654129028 0.54026919603347778 0.11420893669128418
0.99907827377319336 0.57574152946472168 0.21265526115894318
0.99881994724273682 0.57008415460586548 0.2152649462223053
0.99943989515304565 0.57519805431365967 0.20647205412387848
0.99896073341369629 0.57092320919036865 0.18786269426345825
0.99925863742828369 0.56784296035766602 0.18522517383098602
1 0.56363272666931152 0.1502157598733902
1 0.56034547090530396 0.1417086273431778
1 0.51462435722351074 0
0.99948656558990479 0.51163774728775024 0
0.999767005443573 0.51532918214797974 0
0.98727244138717651 0.50359183549880981 0
0.98546236753463745 0.50299370288848877 0
0.99999231100082397 0.54441779851913452 0.0010469175176694989
1 0.57180494070053101 0
0.99761295318603516 0.52093797922134399 0
0.99971467256546021 0.52118766307830811 0.0010240293340757489
0.99894064664840698 0.520405113697052 0.00099083397071808577
0.99791967868804932 0.52119749784469604 0.0001179414612124674
0.99594271183013916 0.51893573999404907 0.0014495999785140157
0.99984890222549438 0.50671261548995972 0.0031237283255904913
0.99768078327178955 0.56225228309631348 0.0023790844716131687
0.99970191717147827 0.49993929266929626 0.00013064216182101518
0.99989628791809082 0.49718418717384338 0.00078681495506316423
0.99995976686477661 0.50717109441757202 0.0032455145847052336
1 0.4982181191444397 0.011375786736607552
0.9996035099029541 0.49027559161186218 0.040667381137609482
1 0.51813369989395142 0.052761271595954895
1 0.58973640203475952 0.1139337569475174
0.99973565340042114 0.49535289406776428 0.0020233155228197575
0.99880081415176392 0.51239132881164551 0.053384535014629364
0.99791169166564941 0.53966504335403442 0.26900520920753479
0.99276441335678101 0.55870020389556885 0.38844460248947144
0.99787288904190063 0.55827069282531738 0.40185225009918213
0.99971687793731689 0.58355873823165894 0.39287126064300537
0.99997544288635254 0.66270709037780762 0.42208126187324524
1 0.54733502864837646 0.22871607542037964
0.99996554851531982 0.56056815385818481 0.28562670946121216
0.99926280975341797 0.59469950199127197 0.3727249801158905
0.99681925773620605 0.64360767602920532 0.48653018474578857
0.97929525375366211 0.70098209381103516 0.61046087741851807
0.99868786334991455 0.69086891412734985 0.56446599960327148
0.99681156873703003 0.71476912498474121 0.55036109685897827
0.99763286113739014 0.62855726480484009 0.3578953742980957
0.99629443883895874 0.64235281944274902 0.39021331071853638
0.99780452251434326 0.67964619398117065 0.46720755100250244
0.99788624048233032 0.71855741739273071 0.54537856578826904
0.99996095895767212 0.73365616798400879 0.57276952266693115
0.99999403953552246 0.72307521104812622 0.5574573278427124
1 0.72008484601974487 0.55582481622695923
0.99982732534408569 0.6626313328742981 0.50904929637908936
1 0.67303985357284546 0.53700143098831177
1 0.69882994890213013 0.57624983787536621
1 0.7114226222038269 0.59508687257766724
1 0.72372472286224365 0.60925948619842529
0.99998730421066284 0.71187210083007812 0.57558143138885498
0.99736034870147705 0.70749711990356445 0.55895984172821045
1 0.60563945770263672 0
0.99985086917877197 0.60903537273406982 0
0.99097669124603271 0.60803806781768799 0
0.99943017959594727 0.61406850814819336 0
1 0.61737322807312012 0
0.99893146753311157 0.61004400253295898 7.3601215262897313e-05
1 0.61477196216583252 0
0.99653029441833496 0.6151808500289917 0.0003168891416862607
0.99740153551101685 0.62312585115432739 0
0.99985343217849731 0.61906081438064575 0.00020512599439825863
0.99986672401428223 0.6174132227897644 0.0034841650631278753
0.99998623132705688 0.61611473560333252 0.0023100010585039854
0.99981200695037842 0.60449743270874023 0.002087567001581192
1 0.56752938032150269 0.0015789405442774296
0.99557590484619141 0.61978906393051147 0.0030212551355361938
1 0.62320625782012939 0.00090423284564167261
1 0.60549050569534302 0.0014931174227967858
0.99975931644439697 0.59289193153381348 0.00088746316032484174
1 0.57874977588653564 0.0003308165178168565
0.99995124340057373 0.56360024213790894 0.0054148207418620586
1 0.58268630504608154 0.045144625008106232
0.99784189462661743 0.59283852577209473 0.0080627892166376114
0.99739712476730347 0.60624140501022339 0.037796393036842346
1 0.62411969900131226 0.18359720706939697
1 0.62499493360519409 0.26892262697219849
1 0.61855602264404297 0.30444833636283875
1 0.61189776659011841 0.36435261368751526
1 0.6442837119102478 0.38845762610435486
0.99923110008239746 0.5973091721534729 0.2102866917848587
1 0.61172664165496826 0.27319777011871338
1 0.64109331369400024 0.37770220637321472
1 0.68612015247344971 0.50943851470947266
0.999289870262146 0.70690369606018066 0.5860331654548645
0.99998027086257935 0.70530527830123901 0.61208546161651611
1 0.73167520761489868 0.60409808158874512
0.99859243631362915 0.64128553867340088 0.39075839519500732
0.99952346086502075 0.65277552604675293 0.41920408606529236
1 0.67817097902297974 0.4778502881526947
1 0.72112548351287842 0.57724142074584961
0.9979059100151062 0.7777366042137146 0.69115716218948364
0.96524357795715332 0.83217704296112061 0.79428702592849731
0.99999392032623291 0.8154451847076416 0.74382251501083374
1 0.67796021699905396 0.48960825800895691
1 0.69046306610107422 0.51203197240829468
1 0.71453219652175903 0.5528562068939209
0.99965929985046387 0.75073897838592529 0.62671291828155518
1 0.80266141891479492 0.70739996433258057
0.99999064207077026 0.82679319381713867 0.73646849393844604
0.99975728988647461 0.81835371255874634 0.72413879632949829
1 0.63223367929458618 0
1 0.62894046306610107 0
0.99871861934661865 0.63352507352828979 0
1 0.64616894721984863 0
1 0.65368044376373291 0
1 0.67066740989685059 0
1 0.68251258134841919 0
1 0.6421625018119812 0.00037373561644926667
1 0.64335286617279053 0.0034715242218226194
1 0.64194369316101074 0
1 0.65452128648757935 0.005517622921615839
1 0.66207069158554077 0.0012892629019916058
1 0.67578625679016113 0.0029542362317442894
1 0.68280553817749023 4.8618690925650299e-05
1 0.66561079025268555 0.00095238781068474054
1 0.66559427976608276 0.012116151861846447
1 0.67231160402297974 0.0021259980276226997
1 0.67109274864196777 0.011430298909544945
1 0.67653632164001465 0.010310184210538864
1 0.67633533477783203 0.00077785417670384049
1 0.66750681400299072 0.00091286451788619161
1 0.6829904317855835 0
1 0.68877512216567993 0
1 0.70079463720321655 0.031583297997713089
1 0.69537997245788574 0.035858303308486938
1 0.69214081764221191 0.027776561677455902
1 0.69984972476959229 0.076309755444526672
1 0.69790410995483398 0.16621981561183929
1 0.69016349315643311 0.0046921074390411377
1 0.70004510879516602 0.048878271132707596
1 0.72075355052947998 0.2578292191028595
1 0.7466202974319458 0.38001111149787903
0.99805814027786255 0.75787961483001709 0.45548996329307556
0.99790900945663452 0.75205862522125244 0.48698222637176514
1 0.74589169025421143 0.51067739725112915
1 0.67134052515029907 0.28605455160140991
1 0.68984568119049072 0.32554799318313599
1 0.71112924814224243 0.41538265347480774
0.99887531995773315 0.74975031614303589 0.51941490173339844
1 0.78945070505142212 0.63440710306167603
0.99998599290847778 0.81707572937011719 0.7119409441947937
0.99999099969863892 0.82011765241622925 0.7355692982673645
1 0.68807011842727661 0.46379297971725464
1 0.70258951187133789 0.48989772796630859
0.99895232915878296 0.72604739665985107 0.53752052783966064
0.99607843160629272 0.76137292385101318 0.60992515087127686
1 0.80686044692993164 0.70617294311523438
0.99953758716583252 0.87013328075408936 0.81712573766708374
0.96918874979019165 0.915183424949646 0.90001362562179565
