assets/lut/picturefx faux infrared color p3.cube
# Created by: G'MIC (https://gmic.eu)
TITLE "faux_infrared_color_p3"
# LUT size
LUT_3D_SIZE 5
# Data domain
DOMAIN_MIN 0.0 0.0 0.0
DOMAIN_MAX 1.0 1.0 1.0
# LUT data points
0.10438568890094757 0.097095683217048645 0.12102895975112915
0.62406432628631592 0.53042429685592651 0.40702944993972778
0.98445504903793335 0.91738468408584595 0.707663893699646
1 0.97840332984924316 0.88474619388580322
1 0.98823529481887817 0.93333333730697632
0.38564160466194153 0.12044872343540192 0.29222217202186584
0.75287765264511108 0.38796395063400269 0.48638075590133667
0.98798209428787231 0.85855019092559814 0.73147678375244141
1 0.96672981977462769 0.89962279796600342
1 0.98039215803146362 0.9422372579574585
0.66274714469909668 0.21423265337944031 0.48238837718963623
0.8958432674407959 0.32647949457168579 0.63762813806533813
0.99998652935028076 0.6605408787727356 0.79789423942565918
1 0.94541293382644653 0.92926251888275146
1 0.98105555772781372 0.9666363000869751
0.91493666172027588 0.30951797962188721 0.69100731611251831
0.97869700193405151 0.3902708888053894 0.78479868173599243
0.99813663959503174 0.42893174290657043 0.82960879802703857
1 0.90293639898300171 0.93924754858016968
1 0.99163347482681274 0.99287456274032593
0.99770927429199219 0.38757139444351196 0.85761559009552002
0.99842691421508789 0.41096431016921997 0.85379648208618164
1 0.43309354782104492 0.84598034620285034
1 0.44312432408332825 0.83580994606018066
1 0.5951874852180481 0.86014252901077271
0.0019620410166680813 0.28725647926330566 0.27852597832679749
0.39651590585708618 0.58943718671798706 0.45183360576629639
0.94834315776824951 0.92176598310470581 0.71080291271209717
0.99802595376968384 0.98750889301300049 0.89845556020736694
1 0.99215686321258545 0.9384232759475708
0.095421776175498962 0.18411490321159363 0.36001747846603394
0.56194579601287842 0.41817772388458252 0.48193970322608948
0.97171050310134888 0.88068461418151855 0.74530243873596191
1 0.97121858596801758 0.8966137170791626
1 0.98224377632141113 0.93634665012359619
0.45559301972389221 0.22467383742332458 0.50504231452941895
0.79997235536575317 0.28213033080101013 0.62934774160385132
0.99680799245834351 0.70435541868209839 0.81168091297149658
1 0.9542732834815979 0.93043166399002075
1 0.98048931360244751 0.9619450569152832
0.82098960876464844 0.29399323463439941 0.69867390394210815
0.95772635936737061 0.34221047163009644 0.77119988203048706
0.99632877111434937 0.42399820685386658 0.85242164134979248
1 0.91471928358078003 0.94899827241897583
1 0.9888724684715271 0.98910051584243774
0.99391359090805054 0.36137533187866211 0.846030592918396
0.9884413480758667 0.38581967353820801 0.86758291721343994
0.99895966053009033 0.41504886746406555 0.87230443954467773
1 0.45116561651229858 0.84895086288452148
1 0.62353122234344482 0.87161880731582642
2.6927275030175224e-05 0.4906429648399353 0.46634858846664429
0.085246548056602478 0.70200157165527344 0.57404333353042603
0.74120014905929565 0.9682610034942627 0.77429521083831787
0.98161965608596802 0.99863529205322266 0.93101602792739868
0.99753338098526001 0.99948298931121826 0.96574276685714722
0.088662028312683105 0.31522423028945923 0.51356810331344604
0.046289704740047455 0.58397507667541504 0.58895045518875122
0.80819928646087646 0.91837632656097412 0.77982258796691895
0.99368971586227417 0.99167472124099731 0.93640965223312378
0.99949270486831665 0.99238592386245728 0.96185660362243652
0.18644344806671143 0.33860230445861816 0.62647092342376709
0.37852567434310913 0.35121837258338928 0.68443197011947632
0.95430994033813477 0.74706995487213135 0.83166873455047607
0.99943143129348755 0.98033738136291504 0.96173250675201416
1 0.9897763729095459 0.97715127468109131
0.45403406023979187 0.38345876336097717 0.75458991527557373
0.76347678899765015 0.36216625571250916 0.80614590644836426
0.9844740629196167 0.41346070170402527 0.89480477571487427
1 0.94535571336746216 0.96935665607452393
1 0.99014651775360107 0.99004614353179932
0.91554522514343262 0.37335014343261719 0.87802612781524658
0.97259849309921265 0.38176319003105164 0.9157867431640625
0.99543702602386475 0.41731733083724976 0.92727327346801758
1 0.47610288858413696 0.88457357883453369
1 0.70228224992752075 0.9024890661239624
0.00015707577404100448 0.70662420988082886 0.66362148523330688
0.018707260489463806 0.83926510810852051 0.73065197467803955
0.29116761684417725 0.98687064647674561 0.8412710428237915
0.9716072678565979 1 0.97541266679763794
0.99329018592834473 1 0.98674744367599487
0.0057120379060506821 0.59795272350311279 0.69116485118865967
0.0094213150441646576 0.75414258241653442 0.7397647500038147
0.23565998673439026 0.97809767723083496 0.85709166526794434
0.9808046817779541 1 0.98077601194381714
0.99218714237213135 1 0.99242913722991943
0.23076349496841431 0.42385649681091309 0.77108705043792725
0.17553691565990448 0.50303614139556885 0.81108492612838745
0.39107367396354675 0.87658095359802246 0.89059996604919434
0.98994308710098267 0.9978334903717041 0.98786085844039917
0.99216657876968384 0.99607843160629272 0.99215686321258545
0.26970860362052917 0.47680437564849854 0.86439085006713867
0.28492465615272522 0.49494609236717224 0.89894801378250122
0.90142416954040527 0.49914112687110901 0.97511798143386841
0.99977982044219971 0.97882950305938721 0.99261337518692017
0.99613404273986816 0.99607843160629272 0.99514228105545044
0.3663439154624939 0.5227850079536438 0.956817626953125
0.65539151430130005 0.50139355659484863 0.9812626838684082
0.98184669017791748 0.45427000522613525 0.98573440313339233
1 0.5702022910118103 0.95439952611923218
1 0.80943602323532104 0.95408850908279419
0 0.87237012386322021 0.8184623122215271
0.0056968391872942448 0.95883798599243164 0.86132478713989258
0.16761146485805511 0.99906063079833984 0.87882256507873535
0.75836169719696045 1 0.93179965019226074
0.98807621002197266 1 0.99476355314254761
0.0010028465185314417 0.80656570196151733 0.84069669246673584
0.0024664935190230608 0.90690493583679199 0.86734813451766968
0.082234673202037811 0.99893975257873535 0.92127680778503418
0.79234027862548828 1 0.94334971904754639
0.98617053031921387 1 0.99392539262771606
0.15873298048973083 0.57644963264465332 0.90422779321670532
0.034954145550727844 0.73763549327850342 0.92273128032684326
0.026726247742772102 0.97201097011566162 0.95862478017807007
0.87755101919174194 1 0.97436189651489258
0.99433529376983643 1 0.99930483102798462
0.28775304555892944 0.53761929273605347 0.95118367671966553
0.30632156133651733 0.55059665441513062 0.98528957366943359
0.13094861805438995 0.73362594842910767 0.99980860948562622
0.97298663854598999 0.99420267343521118 1
0.99607843160629272 1 1
0.31769838929176331 0.56921035051345825 0.99136173725128174
0.3358883261680603 0.57042253017425537 0.99766165018081665
0.59381568431854248 0.55148625373840332 1
0.99812054634094238 0.72946125268936157 0.99999302625656128
1 0.91198825836181641 0.9967077374458313
