assets/lut/picturefx goldfx perfect sunset 10min.cube
# Created by: G'MIC (https://gmic.eu)
TITLE "goldfx_perfect_sunset_10min"
# LUT size
LUT_3D_SIZE 7
# Data domain
DOMAIN_MIN 0.0 0.0 0.0
DOMAIN_MAX 1.0 1.0 1.0
# LUT data points
0.0048021203838288784 0.0064458209089934826 0.0065949833951890469
0.05808054655790329 0.0054335799068212509 0.0050454530864953995
0.19453343749046326 0.0061561283655464649 0.0017831241711974144
0.35334771871566772 0.005792700219899416 0.0041678636334836483
0.50909733772277832 0.0014555089874193072 0.0030186222866177559
0.67098367214202881 0.00035759419552050531 0.001107324380427599
0.87269741296768188 0 0
0.0067205093801021576 0.087506659328937531 0.0024663887452334166
0.087487824261188507 0.085058026015758514 0.0027864642906934023
0.21053142845630646 0.090673215687274933 0.0001916324399644509
0.34456241130828857 0.065132513642311096 0.00012410481576807797
0.5020071268081665 0.026245340704917908 9.8553828138392419e-05
0.68032586574554443 0.0075885546393692493 0.00025168026331812143
0.87830966711044312 0.00011488970631035045 0
0.0011653526453301311 0.22662197053432465 0.00073529413202777505
0.046368438750505447 0.22192205488681793 4.6673944780195598e-06
0.21371050179004669 0.22420293092727661 0
0.36103850603103638 0.22273242473602295 0
0.51726949214935303 0.20401714742183685 0
0.68814754486083984 0.15324009954929352 0
0.89183938503265381 0.036358028650283813 0
0.003064518328756094 0.37430694699287415 0
0.021241087466478348 0.37748605012893677 0
0.17493638396263123 0.3749288022518158 0
0.35309317708015442 0.37623122334480286 0
0.52557188272476196 0.3657982349395752 0
0.70026731491088867 0.34124630689620972 0
0.8947862982749939 0.26543843746185303 0
0.0028426225762814283 0.55277180671691895 0
0.0087393363937735558 0.55139142274856567 0
0.1055888757109642 0.54731070995330811 0
0.28874650597572327 0.54647207260131836 0
0.48921531438827515 0.5389677882194519 0
0.68776810169219971 0.51773929595947266 0
0.84831839799880981 0.5026623010635376 0
0 0.7275015115737915 0
0 0.72562992572784424 0
0.0075099123641848564 0.71279102563858032 0
0.16631427407264709 0.70425903797149658 0
0.45146322250366211 0.69607353210449219 0
0.63096648454666138 0.68422001600265503 0
0.82535052299499512 0.66176748275756836 0
0 0.87322384119033813 0
0 0.87301456928253174 0
0.00012835334928240627 0.86242598295211792 0
0.041795305907726288 0.85169446468353271 0
0.38835078477859497 0.83625334501266479 0
0.5726504921913147 0.82938468456268311 0
0.7667275071144104 0.80936092138290405 0
0.0058312807232141495 0.0061012119986116886 0.050880894064903259
0.078508146107196808 0.0043096654117107391 0.084169991314411163
0.22689925134181976 0 0.089547760784626007
0.37279766798019409 0 0.074825629591941833
0.54295998811721802 0 0.04662608727812767
0.72388052940368652 0 0.027876626700162888
0.91421973705291748 0 0.011755356565117836
0.00038176891393959522 0.08902633935213089 0.082610949873924255
0.07819848507642746 0.083571217954158783 0.08181317150592804
0.2394508570432663 0.045147616416215897 0.067858003079891205
0.3863787055015564 0.014681153930723667 0.046991623938083649
0.55677598714828491 0.0058793011121451855 0.027052471414208412
0.74189668893814087 0.0017101811245083809 0.013742903247475624
0.94480675458908081 5.0264246965525672e-05 0.0053845127113163471
0 0.23136736452579498 0.030956044793128967
0.023082120344042778 0.23100101947784424 0.019003011286258698
0.20983217656612396 0.2235017716884613 0.01259511336684227
0.37673848867416382 0.20746350288391113 0.013663631863892078
0.55040138959884644 0.16416254639625549 0.0041037467308342457
0.73632913827896118 0.059955567121505737 0.0055136736482381821
0.95273089408874512 0.0065421760082244873 0.00078388286055997014
0.00020889581355731934 0.38595938682556152 0.0069610294885933399
0.013924064114689827 0.38827455043792725 0.0077656018547713757
0.12010601162910461 0.38073396682739258 0.00061403162544593215
0.34994587302207947 0.37744715809822083 0.0035139345563948154
0.54333460330963135 0.35591942071914673 0.00063201307784765959
0.71951901912689209 0.32181614637374878 0
0.92659622430801392 0.19219577312469482 0
0 0.56390905380249023 0.0015255797188729048
0.0055767581798136234 0.56325924396514893 0.0046344082802534103
0.042880278080701828 0.55816376209259033 3.5903034586226568e-05
0.24978291988372803 0.55161601305007935 0
0.48559409379959106 0.53865045309066772 0
0.69190514087677002 0.51474601030349731 0
0.85922408103942871 0.49144446849822998 0
0 0.73775684833526611 0
0 0.73536646366119385 0
0.01335480622947216 0.72494733333587646 0
0.12045121937990189 0.71351176500320435 0
0.44012320041656494 0.70159697532653809 0
0.6312183141708374 0.68546402454376221 0
0.83374077081680298 0.65994149446487427 0
0 0.88227272033691406 0
0 0.88100951910018921 0
0.0011941199190914631 0.87465113401412964 0
0.060021959245204926 0.85567086935043335 0
0.36368513107299805 0.83730423450469971 0
0.5765414834022522 0.82962286472320557 0
0.76603996753692627 0.81039583683013916 0
0.00046335856313817203 0.009492252953350544 0.2448146790266037
0.059367295354604721 0.0010017843451350927 0.25547197461128235
0.24605649709701538 0 0.25204533338546753
0.41103300452232361 0 0.2516944408416748
0.56897306442260742 0 0.23174208402633667
0.74216741323471069 0 0.20202870666980743
0.92495620250701904 0 0.17967067658901215
1.4361213516167481e-06 0.085770383477210999 0.26851925253868103
0.066633589565753937 0.068505324423313141 0.26985055208206177
0.25974419713020325 0.022794775664806366 0.26556491851806641
0.41953495144844055 0.0054983249865472317 0.24498267471790314
0.59932130575180054 0.0019956552423536777 0.21225138008594513
0.78411543369293213 0.0003912383399438113 0.17631703615188599
0.96247273683547974 0 0.14811210334300995
0 0.23744051158428192 0.24678665399551392
0.005996061023324728 0.23637394607067108 0.24012330174446106
0.20959337055683136 0.21774855256080627 0.21968191862106323
0.41734528541564941 0.16761106252670288 0.18818600475788116
0.61015814542770386 0.078253380954265594 0.16169041395187378
0.80390673875808716 0.02022908441722393 0.13115198910236359
0.98335355520248413 0.0027320263907313347 0.094311237335205078
0 0.4003201425075531 0.16577200591564178
0.00060867611318826675 0.39874756336212158 0.13439697027206421
0.098122604191303253 0.40523689985275269 0.093393824994564056
0.36739781498908997 0.38130661845207214 0.075329877436161041
0.58091920614242554 0.34668076038360596 0.058782763779163361
0.76563060283660889 0.28760653734207153 0.021760214120149612
0.9493909478187561 0.1791989654302597 0.014222627505660057
0 0.58900535106658936 0.020729139447212219
0.00014519784599542618 0.58926892280578613 0.01950174942612648
0.012215812690556049 0.58652853965759277 0.0093028498813509941
0.2045586109161377 0.57271891832351685 0.0043107573874294758
0.51383405923843384 0.55364823341369629 0.0055718515068292618
0.72740292549133301 0.52086371183395386 0.0035598755348473787
0.89185911417007446 0.48926240205764771 0.00050517061026766896
0 0.76372891664505005 0.0027557373978197575
0 0.76203280687332153 0.0019619062077254057
0.0032709010411053896 0.75343072414398193 0.0011617622803896666
0.054453443735837936 0.73964154720306396 0
0.43636688590049744 0.71793735027313232 6.1184749938547611e-05
0.65960639715194702 0.70223748683929443 4.6673943870700896e-05
0.86090987920761108 0.67176753282546997 0
0 0.90574705600738525 0
0 0.9012414813041687 0
0.00054259953321889043 0.89338654279708862 0
0.061249438673257828 0.88469058275222778 0
0.36819437146186829 0.85312092304229736 0
0.58020269870758057 0.83791983127593994 0
0.7772020697593689 0.82329607009887695 0
2.6927275030175224e-05 0.0064470027573406696 0.6651732325553894
0.084758967161178589 0 0.59733688831329346
0.32341605424880981 0 0.59269088506698608
0.53472912311553955 0 0.56608748435974121
0.77185249328613281 0 0.55171298980712891
0.95409947633743286 0 0.50520354509353638
0.99724513292312622 0 0.4752027690410614
0 0.11851164698600769 0.69280135631561279
0.034478027373552322 0.044904820621013641 0.65902596712112427
0.33725595474243164 0.015229961834847927 0.63769316673278809
0.5865214467048645 0.0092826243489980698 0.620136559009552
0.82920920848846436 9.7237381851300597e-05 0.56433546543121338
0.97781223058700562 0 0.49923810362815857
0.99770230054855347 0 0.48082995414733887
0 0.32047712802886963 0.66871994733810425
0.0060819736681878567 0.30356070399284363 0.66412687301635742
0.21276207268238068 0.2529062032699585 0.63232529163360596
0.57859963178634644 0.16106708347797394 0.59275144338607788
0.84834712743759155 0.04884999617934227 0.53229045867919922
0.98552107810974121 0.0044209198094904423 0.46275696158409119
0.99992334842681885 0.013401794247329235 0.41155844926834106
0 0.53865945339202881 0.56607067584991455
0 0.53764051198959351 0.56609702110290527
0.026221152395009995 0.52289718389511108 0.540638267993927
0.4650760293006897 0.4809207022190094 0.48540416359901428
0.7974780797958374 0.38228699564933777 0.41830819845199585
0.96733886003494263 0.27756279706954956 0.35996007919311523
0.99936366081237793 0.18121133744716644 0.3122408390045166
0 0.75350028276443481 0.42014575004577637
0 0.75550687313079834 0.40001094341278076
0.00075103162089362741 0.74771428108215332 0.32907876372337341
0.16545529663562775 0.72751796245574951 0.22373636066913605
0.66795176267623901 0.68399715423583984 0.21143509447574615
0.90142977237701416 0.6316753625869751 0.19458194077014923
0.99599021673202515 0.58126556873321533 0.16795088350772858
0 0.91452479362487793 0.16055548191070557
0 0.91344231367111206 0.14411987364292145
0 0.9026496410369873 0.11281906068325043
0.064720854163169861 0.88085591793060303 0.070729799568653107
0.53981775045394897 0.85103589296340942 0.027791775763034821
0.79842013120651245 0.81977123022079468 0.030253510922193527
0.98303782939910889 0.77804195880889893 0.023566914722323418
0 0.99103224277496338 0.031786076724529266
0 0.98864626884460449 0.032680466771125793
0 0.9874916672706604 0.016440432518720627
0.010517270304262638 0.9854845404624939 0.01980183832347393
0.3787524402141571 0.97189933061599731 0.011958328075706959
0.68787086009979248 0.94678819179534912 0.0043935137800872326
0.91380304098129272 0.92495125532150269 0.00073325959965586662
0.007788041140884161 0.003817330114543438 0.99629491567611694
0.019685378298163414 0 0.99145334959030151
0.2875913679599762 0 0.97176080942153931
0.66370141506195068 0 0.94107073545455933
0.92516106367111206 0 0.92472046613693237
0.99803251028060913 0 0.90225273370742798
1 0 0.85510581731796265
0.0012682746164500713 0.051607303321361542 0.99878972768783569
0.013382227160036564 0.018611997365951538 0.99550062417984009
0.35724577307701111 0.0034821005538105965 0.99302154779434204
0.73071050643920898 0.00036549288779497147 0.98053556680679321
0.97140473127365112 0 0.97541069984436035
0.9999808669090271 0 0.92130386829376221
1 0 0.85951006412506104
0 0.37557503581047058 0.99568980932235718
0.0038700478617101908 0.34168016910552979 0.99679464101791382
0.22319215536117554 0.24274745583534241 0.99492007493972778
0.6685747504234314 0.12189951539039612 0.98426735401153564
0.96491926908493042 0.023610133677721024 0.96081173419952393
0.99965482950210571 0.0036232592537999153 0.90493905544281006
1 0.0092191062867641449 0.83228111267089844
0 0.63163405656814575 0.97863298654556274
1.1668485967675224e-05 0.61855924129486084 0.98220145702362061
0.013894099742174149 0.57636785507202148 0.97495526075363159
0.49831458926200867 0.50071036815643311 0.95713824033737183
0.90563023090362549 0.39798572659492493 0.89525938034057617
0.99953782558441162 0.24079163372516632 0.81388592720031738
1 0.13700629770755768 0.7402227520942688
0 0.85160660743713379 0.86579781770706177
0 0.84663814306259155 0.86016654968261719
0.0013298334088176489 0.83143377304077148 0.8387070894241333
0.17516066133975983 0.80352258682250977 0.80706930160522461
0.74664831161499023 0.74932891130447388 0.74530118703842163
0.98152047395706177 0.65610325336456299 0.66182732582092285
1 0.58351230621337891 0.59906655550003052
0 0.98654687404632568 0.70879906415939331
0 0.981911301612854 0.68852537870407104
0 0.97702914476394653 0.66478049755096436
0.018017996102571487 0.96652966737747192 0.61133766174316406
0.49241223931312561 0.93492668867111206 0.53371858596801758
0.88390541076660156 0.88917160034179688 0.46405470371246338
0.99928265810012817 0.82526868581771851 0.46037966012954712
0 1 0.5390923023223877
0 1 0.51950019598007202
0 0.99994760751724243 0.47916623950004578
0.01085948571562767 0.99996376037597656 0.43761637806892395
0.34549260139465332 0.99880325794219971 0.37594214081764221
0.74760478734970093 0.99476706981658936 0.3035987913608551
0.97476077079772949 0.97908264398574829 0.21452145278453827
0.066587753593921661 0 1
0.2143854945898056 0 1
0.43729689717292786 0 1
0.69635921716690063 0 0.99878406524658203
0.92791426181793213 0 0.99976783990859985
0.99653089046478271 0 0.99474799633026123
1 0 0.9968637228012085
0.067568413913249969 0.014947284944355488 1
0.25734984874725342 0.005052618682384491 1
0.55056214332580566 0.00076988071668893099 1
0.78471565246582031 6.7318185756448656e-05 0.99999433755874634
0.96846210956573486 0 0.99988776445388794
0.99833458662033081 0.00034431010135449469 0.99412280321121216
1 3.081676914007403e-05 0.9921334981918335
0.02041332796216011 0.28529903292655945 1
0.15859332680702209 0.24478651583194733 1
0.45800277590751648 0.14537785947322845 1
0.72369062900543213 0.083577066659927368 1
0.95209783315658569 0.025245785713195801 1
0.99600064754486084 0.01629943773150444 0.99184632301330566
1 0.0087772291153669357 0.98899322748184204
6.8215763349144254e-06 0.58011269569396973 1
0.002842817222699523 0.5623893141746521 0.99995601177215576
0.11780329793691635 0.51518815755844116 0.99981808662414551
0.53261041641235352 0.43921136856079102 1
0.86177521944046021 0.32811567187309265 0.99813258647918701
0.99754494428634644 0.17782652378082275 0.99379432201385498
1 0.050744060426950455 0.97838729619979858
0 0.80561000108718872 0.9965091347694397
0 0.79385101795196533 0.99508953094482422
0.001105080358684063 0.77359884977340698 0.99635994434356689
0.1130782812833786 0.72978490591049194 0.99536645412445068
0.66390013694763184 0.6621277928352356 0.98947787284851074
0.9603201150894165 0.59157127141952515 0.96221143007278442
0.99911433458328247 0.51328998804092407 0.88901948928833008
0 0.95196443796157837 0.94690006971359253
0 0.95286434888839722 0.95189845561981201
0 0.94388288259506226 0.93991267681121826
0.010168307460844517 0.92143899202346802 0.92000854015350342
0.44185015559196472 0.89178591966629028 0.88902288675308228
0.84185588359832764 0.8441619873046875 0.84318631887435913
0.99455153942108154 0.77465444803237915 0.76945775747299194
0 0.99703776836395264 0.82576125860214233
0 0.9978821873664856 0.81871360540390015
0 0.99546313285827637 0.80855828523635864
0.0034706564620137215 0.99713647365570068 0.76423215866088867
0.15772975981235504 0.99676620960235596 0.71911859512329102
0.6531364917755127 0.99119454622268677 0.66121047735214233
0.95464742183685303 0.95812326669692993 0.59881234169006348
0.28308513760566711 0.0010639564134180546 1
0.36609458923339844 0 1
0.54502135515213013 0 1
0.72471553087234497 0 1
0.89512163400650024 0 1
0.9931604266166687 0 0.99998635053634644
0.99913328886032104 0 0.99846816062927246
0.27621892094612122 0.0061253118328750134 1
0.3921741247177124 0.0044408910907804966 1
0.59213924407958984 0.0062508229166269302 1
0.79163581132888794 0.001055294880643487 1
0.96033453941345215 0 1
0.99594336748123169 0.0011533849174156785 0.99657243490219116
1 0.0010225034784525633 0.99216622114181519
0.2190120667219162 0.1963958740234375 1
0.35181957483291626 0.16010630130767822 1
0.54565787315368652 0.11693975329399109 1
0.74799615144729614 0.039239592850208282 1
0.96227008104324341 0.0091503812000155449 1
0.99570959806442261 0.020032620057463646 0.9974137544631958
1 0.014341944828629494 0.99473494291305542
0.0018393273930996656 0.51446735858917236 1
0.025177840143442154 0.49419239163398743 1
0.33078151941299438 0.45556125044822693 1
0.63593524694442749 0.3853151798248291 1
0.88036113977432251 0.28622370958328247 1
0.99785917997360229 0.095170028507709503 1
1 0.040491726249456406 0.99993103742599487
0 0.74948298931121826 1
0.00039906220627017319 0.73336184024810791 1
0.016012348234653473 0.70736992359161377 1
0.2546539306640625 0.66666692495346069 1
0.67492276430130005 0.59937381744384766 1
0.93948149681091309 0.52784794569015503 0.99918103218078613
0.99783438444137573 0.46563199162483215 0.99809479713439941
0 0.91264396905899048 0.99897021055221558
0 0.90873312950134277 0.99970757961273193
0 0.89120113849639893 0.9998708963394165
0.017038876190781593 0.86379528045654297 0.99911975860595703
0.41927650570869446 0.8154711127281189 0.99835693836212158
0.77238351106643677 0.76745033264160156 0.9961046576499939
0.98511713743209839 0.71571058034896851 0.98364323377609253
0 0.99649053812026978 0.99450922012329102
0 0.99489951133728027 0.99067217111587524
0 0.99435395002365112 0.99132221937179565
0.00068619672674685717 0.98358464241027832 0.97827672958374023
0.13421176373958588 0.97879946231842041 0.9762725830078125
0.61660128831863403 0.95892196893692017 0.9536779522895813
0.92041325569152832 0.92150551080703735 0.92053687572479248
