assets/lut/picturefx technicalfx backlight filter.cube
# Created by: G'MIC (https://gmic.eu)
TITLE "technicalfx_backlight_filter"
# LUT size
LUT_3D_SIZE 7
# Data domain
DOMAIN_MIN 0.0 0.0 0.0
DOMAIN_MAX 1.0 1.0 1.0
# LUT data points
0.062170829623937607 0.065145902335643768 0.064721174538135529
0.30259999632835388 0.06111571192741394 0.060715679079294205
0.5952875018119812 0.0080414116382598877 0.047532442957162857
0.92377734184265137 7.3511459049768746e-05 0.031752657145261765
1 0.00069796992465853691 0.0035873113665729761
1 0 0.00028399299480952322
1 0 0.0048709646798670292
0.023848081007599831 0.31428596377372742 0.030312631279230118
0.30437716841697693 0.31919082999229431 0.033835869282484055
0.61178100109100342 0.29904055595397949 0.015807133167982101
0.9359467625617981 0.2210380882024765 0.0029501074459403753
0.99883353710174561 0.14466133713722229 0.00095231301384046674
0.99781125783920288 0.12304119020700455 1.5438305126735941e-05
1 0.076620407402515411 0.0050832862034440041
0.020516758784651756 0.62870228290557861 8.6167283370741643e-06
0.19308780133724213 0.62714308500289917 0.0014318429166451097
0.58409816026687622 0.6069977879524231 0.00036088531487621367
0.90062308311462402 0.56841164827346802 3.814697265625e-05
1 0.54117411375045776 0.004681695718318224
0.99987339973449707 0.52105033397674561 0.00069991464260965586
1 0.42440903186798096 0
0.005044854711741209 0.91449326276779175 0
0.12686660885810852 0.89345645904541016 0.0011186188785359263
0.53059136867523193 0.88129335641860962 9.3347889560391195e-06
0.84806215763092041 0.84702169895172119 0.0042426614090800285
0.9998708963394165 0.81490641832351685 0.0022870232351124287
1 0.7727474570274353 0
1 0.66329050064086914 0
0 1 1.8669577912078239e-05
0.19988711178302765 0.99850237369537354 0.00017658308206591755
0.54262566566467285 0.99983662366867065 0.0030822304543107748
0.81188333034515381 0.99508887529373169 0.012563458643853664
0.99392837285995483 0.98931169509887695 5.2897135901730508e-05
1 0.95530402660369873 0.00017852782912086695
1 0.84693622589111328 0.0044299405999481678
0.055332738906145096 1 0
0.22756356000900269 0.99911642074584961 0
0.49358031153678894 0.99715948104858398 0.0035997277591377497
0.70539146661758423 0.9992903470993042 0.0053315255790948868
0.89041990041732788 0.99986428022384644 0
0.99841052293777466 0.99994665384292603 0
1 0.97176885604858398 0.00028626684797927737
0.23298360407352448 1 0.0050456477329134941
0.32841682434082031 1 0.0063641867600381374
0.46540671586990356 0.99988007545471191 1.0112687959917821e-05
0.62036663293838501 0.99620115756988525 0
0.78617411851882935 0.99583381414413452 6.3204301113728434e-05
0.92712312936782837 1 0.0055590611882507801
0.99706709384918213 0.9992716908454895 0.00035141588887199759
0.024370679631829262 0.057094961404800415 0.31014689803123474
0.30251726508140564 0.038859453052282333 0.31580552458763123
0.60679781436920166 0.0066351196728646755 0.3011622428894043
0.92244470119476318 0.00047179576358757913 0.26766100525856018
0.99984610080718994 0.0023053039330989122 0.23797044157981873
0.99793726205825806 0.0028404984623193741 0.22056002914905548
1 0 0.19992348551750183
0.00043652104795910418 0.30860593914985657 0.30803462862968445
0.29503214359283447 0.30275166034698486 0.30255785584449768
0.63902854919433594 0.25796923041343689 0.28007254004478455
0.94736641645431519 0.17219306528568268 0.24735136330127716
0.99999666213989258 0.069078527390956879 0.21563336253166199
0.99999940395355225 0.098010703921318054 0.18460817635059357
1 0.086293086409568787 0.19619536399841309
0.0020998935215175152 0.63326466083526611 0.21053275465965271
0.12489610910415649 0.63742721080780029 0.20027267932891846
0.59916192293167114 0.61010783910751343 0.1903110146522522
0.90586370229721069 0.56025397777557373 0.1439489871263504
0.99996882677078247 0.53153979778289795 0.1376531720161438
1 0.5087781548500061 0.11548452824354172
1 0.43471688032150269 0.15283659100532532
0.00052430393407121301 0.9084627628326416 0.047158632427453995
0.066000752151012421 0.88729214668273926 0.070090241730213165
0.5142817497253418 0.86853665113449097 0.03046448715031147
0.84389179944992065 0.83604305982589722 0.052934084087610245
0.99984931945800781 0.8011709451675415 0.017620788887143135
1 0.76426512002944946 0.010635435581207275
1 0.66492313146591187 0.057571936398744583
0.0022415909916162491 1 0.024670904502272606
0.15643231570720673 0.99908912181854248 0.014622094109654427
0.51321923732757568 0.99970197677612305 0.0051395040936768055
0.78885680437088013 0.98956620693206787 0.0079598966985940933
0.98393970727920532 0.97011047601699829 0
1 0.93665844202041626 0.00046913296682760119
1 0.84395623207092285 0.043746110051870346
0.054760966449975967 1 0.021689021959900856
0.23099789023399353 0.99825799465179443 0.015893734991550446
0.49623808264732361 0.99992769956588745 0.020211014896631241
0.7028357982635498 1 0.012097706086933613
0.90182065963745117 1 0.00022137211635708809
0.99738162755966187 0.99933326244354248 0
1 0.96781498193740845 0.001342833274975419
0.20298983156681061 1 0.10074636340141296
0.33065953850746155 1 0.12343496829271317
0.46889406442642212 0.99985748529434204 0.075090207159519196
0.61547672748565674 0.9999813437461853 0.080831103026866913
0.77692538499832153 1 0.026556367054581642
0.92680513858795166 1 0.035569313913583755
0.9993356466293335 0.99993467330932617 0.0068019493483006954
0.00011668485967675224 0.045264825224876404 0.62115532159805298
0.2139291912317276 0.029094336554408073 0.62085211277008057
0.58271163702011108 0.0028149622958153486 0.61375421285629272
0.90642905235290527 0.0031259872484952211 0.58066576719284058
1 0.0046703112311661243 0.5436089038848877
0.99459707736968994 0.0010696111712604761 0.49522393941879272
0.99960935115814209 0.00084946578135713935 0.43010368943214417
0 0.27422484755516052 0.63096362352371216
0.19334012269973755 0.26214554905891418 0.63456594944000244
0.60617411136627197 0.19423107802867889 0.6173134446144104
0.9148871898651123 0.060304079204797745 0.56347811222076416
1 0.019296953454613686 0.51279884576797485
1 0.041872493922710419 0.46097126603126526
1 0.11788119375705719 0.42096403241157532
0 0.60275959968566895 0.60853445529937744
0.023924225941300392 0.59941500425338745 0.59927785396575928
0.55163055658340454 0.55527979135513306 0.55201095342636108
0.88234007358551025 0.47064396739006042 0.48102110624313354
0.9998897910118103 0.42421552538871765 0.43951883912086487
1 0.4168667197227478 0.40479299426078796
1 0.4189695417881012 0.38732224702835083
8.8097069237846881e-05 0.8688233494758606 0.48367404937744141
7.180606644396903e-06 0.85147392749786377 0.47530433535575867
0.36977258324623108 0.82074975967407227 0.42702266573905945
0.78745955228805542 0.78445625305175781 0.39154201745986938
0.98609292507171631 0.73416280746459961 0.35818856954574585
0.9970589280128479 0.70724684000015259 0.3378089964389801
1 0.64804297685623169 0.3311258852481842
0 0.9948163628578186 0.3627069890499115
0.039110191166400909 0.98962950706481934 0.33838900923728943
0.3545927107334137 0.98217892646789551 0.31372615694999695
0.70768243074417114 0.95515888929367065 0.29878562688827515
0.94326281547546387 0.92994046211242676 0.26181131601333618
1 0.89865624904632568 0.2610740065574646
1 0.83061611652374268 0.27553421258926392
8.8500979472883046e-05 1 0.32359081506729126
0.12842352688312531 1 0.30945038795471191
0.41568586230278015 1 0.28891441226005554
0.6654852032661438 1 0.26254686713218689
0.87800830602645874 0.99997967481613159 0.2312161773443222
0.99478191137313843 0.99786221981048584 0.20327295362949371
1 0.96123778820037842 0.19664262235164642
0.10704929381608963 0.99900239706039429 0.34660327434539795
0.29821592569351196 0.99877041578292847 0.34819960594177246
0.46696490049362183 0.99846309423446655 0.32851573824882507
0.6227034330368042 0.99607843160629272 0.31606429815292358
0.76888024806976318 0.99895429611206055 0.28219705820083618
0.9192696213722229 1 0.26178815960884094
0.99669051170349121 0.99910342693328857 0.21630524098873138
0.00020361508359201252 0.019721342250704765 0.91085022687911987
0.084517128765583038 0.0017136817332357168 0.90749210119247437
0.50745421648025513 0.00023426729603670537 0.89059615135192871
0.84845393896102905 0.002010091207921505 0.85890048742294312
1 0 0.82849466800689697
0.99980628490447998 0 0.7747727632522583
0.99640965461730957 0.0040600495412945747 0.67223823070526123
0.010712013579905033 0.24241720139980316 0.91719871759414673
0.11950183659791946 0.22382508218288422 0.91540104150772095
0.53195834159851074 0.16245917975902557 0.89923995733261108
0.84682607650756836 0.073562830686569214 0.85962545871734619
0.99999284744262695 0.010060508735477924 0.8055882453918457
1 0 0.73768442869186401
1 0.046183701604604721 0.65181446075439453
0.0087916208431124687 0.52913057804107666 0.88414126634597778
0.037346050143241882 0.5037837028503418 0.87496817111968994
0.45321542024612427 0.45929720997810364 0.84055989980697632
0.80492997169494629 0.4007817804813385 0.79509192705154419
0.9934316873550415 0.31068283319473267 0.73305445909500122
1 0.24366019666194916 0.668282151222229
1 0.30551308393478394 0.61354964971542358
0.00065717508550733328 0.79369181394577026 0.79272091388702393
0.00032375560840591788 0.780251145362854 0.77296608686447144
0.2280450165271759 0.75015485286712646 0.74223202466964722
0.70476549863815308 0.70290368795394897 0.70419836044311523
0.96235257387161255 0.63407129049301147 0.63596493005752563
0.99961167573928833 0.59082955121994019 0.58338117599487305
0.9998161792755127 0.57313728332519531 0.54865938425064087
0.00058348412858322263 0.96262896060943604 0.67563450336456299
0.013031529262661934 0.95374137163162231 0.65445941686630249
0.19066131114959717 0.94169420003890991 0.62348389625549316
0.58583688735961914 0.90974622964859009 0.58252298831939697
0.89841490983963013 0.88254082202911377 0.55746865272521973
0.9999886155128479 0.8331528902053833 0.51804029941558838
0.99983221292495728 0.79348522424697876 0.4917544424533844
0 1 0.57851165533065796
0.060454186052083969 1 0.55642956495285034
0.24320170283317566 1 0.53647398948669434
0.54010230302810669 0.99907141923904419 0.50888162851333618
0.82123303413391113 0.99399274587631226 0.48955532908439636
0.98570191860198975 0.973003089427948 0.46426376700401306
1 0.94055211544036865 0.44270223379135132
0.048759505152702332 0.99814993143081665 0.53567993640899658
0.18154831230640411 0.99742203950881958 0.52557367086410522
0.36861228942871094 0.99920344352722168 0.50812101364135742
0.58318799734115601 0.99862730503082275 0.49457722902297974
0.76092445850372314 0.99962389469146729 0.471772700548172
0.91363430023193359 1 0.45742705464363098
0.9952998161315918 0.99982142448425293 0.43858245015144348
1.8669577912078239e-05 0.00031899844179861248 0.99958091974258423
0.048543788492679596 0 0.99996423721313477
0.47863644361495972 0 0.99973630905151367
0.80114167928695679 0 0.99988788366317749
0.99959087371826172 0 0.98746556043624878
1 0 0.97502553462982178
0.99823969602584839 0 0.90181738138198853
0.0029873268213123083 0.21581290662288666 1
0.10241078585386276 0.1966155618429184 1
0.5066763162612915 0.1342538446187973 0.99992340803146362
0.7974509596824646 0.028702111914753914 0.99963313341140747
0.99750924110412598 0.0039804796688258648 0.98320716619491577
1 0 0.95386475324630737
1 0.00032243915484286845 0.88535332679748535
0.00045973833766765893 0.46443763375282288 0.99865961074829102
0.0346183180809021 0.44499030709266663 0.99924904108047485
0.41136890649795532 0.40866604447364807 0.99461430311203003
0.73847794532775879 0.36075109243392944 0.97935593128204346
0.96535652875900269 0.27699089050292969 0.95688289403915405
1 0.21970257163047791 0.9067084789276123
0.99988704919815063 0.20832693576812744 0.85052353143692017
0.00044768091174773872 0.71555763483047485 0.974861741065979
0 0.69781696796417236 0.96612119674682617
0.15720595419406891 0.65612494945526123 0.95211869478225708
0.61174303293228149 0.61054384708404541 0.93055778741836548
0.90162515640258789 0.56809866428375244 0.88815480470657349
0.99924111366271973 0.5118488073348999 0.8331606388092041
0.99991011619567871 0.48501724004745483 0.7791019082069397
0.0034329881891608238 0.90942507982254028 0.90892314910888672
0.0010858423775061965 0.89512890577316284 0.89677828550338745
0.096175096929073334 0.87727129459381104 0.87158763408660889
0.46495717763900757 0.8501056432723999 0.84684062004089355
0.81498259305953979 0.8137701153755188 0.80972760915756226
0.99274104833602905 0.74585622549057007 0.74795287847518921
0.99702680110931396 0.69967502355575562 0.6938895583152771
0.00026310939574614167 0.99990338087081909 0.80454480648040771
0.0042056362144649029 0.99827569723129272 0.79318010807037354
0.073016360402107239 0.99436682462692261 0.76942360401153564
0.37016159296035767 0.9853435754776001 0.736125648021698
0.70912420749664307 0.96626925468444824 0.69509780406951904
0.95057946443557739 0.93516635894775391 0.66856873035430908
1 0.89287400245666504 0.6291191577911377
0.0084354327991604805 0.99902218580245972 0.70572471618652344
0.053431268781423569 0.99866789579391479 0.70478951930999756
0.18949910998344421 0.99870496988296509 0.68739509582519531
0.4578857421875 0.99867159128189087 0.66352522373199463
0.68630683422088623 0.99909186363220215 0.63596516847610474
0.87775802612304688 0.99981009960174561 0.61697602272033691
0.99785250425338745 0.99713009595870972 0.59380447864532471
0 0.02080739289522171 1
0.00098568783141672611 0.005271492525935173 1
0.31858116388320923 0.0046079745516180992 1
0.65779167413711548 0.00010974360338877887 1
0.90376979112625122 0 1
0.99999254941940308 0 1
1 0 0.9949461817741394
0 0.22220692038536072 0.99773353338241577
0.085390664637088776 0.20667187869548798 0.99698317050933838
0.41722390055656433 0.17403410375118256 0.99790626764297485
0.66969484090805054 0.077260203659534454 0.99877965450286865
0.90541547536849976 0.018624071031808853 1
0.99994945526123047 0.00022047453967388719 1
1 0 0.99817097187042236
0.0051417332142591476 0.41485720872879028 0.9973677396774292
0.13032492995262146 0.40549531579017639 0.99632585048675537
0.43058636784553528 0.38386499881744385 0.99874711036682129
0.66767549514770508 0.34907606244087219 1
0.89400744438171387 0.27546572685241699 1
0.99988704919815063 0.19244636595249176 0.99968355894088745
0.99939441680908203 0.10137121379375458 0.99515223503112793
0.00036471497151069343 0.62233519554138184 1
0.026555933058261871 0.61436718702316284 0.99993795156478882
0.28567218780517578 0.59251648187637329 0.9999992847442627
0.5813596248626709 0.55559390783309937 1
0.82569456100463867 0.51405221223831177 0.99949383735656738
0.98828697204589844 0.47230139374732971 0.98860996961593628
0.99967837333679199 0.44158750772476196 0.96192753314971924
0 0.82553976774215698 0.99970525503158569
0.0014214010443538427 0.81856006383895874 0.99857801198959351
0.1389942467212677 0.80016815662384033 0.99685460329055786
0.43456631898880005 0.76258569955825806 0.98923796415328979
0.72531783580780029 0.71807694435119629 0.97868520021438599
0.95946973562240601 0.68001943826675415 0.95289456844329834
1 0.64095628261566162 0.89696919918060303
0.0016705980524420738 0.98366385698318481 0.96905678510665894
0 0.97196149826049805 0.96255373954772949
0.0031737533863633871 0.95957356691360474 0.95429444313049316
0.23177680373191833 0.94541281461715698 0.93209874629974365
0.61005705595016479 0.91314446926116943 0.90720528364181519
0.89115363359451294 0.88057678937911987 0.87847697734832764
0.99982696771621704 0.8318638801574707 0.82714760303497314
0 1 0.88954180479049683
0 1 0.88818848133087158
0.018336920067667961 1 0.87341064214706421
0.25096249580383301 1 0.85430419445037842
0.55709046125411987 0.9999009370803833 0.82235711812973022
0.80543309450149536 0.99706339836120605 0.79165613651275635
0.97808802127838135 0.97555816173553467 0.76533132791519165
0.0023642296437174082 0.082401499152183533 1
0.023645153269171715 0.054493550211191177 1
0.28000697493553162 0.039576288312673569 1
0.53871041536331177 0.028114976361393929 0.99889492988586426
0.74883627891540527 0.0034198835492134094 0.99967938661575317
0.94267010688781738 8.4013096056878567e-05 1
0.99993932247161865 0 1
0.034377332776784897 0.24063596129417419 1
0.12992610037326813 0.22847831249237061 1
0.35186409950256348 0.21543969213962555 1
0.56235015392303467 0.17461495101451874 0.99980199337005615
0.75890016555786133 0.087570682168006897 0.99996888637542725
0.94378829002380371 0.054579116404056549 0.99989688396453857
1 0.017121095210313797 1
0.11349254101514816 0.39759093523025513 0.99949193000793457
0.24976621568202972 0.38895609974861145 0.99891781806945801
0.42020812630653381 0.37838771939277649 1
0.59130030870437622 0.3574003279209137 1
0.76922369003295898 0.31396728754043579 0.99997454881668091
0.94923096895217896 0.2665289044380188 0.99567139148712158
1 0.19597823917865753 1
0.11597786843776703 0.56104296445846558 0.99984008073806763
0.25028622150421143 0.56124359369277954 0.99985384941101074
0.41051942110061646 0.54987108707427979 1
0.5802452564239502 0.52952706813812256 1
0.76181948184967041 0.50055116415023804 1
0.9427495002746582 0.46822682023048401 1
0.99995565414428711 0.42858013510704041 1
0.021421410143375397 0.72633415460586548 1
0.068867884576320648 0.72025293111801147 0.99903833866119385
0.29291734099388123 0.71443897485733032 1
0.50649583339691162 0.69615000486373901 1
0.7010384202003479 0.6674048900604248 1
0.90094369649887085 0.6351122260093689 1
0.99575316905975342 0.60307836532592773 0.99994164705276489
0.00025787352933548391 0.88823354244232178 1
0.0011664596386253834 0.88599950075149536 1
0.091723255813121796 0.87887454032897949 1
0.35497403144836426 0.86253553628921509 0.99941998720169067
0.59809732437133789 0.84207761287689209 0.99998921155929565
0.81734359264373779 0.80510902404785156 0.99897366762161255
0.97501575946807861 0.76987206935882568 0.98712950944900513
0.0020182591397315264 0.99573773145675659 0.9960792064666748
0.010103771463036537 0.99701714515686035 0.99826300144195557
0.024082871153950691 0.99831193685531616 0.99625968933105469
0.23825930058956146 0.99333673715591431 0.98956364393234253
0.50056970119476318 0.98468494415283203 0.97889381647109985
0.72721827030181885 0.96129041910171509 0.95630019903182983
0.91665059328079224 0.92679011821746826 0.93007218837738037
