assets/lut/picturefx analogfx old style i.cube
# Created by: G'MIC (https://gmic.eu)
TITLE "analogfx_old_style_i"
# LUT size
LUT_3D_SIZE 7
# Data domain
DOMAIN_MIN 0.0 0.0 0.0
DOMAIN_MAX 1.0 1.0 1.0
# LUT data points
0.0072534899227321148 0.0053709889762103558 0.0039215688593685627
0.010757132433354855 0.0079088695347309113 0.0066081928089261055
0.024265468120574951 0.014668902382254601 0.012508108280599117
0.070287443697452545 0.040450375527143478 0.029755866155028343
0.14909633994102478 0.087602309882640839 0.062755584716796875
0.27076372504234314 0.16006262600421906 0.11974924057722092
0.55678564310073853 0.34568649530410767 0.27159944176673889
0.03804328665137291 0.024644261226058006 0.01883341558277607
0.061183854937553406 0.038153570145368576 0.028244033455848694
0.095164522528648376 0.059346530586481094 0.046796087175607681
0.13982515037059784 0.085690684616565704 0.066320367157459259
0.25136557221412659 0.15455566346645355 0.11871272325515747
0.39769837260246277 0.24909448623657227 0.19472615420818329
0.67845529317855835 0.42751100659370422 0.34376388788223267
0.22830148041248322 0.14097873866558075 0.10910225659608841
0.24583570659160614 0.15128560364246368 0.11810963600873947
0.28917109966278076 0.18079115450382233 0.14046259224414825
0.35239318013191223 0.22370070219039917 0.1755833625793457
0.4660702645778656 0.29789349436759949 0.2377856969833374
0.67667561769485474 0.43106615543365479 0.34868279099464417
0.88807803392410278 0.56545901298522949 0.46442818641662598
0.65932202339172363 0.4155120849609375 0.33568498492240906
0.68401497602462769 0.43306851387023926 0.34998542070388794
0.72764712572097778 0.46172252297401428 0.37355673313140869
0.80985563993453979 0.51247179508209229 0.4167276918888092
0.9202190637588501 0.59736573696136475 0.49365592002868652
0.98440361022949219 0.69403785467147827 0.59424632787704468
0.99784934520721436 0.80533015727996826 0.7278435230255127
0.99816006422042847 0.75203818082809448 0.65871071815490723
0.99798774719238281 0.77537524700164795 0.68513590097427368
0.99903345108032227 0.80497914552688599 0.72638869285583496
0.99923580884933472 0.84382688999176025 0.77659898996353149
1 0.89201712608337402 0.83920383453369141
1 0.93748974800109863 0.89849084615707397
1 0.97204470634460449 0.9529985785484314
1 0.94330406188964844 0.89285945892333984
1 0.95653504133224487 0.91214734315872192
1 0.9637991189956665 0.92459791898727417
1 0.97462141513824463 0.94033682346343994
1 0.98093098402023315 0.95933938026428223
1 0.98425537347793579 0.97879725694656372
1 0.9843137264251709 0.99796700477600098
1 0.97613084316253662 0.94044482707977295
1 0.98140650987625122 0.95176666975021362
1 0.98366475105285645 0.94959145784378052
1 0.9837489128112793 0.95616281032562256
1 0.9843137264251709 0.96384602785110474
1 0.9843137264251709 0.97681957483291626
1 0.9843137264251709 0.99815207719802856
0.010862014256417751 0.0072545669972896576 0.0051700067706406116
0.021122680976986885 0.013726597651839256 0.010085655376315117
0.056396946310997009 0.032545395195484161 0.024738207459449768
0.097668714821338654 0.057344518601894379 0.039502475410699844
0.18067054450511932 0.10387814044952393 0.075713932514190674
0.31115809082984924 0.18456222116947174 0.13876201212406158
0.60508990287780762 0.37482869625091553 0.29629600048065186
0.074150756001472473 0.047221988439559937 0.035080313682556152
0.089069738984107971 0.05702577531337738 0.042432360351085663
0.1198568269610405 0.074606545269489288 0.05846799910068512
0.17732627689838409 0.10758882761001587 0.083864174783229828
0.28208491206169128 0.17411980032920837 0.13493773341178894
0.43430516123771667 0.27131521701812744 0.21246281266212463
0.70980066061019897 0.44691160321235657 0.36190548539161682
0.27756619453430176 0.17180772125720978 0.13482676446437836
0.2872374951839447 0.18024320900440216 0.14171253144741058
0.32340472936630249 0.20353764295578003 0.16083510220050812
0.38529291749000549 0.24517697095870972 0.19333286583423615
0.52071583271026611 0.33261421322822571 0.26532256603240967
0.70897752046585083 0.45035767555236816 0.36361441016197205
0.90652430057525635 0.57769489288330078 0.47362309694290161
0.6948428750038147 0.43945255875587463 0.35407611727714539
0.71788746118545532 0.45590734481811523 0.36904457211494446
0.76271843910217285 0.48394313454627991 0.39285498857498169
0.84370428323745728 0.53477722406387329 0.43664160370826721
0.94314652681350708 0.61644864082336426 0.50988411903381348
0.98967593908309937 0.71069663763046265 0.61483180522918701
0.99868500232696533 0.81375503540039062 0.73874378204345703
0.99793171882629395 0.77449053525924683 0.68582487106323242
0.99928218126296997 0.79729974269866943 0.71065747737884521
0.99906891584396362 0.83075284957885742 0.75571912527084351
0.99902701377868652 0.86249810457229614 0.80077588558197021
1 0.90938401222229004 0.8619692325592041
1 0.94826614856719971 0.91412353515625
1 0.97764021158218384 0.9667087197303772
1 0.95971119403839111 0.92390984296798706
1 0.97602337598800659 0.94245511293411255
1 0.97960042953491211 0.95450091361999512
1 0.98354488611221313 0.97001612186431885
1 0.98402619361877441 0.98464798927307129
1 0.9843137264251709 0.99459660053253174
1 0.9843137264251709 0.99946069717407227
1 0.98393392562866211 0.97641634941101074
1 0.9843137264251709 0.99276351928710938
1 0.9843137264251709 0.99127459526062012
1 0.9843137264251709 0.9935486912727356
1 0.9843137264251709 0.99572932720184326
1 0.9843137264251709 0.99608981609344482
1 0.9843137264251709 1
0.080858610570430756 0.047042384743690491 0.032078329473733902
0.090917356312274933 0.053419630974531174 0.036996040493249893
0.12092833966016769 0.069923892617225647 0.048808034509420395
0.17919003963470459 0.10210969299077988 0.073776364326477051
0.2710881233215332 0.16012375056743622 0.12055429071187973
0.43174323439598083 0.26171812415122986 0.19923421740531921
0.69350272417068481 0.42578557133674622 0.34078705310821533
0.15163688361644745 0.093157418072223663 0.073232762515544891
0.17466749250888824 0.10590619593858719 0.082049980759620667
0.21389909088611603 0.12959384918212891 0.10139793157577515
0.28231856226921082 0.17347896099090576 0.13442662358283997
0.38086020946502686 0.23736317455768585 0.18570959568023682
0.56250482797622681 0.35201257467269897 0.27729114890098572
0.7893071174621582 0.49187222123146057 0.3983006477355957
0.37897506356239319 0.23839990794658661 0.18776850402355194
0.38629055023193359 0.24603478610515594 0.19499361515045166
0.42246788740158081 0.26976072788238525 0.21429277956485748
0.50887966156005859 0.32541286945343018 0.25921404361724854
0.64250642061233521 0.40908747911453247 0.32891696691513062
0.83047407865524292 0.52376675605773926 0.42688634991645813
0.95382291078567505 0.62059354782104492 0.5129438042640686
0.79420727491378784 0.50316303968429565 0.40875416994094849
0.81901192665100098 0.5209040641784668 0.42445290088653564
0.8584020733833313 0.55284583568572998 0.45211368799209595
0.92602282762527466 0.605010986328125 0.50000953674316406
0.98099076747894287 0.68320167064666748 0.58043754100799561
0.99699932336807251 0.77588403224945068 0.69661343097686768
0.99929028749465942 0.8647645115852356 0.8070371150970459
0.99925369024276733 0.84975302219390869 0.78158634901046753
0.99898475408554077 0.86809945106506348 0.80625849962234497
0.99977314472198486 0.89046841859817505 0.83550351858139038
1 0.9221993088722229 0.87944024801254272
1 0.95505285263061523 0.92716401815414429
1 0.97389590740203857 0.96637308597564697
1 0.98344451189041138 0.99110335111618042
1 0.9832497239112854 0.98083913326263428
1 0.98415011167526245 0.99142944812774658
1 0.98418879508972168 0.99478268623352051
1 0.9843137264251709 0.99662512540817261
1 0.9843137264251709 0.99610656499862671
1 0.9843137264251709 0.99743396043777466
1 0.9843137264251709 0.99876201152801514
1 0.9843137264251709 0.99716311693191528
1 0.9843137264251709 0.99805736541748047
1 0.9843137264251709 0.99973678588867188
1 0.9843137264251709 1
1 0.9843137264251709 1
1 0.9843137264251709 1
1 0.9843137264251709 1
0.26279729604721069 0.15604908764362335 0.11566171050071716
0.28911066055297852 0.17353403568267822 0.12987746298313141
0.34095466136932373 0.20645077526569366 0.15694977343082428
0.40716642141342163 0.25038456916809082 0.19111667573451996
0.52223938703536987 0.32159626483917236 0.25032955408096313
0.67101222276687622 0.40627974271774292 0.3219258189201355
0.82497125864028931 0.50224381685256958 0.40258878469467163
0.38364496827125549 0.2401152104139328 0.18716703355312347
0.40710800886154175 0.25596699118614197 0.19959400594234467
0.44660916924476624 0.28078469634056091 0.21999731659889221
0.51512885093688965 0.32443946599960327 0.25588878989219666
0.61524313688278198 0.3855399489402771 0.30545663833618164
0.76486325263977051 0.47168725728988647 0.37953644990921021
0.88749867677688599 0.55123013257980347 0.44564813375473022
0.59708982706069946 0.37959650158882141 0.30431991815567017
0.63386839628219604 0.40434592962265015 0.3244076669216156
0.66064095497131348 0.42064040899276733 0.33903548121452332
0.72270673513412476 0.45753657817840576 0.37038874626159668
0.85616070032119751 0.54365861415863037 0.44402632117271423
0.94412612915039062 0.60073137283325195 0.49316489696502686
0.98659294843673706 0.68041527271270752 0.57670265436172485
0.93856585025787354 0.61525624990463257 0.51110875606536865
0.95740777254104614 0.63124680519104004 0.52375322580337524
0.97068208456039429 0.66524404287338257 0.56191152334213257
0.98900282382965088 0.71760457754135132 0.62327075004577637
0.99888163805007935 0.78377926349639893 0.70287007093429565
0.99990475177764893 0.85091298818588257 0.79449057579040527
1 0.91479110717773438 0.87649965286254883
1 0.92402392625808716 0.88136988878250122
1 0.94328063726425171 0.90342420339584351
1 0.95525139570236206 0.92532593011856079
1 0.96547240018844604 0.95065522193908691
1 0.97882199287414551 0.97848886251449585
1 0.98371386528015137 0.99168801307678223
1 0.9843137264251709 0.99571198225021362
1 0.9843137264251709 0.99929511547088623
1 0.9843137264251709 0.99958920478820801
1 0.9843137264251709 0.9996417760848999
1 0.9843137264251709 0.99860548973083496
1 0.9843137264251709 0.99993538856506348
1 0.9843137264251709 0.99953752756118774
1 0.9843137264251709 0.9973684549331665
1 0.98571288585662842 1
1 0.9843137264251709 1
1 0.9843137264251709 0.99965536594390869
1 0.9843137264251709 0.99723166227340698
1 0.9843137264251709 1
1 0.9843137264251709 1
1 0.9843137264251709 1
0.53125333786010742 0.32568889856338501 0.25208801031112671
0.5341646671295166 0.32814568281173706 0.25444582104682922
0.57109123468399048 0.34968560934066772 0.27241024374961853
0.62435585260391235 0.37928682565689087 0.29865357279777527
0.71167051792144775 0.4283430278301239 0.34106189012527466
0.80551594495773315 0.48512411117553711 0.38651642203330994
0.89862793684005737 0.54619115591049194 0.44062536954879761
0.59095162153244019 0.36645755171775818 0.28844994306564331
0.59415924549102783 0.36708968877792358 0.28897759318351746
0.63159143924713135 0.39107978343963623 0.30954286456108093
0.69715052843093872 0.43109729886054993 0.34402602910995483
0.78166782855987549 0.47684797644615173 0.38182991743087769
0.8562280535697937 0.51972538232803345 0.41673853993415833
0.94274652004241943 0.57736748456954956 0.467082679271698
0.73974764347076416 0.46137067675590515 0.37241670489311218
0.76657211780548096 0.48098263144493103 0.38986799120903015
0.81451880931854248 0.51055103540420532 0.41633889079093933
0.88552266359329224 0.55766820907592773 0.45450893044471741
0.94316118955612183 0.59404528141021729 0.48635637760162354
0.98011213541030884 0.64876216650009155 0.54553264379501343
0.99842387437820435 0.73758465051651001 0.64808571338653564
0.9916527271270752 0.70931696891784668 0.61065012216567993
0.99594300985336304 0.73216992616653442 0.63648694753646851
0.99735158681869507 0.76605534553527832 0.6812896728515625
0.99749016761779785 0.80716210603713989 0.73699605464935303
0.99872136116027832 0.8520653247833252 0.79679250717163086
1 0.89115190505981445 0.85076165199279785
1 0.94054657220840454 0.91040205955505371
1 0.958942711353302 0.93171185255050659
1 0.96545863151550293 0.94967347383499146
1 0.97009444236755371 0.96222847700119019
1 0.97865861654281616 0.97866755723953247
1 0.98307538032531738 0.9911956787109375
1 0.98401778936386108 0.99760901927947998
1 0.9843137264251709 0.99779129028320312
1 0.98501777648925781 0.99904513359069824
1 0.98433452844619751 0.99993336200714111
1 0.9843137264251709 0.99957215785980225
1 0.9843137264251709 0.99998444318771362
1 0.9843137264251709 0.99987554550170898
1 0.9843137264251709 1
1 0.98618024587631226 0.99978607892990112
1 0.98823529481887817 1
1 0.98823529481887817 1
1 0.98440706729888916 1
1 0.9843137264251709 1
1 0.9843137264251709 1
1 0.9843137264251709 1
1 0.98814886808395386 1
0.58435499668121338 0.3559030294418335 0.27698177099227905
0.59121930599212646 0.36030080914497375 0.27997151017189026
0.62579560279846191 0.37877511978149414 0.29766950011253357
0.68316811323165894 0.41119477152824402 0.32545098662376404
0.74179750680923462 0.44454768300056458 0.35186424851417542
0.80846130847930908 0.48374462127685547 0.38469782471656799
0.89232146739959717 0.54255026578903198 0.43545141816139221
0.62192082405090332 0.38012474775314331 0.29865014553070068
0.64022380113601685 0.39115118980407715 0.30876210331916809
0.67990422248840332 0.41492605209350586 0.33062294125556946
0.73762333393096924 0.44890224933624268 0.3604736328125
0.8009035587310791 0.48459824919700623 0.3889290988445282
0.8625798225402832 0.52064019441604614 0.41701734066009521
0.9410824179649353 0.57693970203399658 0.46588504314422607
0.79365843534469604 0.49384310841560364 0.39958778023719788
0.81586951017379761 0.50981259346008301 0.41376045346260071
0.8690488338470459 0.54194855690002441 0.44092541933059692
0.91049873828887939 0.58127909898757935 0.47710171341896057
0.96031695604324341 0.61254334449768066 0.50290828943252563
0.98301893472671509 0.66834777593612671 0.56951344013214111
0.99852591753005981 0.75149476528167725 0.66662681102752686
0.9941025972366333 0.75829732418060303 0.6739192008972168
0.99784892797470093 0.78191483020782471 0.70161807537078857
0.99936950206756592 0.80833083391189575 0.73598235845565796
0.99927812814712524 0.83797359466552734 0.77676600217819214
0.9998093843460083 0.86916875839233398 0.82051843404769897
1 0.90046292543411255 0.86405807733535767
1 0.9462161660194397 0.91664820909500122
1 0.96251899003982544 0.94291073083877563
1 0.96779012680053711 0.95850574970245361
1 0.97625738382339478 0.97191601991653442
1 0.98263931274414062 0.98633670806884766
1 0.98393350839614868 0.99683529138565063
1 0.98421257734298706 0.99589395523071289
1 0.9843137264251709 0.99751019477844238
1 0.9843137264251709 1
1 0.98433369398117065 0.99616783857345581
1 0.98438841104507446 0.99796164035797119
1 0.98624533414840698 1
1 0.98431992530822754 1
1 0.9843137264251709 0.99990475177764893
1 0.9843137264251709 0.99995332956314087
1 0.98773801326751709 1
1 0.98823529481887817 1
1 0.98823529481887817 1
1 0.98823529481887817 1
1 0.98557561635971069 1
1 0.9843137264251709 1
1 0.9843137264251709 1
0.6014554500579834 0.3664516806602478 0.2865784764289856
0.59907680749893188 0.36449819803237915 0.28462326526641846
0.61509883403778076 0.37090900540351868 0.28855684399604797
0.67438405752182007 0.40451490879058838 0.3207886815071106
0.74490976333618164 0.44621288776397705 0.35377243161201477
0.81137919425964355 0.4852088987827301 0.38554546236991882
0.88842856884002686 0.5396885871887207 0.4327721893787384
0.63650679588317871 0.3895266056060791 0.30735263228416443
0.63960421085357666 0.39132574200630188 0.30953925848007202
0.6815599799156189 0.41566744446754456 0.33013248443603516
0.74454152584075928 0.45287907123565674 0.36203858256340027
0.79810351133346558 0.48268339037895203 0.3859056830406189
0.86161947250366211 0.51990091800689697 0.41628637909889221
0.93157339096069336 0.56969761848449707 0.45853385329246521
0.79525279998779297 0.49257376790046692 0.3989790678024292
0.81914716958999634 0.51037681102752686 0.41526699066162109
0.8685683012008667 0.55163228511810303 0.44897609949111938
0.90932798385620117 0.57674431800842285 0.47415202856063843
0.95564532279968262 0.60756582021713257 0.4989297091960907
0.98897707462310791 0.66980183124542236 0.56968790292739868
0.99790745973587036 0.7495078444480896 0.66581374406814575
0.9977526068687439 0.75318127870559692 0.66653954982757568
0.9989161491394043 0.78304076194763184 0.70298993587493896
0.99988681077957153 0.80591320991516113 0.73314088582992554
0.99710416793823242 0.83670151233673096 0.77680438756942749
0.99928134679794312 0.86751806735992432 0.8194853663444519
1 0.89842772483825684 0.86003375053405762
1 0.94297152757644653 0.91473585367202759
1 0.9612269401550293 0.94104146957397461
1 0.96626818180084229 0.95574468374252319
1 0.97336596250534058 0.96758902072906494
1 0.98093664646148682 0.98428106307983398
1 0.98326069116592407 0.99360132217407227
1 0.9841848611831665 0.99751085042953491
1 0.9843137264251709 0.99644070863723755
1 0.9843137264251709 0.99992424249649048
1 0.98550122976303101 0.99701607227325439
1 0.98443317413330078 0.99619251489639282
1 0.98438936471939087 1
1 0.9843137264251709 1
1 0.9843137264251709 1
1 0.9843137264251709 1
1 0.98823529481887817 1
1 0.98823529481887817 1
1 0.98823529481887817 1
1 0.98823529481887817 1
1 0.9843137264251709 1
1 0.9843137264251709 1
1 0.9843137264251709 1
