assets/lut/picturefx zilverfx infrared.cube
# Created by: G'MIC (https://gmic.eu)
TITLE "zilverfx_infrared"
# LUT size
LUT_3D_SIZE 13
# Data domain
DOMAIN_MIN 0.0 0.0 0.0
DOMAIN_MAX 1.0 1.0 1.0
# LUT data points
0.0043752933852374554 0.0045322342775762081 0.0044384975917637348
0.01641349121928215 0.016308115795254707 0.016294278204441071
0.029432797804474831 0.028916092589497566 0.028981078416109085
0.036705419421195984 0.036247000098228455 0.036340542137622833
0.042073030024766922 0.041956733912229538 0.041999712586402893
0.089893028140068054 0.089860163629055023 0.089847519993782043
0.18322189152240753 0.18322189152240753 0.1831890195608139
0.28422260284423828 0.28429591655731201 0.28422260284423828
0.35486313700675964 0.3548833429813385 0.35486313700675964
0.38762727379798889 0.38766014575958252 0.38761970400810242
0.39782226085662842 0.397857666015625 0.39769837260246277
0.39485436677932739 0.39491504430770874 0.39479118585586548
0.38589087128639221 0.38582512736320496 0.38569620251655579
0.074867933988571167 0.076581455767154694 0.076290905475616455
0.10953846573829651 0.10971035063266754 0.10968159884214401
0.12668873369693756 0.12597285211086273 0.12608756124973297
0.1296267956495285 0.12921687960624695 0.12941135466098785
0.12530525028705597 0.12529513239860535 0.12533092498779297
0.1325056254863739 0.1325056254863739 0.1325056254863739
0.16831961274147034 0.16833478212356567 0.16831961274147034
0.25760748982429504 0.25763022899627686 0.25760748982429504
0.34424176812171936 0.34421399235725403 0.34424176812171936
0.39653769135475159 0.39657813310623169 0.39650484919548035
0.40438136458396912 0.40444204211235046 0.40434849262237549
0.39889836311340332 0.39889836311340332 0.39883008599281311
0.3850763738155365 0.3850763738155365 0.3850131630897522
0.17721237242221832 0.17917633056640625 0.17903980612754822
0.20455364882946014 0.20527304708957672 0.20481486618518829
0.22456862032413483 0.22476796805858612 0.22414505481719971
0.23696872591972351 0.23713910579681396 0.23692984879016876
0.25753754377365112 0.25771084427833557 0.2576981782913208
0.29363274574279785 0.2935670018196106 0.29357674717903137
0.2945675253868103 0.29450935125350952 0.29450935125350952
0.30527755618095398 0.30524471402168274 0.30527755618095398
0.31046649813652039 0.31046149134635925 0.3104993999004364
0.33916038274765015 0.33913511037826538 0.33916038274765015
0.35274091362953186 0.35273626446723938 0.35274091362953186
0.35104379057884216 0.35098722577095032 0.35101091861724854
0.3502204418182373 0.35023617744445801 0.35008388757705688
0.28378370404243469 0.28510519862174988 0.28540253639221191
0.29640147089958191 0.29694166779518127 0.29664239287376404
0.32009786367416382 0.32112196087837219 0.31999573111534119
0.34768286347389221 0.34908440709114075 0.34818342328071594
0.36424997448921204 0.36464515328407288 0.36476999521255493
0.39657062292098999 0.39634308218955994 0.39662995934486389
0.44889914989471436 0.44899266958236694 0.44885870814323425
0.49008592963218689 0.49013879895210266 0.49008592963218689
0.49982893466949463 0.50003898143768311 0.49982893466949463
0.48004740476608276 0.48011818528175354 0.48008027672767639
0.45471927523612976 0.45480972528457642 0.45470258593559265
0.44682422280311584 0.44720286130905151 0.44712147116661072
0.4712803065776825 0.47101446986198425 0.47150018811225891
0.51429510116577148 0.51478582620620728 0.51584035158157349
0.51850616931915283 0.51726192235946655 0.51879042387008667
0.5209355354309082 0.52155768871307373 0.52122533321380615
0.55146044492721558 0.55293124914169312 0.55217009782791138
0.58454304933547974 0.58517545461654663 0.5856626033782959
0.62338465452194214 0.62360912561416626 0.62372440099716187
0.66936749219894409 0.67006486654281616 0.66931682825088501
0.70383369922637939 0.70353060960769653 0.70383369922637939
0.74519455432891846 0.74407505989074707 0.74519455432891846
0.74763119220733643 0.74586713314056396 0.74762362241744995
0.76739406585693359 0.76561218500137329 0.76733744144439697
0.76711153984069824 0.76616179943084717 0.76772403717041016
0.79530835151672363 0.79179912805557251 0.79655325412750244
0.8281434178352356 0.82379943132400513 0.82880812883377075
0.85721838474273682 0.84927403926849365 0.85775583982467651
0.85443532466888428 0.84869271516799927 0.85454130172729492
0.8411141037940979 0.83844840526580811 0.84166413545608521
0.88618177175521851 0.88371372222900391 0.88673967123031616
0.91664630174636841 0.9116474986076355 0.91680186986923218
0.94002634286880493 0.93615496158599854 0.94001114368438721
0.95382475852966309 0.94605040550231934 0.95382475852966309
0.96997231245040894 0.96032840013504028 0.97001457214355469
0.97775310277938843 0.97225594520568848 0.97777408361434937
0.98406189680099487 0.97887682914733887 0.98399370908737183
0.98417878150939941 0.97577500343322754 0.98415541648864746
0.99004125595092773 0.98514020442962646 0.99032717943191528
0.98477184772491455 0.97418105602264404 0.98478585481643677
0.99713653326034546 0.99169278144836426 0.99716436862945557
0.99892973899841309 0.99798583984375 0.99892973899841309
0.991596519947052 0.98873305320739746 0.99167376756668091
0.99664312601089478 0.9893953800201416 0.99672400951385498
0.99941045045852661 0.99008858203887939 0.99941045045852661
0.99998599290847778 0.99939924478530884 0.99998599290847778
0.99966263771057129 0.99602997303009033 0.99966263771057129
0.99742937088012695 0.99140316247940063 0.99744331836700439
0.99999028444290161 0.99946355819702148 0.99999028444290161
0.99993032217025757 0.99821305274963379 0.99993032217025757
0.9985542893409729 0.99047106504440308 0.99852144718170166
1 0.99859023094177246 1
0.99715495109558105 0.99336928129196167 0.99709159135818481
0.99575150012969971 0.99285590648651123 0.99572873115539551
0.99987888336181641 0.9995458722114563 0.99987888336181641
0.99899917840957642 0.99917948246002197 0.99899917840957642
0.99586063623428345 0.99532532691955566 0.99586063623428345
0.99569243192672729 0.9939110279083252 0.99569243192672729
0.99958229064941406 0.99938905239105225 0.99958229064941406
0.99764764308929443 0.99894344806671143 0.99767798185348511
0.99437218904495239 0.99739301204681396 0.99438852071762085
0.99927204847335815 0.9998440146446228 0.99930238723754883
0.99940907955169678 0.99841904640197754 0.99940907955169678
0.99838650226593018 0.996559739112854 0.99838650226593018
1 1 1
0.99765431880950928 0.99804437160491943 0.9976494312286377
0.99279129505157471 0.99388384819030762 0.99284416437149048
0.99688577651977539 0.99695289134979248 0.99698430299758911
0.99676543474197388 0.99719268083572388 0.99679833650588989
0.99287194013595581 0.99340474605560303 0.99285328388214111
0.99272835254669189 0.99412816762924194 0.99268394708633423
0.99642717838287354 0.99857008457183838 0.99642717838287354
0.99675232172012329 0.99999284744262695 0.99675232172012329
0.99650305509567261 0.99995118379592896 0.99650305509567261
0.99850904941558838 0.99986809492111206 0.99850904941558838
0.99858343601226807 0.99785405397415161 0.99855059385299683
0.99895334243774414 0.99803042411804199 0.99895334243774414
1 1 1
0.99863475561141968 0.99894732236862183 0.99863475561141968
0.99301415681838989 0.99426597356796265 0.99314314126968384
0.99420642852783203 0.99488276243209839 0.99431264400482178
0.99522525072097778 0.99510115385055542 0.99529093503952026
0.99248731136322021 0.99268937110900879 0.99248731136322021
0.99302035570144653 0.99436932802200317 0.99302035570144653
0.99590021371841431 0.99819463491439819 0.99586731195449829
0.997630774974823 1 0.99767118692398071
0.99830728769302368 1 0.99830728769302368
0.99770456552505493 0.99879008531570435 0.99773490428924561
0.99522191286087036 0.99425029754638672 0.99518436193466187
0.99635827541351318 0.99467605352401733 0.99633032083511353
0.99998652935028076 0.99991416931152344 0.99995851516723633
0.9954180121421814 0.99555355310440063 0.99542266130447388
0.99039489030838013 0.99051785469055176 0.99045479297637939
0.99205851554870605 0.99196100234985352 0.99208921194076538
0.99304014444351196 0.99269860982894897 0.99304014444351196
0.99226683378219604 0.99224358797073364 0.99225127696990967
0.99323487281799316 0.99391269683837891 0.99318933486938477
0.99584269523620605 0.9969591498374939 0.99584269523620605
0.99764478206634521 0.99967366456985474 0.99771547317504883
0.99805730581283569 0.99943244457244873 0.99807751178741455
0.99484312534332275 0.99534624814987183 0.99483674764633179
0.98825931549072266 0.98778730630874634 0.98823541402816772
0.98766469955444336 0.986480712890625 0.98766469955444336
0.99835371971130371 0.99772614240646362 0.99832093715667725
0.9902418851852417 0.99022960662841797 0.99039840698242188
0.98553329706192017 0.9854704737663269 0.98565149307250977
0.98753726482391357 0.98711585998535156 0.98760253190994263
0.98995286226272583 0.98957663774490356 0.99002563953399658
0.99130904674530029 0.9910733699798584 0.99136757850646973
0.99317651987075806 0.99316656589508057 0.99317651987075806
0.99578899145126343 0.99586927890777588 0.99578899145126343
0.99625003337860107 0.99684852361679077 0.99625092744827271
0.99511981010437012 0.99554145336151123 0.99518698453903198
0.98976027965545654 0.98977702856063843 0.98976922035217285
0.98100817203521729 0.98060119152069092 0.98106032609939575
0.97870415449142456 0.97833502292633057 0.97880488634109497
0.99341881275177002 0.99295282363891602 0.99341881275177002
0.99231284856796265 0.99219155311584473 0.99246031045913696
0.98698598146438599 0.98663419485092163 0.98702585697174072
0.98814678192138672 0.98760873079299927 0.98820745944976807
0.99075669050216675 0.99029302597045898 0.99082249402999878
0.99318104982376099 0.99272060394287109 0.99318104982376099
0.9952966570854187 0.99497675895690918 0.9952966570854187
0.99661660194396973 0.99650770425796509 0.99661660194396973
0.99636030197143555 0.99629372358322144 0.99637109041213989
0.99318188428878784 0.99310535192489624 0.99329519271850586
0.98676788806915283 0.98660838603973389 0.98683613538742065
0.97937113046646118 0.979347825050354 0.97953003644943237
0.97890889644622803 0.9791109561920166 0.97900289297103882
0.99404412508010864 0.99425667524337769 0.99410730600357056
0 0 0
3.5184973967261612e-05 3.0876610253471881e-05 3.5184973967261612e-05
0.00032456341432407498 0.00020319620671216398 0.00029009650461375713
0.00016582713578827679 0.00015828749747015536 0.00016528858395759016
0.00047007540706545115 0.00046754724462516606 0.00047007540706545115
0.057070370763540268 0.056976828724145889 0.057070370763540268
0.15967902541160583 0.15970936417579651 0.15970936417579651
0.2585051953792572 0.2585051953792572 0.2585051953792572
0.33322814106941223 0.33332672715187073 0.33322814106941223
0.36874455213546753 0.36881667375564575 0.36877739429473877
0.38266345858573914 0.3826848566532135 0.38266345858573914
0.39429953694343567 0.3943324089050293 0.39429953694343567
0.3867332935333252 0.38676613569259644 0.38667005300521851
0.019165681675076485 0.019797142595052719 0.019824951887130737
0.035939041525125504 0.035658832639455795 0.035846278071403503
0.046435337513685226 0.045465506613254547 0.045874711126089096
0.041758652776479721 0.041009493172168732 0.041395135223865509
0.036942128092050552 0.036779351532459259 0.036878533661365509
0.073777742683887482 0.073777742683887482 0.073777742683887482
0.13559427857398987 0.13567771017551422 0.13566254079341888
0.2537224292755127 0.25377300381660461 0.2537224292755127
0.35093042254447937 0.35093042254447937 0.35093042254447937
0.39615574479103088 0.39615574479103088 0.39615574479103088
0.39584049582481384 0.39577978849411011 0.39584049582481384
0.40848633646965027 0.40851917862892151 0.40848633646965027
0.41013634204864502 0.41013634204864502 0.41010096669197083
0.14633184671401978 0.14922791719436646 0.14939594268798828
0.16681037843227386 0.1673133373260498 0.16722135245800018
0.19187524914741516 0.19140085577964783 0.19138477742671967
0.19776661694049835 0.19778145849704742 0.19796399772167206
0.21496176719665527 0.21506330370903015 0.21525990962982178
0.25284567475318909 0.25277799367904663 0.252745121717453
0.26669475436210632 0.26664674282073975 0.26664674282073975
0.29882544279098511 0.29881280660629272 0.29882544279098511
0.32848912477493286 0.32846888899803162 0.32848912477493286
0.34810575842857361 0.34804511070251465 0.34810575842857361
0.35073414444923401 0.35067564249038696 0.3507380485534668
0.36595919728279114 0.36596381664276123 0.36612051725387573
0.36745652556419373 0.36744341254234314 0.36751750111579895
0.30195629596710205 0.30438494682312012 0.30522215366363525
0.31750732660293579 0.31866341829299927 0.31822448968887329
0.33772900700569153 0.33943265676498413 0.33791586756706238
0.35764852166175842 0.35916262865066528 0.35855242609977722
0.37511321902275085 0.37601360678672791 0.37639251351356506
0.39764195680618286 0.39783307909965515 0.39809569716453552
0.43906089663505554 0.43881160020828247 0.43902802467346191
0.47579491138458252 0.4757850170135498 0.47579491138458252
0.47520917654037476 0.47523441910743713 0.47520917654037476
0.45187604427337646 0.45199716091156006 0.45187604427337646
0.42443221807479858 0.42464810609817505 0.42452457547187805
0.43069833517074585 0.43115121126174927 0.43151521682739258
0.44671934843063354 0.44673594832420349 0.44703081250190735
0.52036833763122559 0.52035540342330933 0.52290254831314087
0.5409432053565979 0.54084885120391846 0.54150950908660889
0.54241228103637695 0.5440514087677002 0.54263782501220703
0.56062257289886475 0.56233590841293335 0.56234228610992432
0.5935634970664978 0.59423965215682983 0.59656333923339844
0.62395715713500977 0.62462270259857178 0.62513583898544312
0.65143424272537231 0.65229630470275879 0.6513550877571106
0.69398969411849976 0.69428259134292603 0.69398969411849976
0.73638784885406494 0.73497605323791504 0.73638784885406494
0.74140650033950806 0.73981505632400513 0.74140650033950806
0.73952782154083252 0.73886233568191528 0.73968535661697388
0.74720734357833862 0.74714863300323486 0.74864679574966431
0.77231383323669434 0.77161121368408203 0.77431017160415649
0.81424874067306519 0.80837064981460571 0.81586658954620361
0.85240918397903442 0.84557735919952393 0.85272443294525146
0.84716522693634033 0.84166353940963745 0.84717893600463867
0.83169537782669067 0.82649379968643188 0.83253353834152222
0.87354874610900879 0.86737143993377686 0.87512046098709106
0.92700636386871338 0.92344892024993896 0.92760872840881348
0.94235694408416748 0.94059246778488159 0.9422035813331604
0.95550501346588135 0.95062631368637085 0.95553791522979736
0.96502584218978882 0.95448499917984009 0.96505945920944214
0.97081363201141357 0.96148347854614258 0.97081536054611206
0.97691625356674194 0.97112488746643066 0.97691375017166138
0.9801902174949646 0.97712624073028564 0.98052901029586792
0.98390716314315796 0.98233276605606079 0.98427468538284302
0.98755615949630737 0.9808928370475769 0.98784524202346802
0.99844425916671753 0.99698251485824585 0.99854129552841187
0.99838399887084961 0.99714142084121704 0.99838399887084961
0.99223583936691284 0.98806595802307129 0.9923204779624939
0.99621295928955078 0.990497887134552 0.99629133939743042
0.99956423044204712 0.99533736705780029 0.99956423044204712
0.99996829032897949 0.99990713596343994 0.99996829032897949
0.99998575448989868 0.9981081485748291 0.99998575448989868
0.99791324138641357 0.98867535591125488 0.99791443347930908
0.99879038333892822 0.99402648210525513 0.99879038333892822
0.99935555458068848 0.99638009071350098 0.99935555458068848
0.99805879592895508 0.995758056640625 0.99805879592895508
1 0.99998384714126587 1
0.99992722272872925 0.99994522333145142 0.99992722272872925
0.99996894598007202 0.99999231100082397 0.99996894598007202
1 1 1
1 1 1
0.99828267097473145 0.99800974130630493 0.99824225902557373
0.99146580696105957 0.99160921573638916 0.99145311117172241
0.99668234586715698 0.997752845287323 0.99671518802642822
0.99795973300933838 0.998238205909729 0.99799007177352905
0.9935954213142395 0.99532276391983032 0.99362969398498535
0.99403548240661621 0.99829286336898804 0.99408352375030518
0.9937436580657959 0.99457406997680664 0.99377650022506714
0.99271684885025024 0.99341237545013428 0.99273204803466797
0.99996447563171387 1 0.99996447563171387
0.99951720237731934 0.99997508525848389 0.99951958656311035
0.99823015928268433 0.99912106990814209 0.9982985258102417
0.99900144338607788 0.99949568510055542 0.99902665615081787
0.99822735786437988 0.99848800897598267 0.9981423020362854
0.99205714464187622 0.99355524778366089 0.99198949337005615
0.98845130205154419 0.99133002758026123 0.98839157819747925
0.99436324834823608 0.99703788757324219 0.99441975355148315
0.99697059392929077 0.99999159574508667 0.99703127145767212
0.99547004699707031 0.99992281198501587 0.99551302194595337
0.99398690462112427 0.9993513822555542 0.99412846565246582
0.9920734167098999 0.99458283185958862 0.9920734167098999
0.9928399920463562 0.99393010139465332 0.99281972646713257
0.99993288516998291 1 0.99993288516998291
0.99873912334442139 0.99925023317337036 0.99883055686950684
0.99317389726638794 0.99395984411239624 0.99327206611633301
0.99224686622619629 0.99251437187194824 0.99235802888870239
0.99142301082611084 0.99176263809204102 0.991485595703125
0.98934721946716309 0.99012142419815063 0.98935931921005249
0.98992103338241577 0.99163752794265747 0.98995399475097656
0.9949679970741272 0.9970012903213501 0.99498724937438965
0.9973219633102417 1 0.99741047620773315
0.99613964557647705 0.99998867511749268 0.99613964557647705
0.99373549222946167 0.99716579914093018 0.99377727508544922
0.98979419469833374 0.99190241098403931 0.98988842964172363
0.99140530824661255 0.9925457239151001 0.99140292406082153
0.99984419345855713 0.99988508224487305 0.99984186887741089
0.99625444412231445 0.99657219648361206 0.99629271030426025
0.98893994092941284 0.98889470100402832 0.98897790908813477
0.98746627569198608 0.98723816871643066 0.98756784200668335
0.9875938892364502 0.9876747727394104 0.9877173900604248
0.98765027523040771 0.98824238777160645 0.98772811889648438
0.99022418260574341 0.99089896678924561 0.99028992652893066
0.99425983428955078 0.99521076679229736 0.99426484107971191
0.99607843160629272 0.99820339679718018 0.99607843160629272
0.99554109573364258 0.99752640724182129 0.99554532766342163
0.99074757099151611 0.99274533987045288 0.99085372686386108
0.98509436845779419 0.98661583662033081 0.98518460988998413
0.98654353618621826 0.98749089241027832 0.98657888174057007
0.99855047464370728 0.99874371290206909 0.99858075380325317
0.99376147985458374 0.99378424882888794 0.99388760328292847
0.98557782173156738 0.98542112112045288 0.9856724739074707
0.98446118831634521 0.98437738418579102 0.98452448844909668
0.98582333326339722 0.98538434505462646 0.98582643270492554
0.98774003982543945 0.98770433664321899 0.98780280351638794
0.99058228731155396 0.99064618349075317 0.99058437347412109
0.99371236562728882 0.99414509534835815 0.99374020099639893
0.99602502584457397 0.99603772163391113 0.99602502584457397
0.99294048547744751 0.9935116171836853 0.99299699068069458
0.98696500062942505 0.98776108026504517 0.98700034618377686
0.98042064905166626 0.9813079833984375 0.98044925928115845
0.98191356658935547 0.98273384571075439 0.98207801580429077
0.99673628807067871 0.99715507030487061 0.99673861265182495
0.99673354625701904 0.99662625789642334 0.99686211347579956
0.98915714025497437 0.98887479305267334 0.98924481868743896
0.98704499006271362 0.98660582304000854 0.98730671405792236
0.98875075578689575 0.98816579580307007 0.98885595798492432
0.99041759967803955 0.99009418487548828 0.99043619632720947
0.99292826652526855 0.99269169569015503 0.99298673868179321
0.99547487497329712 0.99543082714080811 0.99550271034240723
0.99585860967636108 0.99583518505096436 0.99585956335067749
0.99154269695281982 0.99143379926681519 0.991546630859375
0.98587745428085327 0.98596632480621338 0.98601657152175903
0.98096388578414917 0.98151230812072754 0.98117619752883911
0.984916090965271 0.98575186729431152 0.98506754636764526
0.9982648491859436 0.99853652715682983 0.99829286336898804
0 0 0
0 0 0
0 0 0
0 0 0
0 0 0
0.0079030804336071014 0.0078499885275959969 0.0079030804336071014
0.081348821520805359 0.081212304532527924 0.081315957009792328
0.19384849071502686 0.19384849071502686 0.19384849071502686
0.2810092568397522 0.28110027313232422 0.28104212880134583
0.32907950878143311 0.32912114262580872 0.32907950878143311
0.35184422135353088 0.35190626978874207 0.35184422135353088
0.38398092985153198 0.38397333025932312 0.38400620222091675
0.3928186297416687 0.39285147190093994 0.39284893870353699
2.0404890165082179e-05 2.4683335141162388e-05 2.4683335141162388e-05
0.00013197356020100415 0.00012769512250088155 0.00012769512250088155
0.00066636031260713935 0.00063427194254472852 0.00063855038024485111
0.00077605899423360825 0.00073463591979816556 0.00074319279519841075
0.00083021278260275722 0.00083021278260275722 0.00083021278260275722
0.0027390872128307819 0.0027365591377019882 0.0027390872128307819
0.057666253298521042 0.057646028697490692 0.057666253298521042
0.19786658883094788 0.19788427650928497 0.19786658883094788
0.30390939116477966 0.30395996570587158 0.30390939116477966
0.3579842746257782 0.3579842746257782 0.3579842746257782
0.36410960555076599 0.36400085687637329 0.36411464214324951
0.40022468566894531 0.40019688010215759 0.40028536319732666
0.41895890235900879 0.41899177432060242 0.41903221607208252
0.037778563797473907 0.038149125874042511 0.038641147315502167
0.047819908708333969 0.047485709190368652 0.047607839107513428
0.064658477902412415 0.064082123339176178 0.0640593022108078
0.075406305491924286 0.075031086802482605 0.075192183256149292
0.087407208979129791 0.087349638342857361 0.087397679686546326
0.099150955677032471 0.099102333188056946 0.099102333188056946
0.12154325842857361 0.12157612293958664 0.12147752195596695
0.19657216966152191 0.19663789868354797 0.19657216966152191
0.29340043663978577 0.29340043663978577 0.29340043663978577
0.35086506605148315 0.35085996985435486 0.35086506605148315
0.36081111431121826 0.36081111431121826 0.36081111431121826
0.37489968538284302 0.37489491701126099 0.37492525577545166
0.38542041182518005 0.38532540202140808 0.38547554612159729
0.24031133949756622 0.24091489613056183 0.24183690547943115
0.26015278697013855 0.26088431477546692 0.26000738143920898
0.27909055352210999 0.28028061985969543 0.27872243523597717
0.30523315072059631 0.30632230639457703 0.3056178092956543
0.33621588349342346 0.3371104896068573 0.33737596869468689
0.36743998527526855 0.36770471930503845 0.36778420209884644
0.38641688227653503 0.38628304004669189 0.38636282086372375
0.40479955077171326 0.40486332774162292 0.40479955077171326
0.40965449810028076 0.40972450375556946 0.40965449810028076
0.39590978622436523 0.39599868655204773 0.39590978622436523
0.38345280289649963 0.38355118036270142 0.38340300321578979
0.37788942456245422 0.37793773412704468 0.37818878889083862
0.40071362257003784 0.4007779061794281 0.40077966451644897
0.51969254016876221 0.51972448825836182 0.52066504955291748
0.5385555624961853 0.53971016407012939 0.53834992647171021
0.55217450857162476 0.55438351631164551 0.55180782079696655
0.57585090398788452 0.57713180780410767 0.57733356952667236
0.61626344919204712 0.61665433645248413 0.61919951438903809
0.64260941743850708 0.64328515529632568 0.64352285861968994
0.65249133110046387 0.65274888277053833 0.65233451128005981
0.68598729372024536 0.6862865686416626 0.68600249290466309
0.71572107076644897 0.7154090404510498 0.71572107076644897
0.7286112904548645 0.72802233695983887 0.72857838869094849
0.70405423641204834 0.70348894596099854 0.70409798622131348
0.70780158042907715 0.70701354742050171 0.70799344778060913
0.73988890647888184 0.74003344774246216 0.73975831270217896
0.83925175666809082 0.83654558658599854 0.83997088670730591
0.83801329135894775 0.83423548936843872 0.8378722071647644
0.84475588798522949 0.83966445922851562 0.84449619054794312
0.84089773893356323 0.83477944135665894 0.84204375743865967
0.88119661808013916 0.87388110160827637 0.88365274667739868
