assets/lut/pixlsus velvetia.cube
# Created by: G'MIC (https://gmic.eu)
TITLE "velvetia"
# LUT size
LUT_3D_SIZE 13
# Data domain
DOMAIN_MIN 0.0 0.0 0.0
DOMAIN_MAX 1.0 1.0 1.0
# LUT data points
0.03074098564684391 0.034952696412801743 0.041008025407791138
0.12008563429117203 0.033212371170520782 0.03565794974565506
0.20779834687709808 0.026998048648238182 0.02788696251809597
0.29100790619850159 0.022738631814718246 0.024602808058261871
0.37092345952987671 0.022176750004291534 0.023305272683501244
0.45037055015563965 0.023383375257253647 0.022045748308300972
0.52968728542327881 0.023897059261798859 0.021507950499653816
0.60991322994232178 0.023897059261798859 0.019987083971500397
0.69096499681472778 0.023897059261798859 0.016956225037574768
0.77222514152526855 0.023945095017552376 0.012920275330543518
0.85172814130783081 0.024556523188948631 0.008980889804661274
0.92537975311279297 0.025029679760336876 0.007863692007958889
0.98457366228103638 0.025520533323287964 0.014766154810786247
0.02161845751106739 0.12493311613798141 0.031758729368448257
0.11000493168830872 0.11924197524785995 0.026218593120574951
0.20001459121704102 0.10772862285375595 0.020953159779310226
0.28555619716644287 0.097699455916881561 0.020506914705038071
0.36838659644126892 0.092313937842845917 0.021383114159107208
0.44976183772087097 0.090634874999523163 0.021261671558022499
0.53063058853149414 0.089452050626277924 0.021596437320113182
0.61212283372879028 0.08841203898191452 0.021181697025895119
0.6939120888710022 0.087808959186077118 0.018224438652396202
0.77501559257507324 0.087798848748207092 0.013787916861474514
0.85332250595092773 0.088513605296611786 0.010206828825175762
0.92567998170852661 0.089728005230426788 0.0093291932716965675
0.98603296279907227 0.090994037687778473 0.01424826867878437
0.014184211380779743 0.20701819658279419 0.030755136162042618
0.090114563703536987 0.20397447049617767 0.024618081748485565
0.18293635547161102 0.20024645328521729 0.015566029585897923
0.27459236979484558 0.18866042792797089 0.01371581107378006
0.36224249005317688 0.17676195502281189 0.015635352581739426
0.4466167688369751 0.16877755522727966 0.018548030406236649
0.52945172786712646 0.16334015130996704 0.022097134962677956
0.61215448379516602 0.15941308438777924 0.02297293022274971
0.69458496570587158 0.15687005221843719 0.020698996260762215
0.77547883987426758 0.15577012300491333 0.015953751280903816
0.85320860147476196 0.15599973499774933 0.012125531211495399
0.92566269636154175 0.15714065730571747 0.011105945333838463
0.98724043369293213 0.15808591246604919 0.013463757000863552
0.0091692907735705376 0.28630256652832031 0.031057246029376984
0.073360532522201538 0.28518804907798767 0.025133544579148293
0.16238130629062653 0.28556889295578003 0.014699375256896019
0.25806602835655212 0.28017470240592957 0.0089201387017965317
0.35056379437446594 0.26891273260116577 0.0098656294867396355
0.43889510631561279 0.25738644599914551 0.014637173153460026
0.52453672885894775 0.24766398966312408 0.02158101461827755
0.60873103141784668 0.23965702950954437 0.024669332429766655
0.69193732738494873 0.23340517282485962 0.022418422624468803
0.77349525690078735 0.22989138960838318 0.017921358346939087
0.85200512409210205 0.22864429652690887 0.013372129760682583
0.92566156387329102 0.22852638363838196 0.01145833358168602
0.98834496736526489 0.22876527905464172 0.012513747438788414
0.006494469940662384 0.3665105402469635 0.029543094336986542
0.062154043465852737 0.36569705605506897 0.025093302130699158
0.14280804991722107 0.36559790372848511 0.017696874216198921
0.23613451421260834 0.36336323618888855 0.011109445244073868
0.33280310034751892 0.35856401920318604 0.0085528353229165077
0.42594844102859497 0.35040271282196045 0.010907909832894802
0.51528835296630859 0.33969980478286743 0.017681511119008064
0.60199028253555298 0.32835933566093445 0.021732000634074211
0.68665903806686401 0.31822904944419861 0.020803952589631081
0.76946365833282471 0.31131085753440857 0.017423443496227264
0.84977120161056519 0.30721929669380188 0.013368016108870506
0.92551815509796143 0.30517962574958801 0.010914192534983158
0.98916339874267578 0.30357649922370911 0.011290501803159714
0.0069182752631604671 0.44763705134391785 0.027837686240673065
0.058005869388580322 0.4460732638835907 0.02524770051240921
0.12951432168483734 0.44350078701972961 0.022048590704798698
0.2165008932352066 0.44194144010543823 0.016645019873976707
0.31295579671859741 0.44321969151496887 0.0096741467714309692
0.40999540686607361 0.44045475125312805 0.0076807057484984398
0.50284916162490845 0.43234831094741821 0.010269733145833015
0.59233266115188599 0.42111355066299438 0.013347985222935677
0.6789359450340271 0.40920203924179077 0.014360689558088779
0.76359325647354126 0.39933782815933228 0.013530252501368523
0.84633111953735352 0.39195269346237183 0.011945327743887901
0.92466855049133301 0.38683909177780151 0.010157492011785507
0.98981493711471558 0.38301733136177063 0.010656514205038548
0.0095627130940556526 0.53011786937713623 0.025451585650444031
0.059562698006629944 0.52911287546157837 0.023504728451371193
0.12475841492414474 0.52598881721496582 0.021519949659705162
0.20450758934020996 0.52405393123626709 0.017132941633462906
0.29650577902793884 0.5255388617515564 0.010085521265864372
0.39305257797241211 0.52566069364547729 0.0056108362041413784
0.48783066868782043 0.52145469188690186 0.0049117296002805233
0.57986462116241455 0.51306790113449097 0.0060715619474649429
0.66902703046798706 0.5022662878036499 0.0075101065449416637
0.75620603561401367 0.49124696850776672 0.0085509801283478737
0.84103477001190186 0.4813862144947052 0.0086067644879221916
0.92186790704727173 0.47342187166213989 0.0088277924805879593
0.98897188901901245 0.46711686253547668 0.0097929565235972404
0.012493612244725227 0.61569756269454956 0.02214546874165535
0.06188240647315979 0.61523163318634033 0.019765516743063927
0.12323636561632156 0.61196202039718628 0.017609989270567894
0.19722458720207214 0.60845035314559937 0.014102800749242306
0.28288319706916809 0.60714709758758545 0.00953648891299963
0.37512451410293579 0.6072809100151062 0.0053216973319649696
0.47032603621482849 0.60605806112289429 0.0033788045402616262
0.56346720457077026 0.60159391164779663 0.003119240514934063
0.65567368268966675 0.59377062320709229 0.0036781311500817537
0.74592769145965576 0.58387100696563721 0.004616845864802599
0.83338439464569092 0.57337820529937744 0.0055275564081966877
0.91629528999328613 0.56361579895019531 0.0062559838406741619
0.98684298992156982 0.55551815032958984 0.0077602611854672432
0.012833075597882271 0.70385193824768066 0.018016112968325615
0.061051074415445328 0.70361524820327759 0.015605627559125423
0.1194666251540184 0.69869482517242432 0.014100601896643639
0.18902400135993958 0.69179373979568481 0.012310761027038097
0.26942181587219238 0.68655699491500854 0.010028420016169548
0.35717031359672546 0.68537032604217529 0.0066534904763102531
0.44933608174324036 0.68638360500335693 0.0042814966291189194
0.54392993450164795 0.68613284826278687 0.0029318267479538918
0.63863050937652588 0.68237638473510742 0.0026537578087300062
0.73187392950057983 0.67496198415756226 0.0030814376659691334
0.82264673709869385 0.66529655456542969 0.0034912407863885164
0.90855938196182251 0.65501123666763306 0.0043810675852000713
0.98366963863372803 0.64609283208847046 0.0055388957262039185
0.010113839991390705 0.7930755615234375 0.014033837243914604
0.056342553347349167 0.79253119230270386 0.012222618795931339
0.11325351148843765 0.78473138809204102 0.011879894882440567
0.17944872379302979 0.77416533231735229 0.011533370241522789
0.25514999032020569 0.76487833261489868 0.01137249544262886
0.33828076720237732 0.76222306489944458 0.0096805943176150322
0.42725500464439392 0.76484137773513794 0.0069749271497130394
0.5218779444694519 0.76756900548934937 0.0047605028375983238
0.61876189708709717 0.76736444234848022 0.0036448759492486715
0.71519643068313599 0.76324182748794556 0.0031693552155047655
0.8095584511756897 0.75531893968582153 0.0030218386091291904
0.8989672064781189 0.74555325508117676 0.0031860950402915478
0.97932666540145874 0.73652833700180054 0.0041042850352823734
0.0068805920891463757 0.87936753034591675 0.010890047997236252
0.050610903650522232 0.87827169895172119 0.0098035773262381554
0.10642607510089874 0.86777412891387939 0.010815788991749287
0.16969813406467438 0.85486745834350586 0.012257954105734825
0.24109292030334473 0.84419625997543335 0.013538644649088383
0.31988751888275146 0.84033751487731934 0.012939169071614742
0.40662440657615662 0.84252357482910156 0.01090717688202858
0.50075352191925049 0.84678542613983154 0.0083185536786913872
0.59943348169326782 0.84928607940673828 0.006351470947265625
0.69863742589950562 0.84811860322952271 0.0053213080391287804
0.7957913875579834 0.84251552820205688 0.0045136394910514355
0.8883739709854126 0.83352965116500854 0.0037923026829957962
0.97345143556594849 0.82518291473388672 0.0040363087318837643
0.0056398878805339336 0.95295083522796631 0.01054706983268261
0.048569861799478531 0.95221537351608276 0.0097953649237751961
0.10317840427160263 0.9420856237411499 0.011477017775177956
0.1639360636472702 0.93037015199661255 0.01358953770250082
0.23126852512359619 0.92124563455581665 0.015529273077845573
0.30682915449142456 0.91739493608474731 0.016180180013179779
0.39159703254699707 0.91888034343719482 0.01478240080177784
0.48446127772331238 0.9231228232383728 0.012578836642205715
0.58307367563247681 0.92690354585647583 0.010832034982740879
0.68336951732635498 0.92791938781738281 0.0098678888753056526
0.78217113018035889 0.92525207996368408 0.009139341302216053
0.87708014249801636 0.91860455274581909 0.0074364454485476017
0.96601849794387817 0.91369253396987915 0.0069732666015625
0.010904514230787754 0.99449771642684937 0.017762023955583572
0.054351925849914551 0.99691414833068848 0.014716354198753834
0.10625039041042328 0.99468457698822021 0.014888269826769829
0.16406065225601196 0.99092382192611694 0.016260812059044838
0.22854702174663544 0.98729395866394043 0.017987404018640518
0.30175241827964783 0.9856032133102417 0.018748966977000237
0.38380840420722961 0.98639845848083496 0.018099525943398476
0.47462037205696106 0.9886515736579895 0.016754958778619766
0.57142806053161621 0.99081999063491821 0.015741445124149323
0.67131268978118896 0.99188852310180664 0.015757780522108078
0.77049273252487183 0.99093538522720337 0.015838263556361198
0.86664068698883057 0.98772072792053223 0.014506934210658073
0.95772439241409302 0.98633146286010742 0.014384804293513298
0.020480481907725334 0.026249095797538757 0.12926578521728516
0.10969062894582748 0.024717053398489952 0.12241411209106445
0.20527002215385437 0.021954869851469994 0.10814982652664185
0.29192224144935608 0.020401179790496826 0.10072366893291473
0.37142419815063477 0.02204112708568573 0.095446519553661346
0.45110881328582764 0.024533066898584366 0.090946018695831299
0.52995097637176514 0.025162506848573685 0.08904188871383667
0.60989725589752197 0.023764472454786301 0.087629102170467377
0.69092655181884766 0.023222262039780617 0.084138207137584686
0.77284973859786987 0.023278269916772842 0.077404454350471497
0.85336709022521973 0.023856893181800842 0.070298828184604645
0.92834120988845825 0.025160755962133408 0.067588075995445251
0.98870909214019775 0.026087233796715736 0.075580045580863953
0.013692833483219147 0.11574035137891769 0.12090770900249481
0.10327260941267014 0.11187292635440826 0.11396535485982895
0.20231902599334717 0.10253337770700455 0.10063116252422333
0.28911867737770081 0.093170449137687683 0.096312537789344788
0.37154048681259155 0.089186728000640869 0.092218376696109772
0.45242977142333984 0.088571600615978241 0.087322086095809937
0.53344714641571045 0.087291106581687927 0.086210779845714569
0.61510992050170898 0.086058326065540314 0.085554741322994232
0.69684487581253052 0.085130296647548676 0.082314088940620422
0.77834576368331909 0.085040837526321411 0.07643996924161911
0.85785466432571411 0.085935033857822418 0.069986142218112946
0.93109112977981567 0.087412454187870026 0.068005673587322235
0.99026483297348022 0.089132584631443024 0.073985353112220764
0.013695900328457355 0.20639841258525848 0.11216460913419724
0.089279010891914368 0.20627908408641815 0.10521499067544937
0.18560966849327087 0.20251122117042542 0.091943196952342987
0.27955132722854614 0.18891198933124542 0.084311030805110931
0.36822688579559326 0.17418733239173889 0.081434957683086395
0.45238193869590759 0.16433456540107727 0.081215023994445801
0.5346367359161377 0.15769019722938538 0.084435902535915375
0.61767077445983887 0.15363128483295441 0.085257574915885925
0.70014995336532593 0.15081752836704254 0.082480020821094513
0.78142082691192627 0.14987047016620636 0.077247843146324158
0.85979455709457397 0.1507498025894165 0.071686029434204102
0.93277043104171753 0.15239405632019043 0.069517292082309723
0.99166423082351685 0.15384240448474884 0.073258206248283386
0.0080540226772427559 0.28901085257530212 0.10791394114494324
0.067227743566036224 0.28953185677528381 0.10077839344739914
0.16000886261463165 0.29175904393196106 0.084208451211452484
0.26291730999946594 0.28723388910293579 0.070230297744274139
0.3574289083480835 0.27214217185974121 0.067973151803016663
0.4457671046257019 0.2560124397277832 0.07245674729347229
0.53051674365997314 0.2420760840177536 0.080737046897411346
0.61523956060409546 0.23218613862991333 0.084277011454105377
0.69887286424636841 0.22502803802490234 0.082884848117828369
0.78081965446472168 0.22160296142101288 0.078349530696868896
0.85998648405075073 0.22081595659255981 0.073367834091186523
0.93424373865127563 0.22122234106063843 0.070558123290538788
0.99284911155700684 0.22191788256168365 0.072419829666614532
0.0043043550103902817 0.3704318106174469 0.10372547805309296
0.052019756287336349 0.37106382846832275 0.097180955111980438
0.13492240011692047 0.37273761630058289 0.084642045199871063
0.23661461472511292 0.37340334057807922 0.070569358766078949
0.33811125159263611 0.36862984299659729 0.060735873878002167
0.43277928233146667 0.35673582553863525 0.061313852667808533
0.52197939157485962 0.33996906876564026 0.070138446986675262
0.60861235857009888 0.32394257187843323 0.076698780059814453
0.69348227977752686 0.31084859371185303 0.078600369393825531
0.77655988931655884 0.30284017324447632 0.076857425272464752
0.85820037126541138 0.29825827479362488 0.073324106633663177
0.93512731790542603 0.29610231518745422 0.070262715220451355
0.99375081062316895 0.2943589985370636 0.071342051029205322
0.0049420972354710102 0.4528944194316864 0.099229134619235992
0.050532232969999313 0.45308226346969604 0.093731805682182312
0.12220550328493118 0.45260712504386902 0.086397446691989899
0.21369537711143494 0.45351365208625793 0.075038909912109375
0.31554460525512695 0.45610705018043518 0.059835456311702728
0.4150356650352478 0.45188441872596741 0.052857883274555206
0.50907480716705322 0.43940776586532593 0.056115556508302689
0.59889006614685059 0.4228208065032959 0.062282219529151917
0.68527913093566895 0.40650472044944763 0.0674704909324646
0.77018779516220093 0.39334052801132202 0.069894216954708099
0.8547823429107666 0.38399425148963928 0.069619797170162201
0.93499594926834106 0.37742450833320618 0.068736642599105835
0.99430197477340698 0.37276959419250488 0.070174030959606171
0.0092943524941802025 0.53593963384628296 0.094666950404644012
0.055814854800701141 0.53698217868804932 0.088981956243515015
0.11937477439641953 0.53595966100692749 0.083262152969837189
0.2002536803483963 0.53552788496017456 0.074527665972709656
0.29500418901443481 0.5381244421005249 0.060670696198940277
0.39439547061920166 0.53863245248794556 0.049236342310905457
0.49240931868553162 0.53285712003707886 0.045437846332788467
0.5859716534614563 0.52074974775314331 0.047973062843084335
0.67515933513641357 0.50546061992645264 0.053373135626316071
0.76245152950286865 0.48980185389518738 0.058665435761213303
0.84937316179275513 0.47654902935028076 0.061597216874361038
0.93166267871856689 0.46583294868469238 0.063729725778102875
0.99346405267715454 0.45783853530883789 0.0665106400847435
0.014308840036392212 0.62044268846511841 0.090394444763660431
0.060354478657245636 0.62259030342102051 0.08414313942193985
0.11824942380189896 0.62137413024902344 0.078450568020343781
0.19064433872699738 0.61926043033599854 0.071481846272945404
0.27713468670845032 0.61900001764297485 0.061125379055738449
0.37261712551116943 0.62007391452789307 0.049916420131921768
0.47071844339370728 0.61913585662841797 0.042373687028884888
0.56736356019973755 0.61292833089828491 0.040273524820804596
0.66071730852127075 0.60168552398681641 0.043044071644544601
0.75161951780319214 0.58729302883148193 0.047391973435878754
0.84059172868728638 0.57294696569442749 0.051582470536231995
0.92454403638839722 0.5595099925994873 0.055437393486499786
0.99101632833480835 0.54869753122329712 0.059532120823860168
0.015034724026918411 0.70766228437423706 0.08588225394487381
0.059656750410795212 0.70973324775695801 0.079740293323993683
0.11332717537879944 0.70724272727966309 0.07484881579875946
0.17966838181018829 0.70216178894042969 0.070033594965934753
0.2586662769317627 0.69837045669555664 0.063304275274276733
0.34793853759765625 0.69801771640777588 0.054646465927362442
0.44390442967414856 0.69975268840789795 0.046245694160461426
0.5421983003616333 0.69876062870025635 0.04079895094037056
0.64001941680908203 0.69277703762054443 0.039220519363880157
0.73561626672744751 0.68198758363723755 0.040838621556758881
0.82787775993347168 0.6683049201965332 0.043741486966609955
0.91470891237258911 0.65455120801925659 0.047464407980442047
0.98704701662063599 0.64251333475112915 0.05182507261633873
0.012067817151546478 0.79623657464981079 0.080653049051761627
0.054532550275325775 0.79800844192504883 0.075431928038597107
0.10580284148454666 0.79289031028747559 0.072376072406768799
0.16716288030147552 0.78426647186279297 0.07041352242231369
0.23915064334869385 0.77662467956542969 0.067304901778697968
0.32188397645950317 0.77444690465927124 0.061802733689546585
0.414234459400177 0.77708131074905396 0.054319672286510468
0.51350849866867065 0.77982926368713379 0.046669438481330872
0.61491990089416504 0.77874284982681274 0.041895218193531036
0.71491098403930664 0.7721056342124939 0.039925161749124527
0.81255942583084106 0.76101076602935791 0.040757376700639725
0.90323483943939209 0.74785703420639038 0.042383380234241486
0.98237180709838867 0.73590588569641113 0.045645531266927719
0.0081585906445980072 0.8820531964302063 0.075856693089008331
0.048487000167369843 0.88331657648086548 0.071468755602836609
0.098210304975509644 0.87595063447952271 0.070286422967910767
0.15554933249950409 0.86495178937911987 0.0709700807929039
0.22171159088611603 0.85536867380142212 0.071191765367984772
0.29843872785568237 0.85141241550445557 0.068581841886043549
0.38735201954841614 0.85399675369262695 0.062088955193758011
0.48642995953559875 0.85857689380645752 0.05421588197350502
0.59007090330123901 0.86074209213256836 0.047660842537879944
0.69394505023956299 0.85785543918609619 0.043877962976694107
0.79495769739151001 0.84958773851394653 0.042116530239582062
0.89019519090652466 0.83776825666427612 0.041601322591304779
0.97600358724594116 0.82690048217773438 0.043186351656913757
0.006523805670440197 0.95661479234695435 0.074879303574562073
0.045483190566301346 0.95872741937637329 0.070981763303279877
0.094483651220798492 0.95158928632736206 0.070838958024978638
0.14933589100837708 0.94125735759735107 0.072478048503398895
0.21138215065002441 0.93249630928039551 0.073868893086910248
0.28390619158744812 0.92819792032241821 0.072696194052696228
0.36951866745948792 0.93004244565963745 0.06776350736618042
0.46641680598258972 0.9347042441368103 0.0607464499771595
0.56976222991943359 0.9383920431137085 0.05442478135228157
0.67480623722076416 0.93807804584503174 0.050110895186662674
0.77808129787445068 0.93239599466323853 0.047599673271179199
0.87663263082504272 0.92285621166229248 0.045840244740247726
0.96753299236297607 0.91398721933364868 0.046190239489078522
0.0094288093969225883 0.99831140041351318 0.081554651260375977
0.04962627962231636 0.99917155504226685 0.076402686536312103
0.096883915364742279 0.99827635288238525 0.074789099395275116
0.14985038340091705 0.99614620208740234 0.075203977525234222
0.20993192493915558 0.99343127012252808 0.076075367629528046
0.2800605297088623 0.99202626943588257 0.074479304254055023
0.36213067173957825 0.99260133504867554 0.071047961711883545
0.45519366860389709 0.9942442774772644 0.065364331007003784
0.55587959289550781 0.99567443132400513 0.060333490371704102
0.65979456901550293 0.99588930606842041 0.056868743151426315
0.76316243410110474 0.99414253234863281 0.054784063249826431
0.86321061849594116 0.99036353826522827 0.052765849977731705
0.95764058828353882 0.98579663038253784 0.052747763693332672
0.014433871954679489 0.019857024773955345 0.21535384654998779
0.087917551398277283 0.014416533522307873 0.21433372795581818
0.18945428729057312 0.016903610900044441 0.19993485510349274
0.28437691926956177 0.018402308225631714 0.18788477778434753
0.36887764930725098 0.022506101056933403 0.17659516632556915
0.44809815287590027 0.026610998436808586 0.16758972406387329
0.52818387746810913 0.026385797187685966 0.16377487778663635
0.60795122385025024 0.023736616596579552 0.1621997207403183
0.68792992830276489 0.023161765187978745 0.15918685495853424
0.76965832710266113 0.023161765187978745 0.15246991813182831
0.85046780109405518 0.02320760115981102 0.14487645030021667
0.92615783214569092 0.025107754394412041 0.14147605001926422
0.98872274160385132 0.026932032778859138 0.14592465758323669
0.010534264147281647 0.10203945636749268 0.2117384672164917
0.075636319816112518 0.089981734752655029 0.21592575311660767
0.18325507640838623 0.089037604629993439 0.20204420387744904
0.28313115239143372 0.085013553500175476 0.1886666864156723
0.36971530318260193 0.085127063095569611 0.17418883740901947
0.45121696591377258 0.08611113578081131 0.16269798576831818
0.53409337997436523 0.084609702229499817 0.15821826457977295
0.61657214164733887 0.083087056875228882 0.15561628341674805
0.69783049821853638 0.081792600452899933 0.1526634693145752
0.77885311841964722 0.081666193902492523 0.14730523526668549
0.85817635059356689 0.083079367876052856 0.14108650386333466
0.932151198387146 0.085674494504928589 0.13831397891044617
0.99183756113052368 0.087496243417263031 0.1420852392911911
0.013994853012263775 0.19618029892444611 0.2007155567407608
0.074541829526424408 0.19138926267623901 0.20226618647575378
0.17676821351051331 0.1886129230260849 0.19211696088314056
0.2754022479057312 0.17982690036296844 0.18018907308578491
0.36759054660797119 0.16752038896083832 0.16445861756801605
0.45361509919166565 0.15762981772422791 0.15595889091491699
0.53782033920288086 0.15196578204631805 0.15362204611301422
0.62230932712554932 0.14867895841598511 0.1505080908536911
0.70475727319717407 0.14522811770439148 0.1480676680803299
0.78556889295578003 0.14419451355934143 0.14418961107730865
0.86388260126113892 0.14566683769226074 0.1394437849521637
0.93721318244934082 0.14819988608360291 0.13734856247901917
0.99377274513244629 0.15014629065990448 0.14005973935127258
0.0070453868247568607 0.2839914858341217 0.19226594269275665
0.052910014986991882 0.28177124261856079 0.19024753570556641
0.14903841912746429 0.28277143836021423 0.17966246604919434
0.25973010063171387 0.28012758493423462 0.16672563552856445
0.35599598288536072 0.26770851016044617 0.15331548452377319
0.44596382975578308 0.25077399611473083 0.1477816253900528
0.53328418731689453 0.23625642061233521 0.14846678078174591
0.62048280239105225 0.22559568285942078 0.14741672575473785
0.70503872632980347 0.21714577078819275 0.14609864354133606
0.78713405132293701 0.21361431479454041 0.14298593997955322
0.86692279577255249 0.21354043483734131 0.13919170200824738
0.94096237421035767 0.21455228328704834 0.13774509727954865
0.99529761075973511 0.21543876826763153 0.13936585187911987
