assets/lut/pixlsus cinematic mexico.cube
# Created by: G'MIC (https://gmic.eu)
TITLE "cinematic_mexico"
# LUT size
LUT_3D_SIZE 5
# Data domain
DOMAIN_MIN 0.0 0.0 0.0
DOMAIN_MAX 1.0 1.0 1.0
# LUT data points
0.033000435680150986 0.026350777596235275 0.024312891066074371
0.22311186790466309 0.088180825114250183 0.01677258126437664
0.40224039554595947 0.10942263156175613 0.0059015010483562946
0.57405537366867065 0.20885567367076874 0.018202492967247963
0.68880212306976318 0.20119419693946838 0.032463103532791138
0.12963226437568665 0.17811305820941925 0.10189617425203323
0.24853046238422394 0.1961795836687088 0.059539075940847397
0.42210981249809265 0.24134817719459534 0.011479277163743973
0.58074569702148438 0.29186621308326721 0.014337008818984032
0.68319320678710938 0.30629324913024902 0.026526866480708122
0.21874655783176422 0.35283973813056946 0.1379050612449646
0.3330211341381073 0.36589479446411133 0.16328053176403046
0.46984019875526428 0.41380095481872559 0.073402971029281616
0.62043082714080811 0.44842085242271423 0.027828201651573181
0.74027258157730103 0.48538312315940857 0.02289663627743721
0.24456754326820374 0.53647017478942871 0.14486454427242279
0.37509262561798096 0.53025180101394653 0.16383248567581177
0.50667786598205566 0.54186505079269409 0.11058326810598373
0.62981593608856201 0.59884852170944214 0.10776694864034653
0.76717996597290039 0.63355869054794312 0.05640164390206337
0.23063170909881592 0.70709133148193359 0.13293205201625824
0.37142854928970337 0.68626642227172852 0.13583949208259583
0.52970331907272339 0.68010103702545166 0.12456589937210083
0.66837114095687866 0.69535523653030396 0.12856410443782806
0.7883526086807251 0.73757350444793701 0.095317244529724121
0.069833345711231232 0.10892636328935623 0.16915823519229889
0.24148274958133698 0.15142317116260529 0.15649795532226562
0.43772420287132263 0.15266162157058716 0.12576399743556976
0.5862499475479126 0.22373594343662262 0.15395066142082214
0.71980053186416626 0.23876331746578217 0.18144272267818451
0.11040043830871582 0.20942001044750214 0.2026187926530838
0.24291044473648071 0.23940593004226685 0.2210237979888916
0.47067588567733765 0.26514306664466858 0.15094457566738129
0.60452783107757568 0.30923077464103699 0.14393097162246704
0.69994062185287476 0.35353544354438782 0.16945827007293701
0.22216688096523285 0.38717341423034668 0.27452939748764038
0.3487580418586731 0.40491369366645813 0.2877960205078125
0.51339805126190186 0.46455371379852295 0.26796689629554749
0.67790567874908447 0.48995864391326904 0.17081037163734436
0.73491150140762329 0.50742393732070923 0.16664230823516846
0.26974451541900635 0.55145388841629028 0.29464584589004517
0.39600145816802979 0.54848259687423706 0.30559805035591125
0.55151975154876709 0.58122974634170532 0.2962893545627594
0.65234971046447754 0.6176069974899292 0.19961266219615936
0.80077236890792847 0.67537873983383179 0.22446237504482269
0.24159163236618042 0.72353142499923706 0.29564186930656433
0.38917440176010132 0.69520103931427002 0.29953014850616455
0.54438692331314087 0.70307987928390503 0.28584852814674377
0.69017672538757324 0.73303914070129395 0.28256767988204956
0.78387641906738281 0.80118805170059204 0.2983500063419342
0.1242745965719223 0.17394615709781647 0.31773906946182251
0.26929199695587158 0.21918939054012299 0.35072734951972961
0.47920927405357361 0.25069242715835571 0.33256193995475769
0.63903504610061646 0.28031304478645325 0.35485401749610901
0.76896804571151733 0.2825920581817627 0.39930039644241333
0.16508708894252777 0.28896728157997131 0.34601032733917236
0.26198390126228333 0.33429142832756042 0.37441566586494446
0.50034278631210327 0.37601408362388611 0.37862023711204529
0.66254657506942749 0.41840741038322449 0.38403743505477905
0.76755571365356445 0.43542513251304626 0.39152896404266357
0.25659734010696411 0.46034806966781616 0.46100631356239319
0.35976183414459229 0.47426795959472656 0.48220285773277283
0.55198031663894653 0.54669797420501709 0.5078885555267334
0.73175901174545288 0.57222503423690796 0.45904257893562317
0.83068108558654785 0.58014309406280518 0.41015714406967163
0.29616415500640869 0.60842537879943848 0.50578159093856812
0.43387830257415771 0.60663944482803345 0.51066118478775024
0.60751652717590332 0.66334360837936401 0.5279088020324707
0.74287456274032593 0.70667344331741333 0.5389062762260437
0.83120304346084595 0.73510289192199707 0.47653993964195251
0.26668640971183777 0.75764966011047363 0.51055550575256348
0.43256548047065735 0.74188446998596191 0.52013117074966431
0.59618842601776123 0.74822086095809937 0.53256583213806152
0.73999178409576416 0.79202890396118164 0.54683864116668701
0.84106683731079102 0.8649410605430603 0.57056933641433716
0.15551997721195221 0.20384107530117035 0.52370297908782959
0.30108952522277832 0.25743862986564636 0.5459822416305542
0.4914391040802002 0.29835450649261475 0.57388246059417725
0.6781877875328064 0.32394415140151978 0.5907512903213501
0.82185447216033936 0.32359495759010315 0.6134105920791626
0.21169702708721161 0.35270142555236816 0.54553574323654175
0.32947051525115967 0.39913195371627808 0.55629676580429077
0.50982064008712769 0.45390307903289795 0.58958971500396729
0.69829481840133667 0.48760068416595459 0.61302024126052856
0.82156592607498169 0.49486395716667175 0.61108112335205078
0.28436306118965149 0.51316696405410767 0.61254799365997314
0.40688475966453552 0.54205113649368286 0.60934913158416748
0.55266958475112915 0.5928114652633667 0.6220322847366333
0.72829604148864746 0.64088928699493408 0.64464664459228516
0.83355462551116943 0.65632659196853638 0.62817084789276123
0.32899487018585205 0.66283071041107178 0.66588759422302246
0.48298925161361694 0.6669304370880127 0.67062729597091675
0.64279651641845703 0.71398192644119263 0.7060132622718811
0.77888792753219604 0.7677004337310791 0.71161067485809326
0.86402428150177002 0.78470528125762939 0.68244689702987671
0.30851638317108154 0.80048710107803345 0.68574076890945435
0.47910457849502563 0.78198611736297607 0.6880805492401123
0.64143568277359009 0.79269421100616455 0.70975345373153687
0.79061156511306763 0.83959156274795532 0.72086840867996216
0.88736552000045776 0.88387101888656616 0.73578959703445435
0.16088980436325073 0.19730934500694275 0.70932388305664062
0.31507980823516846 0.24496482312679291 0.7214585542678833
0.50300753116607666 0.28654822707176208 0.74948406219482422
0.70118933916091919 0.30677241086959839 0.7829168438911438
0.85344541072845459 0.30595380067825317 0.80082798004150391
0.20419555902481079 0.35875213146209717 0.70889592170715332
0.34602814912796021 0.39580568671226501 0.70394444465637207
0.52499938011169434 0.44854187965393066 0.72928738594055176
0.70093560218811035 0.48321413993835449 0.76115477085113525
0.84567165374755859 0.49256768822669983 0.78338891267776489
0.27078995108604431 0.53522288799285889 0.74969828128814697
0.40537509322166443 0.54549956321716309 0.72439795732498169
0.56685376167297363 0.60624301433563232 0.73868066072463989
0.72786867618560791 0.6560978889465332 0.76556724309921265
0.85276061296463013 0.66600888967514038 0.77521026134490967
0.33319419622421265 0.69355589151382446 0.79991310834884644
0.48946991562843323 0.70039516687393188 0.78574061393737793
0.64236152172088623 0.73810213804244995 0.78452533483505249
0.77324086427688599 0.79608446359634399 0.80873507261276245
0.86704725027084351 0.80985993146896362 0.79296523332595825
0.32749280333518982 0.83571404218673706 0.83239287137985229
0.50358837842941284 0.82770663499832153 0.81917601823806763
0.66804105043411255 0.83521872758865356 0.8226999044418335
0.8100053071975708 0.85482633113861084 0.82455909252166748
0.90722876787185669 0.91204267740249634 0.83879566192626953
