assets/lut/pixlsus modern film.cube
# Created by: G'MIC (https://gmic.eu)
TITLE "modern_film"
# LUT size
LUT_3D_SIZE 7
# Data domain
DOMAIN_MIN 0.0 0.0 0.0
DOMAIN_MAX 1.0 1.0 1.0
# LUT data points
0.03982582688331604 0.037006542086601257 0.037714641541242599
0.17896002531051636 0.047353856265544891 0.046651475131511688
0.2970588207244873 0.077743560075759888 0.072358675301074982
0.4216158390045166 0.10920179635286331 0.10314036160707474
0.60922145843505859 0.064918786287307739 0.05912264809012413
0.79229384660720825 0.040204081684350967 0.026316877454519272
0.96408003568649292 0.031852617859840393 0.017234234139323235
0.073371529579162598 0.18472574651241302 0.058884892612695694
0.20070020854473114 0.18658554553985596 0.065054513514041901
0.31889894604682922 0.19288930296897888 0.10333292186260223
0.4450066089630127 0.19932562112808228 0.13593541085720062
0.62536484003067017 0.17540411651134491 0.086721457540988922
0.80407112836837769 0.16302892565727234 0.042297888547182083
0.9684264063835144 0.16479387879371643 0.028478315100073814
0.16546398401260376 0.32369145750999451 0.13002859055995941
0.24263285100460052 0.32907700538635254 0.12821744382381439
0.36041325330734253 0.33380240201950073 0.14533227682113647
0.49167945981025696 0.33524498343467712 0.16534514725208282
0.65287280082702637 0.3235262930393219 0.12000739574432373
0.81630611419677734 0.31614768505096436 0.069982893764972687
0.96911764144897461 0.3189692497253418 0.059681206941604614
0.24045561254024506 0.46688377857208252 0.20028035342693329
0.31680074334144592 0.47019004821777344 0.1956731379032135
0.41097581386566162 0.47681775689125061 0.19169440865516663
0.53910177946090698 0.47839778661727905 0.20762686431407928
0.68491297960281372 0.4779370129108429 0.1398889422416687
0.83108979463577271 0.47683444619178772 0.098401054739952087
0.97117000818252563 0.47940945625305176 0.12835046648979187
0.21740998327732086 0.6299852728843689 0.16267046332359314
0.30364632606506348 0.63159489631652832 0.1574166864156723
0.41053533554077148 0.63666486740112305 0.14627417922019958
0.54936701059341431 0.63843429088592529 0.15450906753540039
0.70322525501251221 0.6358826756477356 0.16234467923641205
0.85061204433441162 0.6357153058052063 0.16461721062660217
0.9798092246055603 0.63796955347061157 0.20522326231002808
0.22177474200725555 0.79740118980407715 0.18790812790393829
0.25381600856781006 0.7998538613319397 0.19250547885894775
0.33958351612091064 0.80403983592987061 0.18900482356548309
0.48597100377082825 0.80542409420013428 0.19843612611293793
0.66898638010025024 0.79972344636917114 0.24109701812267303
0.84298950433731079 0.79495531320571899 0.28229072690010071
0.98093479871749878 0.79685145616531372 0.31312653422355652
0.31656357645988464 0.96087992191314697 0.31437128782272339
0.28275012969970703 0.9637637734413147 0.32277387380599976
0.30876711010932922 0.96802443265914917 0.33515426516532898
0.41670605540275574 0.97093558311462402 0.34912270307540894
0.60297411680221558 0.96721619367599487 0.37529289722442627
0.79677408933639526 0.96163094043731689 0.41028967499732971
0.96296697854995728 0.95992487668991089 0.4351046085357666
0.050067737698554993 0.046506725251674652 0.1522388756275177
0.17757026851177216 0.057123519480228424 0.15397655963897705
0.29844483733177185 0.081587500870227814 0.15744321048259735
0.42472752928733826 0.1041230708360672 0.15368726849555969
0.61053848266601562 0.065084569156169891 0.1284290999174118
0.79426306486129761 0.039064653217792511 0.11875969171524048
0.96537041664123535 0.031058577820658684 0.13193637132644653
0.083661638200283051 0.18493884801864624 0.16815260052680969
0.19904348254203796 0.19116351008415222 0.17759665846824646
0.32318669557571411 0.19605909287929535 0.18005037307739258
0.44866245985031128 0.20002013444900513 0.1801733672618866
0.62657982110977173 0.17730705440044403 0.13650400936603546
0.80589324235916138 0.16122809052467346 0.11930915713310242
0.96911764144897461 0.16278916597366333 0.12383729219436646
0.16209262609481812 0.32661908864974976 0.20016336441040039
0.2447112649679184 0.33283537626266479 0.20273670554161072
0.36158537864685059 0.33751592040061951 0.21449515223503113
0.49300175905227661 0.33757272362709045 0.21112023293972015
0.65223425626754761 0.32586601376533508 0.15861314535140991
0.81785863637924194 0.31567820906639099 0.13122673332691193
0.97158098220825195 0.31808361411094666 0.12896853685379028
0.23876488208770752 0.46867123246192932 0.2368476390838623
0.31684717535972595 0.47358477115631104 0.22812174260616302
0.41197293996810913 0.47950795292854309 0.23474462330341339
0.53881275653839111 0.4804224967956543 0.25024089217185974
0.68475115299224854 0.47847732901573181 0.18546424806118011
0.83253329992294312 0.47837671637535095 0.14090746641159058
0.97335124015808105 0.48133164644241333 0.16203677654266357
0.2002328485250473 0.6310049295425415 0.17962801456451416
0.30201423168182373 0.63364231586456299 0.17300215363502502
0.41329389810562134 0.63809716701507568 0.18246237933635712
0.55203080177307129 0.63860291242599487 0.2036329060792923
0.70331430435180664 0.6373898983001709 0.20211467146873474
0.84974980354309082 0.63680636882781982 0.18180854618549347
0.97722697257995605 0.64116215705871582 0.20552477240562439
0.1961054801940918 0.79909342527389526 0.17937465012073517
0.25689989328384399 0.80107975006103516 0.18317440152168274
0.35360220074653625 0.80427443981170654 0.19391077756881714
0.49935409426689148 0.80549818277359009 0.20404559373855591
0.67181181907653809 0.80150085687637329 0.24607196450233459
0.84362077713012695 0.79679137468338013 0.27924662828445435
0.97883129119873047 0.79954236745834351 0.30414527654647827
0.29529604315757751 0.96127450466156006 0.27903297543525696
0.2866135835647583 0.96316266059875488 0.29423588514328003
0.3223956823348999 0.96503251791000366 0.32474622130393982
0.43147364258766174 0.96713417768478394 0.34404674172401428
0.60414904356002808 0.96796697378158569 0.36599099636077881
0.79287540912628174 0.96496295928955078 0.40557670593261719
0.95818114280700684 0.96334856748580933 0.43772599101066589
0.087388940155506134 0.064759045839309692 0.2296869307756424
0.18384546041488647 0.076566092669963837 0.23552756011486053
0.30504873394966125 0.089770250022411346 0.25447434186935425
0.43078136444091797 0.11508190631866455 0.25096094608306885
0.60530722141265869 0.081125400960445404 0.24799664318561554
0.79010426998138428 0.050154756754636765 0.26276248693466187
0.96435195207595825 0.035120677202939987 0.29844054579734802
0.11745776236057281 0.18642827868461609 0.26536878943443298
0.20683783292770386 0.19631268084049225 0.26697444915771484
0.33225131034851074 0.20128315687179565 0.27673196792602539
0.45840978622436523 0.20538769662380219 0.27326226234436035
0.62438184022903442 0.18642722070217133 0.26144883036613464
0.80295842885971069 0.16778773069381714 0.26753941178321838
0.96892786026000977 0.16329559683799744 0.29047331213951111
0.17408400774002075 0.33144986629486084 0.30353549122810364
0.25216788053512573 0.33465778827667236 0.29973021149635315
0.36505267024040222 0.34084191918373108 0.31734701991081238
0.49868881702423096 0.34084019064903259 0.30701577663421631
0.65620297193527222 0.32733896374702454 0.28319194912910461
0.82026678323745728 0.31547299027442932 0.28505474328994751
0.97299414873123169 0.31513887643814087 0.29450958967208862
0.25209698081016541 0.47157725691795349 0.33336529135704041
0.32107159495353699 0.47614416480064392 0.3241153359413147
0.41650450229644775 0.48036134243011475 0.3335731029510498
0.54329198598861694 0.4817453920841217 0.343121737241745
0.68888610601425171 0.48067924380302429 0.31133890151977539
0.84011012315750122 0.47726714611053467 0.29226875305175781
0.97925400733947754 0.48057958483695984 0.30234038829803467
0.20591570436954498 0.6316717267036438 0.30901405215263367
0.30093905329704285 0.63476574420928955 0.29705297946929932
0.41234257817268372 0.63922178745269775 0.29872286319732666
0.5540274977684021 0.63921421766281128 0.31247127056121826
0.70791161060333252 0.63725584745407104 0.31780534982681274
0.85614806413650513 0.6367906928062439 0.28725737333297729
0.97917062044143677 0.64288753271102905 0.28361469507217407
0.19666822254657745 0.79957932233810425 0.28402262926101685
0.26294520497322083 0.80166769027709961 0.27702808380126953
0.35787683725357056 0.80591690540313721 0.27522218227386475
0.49827656149864197 0.80771434307098389 0.27265295386314392
0.67187666893005371 0.80278319120407104 0.30221688747406006
0.84691119194030762 0.79650735855102539 0.30341312289237976
0.98042517900466919 0.79989117383956909 0.31918027997016907
0.3116908073425293 0.96127450466156006 0.30780142545700073
0.30458834767341614 0.96291142702102661 0.32387712597846985
0.33325991034507751 0.96570932865142822 0.34175384044647217
0.42956793308258057 0.97056466341018677 0.3422667384147644
0.60003960132598877 0.97064191102981567 0.3686390221118927
0.7899358868598938 0.96769994497299194 0.40288808941841125
0.96025341749191284 0.96407729387283325 0.42671826481819153
0.12998606264591217 0.090217620134353638 0.31685197353363037
0.21137219667434692 0.094101637601852417 0.32929548621177673
0.31630879640579224 0.1141461506485939 0.33618786931037903
0.44849422574043274 0.11238958686590195 0.35202926397323608
0.61112254858016968 0.096806138753890991 0.36856251955032349
0.78888934850692749 0.064469955861568451 0.40757688879966736
0.96167010068893433 0.039819814264774323 0.46442559361457825
0.16282875835895538 0.19319938123226166 0.35654845833778381
0.23985326290130615 0.2009371817111969 0.35584831237792969
0.34123328328132629 0.2102208137512207 0.36473050713539124
0.46449482440948486 0.21345522999763489 0.37134727835655212
0.62818104028701782 0.19934263825416565 0.38656347990036011
0.80212360620498657 0.17714680731296539 0.4187692403793335
0.96709299087524414 0.1643269807100296 0.46183836460113525
0.20781855285167694 0.33519908785820007 0.39315468072891235
0.28239715099334717 0.33843994140625 0.38724765181541443
0.37846440076828003 0.34499850869178772 0.39759251475334167
0.50515282154083252 0.34527352452278137 0.40375584363937378
0.6591913104057312 0.33109813928604126 0.41271200776100159
0.82030171155929565 0.31700041890144348 0.43538767099380493
0.97148710489273071 0.31239691376686096 0.46387907862663269
0.24424375593662262 0.47841891646385193 0.43396666646003723
0.32966610789299011 0.48091647028923035 0.42543596029281616
0.42820200324058533 0.4846072793006897 0.42908066511154175
0.53081929683685303 0.49314990639686584 0.46540737152099609
0.68344151973724365 0.48605453968048096 0.4414122998714447
0.8383634090423584 0.47796764969825745 0.44028106331825256
0.9763416051864624 0.47699183225631714 0.46309742331504822
0.19910776615142822 0.63619410991668701 0.44519218802452087
0.29766610264778137 0.63832384347915649 0.42989876866340637
0.41069847345352173 0.64293891191482544 0.4292151927947998
0.54984772205352783 0.6444706916809082 0.44592687487602234
0.70470339059829712 0.64165192842483521 0.45097687840461731
0.85543429851531982 0.6402212381362915 0.4353758692741394
0.98333078622817993 0.64122027158737183 0.43472099304199219
0.20439141988754272 0.800606369972229 0.42396396398544312
0.2666022777557373 0.80225890874862671 0.41060656309127808
0.35407543182373047 0.8071104884147644 0.4009113609790802
0.4908444881439209 0.80898803472518921 0.39728456735610962
0.67051857709884644 0.80405747890472412 0.42343449592590332
0.84998601675033569 0.79759401082992554 0.42139750719070435
0.98610079288482666 0.79928600788116455 0.41512665152549744
0.33011868596076965 0.96127450466156006 0.40984582901000977
0.31686529517173767 0.96197652816772461 0.4195595383644104
0.33535349369049072 0.96687191724777222 0.41968175768852234
0.41991546750068665 0.97319567203521729 0.39990326762199402
0.59863638877868652 0.97082304954528809 0.42932292819023132
0.80007106065750122 0.96438014507293701 0.44179749488830566
0.97118902206420898 0.96057283878326416 0.44072258472442627
0.13071179389953613 0.080177485942840576 0.51431334018707275
0.22938063740730286 0.08399837464094162 0.5165749192237854
0.34230417013168335 0.09349079430103302 0.51270043849945068
0.47670245170593262 0.091784127056598663 0.50603967905044556
0.62762224674224854 0.095852211117744446 0.51429879665374756
0.79486709833145142 0.065921574831008911 0.54921823740005493
0.96130388975143433 0.040744151920080185 0.61646550893783569
0.1554049551486969 0.19457200169563293 0.53338146209716797
0.2473665177822113 0.19936200976371765 0.52473688125610352
0.35499799251556396 0.20744246244430542 0.51935893297195435
0.48780840635299683 0.20776773989200592 0.51744276285171509
0.64291733503341675 0.20075748860836029 0.52937322854995728
0.80757075548171997 0.17956347763538361 0.55774009227752686
0.96811270713806152 0.16470584273338318 0.61221408843994141
0.17750181257724762 0.33847680687904358 0.54737979173660278
0.26646554470062256 0.3436923623085022 0.53705668449401855
0.37361010909080505 0.34981620311737061 0.53035938739776611
0.51488447189331055 0.34536075592041016 0.53031820058822632
0.66760754585266113 0.3327261209487915 0.54622924327850342
0.8232002854347229 0.31812688708305359 0.57155144214630127
0.97175657749176025 0.31225490570068359 0.61156457662582397
0.18680749833583832 0.48806995153427124 0.56677538156509399
0.28513181209564209 0.49281454086303711 0.55563849210739136
0.39677739143371582 0.49877175688743591 0.54752886295318604
0.54089474678039551 0.49495953321456909 0.55589216947555542
0.68698304891586304 0.48666423559188843 0.56785744428634644
0.83549582958221436 0.47895961999893188 0.58043313026428223
0.97219067811965942 0.47709020972251892 0.61446720361709595
0.18426410853862762 0.64321756362915039 0.57525348663330078
0.27848407626152039 0.64496433734893799 0.56062495708465576
0.39696475863456726 0.64886599779129028 0.55327707529067993
0.55051714181900024 0.64878904819488525 0.57003837823867798
0.69385159015655518 0.64788854122161865 0.60142797231674194
0.84102600812911987 0.64377492666244507 0.59099465608596802
0.97703814506530762 0.64363396167755127 0.59917837381362915
0.22535324096679688 0.80238461494445801 0.57045257091522217
0.26548096537590027 0.80289000272750854 0.55702763795852661
0.35062134265899658 0.80616730451583862 0.5478089451789856
0.50078034400939941 0.80852293968200684 0.55203336477279663
0.66963690519332886 0.8073279857635498 0.58152514696121216
0.84286421537399292 0.80109715461730957 0.58797156810760498
0.98250192403793335 0.80251079797744751 0.57790929079055786
0.33259332180023193 0.96127450466156006 0.56780409812927246
0.32243567705154419 0.96266454458236694 0.56479555368423462
0.33795398473739624 0.9652407169342041 0.56803047657012939
0.42860016226768494 0.96859544515609741 0.56932371854782104
0.60161662101745605 0.97126436233520508 0.56698471307754517
0.80365163087844849 0.96418923139572144 0.57300633192062378
0.97064721584320068 0.96108460426330566 0.57319545745849609
0.099179498851299286 0.065864101052284241 0.70987313985824585
0.21724629402160645 0.069038495421409607 0.71289598941802979
0.34396377205848694 0.078518480062484741 0.72613626718521118
0.48259392380714417 0.08402746170759201 0.72411054372787476
0.63858509063720703 0.079258829355239868 0.71393126249313354
0.80365008115768433 0.057691432535648346 0.71176022291183472
0.96530830860137939 0.050278518348932266 0.7598760724067688
0.11017363518476486 0.19292427599430084 0.72546923160552979
0.2206093817949295 0.19829416275024414 0.7128179669380188
0.34662988781929016 0.20600754022598267 0.71489006280899048
0.48915088176727295 0.21023045480251312 0.71697843074798584
0.64776003360748291 0.20324452221393585 0.71832782030105591
0.81298023462295532 0.18180936574935913 0.7132335901260376
0.97211217880249023 0.17303290963172913 0.75432491302490234
0.11531533300876617 0.33965131640434265 0.73783326148986816
0.22357602417469025 0.34624782204627991 0.72956061363220215
0.34872299432754517 0.35376963019371033 0.72459834814071655
0.49736082553863525 0.35446754097938538 0.719127357006073
0.66008681058883667 0.34395879507064819 0.72243541479110718
0.8236890435218811 0.3256022036075592 0.72697728872299194
0.97713679075241089 0.31652462482452393 0.75631755590438843
0.11622545123100281 0.49395740032196045 0.7436339259147644
0.22827233374118805 0.50007551908493042 0.73545891046524048
0.35125428438186646 0.50829553604125977 0.72431063652038574
0.50517171621322632 0.50760263204574585 0.71651995182037354
0.67139220237731934 0.49770531058311462 0.72429448366165161
0.8330070972442627 0.48438930511474609 0.7370460033416748
0.97727823257446289 0.47915405035018921 0.76388287544250488
0.14161562919616699 0.65071046352386475 0.72982871532440186
0.24538624286651611 0.65317875146865845 0.71845746040344238
0.35135781764984131 0.6598663330078125 0.7120782732963562
0.51284360885620117 0.66143429279327393 0.70975780487060547
0.67919129133224487 0.65549808740615845 0.73042076826095581
0.83828228712081909 0.64572006464004517 0.74048256874084473
0.97907555103302002 0.6452479362487793 0.75674867630004883
0.22610281407833099 0.80704778432846069 0.72764414548873901
0.2565460205078125 0.80868232250213623 0.71427267789840698
0.3321799635887146 0.81229525804519653 0.70386368036270142
0.50121206045150757 0.81375974416732788 0.70277810096740723
0.66904270648956299 0.81203418970108032 0.72472560405731201
0.83233535289764404 0.80446308851242065 0.75848579406738281
0.97724199295043945 0.80429977178573608 0.75485146045684814
0.34571856260299683 0.96482771635055542 0.72932189702987671
0.34554857015609741 0.96868354082107544 0.71829605102539062
0.351096510887146 0.97001665830612183 0.71699792146682739
0.4208412766456604 0.97492599487304688 0.71320849657058716
0.60456854104995728 0.9749523401260376 0.71751862764358521
0.80381649732589722 0.96462911367416382 0.73932570219039917
0.96441590785980225 0.96127450466156006 0.75242167711257935
0.046328045427799225 0.04792022705078125 0.77052372694015503
0.17511771619319916 0.062993459403514862 0.79008853435516357
0.31181898713111877 0.083516187965869904 0.8147549033164978
0.45675447583198547 0.099932141602039337 0.85157358646392822
0.63064014911651611 0.081197403371334076 0.91011333465576172
0.80546104907989502 0.064576573669910431 0.93137884140014648
0.96633529663085938 0.077384263277053833 0.93483173847198486
0.053942304104566574 0.19124990701675415 0.81337636709213257
0.17546527087688446 0.20220130681991577 0.81829154491424561
0.3137613832950592 0.21567341685295105 0.84783869981765747
0.4633934497833252 0.22748689353466034 0.8853880763053894
0.63252407312393188 0.22059433162212372 0.92485922574996948
0.807422935962677 0.2001158744096756 0.92234969139099121
0.97208923101425171 0.19662722945213318 0.92955279350280762
0.062223143875598907 0.3406197726726532 0.88856649398803711
0.17796656489372253 0.35038483142852783 0.89373922348022461
0.31316876411437988 0.36148932576179504 0.90943485498428345
0.46352109313011169 0.36986622214317322 0.91389864683151245
0.6335301399230957 0.36414811015129089 0.92821609973907471
0.81056588888168335 0.34427094459533691 0.9258459210395813
0.9778931736946106 0.33017930388450623 0.92725497484207153
0.073061071336269379 0.49448028206825256 0.93729758262634277
0.18062297999858856 0.50433027744293213 0.9299699068069458
0.30440276861190796 0.51562869548797607 0.9229811429977417
0.45548197627067566 0.52155524492263794 0.913798987865448
0.63116860389709473 0.51533526182174683 0.92159652709960938
0.81197404861450195 0.49969810247421265 0.9302973747253418
0.97946131229400635 0.48378312587738037 0.92616122961044312
0.11698624491691589 0.65382695198059082 0.91870403289794922
0.19913989305496216 0.66094601154327393 0.91304445266723633
0.29341953992843628 0.67083847522735596 0.90259337425231934
0.44355109333992004 0.67607635259628296 0.8951839804649353
0.62656658887863159 0.67025232315063477 0.90295332670211792
0.81066268682479858 0.65786731243133545 0.91009843349456787
0.97595816850662231 0.64911758899688721 0.91684889793395996
0.22263476252555847 0.81119918823242188 0.89870578050613403
0.24876229465007782 0.81712853908538818 0.88935524225234985
0.29175952076911926 0.82355046272277832 0.88138693571090698
0.42510664463043213 0.82887548208236694 0.87476730346679688
0.61927622556686401 0.82410770654678345 0.88489848375320435
0.80193221569061279 0.81627839803695679 0.90777844190597534
0.97099143266677856 0.81003248691558838 0.91834825277328491
0.35780274868011475 0.9659157395362854 0.89082163572311401
0.36073249578475952 0.96891981363296509 0.88472539186477661
0.36982548236846924 0.9713205099105835 0.87916070222854614
0.41770035028457642 0.97672021389007568 0.8757135272026062
0.61059987545013428 0.97482556104660034 0.88235121965408325
0.79358917474746704 0.96915709972381592 0.89659863710403442
0.96205180883407593 0.96387511491775513 0.91985172033309937
