assets/lut/pixlsus velvetia.cube
# Created by: G'MIC (https://gmic.eu)
TITLE "velvetia"
# LUT size
LUT_3D_SIZE 7
# Data domain
DOMAIN_MIN 0.0 0.0 0.0
DOMAIN_MAX 1.0 1.0 1.0
# LUT data points
0.03074098564684391 0.034952696412801743 0.041008025407791138
0.20779834687709808 0.026998048648238182 0.02788696251809597
0.37092345952987671 0.022176750004291534 0.023305272683501244
0.52968728542327881 0.023897059261798859 0.021507950499653816
0.69096499681472778 0.023897059261798859 0.016956225037574768
0.85172814130783081 0.024556523188948631 0.008980889804661274
0.98457366228103638 0.025520533323287964 0.014766154810786247
0.014184211380779743 0.20701819658279419 0.030755136162042618
0.18293635547161102 0.20024645328521729 0.015566029585897923
0.36224249005317688 0.17676195502281189 0.015635352581739426
0.52945172786712646 0.16334015130996704 0.022097134962677956
0.69458496570587158 0.15687005221843719 0.020698996260762215
0.85320860147476196 0.15599973499774933 0.012125531211495399
0.98724043369293213 0.15808591246604919 0.013463757000863552
0.006494469940662384 0.3665105402469635 0.029543094336986542
0.14280804991722107 0.36559790372848511 0.017696874216198921
0.33280310034751892 0.35856401920318604 0.0085528353229165077
0.51528835296630859 0.33969980478286743 0.017681511119008064
0.68665903806686401 0.31822904944419861 0.020803952589631081
0.84977120161056519 0.30721929669380188 0.013368016108870506
0.98916339874267578 0.30357649922370911 0.011290501803159714
0.0095627130940556526 0.53011786937713623 0.025451585650444031
0.12475841492414474 0.52598881721496582 0.021519949659705162
0.29650577902793884 0.5255388617515564 0.010085521265864372
0.48783066868782043 0.52145469188690186 0.0049117296002805233
0.66902703046798706 0.5022662878036499 0.0075101065449416637
0.84103477001190186 0.4813862144947052 0.0086067644879221916
0.98897188901901245 0.46711686253547668 0.0097929565235972404
0.012833075597882271 0.70385193824768066 0.018016112968325615
0.1194666251540184 0.69869482517242432 0.014100601896643639
0.26942181587219238 0.68655699491500854 0.010028420016169548
0.44933608174324036 0.68638360500335693 0.0042814966291189194
0.63863050937652588 0.68237638473510742 0.0026537578087300062
0.82264673709869385 0.66529655456542969 0.0034912407863885164
0.98366963863372803 0.64609283208847046 0.0055388957262039185
0.0068805920891463757 0.87936753034591675 0.010890047997236252
0.10642607510089874 0.86777412891387939 0.010815788991749287
0.24109292030334473 0.84419625997543335 0.013538644649088383
0.40662440657615662 0.84252357482910156 0.01090717688202858
0.59943348169326782 0.84928607940673828 0.006351470947265625
0.7957913875579834 0.84251552820205688 0.0045136394910514355
0.97345143556594849 0.82518291473388672 0.0040363087318837643
0.010904514230787754 0.99449771642684937 0.017762023955583572
0.10625039041042328 0.99468457698822021 0.014888269826769829
0.22854702174663544 0.98729395866394043 0.017987404018640518
0.38380840420722961 0.98639845848083496 0.018099525943398476
0.57142806053161621 0.99081999063491821 0.015741445124149323
0.77049273252487183 0.99093538522720337 0.015838263556361198
0.95772439241409302 0.98633146286010742 0.014384804293513298
0.014433871954679489 0.019857024773955345 0.21535384654998779
0.18945428729057312 0.016903610900044441 0.19993485510349274
0.36887764930725098 0.022506101056933403 0.17659516632556915
0.52818387746810913 0.026385797187685966 0.16377487778663635
0.68792992830276489 0.023161765187978745 0.15918685495853424
0.85046780109405518 0.02320760115981102 0.14487645030021667
0.98872274160385132 0.026932032778859138 0.14592465758323669
0.013994853012263775 0.19618029892444611 0.2007155567407608
0.17676821351051331 0.1886129230260849 0.19211696088314056
0.36759054660797119 0.16752038896083832 0.16445861756801605
0.53782033920288086 0.15196578204631805 0.15362204611301422
0.70475727319717407 0.14522811770439148 0.1480676680803299
0.86388260126113892 0.14566683769226074 0.1394437849521637
0.99377274513244629 0.15014629065990448 0.14005973935127258
0.0017389035783708096 0.36978310346603394 0.1846274733543396
0.12063106149435043 0.37044158577919006 0.17071700096130371
0.33753174543380737 0.37020477652549744 0.14008612930774689
0.52350115776062012 0.33746123313903809 0.135567307472229
0.69917041063308716 0.30302026867866516 0.14032080769538879
0.86587321758270264 0.28936222195625305 0.13880662620067596
0.99670284986495972 0.28496196866035461 0.13972543179988861
0.007201086264103651 0.54003608226776123 0.16911955177783966
0.11227793991565704 0.54380297660827637 0.15239521861076355
0.28988131880760193 0.54407376050949097 0.12865333259105682
0.49536627531051636 0.54093748331069946 0.10244857519865036
0.68054860830307007 0.50769543647766113 0.10941675305366516
0.85654366016387939 0.47137677669525146 0.12275417894124985
0.99651056528091431 0.44720065593719482 0.13199387490749359
0.01524460781365633 0.70848315954208374 0.16085836291313171
0.10486556589603424 0.71283930540084839 0.14494603872299194
0.24539482593536377 0.70711320638656616 0.12945935130119324
0.43789345026016235 0.7109186053276062 0.10411918163299561
0.64166837930679321 0.70298945903778076 0.091654114425182343
0.83226990699768066 0.67219972610473633 0.09634736180305481
0.9890018105506897 0.63922321796417236 0.10842891037464142
0.01104298047721386 0.87689554691314697 0.15300485491752625
0.091025471687316895 0.87975049018859863 0.14066043496131897
0.20205698907375336 0.86529719829559326 0.13692036271095276
0.36696046590805054 0.86430728435516357 0.12198051065206528
0.5807502269744873 0.87218332290649414 0.097666196525096893
0.79355132579803467 0.85805970430374146 0.089335933327674866
0.97834533452987671 0.83081233501434326 0.093748711049556732
0.010481905192136765 0.99831956624984741 0.15287904441356659
0.090730033814907074 0.99954402446746826 0.14097058773040771
0.19367671012878418 0.99728459119796753 0.13695307075977325
0.34127235412597656 0.99674415588378906 0.12709961831569672
0.54013657569885254 0.99859511852264404 0.10686968266963959
0.75514358282089233 0.99721729755401611 0.095279783010482788
0.956775963306427 0.98916566371917725 0.094341441988945007
0.01575254462659359 0.017386103048920631 0.37731102108955383
0.14574071764945984 0.0073398067615926266 0.38629496097564697
0.34198576211929321 0.017301417887210846 0.35720372200012207
0.52032768726348877 0.017345383763313293 0.33359116315841675
0.68220853805541992 0.016727462410926819 0.32043209671974182
0.84152352809906006 0.019821390509605408 0.30406644940376282
0.98666024208068848 0.026900406926870346 0.298900306224823
0.0082319369539618492 0.17528629302978516 0.37620657682418823
0.10958455502986908 0.14016316831111908 0.39784055948257446
0.331228107213974 0.14241041243076324 0.36307227611541748
0.52913194894790649 0.13212226331233978 0.32957470417022705
0.70558696985244751 0.12819893658161163 0.30484765768051147
0.86526155471801758 0.13638404011726379 0.28835251927375793
0.99495291709899902 0.14671646058559418 0.28370493650436401
0.00015510110824834555 0.35962158441543579 0.36192154884338379
0.086192235350608826 0.34369543194770813 0.36927440762519836
0.32781365513801575 0.34293824434280396 0.34437614679336548
0.50923532247543335 0.31676778197288513 0.32279634475708008
0.70548427104949951 0.2863558828830719 0.28847283124923706
0.87949007749557495 0.27527037262916565 0.27632945775985718
0.99812638759613037 0.27128210663795471 0.27723744511604309
8.0961341154761612e-05 0.53745561838150024 0.34124258160591125
0.067922808229923248 0.53350037336349487 0.33759927749633789
0.26813182234764099 0.52381402254104614 0.32100516557693481
0.4859042763710022 0.52495306730270386 0.28937745094299316
0.68221646547317505 0.50050508975982666 0.26046574115753174
0.87032204866409302 0.4634367823600769 0.24922685325145721
0.99274605512619019 0.42814522981643677 0.26192227005958557
0.0037586437538266182 0.70665627717971802 0.32526096701622009
0.07115568220615387 0.71176671981811523 0.31320041418075562
0.21176920831203461 0.70591121912002563 0.29862546920776367
0.42314243316650391 0.7091248631477356 0.26779723167419434
0.63802909851074219 0.70763659477233887 0.23725032806396484
0.8337404727935791 0.67719203233718872 0.22210724651813507
0.98826175928115845 0.6344374418258667 0.23014378547668457
0.0081263827160000801 0.87022590637207031 0.31265538930892944
0.073501050472259521 0.8840407133102417 0.29466947913169861
0.17732346057891846 0.88073045015335083 0.28245645761489868
0.34549930691719055 0.87849646806716919 0.26227623224258423
0.56569164991378784 0.88698399066925049 0.2257993221282959
0.78916162252426147 0.87297368049621582 0.20862311124801636
0.98231524229049683 0.8398740291595459 0.21174417436122894
0.010725462809205055 0.99806123971939087 0.30359244346618652
0.082538336515426636 1 0.28274434804916382
0.17725229263305664 1 0.26814684271812439
0.3147447407245636 1 0.25170144438743591
0.51277941465377808 1 0.21905142068862915
0.73799389600753784 0.99998456239700317 0.19846643507480621
0.95337438583374023 0.99681186676025391 0.19460330903530121
0.019967472180724144 0.016804235056042671 0.54333055019378662
0.12841638922691345 0.0038030436262488365 0.55879324674606323
0.30533072352409363 0.0054557202383875847 0.54150313138961792
0.49755430221557617 0.0077073341235518456 0.51812231540679932
0.67064738273620605 0.0079150330275297165 0.49878048896789551
0.83133625984191895 0.011888975277543068 0.47943753004074097
0.98491406440734863 0.021915780380368233 0.46898579597473145
0.0087163588032126427 0.16376574337482452 0.54755920171737671
0.079900167882442474 0.11387947201728821 0.58118212223052979
0.26450949907302856 0.10861159861087799 0.56378579139709473
0.48874837160110474 0.11242674291133881 0.52869307994842529
0.68270498514175415 0.10759791731834412 0.49941566586494446
0.85386538505554199 0.11898462474346161 0.47028887271881104
0.99453109502792358 0.13717003166675568 0.45331752300262451
0.00038190354825928807 0.33928480744361877 0.54263430833816528
0.053021598607301712 0.29798895120620728 0.5695803165435791
0.2494480162858963 0.29203152656555176 0.55224347114562988
0.47644820809364319 0.29231986403465271 0.5195382833480835
0.67738443613052368 0.26360103487968445 0.49231138825416565
0.86719822883605957 0.24854204058647156 0.46455880999565125
0.99837881326675415 0.25756236910820007 0.43977585434913635
0 0.52090013027191162 0.52521687746047974
0.04566548764705658 0.50497901439666748 0.53675228357315063
0.22752135992050171 0.4969792366027832 0.52510756254196167
0.4771668016910553 0.49949687719345093 0.49939972162246704
0.65601354837417603 0.47760623693466187 0.47799286246299744
0.86010283231735229 0.43835097551345825 0.44079703092575073
0.99174416065216064 0.40867137908935547 0.41511392593383789
0 0.69704133272171021 0.50330811738967896
0.03250599279999733 0.69694036245346069 0.50593918561935425
0.15565803647041321 0.68649071455001831 0.50352144241333008
0.40842083096504211 0.68070650100708008 0.47886750102043152
0.6277470588684082 0.67960762977600098 0.45463269948959351
0.82704609632492065 0.65942931175231934 0.41997015476226807
0.98647606372833252 0.62700700759887695 0.38744011521339417
0.0006770862964913249 0.8669171929359436 0.48186460137367249
0.041035626083612442 0.87984085083007812 0.47271955013275146
0.13679058849811554 0.8775256872177124 0.46413999795913696
0.32873928546905518 0.86759859323501587 0.44685736298561096
0.56208556890487671 0.86906677484512329 0.41747769713401794
0.78245335817337036 0.86415153741836548 0.39270919561386108
0.97759807109832764 0.83714777231216431 0.36936616897583008
0.0043692197650671005 0.9979436993598938 0.4657389223575592
0.061047721654176712 1 0.44845873117446899
0.14836777746677399 1 0.43410864472389221
0.28967508673667908 0.99982839822769165 0.418701171875
0.49386909604072571 0.99934512376785278 0.38785305619239807
0.72134673595428467 0.99920976161956787 0.36343938112258911
0.94542521238327026 0.99876976013183594 0.3399871289730072
0.02152353897690773 0.013922328129410744 0.71168357133865356
0.1254972517490387 0.0024835024960339069 0.72533273696899414
0.2743527889251709 0.00034143784432671964 0.72282505035400391
0.46292701363563538 0.0018167084781453013 0.70621556043624878
0.65037715435028076 0.0040839100256562233 0.68659234046936035
0.82331961393356323 0.0075655621476471424 0.66708242893218994
0.98341894149780273 0.015810603275895119 0.65276902914047241
0.022804230451583862 0.15819066762924194 0.71670407056808472
0.092254772782325745 0.11202109605073929 0.74709552526473999
0.21835596859455109 0.08219572901725769 0.75815987586975098
0.4322894811630249 0.088196009397506714 0.73280197381973267
0.64702802896499634 0.092029526829719543 0.70479154586791992
0.83543229103088379 0.098194673657417297 0.67542976140975952
0.99183928966522217 0.11451365053653717 0.65116226673126221
0.01624591276049614 0.32358315587043762 0.71931213140487671
0.062871716916561127 0.27167400717735291 0.75678759813308716
0.16912806034088135 0.23147594928741455 0.77118396759033203
0.40479731559753418 0.23769815266132355 0.73134064674377441
0.63583511114120483 0.23352384567260742 0.70545250177383423
0.83915752172470093 0.21733957529067993 0.67755019664764404
0.99522846937179565 0.23182469606399536 0.64411014318466187
0.011391090229153633 0.50093066692352295 0.70724564790725708
0.060929946601390839 0.4742300808429718 0.73203325271606445
0.16673403978347778 0.4509330689907074 0.73842799663543701
0.41387125849723816 0.45984461903572083 0.69678479433059692
0.63528335094451904 0.45654398202896118 0.67705231904983521
0.82788759469985962 0.41655746102333069 0.6544991135597229
0.98652160167694092 0.39148816466331482 0.62729161977767944
0.0040481416508555412 0.67967087030410767 0.68390274047851562
0.033703237771987915 0.67336231470108032 0.69822907447814941
0.11216188222169876 0.65514111518859863 0.71141773462295532
0.38063308596611023 0.65318536758422852 0.67865097522735596
0.63697957992553711 0.65527260303497314 0.65492284297943115
0.80976396799087524 0.6356547474861145 0.63576024770736694
0.98016828298568726 0.6071205735206604 0.60489821434020996
0 0.85739004611968994 0.66120046377182007
0.017033595591783524 0.86193150281906128 0.66929584741592407
0.075278788805007935 0.84829074144363403 0.67723149061203003
0.29513841867446899 0.83626210689544678 0.65486371517181396
0.57203608751296997 0.82908344268798828 0.63582491874694824
0.77843183279037476 0.83063185214996338 0.61625033617019653
0.95851171016693115 0.81112730503082275 0.5864264965057373
0.00047607423039153218 0.99653792381286621 0.64085125923156738
0.034236505627632141 0.99895846843719482 0.63928437232971191
0.099143072962760925 0.99845081567764282 0.63770675659179688
0.25001427531242371 0.99341285228729248 0.62255889177322388
0.48245584964752197 0.98582953214645386 0.60123747587203979
0.71435952186584473 0.9826740026473999 0.58267802000045776
0.92753124237060547 0.98899513483047485 0.55853390693664551
0.018069293349981308 0.014012789353728294 0.86386567354202271
0.12083960324525833 0.0031447466462850571 0.87351018190383911
0.25378471612930298 1.4361213516167481e-06 0.87766653299331665
0.42806723713874817 0.00015294691547751427 0.8709031343460083
0.61908233165740967 0.0020122602581977844 0.85684704780578613
0.80415040254592896 0.0058879177086055279 0.8412659764289856
0.97640335559844971 0.013276881538331509 0.82886797189712524
0.018106797710061073 0.15044230222702026 0.87644219398498535
0.094400025904178619 0.11109311133623123 0.89775317907333374
0.20132975280284882 0.07782454788684845 0.91530752182006836
0.38520693778991699 0.075398944318294525 0.91078037023544312
0.60122519731521606 0.081440567970275879 0.890045166015625
0.80275362730026245 0.085451208055019379 0.86290359497070312
0.98063397407531738 0.095740161836147308 0.84116137027740479
0.019101910293102264 0.30645301938056946 0.88821053504943848
0.079526223242282867 0.26024103164672852 0.91820633411407471
0.15199865400791168 0.20775726437568665 0.94571781158447266
0.33510968089103699 0.19417232275009155 0.93906271457672119
0.57716649770736694 0.19642926752567291 0.91868412494659424
0.79390066862106323 0.19524802267551422 0.88119018077850342
0.98131883144378662 0.19753889739513397 0.85207098722457886
0.019334591925144196 0.47901317477226257 0.88316327333450317
0.083959989249706268 0.44774273037910461 0.9126054048538208
0.145151287317276 0.4026235044002533 0.93786460161209106
0.3216019868850708 0.38993942737579346 0.9224851131439209
0.57061749696731567 0.39559924602508545 0.90390044450759888
0.7835807204246521 0.39305490255355835 0.8676641583442688
0.9768601655960083 0.36138430237770081 0.8487427830696106
0.012341383844614029 0.66208422183990479 0.85531330108642578
0.063623763620853424 0.64473342895507812 0.87828946113586426
0.11144920438528061 0.61378085613250732 0.90758860111236572
0.31082624197006226 0.61029219627380371 0.89158362150192261
0.57953792810440063 0.62292951345443726 0.85274732112884521
0.78221243619918823 0.61861371994018555 0.83116596937179565
0.96239888668060303 0.58324354887008667 0.82043963670730591
0.002719011390581727 0.84343463182449341 0.84278982877731323
0.029354304075241089 0.83813220262527466 0.86685973405838013
0.065606705844402313 0.81607598066329956 0.88829255104064941
0.2581322193145752 0.807719886302948 0.86268383264541626
0.54835212230682373 0.80882436037063599 0.83274894952774048
0.78844571113586426 0.80943721532821655 0.80833667516708374
0.95007830858230591 0.79182124137878418 0.79510647058486938
0.0021065655164420605 0.99325263500213623 0.82061880826950073
0.035008747130632401 0.99440407752990723 0.83543908596038818
0.094944149255752563 0.98940187692642212 0.83876222372055054
0.20695583522319794 0.98146390914916992 0.83254349231719971
0.46074682474136353 0.9770578145980835 0.81088399887084961
0.72640633583068848 0.97088193893432617 0.78845983743667603
0.92876416444778442 0.9715772271156311 0.77488398551940918
0.017511734738945961 0.021021598950028419 0.98189646005630493
0.11825604736804962 0.0064711775630712509 0.98481529951095581
0.24158741533756256 0.00075073243351653218 0.98704451322555542
0.40044873952865601 0.00030930462526157498 0.98625713586807251
0.5855221152305603 0.0017740287585183978 0.98169374465942383
0.77593553066253662 0.0060279397293925285 0.97771316766738892
0.95987999439239502 0.014761696569621563 0.97609204053878784
0.013699071481823921 0.15139096975326538 0.99040132761001587
0.095930777490139008 0.11791256070137024 0.99315649271011353
0.19453752040863037 0.085641913115978241 0.99828344583511353
0.34978723526000977 0.077572979032993317 0.99920487403869629
0.55261480808258057 0.081711292266845703 0.99541854858398438
0.75991255044937134 0.082071073353290558 0.9887998104095459
0.95521122217178345 0.08829064667224884 0.98587185144424438
0.015345105901360512 0.29801595211029053 0.99658560752868652
0.089834623038768768 0.26050341129302979 0.99549126625061035
0.14826560020446777 0.2042829692363739 1
0.27953320741653442 0.18021634221076965 1
0.50953328609466553 0.18747955560684204 0.99987757205963135
0.73726761341094971 0.17666268348693848 0.99579733610153198
0.94873732328414917 0.17636385560035706 0.99442803859710693
0.017769608646631241 0.46173587441444397 0.99831336736679077
0.095080867409706116 0.43195506930351257 0.99743068218231201
0.13791221380233765 0.37315228581428528 1
0.23239730298519135 0.32299301028251648 1
0.47816640138626099 0.3298746645450592 0.99999570846557617
0.71632671356201172 0.32791870832443237 0.99934118986129761
0.94015723466873169 0.32153758406639099 0.99825042486190796
0.019009323790669441 0.64045530557632446 0.99095791578292847
0.082163102924823761 0.61815041303634644 0.99064183235168457
0.11871560662984848 0.57869458198547363 0.99854928255081177
0.23114462196826935 0.54730242490768433 0.99998170137405396
0.48169627785682678 0.55230712890625 0.99615079164505005
0.71574932336807251 0.55772238969802856 0.99286049604415894
0.92463624477386475 0.54534041881561279 0.99113786220550537
0.011862033046782017 0.82063841819763184 0.99229443073272705
0.059305407106876373 0.80891633033752441 0.99557632207870483
0.068023025989532471 0.77786719799041748 0.99969571828842163
0.16854606568813324 0.74984699487686157 0.99881482124328613
0.47354429960250854 0.76503139734268188 0.99524062871932983
0.72973710298538208 0.7783273458480835 0.98492282629013062
0.92755633592605591 0.77215474843978882 0.97639375925064087
0.0079940194264054298 0.9853929877281189 0.9839586615562439
0.047124195843935013 0.98321992158889771 0.98761272430419922
0.077512554824352264 0.96989530324935913 0.99619090557098389
0.15528416633605957 0.95776081085205078 0.99827969074249268
0.42750239372253418 0.95895695686340332 0.98869329690933228
0.7148137092590332 0.9593849778175354 0.97379392385482788
0.94055622816085815 0.96031808853149414 0.96103370189666748
