assets/lut/pixlsus night spy.cube
# Created by: G'MIC (https://gmic.eu)
TITLE "night_spy"
# LUT size
LUT_3D_SIZE 7
# Data domain
DOMAIN_MIN 0.0 0.0 0.0
DOMAIN_MAX 1.0 1.0 1.0
# LUT data points
0.00048346424591727555 0 0
0.0037334815133363008 0 0
0.010499019175767899 0 0
0.042506109923124313 0 0
0.087420478463172913 0 0
0.13191166520118713 0 0
0.18021957576274872 0 0
0.018212979659438133 0.039552651345729828 0.019809482619166374
0.073280364274978638 0.023597821593284607 0.00045879589742980897
0.1340414434671402 0.014389501884579659 0
0.19988328218460083 0.0078380806371569633 0
0.25969815254211426 0.0081862201914191246 0
0.31014314293861389 0.0040783751755952835 0
0.35693159699440002 0.0043361140415072441 0
0.12330440431833267 0.21970456838607788 0.12357213348150253
0.2066815048456192 0.19345209002494812 0.062214959412813187
0.28361192345619202 0.17218667268753052 0.016563145443797112
0.35121291875839233 0.15986013412475586 0.0048401476815342903
0.43044939637184143 0.15166029334068298 0.00061222148360684514
0.51436573266983032 0.14173522591590881 0
0.60153877735137939 0.13287650048732758 0
0.27523139119148254 0.45071879029273987 0.27537032961845398
0.37008297443389893 0.43755143880844116 0.22465817630290985
0.4560491144657135 0.41478767991065979 0.1705775111913681
0.55502510070800781 0.39080402255058289 0.10450413823127747
0.64522868394851685 0.36986622214317322 0.05152110755443573
0.68649232387542725 0.33881330490112305 0.031500138342380524
0.69580960273742676 0.3086903989315033 0.032950382679700851
0.49773380160331726 0.75209420919418335 0.49618476629257202
0.58786863088607788 0.73407942056655884 0.44213110208511353
0.66809558868408203 0.70336455106735229 0.37830314040184021
0.7113158106803894 0.63393229246139526 0.30558958649635315
0.70795392990112305 0.54777765274047852 0.2588188648223877
0.70592594146728516 0.48977476358413696 0.23759299516677856
0.70588237047195435 0.45731973648071289 0.24049122631549835
0.70985031127929688 0.96202802658081055 0.70956611633300781
0.75918036699295044 0.94758552312850952 0.62698143720626831
0.74463111162185669 0.82366949319839478 0.52285146713256836
0.72657990455627441 0.70148772001266479 0.44210761785507202
0.71714162826538086 0.63455367088317871 0.41836240887641907
0.7125471830368042 0.58602863550186157 0.40972411632537842
0.71008086204528809 0.56076949834823608 0.4179844856262207
0.75871390104293823 0.97165876626968384 0.75831639766693115
0.76410794258117676 0.93055790662765503 0.67238658666610718
0.74458074569702148 0.8198775053024292 0.59237760305404663
0.73180180788040161 0.72913509607315063 0.53954517841339111
0.72432094812393188 0.67590785026550293 0.5248294472694397
0.71960830688476562 0.64208739995956421 0.53575855493545532
0.71743470430374146 0.62635207176208496 0.55458301305770874
0 0 0.0039471942000091076
9.9600998510140926e-05 0 0.003874415997415781
0.0013297585537657142 0 0
0.017357636243104935 0 0
0.057250317186117172 0 0
0.10055120289325714 0 0
0.14708556234836578 0 0
0.0001802631450118497 0.0058156931772828102 0.037640020251274109
0.012888381257653236 0.0023653218522667885 0.0097200730815529823
0.05898468941450119 0.0009633083245716989 0.00025185977574437857
0.12244615703821182 0.0025273789651691914 0
0.18528711795806885 0.0019501032074913383 0
0.24902518093585968 0.0052131949923932552 0
0.30030632019042969 0.0012780432589352131 0
0.038008101284503937 0.15751051902770996 0.16637657582759857
0.11523100733757019 0.13812172412872314 0.11429987847805023
0.1976819634437561 0.11428143084049225 0.055959049612283707
0.2739616334438324 0.09585590660572052 0.0096318265423178673
0.33361488580703735 0.090096026659011841 0.0013721541035920382
0.41171467304229736 0.084560379385948181 0
0.4968096911907196 0.072677522897720337 0
0.1687723696231842 0.37537828087806702 0.31044036149978638
0.25188532471656799 0.35292813181877136 0.25198650360107422
0.33743137121200562 0.32816091179847717 0.19215041399002075
0.43491509556770325 0.30263012647628784 0.12511780858039856
0.53973311185836792 0.29787498712539673 0.085041463375091553
0.62358158826828003 0.27913936972618103 0.036109954118728638
0.68085372447967529 0.26130464673042297 0.017353760078549385
0.36718711256980896 0.65787780284881592 0.51315814256668091
0.45575478672981262 0.63738930225372314 0.45553117990493774
0.54274481534957886 0.61518734693527222 0.39477977156639099
0.63606029748916626 0.58677667379379272 0.32974463701248169
0.69415581226348877 0.53633296489715576 0.27037340402603149
0.70498740673065186 0.47461062669754028 0.23553110659122467
0.70588237047195435 0.44499027729034424 0.23934629559516907
0.58309280872344971 0.93168765306472778 0.72564578056335449
0.67652350664138794 0.92232495546340942 0.67657268047332764
0.73707175254821777 0.87372148036956787 0.60009384155273438
0.72866874933242798 0.74801599979400635 0.5025031566619873
0.71696346998214722 0.64297080039978027 0.43575859069824219
0.71209800243377686 0.58938115835189819 0.42176324129104614
0.70990055799484253 0.55904108285903931 0.42644643783569336
0.65864181518554688 0.95395869016647339 0.76259708404541016
0.74904114007949829 0.96428143978118896 0.7502208948135376
0.7559087872505188 0.88273710012435913 0.66846024990081787
0.73602747917175293 0.76233506202697754 0.58545637130737305
0.72555434703826904 0.69139200448989868 0.55269265174865723
0.72027373313903809 0.64829391241073608 0.5526924729347229
0.71924018859863281 0.63005930185317993 0.57122492790222168
0 0 0.0039028991013765335
0 0 0.0039215688593685627
0.0039215688593685627 0 0.003476700047031045
0.0054260850884020329 0 0
0.015592552721500397 0 0
0.060475442558526993 0 0
0.10802971571683884 0 0
0 0 0.049745328724384308
0.00053136487258598208 0.00021392223425209522 0.026987157762050629
0.0060770520940423012 0 0.0039968900382518768
0.046375587582588196 4.8708447138778865e-05 0.00052203011000528932
0.10803531110286713 4.7870712478470523e-06 0
0.17178438603878021 3.7099802284501493e-05 0
0.22614629566669464 0.0019089194247499108 0
0.0061352900229394436 0.096742399036884308 0.18272547423839569
0.02725747786462307 0.080794088542461395 0.15961793065071106
0.10771358758211136 0.060605533421039581 0.10811372846364975
0.19167616963386536 0.040004566311836243 0.047070804983377457
0.25982481241226196 0.026911059394478798 0.005715598352253437
0.31308701634407043 0.028195997700095177 0.00024964576005004346
0.38754338026046753 0.028730908408761024 0
0.073189936578273773 0.31119060516357422 0.35289335250854492
0.15288574993610382 0.29486373066902161 0.30078229308128357
0.24295507371425629 0.27655899524688721 0.24509258568286896
0.3401583731174469 0.25391241908073425 0.18206503987312317
0.43799996376037598 0.231058269739151 0.1190480962395668
0.51932710409164429 0.20536865293979645 0.062348071485757828
0.6027565598487854 0.19445705413818359 0.023819448426365852
0.2541840672492981 0.57517546415328979 0.53855448961257935
0.3294694721698761 0.54790610074996948 0.47541037201881409
0.41529211401939392 0.52378427982330322 0.41409698128700256
0.51032513380050659 0.50101959705352783 0.35476398468017578
0.61073118448257446 0.48081940412521362 0.29318773746490479
0.68056470155715942 0.45019984245300293 0.24300910532474518
0.70043212175369263 0.41394945979118347 0.22598955035209656
0.44894784688949585 0.82465136051177979 0.7226707935333252
0.54592597484588623 0.8308868408203125 0.68692243099212646
0.63711363077163696 0.81879818439483643 0.6356959342956543
0.71034520864486694 0.77321070432662964 0.56232583522796631
0.71789538860321045 0.66825222969055176 0.47713086009025574
0.71284836530685425 0.59384292364120483 0.43924108147621155
0.70917624235153198 0.55536049604415894 0.43684405088424683
0.55414861440658569 0.85732632875442505 0.74358707666397095
0.65288031101226807 0.90974318981170654 0.75616931915283203
0.7523500919342041 0.93905138969421387 0.75376385450363159
0.74573582410812378 0.81727266311645508 0.65694338083267212
0.7296176552772522 0.71084475517272949 0.5902830958366394
0.72178542613983154 0.65736627578735352 0.57421058416366577
0.71925884485244751 0.63462764024734497 0.58701342344284058
0 0 0.0033373665064573288
0 0 0.0050042844377458096
0 0 0.0040431153029203415
0.0037418738938868046 0 0.0028157401829957962
0.0034790786448866129 0 0
0.016072113066911697 0 0
0.062883831560611725 0 0
0 0 0.044451799243688583
0 0 0.03917224332690239
0.00040836707921698689 0 0.012224848382174969
0.0043904171325266361 0 0.001348592690192163
0.029715863987803459 0 0
0.086018703877925873 0 0
0.14785094559192657 3.5005457903025672e-05 0
0 0.042410008609294891 0.19774366915225983
0.00058285583509132266 0.032398521900177002 0.16155970096588135
0.020313503220677376 0.016288936138153076 0.13829676806926727
0.083800762891769409 0.0066387848928570747 0.083821453154087067
0.154328852891922 0.0020695705898106098 0.034943524748086929
0.21799476444721222 0.0010536343324929476 0.0094339260831475258
0.28938844799995422 0.0018534641712903976 0.0014852486783638597
0.0073941550217568874 0.23645935952663422 0.36843612790107727
0.050869856029748917 0.22278600931167603 0.34220001101493835
0.13544438779354095 0.20287656784057617 0.28905037045478821
0.22850456833839417 0.18123972415924072 0.22755035758018494
0.32232454419136047 0.15454453229904175 0.16138643026351929
0.40890601277351379 0.12988324463367462 0.10414364188909531
0.49065113067626953 0.10916238278150558 0.053516343235969543
0.13201440870761871 0.48986464738845825 0.57158339023590088
0.20823319256305695 0.46426960825920105 0.50696015357971191
0.29047352075576782 0.43738329410552979 0.44543874263763428
0.37735563516616821 0.41171535849571228 0.386739581823349
0.47665759921073914 0.38632789254188538 0.3184705376625061
0.57362109422683716 0.37204080820083618 0.26547947525978088
0.65871500968933105 0.35379233956336975 0.21553850173950195
0.31522569060325623 0.69582951068878174 0.70763862133026123
0.40682077407836914 0.72039234638214111 0.69005012512207031
0.49823257327079773 0.71828228235244751 0.64882594347000122
0.58643424510955811 0.68980401754379272 0.58732897043228149
0.67854094505310059 0.66141492128372192 0.51943337917327881
0.70628315210342407 0.5929836630821228 0.46018165349960327
0.7085149884223938 0.54519832134246826 0.44335666298866272
0.44342774152755737 0.74939209222793579 0.72613966464996338
0.53349071741104126 0.79076921939849854 0.73259741067886353
0.63329482078552246 0.83820682764053345 0.74377763271331787
0.73763233423233032 0.87155008316040039 0.741690993309021
0.73514068126678467 0.74994158744812012 0.64689844846725464
0.72482079267501831 0.67018133401870728 0.60310870409011841
0.71974354982376099 0.64036226272583008 0.61108344793319702
0 0 0.00027322207461111248
0 0 0.00037656296626664698
0 0 0.0039215688593685627
0 0 0.0039215688593685627
0.001324821962043643 0 0.0038722618483006954
0.0021967720240354538 0 0.00012425440945662558
0.0080884750932455063 0 0
0 0 0.047989204525947571
0 0 0.056272663176059723
0 0 0.035185016691684723
0 0 0.011475297622382641
0.0019885045476257801 0 0.0012582666240632534
0.013357409276068211 0 0
0.066323302686214447 0 0
0 0.011182642541825771 0.19181863963603973
0 0.0061985389329493046 0.18257772922515869
7.659314178454224e-06 0.0042794318869709969 0.14673289656639099
0.012740490026772022 1.5079273907758761e-05 0.10162299871444702
0.059015028178691864 0 0.057317398488521576
0.11884500831365585 0 0.02377014234662056
0.18321788311004639 0 0.0044084135442972183
0.0021263721864670515 0.17422656714916229 0.37312957644462585
0.0053131403401494026 0.15197727084159851 0.34469351172447205
0.032720319926738739 0.12496122717857361 0.32249802350997925
0.11710691452026367 0.10611775517463684 0.27565807104110718
0.20397847890853882 0.07520563155412674 0.20638385415077209
0.2919762134552002 0.056522086262702942 0.14743608236312866
0.37377065420150757 0.040796183049678802 0.093501746654510498
0.03014475479722023 0.41272494196891785 0.60158133506774902
0.092541202902793884 0.38560515642166138 0.55014288425445557
0.1709684431552887 0.35446813702583313 0.48593851923942566
0.25924119353294373 0.32890811562538147 0.42106065154075623
0.35621976852416992 0.30328726768493652 0.35679727792739868
0.44416972994804382 0.28002274036407471 0.29618662595748901
0.53832805156707764 0.26612159609794617 0.24251779913902283
0.19785439968109131 0.5901869535446167 0.70985275506973267
0.26688259840011597 0.61041700839996338 0.70313012599945068
0.35429880023002625 0.61100900173187256 0.66710150241851807
0.44652348756790161 0.58912521600723267 0.60715293884277344
0.54658281803131104 0.56978005170822144 0.54628515243530273
0.6319318413734436 0.54377961158752441 0.48431313037872314
0.69169044494628906 0.5096556544303894 0.43478992581367493
0.36185625195503235 0.6651226282119751 0.71543735265731812
0.41953632235527039 0.68460190296173096 0.71797466278076172
0.50753545761108398 0.71306222677230835 0.72276288270950317
0.61337167024612427 0.76177817583084106 0.73125189542770386
0.7237432599067688 0.80047202110290527 0.72441262006759644
0.72831493616104126 0.69753062725067139 0.64627754688262939
0.72291946411132812 0.64716941118240356 0.63346600532531738
0 0 0.0031351426150649786
0 0 0.0033963222522288561
0 0 0.0029675203841179609
0 0 0.0039215688593685627
0.00056170293828472495 0 0.0039215688593685627
0.0039215688593685627 0 0.0030938540585339069
0.00071316887624561787 0 0
0 0 0.059364080429077148
0 0 0.070322506129741669
0 0 0.060387644916772842
0 0 0.030327381566166878
1.5976849681464955e-05 0 0.0040894751437008381
0.0038059309590607882 0 0.0019124199170619249
0.0063940458931028843 0 0
0 0.011654558591544628 0.18712101876735687
0 0.0044038807973265648 0.19178712368011475
0 0.0056838542222976685 0.17298576235771179
0.0018546609207987785 1.077091019396903e-05 0.13125479221343994
0.0064700706861913204 0 0.079474881291389465
0.04229341447353363 0 0.040055740624666214
0.099052831530570984 0 0.012021142989397049
0 0.12225935608148575 0.38248512148857117
8.9757586465566419e-06 0.10183475166559219 0.3541128933429718
0.0018139110179618001 0.077742651104927063 0.3155229389667511
0.030087385326623917 0.054941333830356598 0.31455105543136597
0.10829938948154449 0.028335211798548698 0.24414782226085663
0.18259443342685699 0.016191026195883751 0.18114803731441498
0.25866633653640747 0.01323877926915884 0.13492360711097717
0.0056825974024832249 0.33042582869529724 0.57847785949707031
0.026915920898318291 0.31846654415130615 0.56021547317504883
0.078610531985759735 0.29685187339782715 0.53068190813064575
0.16118302941322327 0.267314612865448 0.46582323312759399
0.2475706934928894 0.23357340693473816 0.39664489030838013
0.33866792917251587 0.21338340640068054 0.33751711249351501
0.42860215902328491 0.1933847963809967 0.28252065181732178
0.12915726006031036 0.50781607627868652 0.70480674505233765
0.17005400359630585 0.51631826162338257 0.70247572660446167
0.24534693360328674 0.52213072776794434 0.67991578578948975
0.32434499263763428 0.50425094366073608 0.63196980953216553
0.41557472944259644 0.47646781802177429 0.56458956003189087
0.50789111852645874 0.45675000548362732 0.5087781548500061
0.59610331058502197 0.43587449193000793 0.45049485564231873
0.31730192899703979 0.59741485118865967 0.70626890659332275
0.3570476770401001 0.60941356420516968 0.70723265409469604
0.42660382390022278 0.62813270092010498 0.70971095561981201
0.50689923763275146 0.65517109632492065 0.71467834711074829
0.60336077213287354 0.69613921642303467 0.71888911724090576
0.7011377215385437 0.71622383594512939 0.70362454652786255
0.72164040803909302 0.65301358699798584 0.65329098701477051
0 0 0.0036146724596619606
0 0 0.011287030763924122
0 0 0.012726563028991222
0 0 0.0031308343168348074
0 0 0.0039215688593685627
0 0 0
8.6346793978009373e-05 0 0
0 0 0.068927913904190063
0 0 0.082823872566223145
0 0 0.082400485873222351
0 0 0.060129202902317047
0 0 0.02169850654900074
4.0929458918981254e-05 0 0.00017667283827904612
0.002626755740493536 0 0
0 0.0054877335205674171 0.18450309336185455
0 0.002152551431208849 0.19692778587341309
0 0.0022295783273875713 0.18584790825843811
0 0.0011846056440845132 0.15396960079669952
7.6353782787919044e-05 0 0.10178777575492859
0.0051001305691897869 0 0.060001328587532043
0.026056490838527679 0 0.026203963905572891
0 0.079208359122276306 0.36508598923683167
0 0.059591300785541534 0.36497005820274353
3.6621095205191523e-05 0.03283233568072319 0.33947199583053589
0.00063401763327419758 0.019041921943426132 0.2906876802444458
0.031457908451557159 0.0084201889112591743 0.26056459546089172
0.09201444685459137 0.0038152209017425776 0.19927629828453064
0.15667113661766052 0.0028354120440781116 0.15476879477500916
0.0038286095950752497 0.26574578881263733 0.58779126405715942
0.0019718843977898359 0.25033396482467651 0.5508798360824585
0.010583107359707355 0.23029260337352753 0.53036808967590332
0.063229762017726898 0.2103828638792038 0.51517981290817261
0.15794031322002411 0.18020009994506836 0.44510167837142944
0.23785330355167389 0.14942334592342377 0.38288500905036926
0.32467976212501526 0.12824127078056335 0.32562530040740967
0.079203858971595764 0.43350842595100403 0.69371563196182251
0.099833965301513672 0.44077852368354797 0.70216578245162964
0.15613311529159546 0.43665871024131775 0.68651413917541504
0.2220722883939743 0.42496553063392639 0.65230941772460938
0.30231192708015442 0.39927393198013306 0.59525460004806519
0.38633820414543152 0.37276989221572876 0.53423017263412476
0.47467416524887085 0.35123655200004578 0.47601199150085449
0.25171384215354919 0.53872710466384888 0.70180660486221313
0.3039887547492981 0.55327349901199341 0.70368146896362305
0.37262806296348572 0.56748443841934204 0.70209378004074097
0.44288328289985657 0.586517333984375 0.70488548278808594
0.51757943630218506 0.60729855298995972 0.70636510848999023
0.58959382772445679 0.62384879589080811 0.70587968826293945
0.66832524538040161 0.61716008186340332 0.6709975004196167
