assets/lut/pixlsus metropolis.cube
# Created by: G'MIC (https://gmic.eu)
TITLE "metropolis"
# LUT size
LUT_3D_SIZE 5
# Data domain
DOMAIN_MIN 0.0 0.0 0.0
DOMAIN_MAX 1.0 1.0 1.0
# LUT data points
0.0060221054591238499 0.12553656101226807 0.049667373299598694
0.089177407324314117 0.28682655096054077 0.066904090344905853
0.19429178535938263 0.45357775688171387 0.088136769831180573
0.23425456881523132 0.33188256621360779 0.068921737372875214
0.054270889610052109 0.049977350980043411 0.023814661428332329
0 0.16634666919708252 0.13534583151340485
0 0.77854454517364502 0.23976433277130127
0.002451728330925107 0.79341572523117065 0.24375165998935699
0.12581387162208557 0.53247708082199097 0.1968408077955246
0.22047191858291626 0 0.017782533541321754
0.10873110592365265 0.10945024341344833 0.27370703220367432
0.13082502782344818 0.49175518751144409 0.35863658785820007
0.098107248544692993 0.65229958295822144 0.39994931221008301
0.15409615635871887 0.57711094617843628 0.37939625978469849
0.20627360045909882 0 0.23863396048545837
0.16094857454299927 0.28091293573379517 0.54003959894180298
0.16453993320465088 0.90762561559677124 0.65880769491195679
0.15873081982135773 0.68887090682983398 0.56421524286270142
0.17500212788581848 0.60352551937103271 0.56523734331130981
0.26653850078582764 0 0.87315630912780762
0.16681694984436035 0.43687635660171509 0.83500242233276367
0.15926492214202881 1 1
0.16200695931911469 0.94791191816329956 0.90251964330673218
0.17686623334884644 0.6310582160949707 0.69346249103546143
0.1384398341178894 0.12316001206636429 0.59369456768035889
0.032513007521629333 0.33541339635848999 0.10810662060976028
9.4514733063988388e-05 1 0.17079177498817444
0.13975325226783752 1 0.1787431538105011
0 0.12017666548490524 0.089378967881202698
0.12742824852466583 0.34535348415374756 0.090435296297073364
0.038356047123670578 0.41565802693367004 0.14070525765419006
0.0020258885342627764 1 0.28202903270721436
0.15768763422966003 1 0.39880791306495667
0.00027748555294238031 0.21817296743392944 0.13468414545059204
0.087636716663837433 0.64190071821212769 0.13158348202705383
0.18118496239185333 0.26952251791954041 0.31732535362243652
0.2227102667093277 1 0.33388024568557739
0.25763237476348877 1 0.46312573552131653
0.12487712502479553 0.001933423220179975 0.36278870701789856
0.16588146984577179 0.70580101013183594 0.52328604459762573
0.27548462152481079 0.34773153066635132 0.48232847452163696
0.27456754446029663 1 0.59085094928741455
0.30057355761528015 1 0.64504373073577881
0.35095641016960144 0.0013615327188745141 0.8872225284576416
0.5056949257850647 0.57107353210449219 1
0.30742982029914856 0.87141406536102295 0.98050987720489502
0.30326554179191589 1 1
0.30734628438949585 1 0.99248284101486206
0.28540650010108948 0.17999093234539032 0.63172179460525513
0.29717877507209778 0.3048551082611084 0.60908472537994385
0.35914942622184753 0.20826169848442078 0.099292844533920288
0.32312700152397156 1 0.00014038085646461695
0.42374733090400696 1 0.0089305955916643143
0.36248704791069031 0 0.25418165326118469
0.34295105934143066 0 0.18194720149040222
0.31085947155952454 0.44794011116027832 0.11261623352766037
0.30636253952980042 1 0
0.41656526923179626 1 0.043048515915870667
0.37821844220161438 0 0.42135122418403625
0.35716593265533447 0.00077128689736127853 0.24067139625549316
0.37851974368095398 0.24495361745357513 0.35143706202507019
0.3627009391784668 0.99976247549057007 0.024546470493078232
0.40964740514755249 1 0.091660924255847931
0.43902429938316345 0 0.80108731985092163
0.49894621968269348 0.00072577979881316423 0.69794386625289917
0.46297422051429749 0.026085123419761658 0.57656240463256836
0.39753970503807068 0.9427456259727478 0.50341856479644775
0.38423970341682434 1 0.52193582057952881
0.64297109842300415 0 0.99902468919754028
0.87213289737701416 0.00044748643995262682 1
0.54631370306015015 0.79351180791854858 0.99995797872543335
0.52417683601379395 1 1
0.4373241662979126 1 0.99272507429122925
0.48161128163337708 0.036093004047870636 0.60720658302307129
0.51222538948059082 0.2295222133398056 0.63990706205368042
0.61380040645599365 0.66441977024078369 0.16359478235244751
0.61579716205596924 1 0
0.61334419250488281 1 0.0013517491752281785
0.6210673451423645 0 0.45458972454071045
0.62698829174041748 0 0.3884131908416748
0.55940592288970947 0.52801889181137085 0.28657251596450806
0.57271957397460938 1 0
0.59550446271896362 1 0.0071329302154481411
0.64881211519241333 0 0.82800769805908203
0.79341286420822144 0 0.91818803548812866
0.62956196069717407 0.30165436863899231 0.44269615411758423
0.63337665796279907 0.99181157350540161 0.04546007513999939
0.62057101726531982 1 0.0011828254209831357
0.75004279613494873 0 1
0.99794971942901611 0 1
0.82211494445800781 0.068679004907608032 0.75587964057922363
0.70878076553344727 0.98615145683288574 0.75509774684906006
0.64512068033218384 1 0.37665554881095886
0.95222175121307373 0 1
1 0 1
0.89217734336853027 0.84755122661590576 1
0.84117293357849121 1 1
0.55729281902313232 1 1
0.6642424464225769 0.026712261140346527 0.61196303367614746
0.72869813442230225 0.15570630133152008 0.67889571189880371
0.74428147077560425 0.67150354385375977 0.1891486644744873
0.76282268762588501 1 0.0012019288260489702
0.75940001010894775 1 0.0086569245904684067
0.77795511484146118 0 0.39253544807434082
0.76759988069534302 0.011601780541241169 0.33923232555389404
0.69998908042907715 0.46318843960762024 0.35723638534545898
0.70930463075637817 1 0.095670558512210846
0.73316776752471924 1 0.059216950088739395
0.84012299776077271 0 0.82953852415084839
0.99984163045883179 0 1
0.74437052011489868 0.31496208906173706 0.50994575023651123
0.76681441068649292 1 0.29595056176185608
0.75877755880355835 1 0.21259692311286926
0.97244739532470703 0 1
1 0 1
0.98444259166717529 0.64598339796066284 0.7652098536491394
0.98324137926101685 1 0.85481750965118408
0.86116862297058105 1 0.44838124513626099
1 0 1
1 0 1
0.97552865743637085 0.72906398773193359 0.97822737693786621
0.93548667430877686 1 1
0.86269813776016235 1 0.99853909015655518
0.82211720943450928 0.071796581149101257 0.680198073387146
0.82554501295089722 0.24880596995353699 0.67901146411895752
