assets/lut/pixlsus hypressen.cube
# Created by: G'MIC (https://gmic.eu)
TITLE "hypressen"
# LUT size
LUT_3D_SIZE 13
# Data domain
DOMAIN_MIN 0.0 0.0 0.0
DOMAIN_MAX 1.0 1.0 1.0
# LUT data points
0.18520070612430573 0.066371455788612366 0.087531194090843201
0.19830776751041412 0.066690362989902496 0.086644776165485382
0.23813380300998688 0.067543730139732361 0.087824217975139618
0.31107345223426819 0.06891341507434845 0.09336535632610321
0.39866229891777039 0.069797232747077942 0.096702903509140015
0.51067888736724854 0.072674646973609924 0.099557183682918549
0.62741965055465698 0.072500772774219513 0.099073611199855804
0.74283069372177124 0.069974653422832489 0.10383187234401703
0.82367157936096191 0.070128284394741058 0.1266491562128067
0.86984145641326904 0.068671822547912598 0.15455077588558197
0.90342211723327637 0.06534227728843689 0.19121116399765015
0.92948728799819946 0.064999029040336609 0.22324307262897491
0.95275300741195679 0.061846204102039337 0.24457496404647827
0.18571296334266663 0.072500072419643402 0.089706167578697205
0.19330359995365143 0.069373279809951782 0.087182335555553436
0.23787024617195129 0.073172174394130707 0.086390160024166107
0.31575456261634827 0.078657872974872589 0.089924246072769165
0.41668903827667236 0.088287726044654846 0.093761742115020752
0.53193020820617676 0.099695153534412384 0.098131664097309113
0.65156835317611694 0.10198695212602615 0.098787926137447357
0.76233422756195068 0.096900045871734619 0.10164754837751389
0.83239048719406128 0.093410298228263855 0.1200806125998497
0.87544453144073486 0.09357413649559021 0.14772838354110718
0.90539366006851196 0.096764571964740753 0.18377049267292023
0.93112754821777344 0.094273827970027924 0.21830938756465912
0.95392268896102905 0.08727525919675827 0.24712345004081726
0.18749701976776123 0.090133011341094971 0.093487650156021118
0.19364045560359955 0.084736213088035583 0.091710098087787628
0.23191654682159424 0.10530509054660797 0.087803289294242859
0.32893857359886169 0.13302269577980042 0.088095918297767639
0.4356473982334137 0.13899868726730347 0.088178731501102448
0.54709768295288086 0.15179085731506348 0.092834070324897766
0.66370922327041626 0.15996554493904114 0.09547906368970871
0.76409190893173218 0.16718375682830811 0.10211671143770218
0.83003687858581543 0.17722421884536743 0.11711098253726959
0.87440025806427002 0.17234067618846893 0.13744547963142395
0.90589255094528198 0.15451362729072571 0.1713588535785675
0.93141752481460571 0.14481151103973389 0.20211456716060638
0.95260405540466309 0.14416040480136871 0.22553740441799164
0.19782070815563202 0.14728821814060211 0.10718207061290741
0.2009776383638382 0.13559572398662567 0.10379047691822052
0.22344155609607697 0.16104160249233246 0.09526602178812027
0.32293826341629028 0.23031914234161377 0.090199142694473267
0.44940850138664246 0.26646953821182251 0.091367624700069427
0.55636870861053467 0.27031424641609192 0.09490126371383667
0.65840351581573486 0.27591481804847717 0.099046267569065094
0.75599873065948486 0.28991743922233582 0.10436103492975235
0.82610785961151123 0.29585966467857361 0.11089978367090225
0.87384891510009766 0.29199028015136719 0.12166270613670349
0.90354925394058228 0.2721913754940033 0.14999480545520782
0.92665219306945801 0.25313624739646912 0.17991878092288971
0.94615590572357178 0.24093569815158844 0.20535048842430115
0.21922242641448975 0.22727462649345398 0.12400034070014954
0.22923912107944489 0.22057567536830902 0.12245889008045197
0.24731668829917908 0.24447625875473022 0.11696922779083252
0.30096688866615295 0.3100317120552063 0.1063123494386673
0.43348497152328491 0.38833451271057129 0.099851004779338837
0.57743126153945923 0.43516993522644043 0.10266576707363129
0.67506122589111328 0.42749550938606262 0.10434886068105698
0.75590014457702637 0.4131903350353241 0.10584348440170288
0.82033634185791016 0.40825390815734863 0.10878723859786987
0.87041491270065308 0.40870454907417297 0.11228261888027191
0.90208327770233154 0.39875087141990662 0.12948013842105865
0.92091512680053711 0.38227304816246033 0.15062665939331055
0.93818694353103638 0.37065112590789795 0.17348752915859222
0.2459225058555603 0.31505653262138367 0.1364019364118576
0.26763841509819031 0.31822085380554199 0.13992917537689209
0.29261204600334167 0.34549435973167419 0.14069294929504395
0.32232603430747986 0.38669630885124207 0.14052486419677734
0.39483514428138733 0.44517457485198975 0.13305759429931641
0.54535365104675293 0.52837324142456055 0.11299602687358856
0.67903047800064087 0.56557780504226685 0.10640602558851242
0.77207291126251221 0.55662935972213745 0.10588235408067703
0.82519018650054932 0.53099018335342407 0.1059921532869339
0.86809009313583374 0.51860952377319336 0.1059410572052002
0.90076315402984619 0.51176565885543823 0.11079538613557816
0.91932213306427002 0.50402253866195679 0.1189006119966507
0.93305259943008423 0.50108683109283447 0.12661255896091461
0.27214613556861877 0.40982168912887573 0.14057351648807526
0.30522212386131287 0.42338681221008301 0.14706811308860779
0.33733409643173218 0.44326317310333252 0.15198121964931488
0.36464527249336243 0.46745419502258301 0.16074179112911224
0.40345349907875061 0.50321024656295776 0.17039898037910461
0.50165915489196777 0.57061266899108887 0.1429465115070343
0.64123368263244629 0.64367544651031494 0.11214414238929749
0.76590484380722046 0.67582011222839355 0.10464989393949509
0.83668297529220581 0.67009365558624268 0.10091211646795273
0.87887972593307495 0.64784067869186401 0.098626725375652313
0.91214936971664429 0.63721251487731934 0.09863726794719696
0.93235307931900024 0.63590824604034424 0.10172323882579803
0.94581007957458496 0.62907308340072632 0.10400673002004623
0.29017302393913269 0.49672457575798035 0.13821327686309814
0.32820886373519897 0.5049138069152832 0.14724364876747131
0.36862039566040039 0.51295280456542969 0.15346693992614746
0.40659511089324951 0.53542262315750122 0.15966914594173431
0.45270642638206482 0.56863075494766235 0.16001124680042267
0.51846146583557129 0.61884397268295288 0.14683084189891815
0.60179746150970459 0.68096768856048584 0.12265713512897491
0.7347186803817749 0.74430721998214722 0.10461507737636566
0.83974224328994751 0.78040796518325806 0.095939189195632935
0.8940165638923645 0.7799338698387146 0.091550610959529877
0.93112170696258545 0.77480202913284302 0.090285435318946838
0.95159703493118286 0.76782381534576416 0.089990027248859406
0.96145999431610107 0.75317424535751343 0.089153051376342773
0.30087998509407043 0.5644761323928833 0.13395600020885468
0.34275692701339722 0.56582987308502197 0.14370475709438324
0.3864864706993103 0.57094305753707886 0.14971402287483215
0.43178269267082214 0.58691954612731934 0.15266747772693634
0.47916421294212341 0.61784309148788452 0.15294551849365234
0.5406113862991333 0.66308802366256714 0.1419128030538559
0.61059677600860596 0.70799976587295532 0.1339995414018631
0.71398359537124634 0.759757399559021 0.12255614250898361
0.81955915689468384 0.80283498764038086 0.10901317000389099
0.88720834255218506 0.82479602098464966 0.093943938612937927
0.93285214900970459 0.83934366703033447 0.089798435568809509
0.95945817232131958 0.84736073017120361 0.090072512626647949
0.96992290019989014 0.83577525615692139 0.089302659034729004
0.30571743845939636 0.62705487012863159 0.12639468908309937
0.35109454393386841 0.62750065326690674 0.13659580051898956
0.39996403455734253 0.63178175687789917 0.14242963492870331
0.44918707013130188 0.64144206047058105 0.14361318945884705
0.49950751662254333 0.66345560550689697 0.14225313067436218
0.55981326103210449 0.69758456945419312 0.13957326114177704
0.6238059401512146 0.72800141572952271 0.15252774953842163
0.70364320278167725 0.76499545574188232 0.14590364694595337
0.79157912731170654 0.80008000135421753 0.12628580629825592
0.86643040180206299 0.82834053039550781 0.10418862849473953
0.92181545495986938 0.84997409582138062 0.094337329268455505
0.95118945837020874 0.86590409278869629 0.10112533718347549
0.97196084260940552 0.87254071235656738 0.1096474900841713
0.30517414212226868 0.68457043170928955 0.11928166449069977
0.3535577654838562 0.68391132354736328 0.12872464954853058
0.40387943387031555 0.68777012825012207 0.13463008403778076
0.4546903669834137 0.6957322359085083 0.13583111763000488
0.50884521007537842 0.70662188529968262 0.13474765419960022
0.56746333837509155 0.72584593296051025 0.1450076550245285
0.62859243154525757 0.74831277132034302 0.16888710856437683
0.69778621196746826 0.77656656503677368 0.16296108067035675
0.77325427532196045 0.80704414844512939 0.13952378928661346
0.8486478328704834 0.83679687976837158 0.11908747255802155
0.90943312644958496 0.86190760135650635 0.11482326686382294
0.94340389966964722 0.88207739591598511 0.12290598452091217
0.97133076190948486 0.89942270517349243 0.13030503690242767
0.29593914747238159 0.73788982629776001 0.11736650764942169
0.34444132447242737 0.73591160774230957 0.12355563789606094
0.39720511436462402 0.7355615496635437 0.12840327620506287
0.44932094216346741 0.73869425058364868 0.12983705103397369
0.50317955017089844 0.74673700332641602 0.13112133741378784
0.56455373764038086 0.76391029357910156 0.13970725238323212
0.63174837827682495 0.7835003137588501 0.15939879417419434
0.70015662908554077 0.80734050273895264 0.16037727892398834
0.77017903327941895 0.83417487144470215 0.13653770089149475
0.84208410978317261 0.86264795064926147 0.11840570718050003
0.8983759880065918 0.88547521829605103 0.12429215759038925
0.93812257051467896 0.90483766794204712 0.14077644050121307
0.9703025221824646 0.9226570725440979 0.15138703584671021
0.28130057454109192 0.78946739435195923 0.11021647602319717
0.33365973830223083 0.78230917453765869 0.11821752786636353
0.38797691464424133 0.7776343822479248 0.12208949029445648
0.44111165404319763 0.77782845497131348 0.12221009284257889
0.49596276879310608 0.7852485179901123 0.12065514922142029
0.56207925081253052 0.80077892541885376 0.12702035903930664
0.63468396663665771 0.81942403316497803 0.1420397013425827
0.70525467395782471 0.840018630027771 0.15035417675971985
0.7709234356880188 0.86274617910385132 0.12774369120597839
0.83608412742614746 0.88794881105422974 0.10879714041948318
0.8885037899017334 0.90812015533447266 0.12541970610618591
0.93363350629806519 0.92672741413116455 0.15185274183750153
0.97301381826400757 0.94630670547485352 0.17011983692646027
0.18250453472137451 0.067339129745960236 0.097421474754810333
0.1998913586139679 0.069230429828166962 0.10378333926200867
0.25068774819374084 0.07010263204574585 0.1097571849822998
0.32367989420890808 0.068087682127952576 0.12004800140857697
0.41545143723487854 0.06692669540643692 0.13027749955654144
0.51794004440307617 0.067385368049144745 0.13539043068885803
0.63757067918777466 0.067326657474040985 0.13274107873439789
0.76045900583267212 0.066860780119895935 0.12850482761859894
0.83725112676620483 0.067579753696918488 0.13250809907913208
0.88277506828308105 0.066463321447372437 0.16741527616977692
0.91495925188064575 0.063771143555641174 0.2206505686044693
0.93878793716430664 0.06502842903137207 0.25867593288421631
0.95577657222747803 0.063423037528991699 0.27693116664886475
0.18636922538280487 0.072798363864421844 0.095751605927944183
0.19966708123683929 0.074059128761291504 0.10086730122566223
0.2528516948223114 0.077821947634220123 0.10914497822523117
0.33549997210502625 0.079067155718803406 0.11581356823444366
0.43612939119338989 0.0779891237616539 0.11707295477390289
0.54717910289764404 0.081063397228717804 0.11647838354110718
0.66712576150894165 0.084308728575706482 0.11360082030296326
0.7734915018081665 0.079570293426513672 0.11149287223815918
0.84298747777938843 0.076314337551593781 0.12119955569505692
0.88434821367263794 0.078166112303733826 0.1572897881269455
0.91539716720581055 0.077727250754833221 0.20368778705596924
0.94113975763320923 0.079137779772281647 0.24800047278404236
0.95944571495056152 0.084142930805683136 0.28482258319854736
0.19081775844097137 0.088996589183807373 0.10387920588254929
0.20564618706703186 0.096255160868167877 0.11278943717479706
0.25176790356636047 0.11350269615650177 0.1124698743224144
0.34180757403373718 0.12654447555541992 0.10743205994367599
0.44560840725898743 0.12855207920074463 0.10721120238304138
0.5555080771446228 0.13620480895042419 0.11173181235790253
0.67027288675308228 0.14946489036083221 0.11487463861703873
0.77047157287597656 0.14312152564525604 0.11506488174200058
0.83876991271972656 0.14730961620807648 0.12023801356554031
0.88166064023971558 0.15319643914699554 0.14988029003143311
0.91463643312454224 0.13818918168544769 0.18747691810131073
0.94105255603790283 0.12759622931480408 0.2238939106464386
0.95656114816665649 0.1447654664516449 0.26609185338020325
0.20242828130722046 0.14776910841464996 0.1329936683177948
0.2145945131778717 0.14979812502861023 0.13749054074287415
0.24124167859554291 0.1672607958316803 0.13035857677459717
0.33089625835418701 0.22745148837566376 0.11282172054052353
0.4565882682800293 0.25890329480171204 0.10266187787055969
0.56091940402984619 0.25791901350021362 0.10488637536764145
0.66660362482070923 0.26337644457817078 0.10761398822069168
0.76353913545608521 0.27447524666786194 0.11148297041654587
0.83132857084274292 0.27763864398002625 0.11754217743873596
0.87810033559799194 0.27294933795928955 0.12959614396095276
0.91114687919616699 0.25844979286193848 0.16594117879867554
0.93507450819015503 0.24375021457672119 0.21034203469753265
0.95324259996414185 0.2430872768163681 0.24966324865818024
0.22425580024719238 0.23369757831096649 0.16361834108829498
0.24180799722671509 0.23350687325000763 0.16928943991661072
0.2586347758769989 0.24390794336795807 0.16973082721233368
0.30854126811027527 0.30341389775276184 0.16072386503219604
0.43875738978385925 0.38581356406211853 0.12363126873970032
0.57970595359802246 0.42860910296440125 0.10802143812179565
0.67142307758331299 0.4193192720413208 0.10904712975025177
0.75630009174346924 0.40509715676307678 0.11239291727542877
0.82505595684051514 0.4033360481262207 0.11133036762475967
0.8747180700302124 0.40372920036315918 0.11398900300264359
0.90835517644882202 0.39750808477401733 0.13162671029567719
0.92780256271362305 0.38411876559257507 0.17119726538658142
0.94719362258911133 0.37756797671318054 0.20961345732212067
0.25182279944419861 0.3216157853603363 0.18735344707965851
0.27398458123207092 0.32090598344802856 0.19241710007190704
0.29739406704902649 0.33703416585922241 0.20129868388175964
0.32436653971672058 0.37450951337814331 0.21095229685306549
0.40019142627716064 0.44206523895263672 0.19138717651367188
0.54677015542984009 0.52668410539627075 0.13175895810127258
0.68920791149139404 0.56833821535110474 0.10880126804113388
0.77186405658721924 0.54933422803878784 0.10831074416637421
0.82506102323532104 0.52438795566558838 0.10815157741308212
0.87186402082443237 0.51410233974456787 0.10808692127466202
0.90821671485900879 0.51295119524002075 0.11401977390050888
0.92945027351379395 0.50865411758422852 0.13256080448627472
0.94564813375473022 0.50816291570663452 0.14277419447898865
0.27795016765594482 0.40906736254692078 0.20042024552822113
0.30836847424507141 0.41689452528953552 0.21120496094226837
0.34118461608886719 0.43196401000022888 0.2213541716337204
0.36775630712509155 0.45662838220596313 0.2318757027387619
0.40446585416793823 0.49738553166389465 0.24872148036956787
0.49388366937637329 0.56537508964538574 0.21142555773258209
0.64843583106994629 0.64682698249816895 0.12258240580558777
0.78117150068283081 0.68558299541473389 0.10328656435012817
0.84478890895843506 0.67633390426635742 0.10056515783071518
0.88401275873184204 0.64641112089157104 0.09999549388885498
0.91551047563552856 0.63428682088851929 0.10324736684560776
0.93844574689865112 0.63963824510574341 0.10931216925382614
0.95381981134414673 0.63577544689178467 0.11419423669576645
0.29629760980606079 0.49252107739448547 0.20623801648616791
0.32902544736862183 0.4958433210849762 0.21415494382381439
0.36870279908180237 0.50144243240356445 0.22076486051082611
0.40261274576187134 0.52217185497283936 0.23083323240280151
0.43952307105064392 0.55602490901947021 0.24554340541362762
0.50707328319549561 0.61124497652053833 0.2266048938035965
0.60815280675888062 0.68380129337310791 0.16251213848590851
0.73870688676834106 0.74731242656707764 0.11114988476037979
0.84654891490936279 0.78767400979995728 0.097884565591812134
0.90239018201828003 0.78691345453262329 0.092079252004623413
0.93299347162246704 0.77849847078323364 0.092856056988239288
0.95242989063262939 0.77258050441741943 0.094221986830234528
0.96421611309051514 0.76046490669250488 0.096600599586963654
0.30352741479873657 0.556488037109375 0.20207235217094421
0.34110653400421143 0.55665415525436401 0.20686420798301697
0.38547009229660034 0.56185418367385864 0.21227478981018066
0.43052905797958374 0.57921630144119263 0.21943078935146332
0.47565984725952148 0.61081469058990479 0.22689589858055115
0.54033505916595459 0.65862029790878296 0.20505151152610779
0.62024646997451782 0.71405208110809326 0.15883712470531464
0.71179139614105225 0.76404464244842529 0.12808778882026672
0.82265055179595947 0.81140428781509399 0.11218806356191635
0.89829671382904053 0.84084343910217285 0.09592851996421814
0.93460983037948608 0.84471386671066284 0.096247926354408264
0.96004903316497803 0.85466235876083374 0.092500932514667511
0.9738275408744812 0.85322898626327515 0.091206341981887817
0.30659753084182739 0.61628705263137817 0.19412675499916077
0.34990468621253967 0.61782264709472656 0.19903957843780518
0.39958393573760986 0.6240311861038208 0.20391424000263214
0.45034250617027283 0.63724225759506226 0.20832906663417816
0.50162595510482788 0.65890341997146606 0.21199269592761993
0.55890649557113647 0.68998771905899048 0.19288870692253113
0.62688082456588745 0.72924518585205078 0.16781322658061981
0.70806020498275757 0.76906806230545044 0.15206865966320038
0.79853838682174683 0.80977398157119751 0.13769590854644775
0.87591582536697388 0.84504669904708862 0.12229146063327789
0.92536658048629761 0.86778366565704346 0.11752778291702271
0.95416247844696045 0.88328957557678223 0.11557438969612122
0.97661787271499634 0.89479291439056396 0.1132267639040947
0.30644035339355469 0.67369288206100464 0.18696233630180359
0.35312175750732422 0.67428320646286011 0.19161501526832581
0.40379425883293152 0.67917001247406006 0.19642701745033264
0.45527482032775879 0.68853116035461426 0.20025193691253662
0.50974857807159424 0.70191222429275513 0.20160149037837982
0.56785595417022705 0.72321790456771851 0.18559274077415466
0.63023918867111206 0.74756032228469849 0.17603214085102081
0.70264691114425659 0.7786409854888916 0.16854056715965271
0.78288102149963379 0.81480735540390015 0.16274730861186981
0.8570706844329834 0.8473934531211853 0.1605910062789917
0.90994852781295776 0.87385767698287964 0.16991379857063293
0.94344830513000488 0.89526116847991943 0.16184478998184204
0.97286343574523926 0.91275566816329956 0.15373843908309937
0.29674738645553589 0.7292819619178772 0.18208463490009308
0.34397965669631958 0.72831588983535767 0.18593035638332367
0.39676502346992493 0.72865277528762817 0.19008488953113556
0.44969278573989868 0.73263430595397949 0.19360938668251038
0.50604331493377686 0.74274682998657227 0.19525626301765442
0.56658577919006348 0.76149296760559082 0.18215224146842957
0.63286930322647095 0.78268373012542725 0.17351606488227844
0.70289546251296997 0.80891233682632446 0.16911961138248444
0.77756321430206299 0.840675950050354 0.1618795245885849
0.84596490859985352 0.86836540699005127 0.16756777465343475
0.89926844835281372 0.89000570774078369 0.18209673464298248
0.93627536296844482 0.91029316186904907 0.18511644005775452
0.96951866149902344 0.92735785245895386 0.19075885415077209
0.28327721357345581 0.78102308511734009 0.17665143311023712
0.33285030722618103 0.77586448192596436 0.18072895705699921
0.3873744010925293 0.77199345827102661 0.18446128070354462
0.44137421250343323 0.77236151695251465 0.18723110854625702
0.49884882569313049 0.77981734275817871 0.18921899795532227
0.56527316570281982 0.79676443338394165 0.17966148257255554
0.6358075737953186 0.81834793090820312 0.16735243797302246
0.70466548204421997 0.84226447343826294 0.1604747474193573
0.77245497703552246 0.8669579029083252 0.15310746431350708
0.83652108907699585 0.88995569944381714 0.16532878577709198
0.89186447858810425 0.91078382730484009 0.18315021693706512
0.93455326557159424 0.93005532026290894 0.20158924162387848
0.97134065628051758 0.94730740785598755 0.21864165365695953
0.18165050446987152 0.07254529744386673 0.12908966839313507
0.20796617865562439 0.077388405799865723 0.15399777889251709
0.26432695984840393 0.077159687876701355 0.17350789904594421
0.34029504656791687 0.072739347815513611 0.19975712895393372
0.44061571359634399 0.069713711738586426 0.22695912420749664
0.54641711711883545 0.068542525172233582 0.246016725897789
0.66481631994247437 0.067108973860740662 0.25189107656478882
0.77153873443603516 0.066675640642642975 0.24052287638187408
0.84428888559341431 0.066751040518283844 0.23521764576435089
0.89112669229507446 0.067299038171768188 0.24395565688610077
0.92446047067642212 0.06795579195022583 0.26804712414741516
0.94461596012115479 0.070895224809646606 0.29491576552391052
0.95792317390441895 0.072109058499336243 0.31038931012153625
0.1887485682964325 0.075966730713844299 0.12034106999635696
0.21113532781600952 0.083805978298187256 0.14960476756095886
0.26620125770568848 0.084805630147457123 0.17550857365131378
0.3519209623336792 0.081538930535316467 0.20657594501972198
0.45785138010978699 0.072980113327503204 0.22236806154251099
0.56951618194580078 0.0698394775390625 0.22383284568786621
0.68474441766738892 0.069106034934520721 0.21873863041400909
0.78093153238296509 0.070508994162082672 0.21719464659690857
0.84676790237426758 0.071114316582679749 0.22311688959598541
0.89100164175033569 0.07231844961643219 0.24289682507514954
0.92357105016708374 0.068685866892337799 0.27083960175514221
0.94823849201202393 0.070594325661659241 0.29886153340339661
0.96277064085006714 0.078201562166213989 0.3235190212726593
0.19183392822742462 0.096784301102161407 0.13314877450466156
0.21534740924835205 0.11274883896112442 0.16350990533828735
0.27206829190254211 0.12484074383974075 0.18971641361713409
0.35829612612724304 0.12855234742164612 0.2008092999458313
0.46306639909744263 0.11965798586606979 0.20495861768722534
0.57356870174407959 0.11450835317373276 0.20036758482456207
0.68433839082717896 0.12052664905786514 0.20880554616451263
0.77863258123397827 0.11403072625398636 0.21642887592315674
0.84416097402572632 0.11477717757225037 0.22716309130191803
0.88807910680770874 0.12085661292076111 0.25064471364021301
0.92256754636764526 0.11244295537471771 0.26606738567352295
0.94960105419158936 0.10182847827672958 0.28382477164268494
0.96285903453826904 0.11887712776660919 0.31980964541435242
0.20021060109138489 0.16084674000740051 0.18294544517993927
0.22933138906955719 0.17950014770030975 0.20551298558712006
0.27362924814224243 0.19270670413970947 0.21938702464103699
0.35003003478050232 0.23007799685001373 0.20915958285331726
0.4624258279800415 0.2464839369058609 0.19254858791828156
0.56740224361419678 0.2407538890838623 0.19405084848403931
0.6732180118560791 0.24249325692653656 0.20156462490558624
0.77146774530410767 0.24552744626998901 0.20985253155231476
0.83782684803009033 0.24495621025562286 0.21484549343585968
0.88359528779983521 0.24129311740398407 0.22782914340496063
0.91977477073669434 0.23454535007476807 0.24575425684452057
0.94618350267410278 0.22803959250450134 0.27542415261268616
0.96146780252456665 0.2339015007019043 0.31423318386077881
0.22462639212608337 0.25303122401237488 0.23440824449062347
0.25630900263786316 0.26755636930465698 0.25296732783317566
0.28922185301780701 0.27304765582084656 0.26498809456825256
0.33405128121376038 0.30711126327514648 0.26634252071380615
0.44770228862762451 0.38251516222953796 0.22436676919460297
0.57926982641220093 0.41504725813865662 0.17771261930465698
0.67068910598754883 0.40210404992103577 0.17388193309307098
