assets/lut/pixlsus prussian blue.cube
# Created by: G'MIC (https://gmic.eu)
TITLE "prussian_blue"
# LUT size
LUT_3D_SIZE 7
# Data domain
DOMAIN_MIN 0.0 0.0 0.0
DOMAIN_MAX 1.0 1.0 1.0
# LUT data points
0.036974243819713593 0.040642037987709045 0.034547798335552216
0.18555645644664764 0.045636914670467377 0.045239169150590897
0.33546027541160583 0.045689616352319717 0.047056563198566437
0.49092864990234375 0.04541638121008873 0.046568628400564194
0.64068615436553955 0.045477055013179779 0.048945557326078415
0.79083961248397827 0.045456200838088989 0.050305638462305069
0.94945716857910156 0.042986221611499786 0.047102056443691254
0.042360015213489532 0.18933181464672089 0.047347273677587509
0.1946919709444046 0.1932227611541748 0.042661778628826141
0.35065475106239319 0.19313725829124451 0.040324684232473373
0.5092848539352417 0.1922067403793335 0.040417615324258804
0.6597210168838501 0.19310733675956726 0.042503252625465393
0.80381947755813599 0.19315484166145325 0.045237299054861069
0.9633374810218811 0.19042865931987762 0.045821696519851685
0.044752757996320724 0.33577302098274231 0.052994176745414734
0.19313725829124451 0.34544187784194946 0.044593349099159241
0.34585747122764587 0.34486398100852966 0.039713811129331589
0.50262820720672607 0.34365740418434143 0.039975184947252274
0.66089308261871338 0.3436274528503418 0.038849655538797379
0.81217473745346069 0.34373170137405396 0.038723576813936234
0.97132408618927002 0.34152674674987793 0.03949139267206192
0.043943233788013458 0.49234813451766968 0.052252121269702911
0.18964101374149323 0.50090658664703369 0.047843903303146362
0.3436274528503418 0.49990954995155334 0.043356921523809433
0.49940976500511169 0.49803921580314636 0.042159765958786011
0.65931379795074463 0.49803921580314636 0.039330858737230301
0.81685477495193481 0.49668896198272705 0.037220463156700134
0.97392648458480835 0.49411764740943909 0.038587622344493866
0.040946003049612045 0.648853600025177 0.051244936883449554
0.18542495369911194 0.6577451229095459 0.050590574741363525
0.33966490626335144 0.65741431713104248 0.046838514506816864
0.49820688366889954 0.65506654977798462 0.043713975697755814
0.65701133012771606 0.65245097875595093 0.041047427803277969
0.81432229280471802 0.64852941036224365 0.03883342444896698
0.97022122144699097 0.64832466840744019 0.038775276392698288
0.040654681622982025 0.80071431398391724 0.052699804306030273
0.18356664478778839 0.81220406293869019 0.051619015634059906
0.33578431606292725 0.81470590829849243 0.047544561326503754
0.49415445327758789 0.81123143434524536 0.045223549008369446
0.65207952260971069 0.80701106786727905 0.042639877647161484
0.80711394548416138 0.8038032054901123 0.042108990252017975
0.96337383985519409 0.80288302898406982 0.042602181434631348
0.04020194336771965 0.95756804943084717 0.047605164349079132
0.18286828696727753 0.96834999322891235 0.047803722321987152
0.33261594176292419 0.97189474105834961 0.045557942241430283
0.4890502393245697 0.96911764144897461 0.042647060006856918
0.64474785327911377 0.96515011787414551 0.042647060006856918
0.79987615346908569 0.96126514673233032 0.042647060006856918
0.95698833465576172 0.95735293626785278 0.042647060006856918
0.0060492572374641895 0.043151151388883591 0.082861192524433136
0.10012150555849075 0.062765128910541534 0.1531132310628891
0.27168986201286316 0.060447826981544495 0.1883738785982132
0.43672460317611694 0.05543619766831398 0.20052579045295715
0.59253489971160889 0.054887391626834869 0.20595483481884003
0.74560654163360596 0.055340021848678589 0.20888857543468475
0.90246325731277466 0.053660642355680466 0.20959010720252991
0.054404944181442261 0.15272368490695953 0.17646811902523041
0.18755194544792175 0.19360856711864471 0.18987467885017395
0.34102892875671387 0.194239541888237 0.19499886035919189
0.4949449896812439 0.19304083287715912 0.19622144103050232
0.64372295141220093 0.19467149674892426 0.19907219707965851
0.79056096076965332 0.19594170153141022 0.20221741497516632
0.9458843469619751 0.19468928873538971 0.20330663025379181
0.065109297633171082 0.30158549547195435 0.20817562937736511
0.19942429661750793 0.33775043487548828 0.20067539811134338
0.34666642546653748 0.34754902124404907 0.19077613949775696
0.50575786828994751 0.3436274528503418 0.18942822515964508
0.66700524091720581 0.3436274528503418 0.18901427090167999
0.81921011209487915 0.3436274528503418 0.19008699059486389
0.97318500280380249 0.34298256039619446 0.192500039935112
0.062227331101894379 0.45974934101104736 0.2209305614233017
0.1959022581577301 0.48872414231300354 0.21080435812473297
0.34344425797462463 0.49910283088684082 0.19846260547637939
0.50198197364807129 0.49804461002349854 0.19057337939739227
0.66494399309158325 0.49803921580314636 0.18565534055233002
0.82248896360397339 0.49718746542930603 0.1853100061416626
0.97523707151412964 0.49411764740943909 0.18915824592113495
0.054134909063577652 0.61908471584320068 0.22473590075969696
0.18960230052471161 0.64515870809555054 0.21652349829673767
0.33771342039108276 0.65650361776351929 0.20449744164943695
0.4957350492477417 0.65637469291687012 0.19459164142608643
0.65658509731292725 0.65248531103134155 0.1884039044380188
0.8134874701499939 0.65180230140686035 0.18696410953998566
0.96839624643325806 0.64852941036224365 0.18929366767406464
0.046940404921770096 0.78190088272094727 0.2215009331703186
0.18458889424800873 0.80442696809768677 0.21460734307765961
0.3332064151763916 0.81465864181518555 0.20470511913299561
0.49029853940010071 0.81402552127838135 0.19633375108242035
0.64837503433227539 0.80937081575393677 0.19108423590660095
0.80419087409973145 0.80681693553924561 0.18989008665084839
0.95992410182952881 0.80294120311737061 0.19259986281394958
0.040566388517618179 0.95209890604019165 0.21075095236301422
0.18172943592071533 0.96726465225219727 0.20679749548435211
0.33186274766921997 0.97219204902648926 0.20037893950939178
0.48627451062202454 0.96919000148773193 0.19486546516418457
0.64151531457901001 0.96519607305526733 0.19266566634178162
0.79735374450683594 0.96127450466156006 0.19272257387638092
0.95360463857650757 0.95735293626785278 0.19350656867027283
0.00076168286614120007 0.049894563853740692 0.10559632629156113
0.029161609709262848 0.076658062636852264 0.19027850031852722
0.16734074056148529 0.086967691779136658 0.27223038673400879
0.33742055296897888 0.080346383154392242 0.32388660311698914
0.50669199228286743 0.076158575713634491 0.34636256098747253
0.66758662462234497 0.073414027690887451 0.3577440083026886
0.82755672931671143 0.069948561489582062 0.36481216549873352
0.031853649765253067 0.13208796083927155 0.23133480548858643
0.13561961054801941 0.18672053515911102 0.24395735561847687
0.25396338105201721 0.214517742395401 0.30617803335189819
0.42104694247245789 0.21031005680561066 0.34470352530479431
0.58626407384872437 0.20760330557823181 0.35448291897773743
0.73854762315750122 0.20611867308616638 0.35879033803939819
0.89790874719619751 0.20357422530651093 0.36067372560501099
0.077509984374046326 0.26419663429260254 0.32135400176048279
0.21376611292362213 0.30485337972640991 0.32700511813163757
0.34012559056282043 0.34457564353942871 0.34116384387016296
0.49070805311203003 0.3461613655090332 0.34890070557594299
0.65214025974273682 0.3466981053352356 0.34860271215438843
0.80267822742462158 0.34680983424186707 0.34898626804351807
0.95599657297134399 0.34551170468330383 0.34862011671066284
0.084309086203575134 0.42083331942558289 0.36803171038627625
0.21230584383010864 0.46367809176445007 0.36479061841964722
0.34700286388397217 0.49904933571815491 0.35288628935813904
0.50033372640609741 0.50101226568222046 0.34491649270057678
0.66355544328689575 0.49803921580314636 0.34138742089271545
0.81971001625061035 0.49803921580314636 0.34171661734580994
0.96762055158615112 0.49803921580314636 0.34359046816825867
0.072291553020477295 0.58155852556228638 0.38639208674430847
0.19863007962703705 0.62946939468383789 0.37726718187332153
0.33884498476982117 0.65785235166549683 0.36231312155723572
0.49224287271499634 0.66021907329559326 0.3480171263217926
0.65322470664978027 0.65551209449768066 0.33970588445663452
0.81064611673355103 0.65245097875595093 0.33970588445663452
0.96218693256378174 0.65245097875595093 0.34108102321624756
0.056584704667329788 0.75789612531661987 0.38329139351844788
0.18818514049053192 0.79703199863433838 0.37184759974479675
0.33273240923881531 0.81507813930511475 0.35936236381530762
0.48647314310073853 0.81514012813568115 0.34807679057121277
0.64477956295013428 0.81078433990478516 0.34017077088356018
0.80078864097595215 0.80686277151107788 0.33970612287521362
0.9560127854347229 0.80608153343200684 0.34261158108711243
0.042187456041574478 0.94815337657928467 0.36645680665969849
0.18213161826133728 0.96670883893966675 0.35991901159286499
0.33186274766921997 0.97219955921173096 0.35207158327102661
0.48627451062202454 0.96907442808151245 0.34533622860908508
0.6406862735748291 0.96470087766647339 0.3413689136505127
0.79509806632995605 0.96127450466156006 0.34124967455863953
0.95190310478210449 0.95735293626785278 0.34367802739143372
0 0.060428351163864136 0.12876547873020172
0.0062990672886371613 0.08683217316865921 0.20943352580070496
0.084858521819114685 0.10720641165971756 0.30435198545455933
0.23609760403633118 0.11166173964738846 0.38599446415901184
0.40341126918792725 0.10723689943552017 0.44274652004241943
0.56535631418228149 0.099589720368385315 0.47869384288787842
0.73156660795211792 0.092187099158763885 0.49863332509994507
0.0069831996224820614 0.1287708580493927 0.26564857363700867
0.079162254929542542 0.17728887498378754 0.28725045919418335
0.15832363069057465 0.2228071391582489 0.34604465961456299
0.3133312463760376 0.23662568628787994 0.42393437027931213
0.4914589524269104 0.23135364055633545 0.47627738118171692
0.64587801694869995 0.22496826946735382 0.50080311298370361
0.81357145309448242 0.21945829689502716 0.50963759422302246
0.063254289329051971 0.23971529304981232 0.38261020183563232
0.18371200561523438 0.28344589471817017 0.38546836376190186
0.28793039917945862 0.33913671970367432 0.40748018026351929
0.43316683173179626 0.35962384939193726 0.4704902172088623
0.61140471696853638 0.35632294416427612 0.50475728511810303
0.76282393932342529 0.35385262966156006 0.50962275266647339
0.91767030954360962 0.35127687454223633 0.50669491291046143
0.10017663985490799 0.38592308759689331 0.46876034140586853
0.22169333696365356 0.43599361181259155 0.47868478298187256
0.35353094339370728 0.48421403765678406 0.49287831783294678
0.49683043360710144 0.50093376636505127 0.50101721286773682
0.65950363874435425 0.4981977641582489 0.50469672679901123
0.81583249568939209 0.49803921580314636 0.50395035743713379
0.96028035879135132 0.49844643473625183 0.50111764669418335
0.09302811324596405 0.54521870613098145 0.5196535587310791
0.21157754957675934 0.61619669198989868 0.51668787002563477
0.34473744034767151 0.65551662445068359 0.51413697004318237
0.49322986602783203 0.66100293397903442 0.50420141220092773
0.65336054563522339 0.65613776445388794 0.49623870849609375
0.81045389175415039 0.65245097875595093 0.49446582794189453
0.95945817232131958 0.65245097875595093 0.49505314230918884
0.069512419402599335 0.73345863819122314 0.53203248977661133
0.19455991685390472 0.79349052906036377 0.51825910806655884
0.33693978190422058 0.81495445966720581 0.5103345513343811
0.48995238542556763 0.81499403715133667 0.50075793266296387
0.6450430154800415 0.80999606847763062 0.49408736824989319
0.79998779296875 0.80686277151107788 0.49020421504974365
0.95343136787414551 0.80682307481765747 0.49411764740943909
0.043503332883119583 0.95272183418273926 0.51131176948547363
0.18561697006225586 0.96710866689682007 0.50692641735076904
0.3377264142036438 0.96760356426239014 0.50195670127868652
0.49053782224655151 0.96371126174926758 0.49638611078262329
0.64323300123214722 0.96057802438735962 0.49336034059524536
0.79510879516601562 0.95766574144363403 0.49308469891548157
0.95035713911056519 0.95735293626785278 0.49461200833320618
0.0014362559886649251 0.072306796908378601 0.15218141674995422
0.0055036209523677826 0.10065385699272156 0.22845807671546936
0.042465001344680786 0.12415841966867447 0.32241755723953247
0.14577721059322357 0.13449488580226898 0.41949746012687683
0.29807367920875549 0.13656781613826752 0.50132405757904053
0.46181616187095642 0.12889401614665985 0.56540745496749878
0.63048744201660156 0.11835659295320511 0.60790717601776123
0.00054327270481735468 0.13397254049777985 0.29090642929077148
0.03639017790555954 0.17457762360572815 0.32611551880836487
0.090722151100635529 0.21976807713508606 0.38012653589248657
0.19425295293331146 0.25007271766662598 0.4613727331161499
0.37830284237861633 0.2575017511844635 0.54713147878646851
0.55630111694335938 0.24871014058589935 0.60644239187240601
0.72365939617156982 0.24054925143718719 0.63715225458145142
0.037944793701171875 0.22343084216117859 0.41920065879821777
0.13142085075378418 0.27010348439216614 0.42702311277389526
0.22833909094333649 0.33089599013328552 0.45243775844573975
0.35810008645057678 0.36789476871490479 0.53720366954803467
0.55864924192428589 0.3702608048915863 0.61765140295028687
0.73689192533493042 0.36107566952705383 0.64949142932891846
0.89761936664581299 0.35563167929649353 0.6551593542098999
0.087035126984119415 0.34780749678611755 0.52965593338012695
0.20810124278068542 0.40294322371482849 0.54552823305130005
0.33794665336608887 0.46829304099082947 0.59065800905227661
0.48822551965713501 0.49752154946327209 0.63635587692260742
0.6574167013168335 0.50036966800689697 0.65724974870681763
0.8206639289855957 0.49803921580314636 0.66046136617660522
0.97141420841217041 0.4956146776676178 0.65600490570068359
0.10774153470993042 0.51927083730697632 0.61570459604263306
0.21957118809223175 0.6009412407875061 0.63402092456817627
0.34877565503120422 0.6479421854019165 0.65253812074661255
0.49951896071434021 0.65834468603134155 0.65786933898925781
0.65871042013168335 0.6540946364402771 0.65375608205795288
0.81226998567581177 0.65245097875595093 0.65007054805755615
0.9619368314743042 0.65245097875595093 0.64884465932846069
0.08050091564655304 0.72576862573623657 0.66121262311935425
0.19943863153457642 0.79340922832489014 0.65937083959579468
0.34031191468238831 0.81349211931228638 0.65790814161300659
0.49444112181663513 0.81115996837615967 0.6535259485244751
0.64970147609710693 0.8064885139465332 0.64852941036224365
0.80157327651977539 0.80495572090148926 0.64519226551055908
0.95343136787414551 0.80574977397918701 0.64852941036224365
0.042559932917356491 0.9571993350982666 0.65421223640441895
0.19054026901721954 0.96281319856643677 0.65276843309402466
0.3471381664276123 0.95764124393463135 0.65201586484909058
0.49765309691429138 0.95564395189285278 0.64854890108108521
0.64813101291656494 0.95475548505783081 0.6451866626739502
0.79901337623596191 0.95568770170211792 0.64647740125656128
0.9530714750289917 0.95735293626785278 0.64852941036224365
0.0053628510795533657 0.08415839821100235 0.17707455158233643
0.0069605358876287937 0.1129370778799057 0.25174984335899353
0.021851528435945511 0.13629961013793945 0.34468728303909302
0.088438890874385834 0.1493692547082901 0.44647207856178284
0.20918166637420654 0.15994715690612793 0.53746944665908813
0.35879647731781006 0.15750205516815186 0.61979496479034424
0.5230516791343689 0.14931409060955048 0.68544453382492065
0.00019142300880048424 0.14603348076343536 0.31308639049530029
0.010067270137369633 0.17857132852077484 0.36037695407867432
0.035175938159227371 0.21507467329502106 0.41588133573532104
0.11369721591472626 0.24857053160667419 0.49725419282913208
0.26605597138404846 0.27561753988265991 0.58604639768600464
0.45337569713592529 0.27634349465370178 0.6685219407081604
0.6429094672203064 0.26419112086296082 0.7362363338470459
0.014299550093710423 0.21970392763614655 0.44963541626930237
0.076560012996196747 0.26099804043769836 0.46316376328468323
0.1734139621257782 0.32452043890953064 0.48469465970993042
0.29753971099853516 0.3671610951423645 0.58856797218322754
0.48610159754753113 0.37875077128410339 0.69520819187164307
0.70490729808807373 0.36962345242500305 0.76545733213424683
0.88807922601699829 0.36118757724761963 0.80012053251266479
0.053365431725978851 0.32175958156585693 0.57704532146453857
0.16603954136371613 0.38172239065170288 0.60083067417144775
0.31314918398857117 0.45860785245895386 0.66951513290405273
0.48046141862869263 0.49676522612571716 0.76003873348236084
0.64977061748504639 0.50199323892593384 0.79817229509353638
0.81391638517379761 0.49837061762809753 0.80927038192749023
0.9644654393196106 0.49815106391906738 0.81066751480102539
0.1005672961473465 0.47546347975730896 0.68702679872512817
0.21145883202552795 0.57378828525543213 0.73927181959152222
0.34933903813362122 0.63889634609222412 0.78707897663116455
0.50656545162200928 0.65477824211120605 0.80970817804336548
0.65829980373382568 0.65324771404266357 0.80465656518936157
0.80370819568634033 0.65397077798843384 0.80048781633377075
0.95274597406387329 0.65415900945663452 0.80202287435531616
0.087522216141223907 0.72387468814849854 0.77966833114624023
0.2014775425195694 0.79330408573150635 0.80403321981430054
0.3436274528503418 0.81431794166564941 0.81158751249313354
0.49803921580314636 0.80682229995727539 0.80541551113128662
0.65256375074386597 0.80322587490081787 0.80397713184356689
0.80129384994506836 0.80386930704116821 0.80294269323348999
0.95303511619567871 0.80594360828399658 0.80294120311737061
0.039094947278499603 0.96458142995834351 0.80616343021392822
0.1931455135345459 0.95759809017181396 0.80504459142684937
0.34754902124404907 0.9555051326751709 0.8045843243598938
0.50064271688461304 0.95156288146972656 0.80287891626358032
0.65235704183578491 0.95127564668655396 0.80295193195343018
0.80177253484725952 0.95343136787414551 0.80295330286026001
0.95343136787414551 0.95720356702804565 0.80295085906982422
0.0048768138512969017 0.096575342118740082 0.19603396952152252
0.005350838415324688 0.12350659817457199 0.27012914419174194
0.0076506822369992733 0.14582668244838715 0.36691534519195557
0.05865580216050148 0.16833813488483429 0.4623284637928009
0.14164559543132782 0.17765863239765167 0.56122362613677979
0.2594183087348938 0.1788506805896759 0.65652543306350708
0.41386538743972778 0.18087244033813477 0.7352442741394043
0 0.15948997437953949 0.33447903394699097
0 0.18649154901504517 0.38391575217247009
0.0040628770366311073 0.21610957384109497 0.44832056760787964
0.055600587278604507 0.24938705563545227 0.53264158964157104
0.16862112283706665 0.28226235508918762 0.61686795949935913
0.32630154490470886 0.29831698536872864 0.70736920833587646
0.56566125154495239 0.28704527020454407 0.80326396226882935
0.001167985494248569 0.2259192019701004 0.48056071996688843
0.024616122245788574 0.25574663281440735 0.50707894563674927
0.11025159060955048 0.31251281499862671 0.51689046621322632
0.22036570310592651 0.36295595765113831 0.61376875638961792
0.40664952993392944 0.38535803556442261 0.75635391473770142
0.64791041612625122 0.37911680340766907 0.86532187461853027
0.89718097448348999 0.36151212453842163 0.93317550420761108
0.029893703758716583 0.30713626742362976 0.60374945402145386
0.11804993450641632 0.36064636707305908 0.63129740953445435
0.27142173051834106 0.44682449102401733 0.72694861888885498
0.45723852515220642 0.49555796384811401 0.87047433853149414
0.64184010028839111 0.50091707706451416 0.9456292986869812
0.81466275453567505 0.49768844246864319 0.96331685781478882
0.96411812305450439 0.49822232127189636 0.96057218313217163
0.079490408301353455 0.44514620304107666 0.73593121767044067
0.19037003815174103 0.54624640941619873 0.81124579906463623
0.33726915717124939 0.6309390664100647 0.91146749258041382
0.50464653968811035 0.65629392862319946 0.9698336124420166
0.65565758943557739 0.65629112720489502 0.96050453186035156
0.80314344167709351 0.65438109636306763 0.95729655027389526
0.95515543222427368 0.65308469533920288 0.95735293626785278
0.069087505340576172 0.73556554317474365 0.90604925155639648
0.19832110404968262 0.79922258853912354 0.95514130592346191
0.3436274528503418 0.81346791982650757 0.96773916482925415
0.50127691030502319 0.80718553066253662 0.96730828285217285
0.65520989894866943 0.80468499660491943 0.96480512619018555
0.80362290143966675 0.80466866493225098 0.96112585067749023
0.95585805177688599 0.80594360828399658 0.96016097068786621
0.03779086098074913 0.96658015251159668 0.96780705451965332
0.19036075472831726 0.96241575479507446 0.96279168128967285
0.34754902124404907 0.95461106300354004 0.96011406183242798
0.50196081399917603 0.95199519395828247 0.96123284101486206
0.65555489063262939 0.95211535692214966 0.9618346095085144
0.80504554510116577 0.95367932319641113 0.96127450466156006
0.95732492208480835 0.95735293626785278 0.95855629444122314
