assets/lut/pixlsus uzbek samarcande.cube
# Created by: G'MIC (https://gmic.eu)
TITLE "uzbek_samarcande"
# LUT size
LUT_3D_SIZE 13
# Data domain
DOMAIN_MIN 0.0 0.0 0.0
DOMAIN_MAX 1.0 1.0 1.0
# LUT data points
0.030232224613428116 0.03659464418888092 0.028586562722921371
0.089321210980415344 0.043069459497928619 0.039114650338888168
0.13820245862007141 0.053916212171316147 0.051108207553625107
0.1917407214641571 0.069653712213039398 0.061304263770580292
0.2438139021396637 0.080693610012531281 0.069465458393096924
0.2986454963684082 0.098466970026493073 0.080107025802135468
0.35793912410736084 0.11577459424734116 0.090312972664833069
0.42085319757461548 0.13706876337528229 0.10873815417289734
0.48546460270881653 0.15904250741004944 0.12790220975875854
0.54619729518890381 0.17657192051410675 0.1419479101896286
0.60682541131973267 0.19887028634548187 0.15924261510372162
0.66691106557846069 0.22093246877193451 0.17507235705852509
0.72198390960693359 0.23731312155723572 0.18523490428924561
0.033746607601642609 0.11617250740528107 0.037988997995853424
0.10703280568122864 0.11216875165700912 0.040810633450746536
0.16673660278320312 0.11279986798763275 0.048614427447319031
0.21812517940998077 0.1152685135602951 0.058747939765453339
0.26634430885314941 0.12230391800403595 0.070941999554634094
0.31680592894554138 0.13402070105075836 0.083971016108989716
0.37587267160415649 0.15275484323501587 0.099021315574645996
0.43727430701255798 0.1690191924571991 0.11556284129619598
0.49863928556442261 0.18676179647445679 0.13531886041164398
0.55668491125106812 0.2040206640958786 0.14856721460819244
0.61575794219970703 0.22388763725757599 0.16497726738452911
0.67479461431503296 0.24383364617824554 0.18060591816902161
0.72718161344528198 0.26038250327110291 0.19196312129497528
0.033669430762529373 0.19319929182529449 0.042913652956485748
0.10778149217367172 0.18808899819850922 0.042858317494392395
0.18143089115619659 0.18571557104587555 0.042896568775177002
0.24836544692516327 0.18612396717071533 0.051080156117677689
0.30218872427940369 0.18622699379920959 0.07130075991153717
0.34935948252677917 0.1897173672914505 0.090089358389377594
0.40014132857322693 0.19819630682468414 0.10670547187328339
0.4578251838684082 0.2084546685218811 0.11926978826522827
0.51465469598770142 0.22109344601631165 0.13623364269733429
0.56790530681610107 0.23373807966709137 0.15031649172306061
0.62526905536651611 0.25145173072814941 0.16808415949344635
0.68443793058395386 0.26996451616287231 0.18565128743648529
0.73804718255996704 0.2865091860294342 0.1979784369468689
0.034199029207229614 0.26947253942489624 0.040439501404762268
0.10776044428348541 0.26408377289772034 0.042222235351800919
0.18396128714084625 0.26249998807907104 0.040297042578458786
0.25789406895637512 0.26126351952552795 0.045890044420957565
0.32778120040893555 0.26211017370223999 0.053165063261985779
0.3880288302898407 0.26234284043312073 0.081729143857955933
0.44275954365730286 0.26452264189720154 0.10567831993103027
0.49492433667182922 0.26772698760032654 0.12356353551149368
0.5479590892791748 0.27490690350532532 0.13931374251842499
0.59580212831497192 0.28484144806861877 0.15567068755626678
0.64558053016662598 0.29643100500106812 0.17229178547859192
0.69967895746231079 0.30910763144493103 0.18901266157627106
0.75386416912078857 0.32066196203231812 0.2024395614862442
0.033528376370668411 0.34575259685516357 0.036783285439014435
0.10618934035301208 0.34137535095214844 0.044065602123737335
0.18201205134391785 0.33970588445663452 0.046733077615499496
0.25860059261322021 0.3377721905708313 0.051148522645235062
0.33375376462936401 0.33842048048973083 0.051628727465867996
0.40618327260017395 0.33800849318504333 0.05458647757768631
0.47354912757873535 0.3363000750541687 0.082168400287628174
0.53369748592376709 0.33505496382713318 0.1169922798871994
0.58423542976379395 0.33676305413246155 0.13806980848312378
0.62978506088256836 0.34424659609794617 0.15813173353672028
0.67655813694000244 0.3548089861869812 0.17461301386356354
0.72471541166305542 0.36239546537399292 0.19296717643737793
0.77312982082366943 0.36989334225654602 0.20730538666248322
0.033033229410648346 0.42221829295158386 0.038048252463340759
0.1039477065205574 0.4198584258556366 0.048805370926856995
0.1808931827545166 0.41874280571937561 0.054680902510881424
0.25844284892082214 0.41807076334953308 0.058544322848320007
0.33216387033462524 0.41700780391693115 0.058937475085258484
0.40971359610557556 0.41376948356628418 0.05289294570684433
0.48975896835327148 0.4124113917350769 0.051761925220489502
0.55977869033813477 0.40751859545707703 0.087102450430393219
0.61423563957214355 0.40660440921783447 0.11772860586643219
0.66478514671325684 0.40951317548751831 0.15107902884483337
0.71284419298171997 0.41865569353103638 0.17118871212005615
0.76126629114151001 0.42466652393341064 0.19240762293338776
0.80903738737106323 0.42971986532211304 0.21085609495639801
0.03089580126106739 0.49839937686920166 0.041324153542518616
0.10186605900526047 0.49800539016723633 0.050834506750106812
0.18011261522769928 0.50028568506240845 0.054102040827274323
0.25825396180152893 0.5003197193145752 0.055942490696907043
0.33314681053161621 0.49636486172676086 0.05717836320400238
0.41291150450706482 0.48945611715316772 0.057891052216291428
0.49544242024421692 0.48475468158721924 0.056627534329891205
0.57546693086624146 0.48638507723808289 0.052615851163864136
0.6414560079574585 0.48691380023956299 0.074005231261253357
0.69786965847015381 0.48478183150291443 0.12345612794160843
0.75168371200561523 0.4890974760055542 0.16092929244041443
0.80230903625488281 0.49376147985458374 0.1865440309047699
0.8548474907875061 0.4970996081829071 0.20842558145523071
0.039178047329187393 0.5718502402305603 0.053199212998151779
0.1053401306271553 0.5736459493637085 0.057953555136919022
0.18107874691486359 0.5787617564201355 0.054187312722206116
0.25874128937721252 0.58121019601821899 0.047719363123178482
0.33620655536651611 0.57341217994689941 0.056463774293661118
0.41674861311912537 0.56545442342758179 0.061912253499031067
0.49866250157356262 0.56065469980239868 0.059816621243953705
0.57927906513214111 0.56288152933120728 0.052737381309270859
0.65538293123245239 0.56824278831481934 0.056498851627111435
0.72406542301177979 0.5722622275352478 0.071062110364437103
0.78258782625198364 0.57184737920761108 0.1207936629652977
0.83642685413360596 0.57289546728134155 0.17210021615028381
0.89239102602005005 0.57541000843048096 0.19681574404239655
0.046615868806838989 0.64852941036224365 0.061437241733074188
0.11045439541339874 0.64940118789672852 0.0644240602850914
0.17821471393108368 0.65403085947036743 0.059044856578111649
0.25020590424537659 0.65622466802597046 0.053440887480974197
0.33170041441917419 0.6514667272567749 0.058528855443000793
0.41420015692710876 0.6439395546913147 0.063142262399196625
0.49650630354881287 0.63907116651535034 0.061851412057876587
0.57842135429382324 0.63934057950973511 0.060825169086456299
0.65626257658004761 0.64630585908889771 0.06066691130399704
0.73253929615020752 0.65361547470092773 0.054456450045108795
0.80076926946640015 0.65506827831268311 0.079254329204559326
0.86389195919036865 0.65375036001205444 0.12401438504457474
0.92176151275634766 0.65238970518112183 0.17191165685653687
0.048475828021764755 0.72573530673980713 0.063338503241539001
0.10664965957403183 0.72578728199005127 0.06470102071762085
0.16954484581947327 0.72919720411300659 0.061536945402622223
0.24106009304523468 0.72974789142608643 0.05840924009680748
0.32287082076072693 0.72767657041549683 0.061123043298721313
0.40754991769790649 0.72236651182174683 0.065007276833057404
0.49185982346534729 0.71769464015960693 0.064868107438087463
0.57421201467514038 0.71843534708023071 0.064331933856010437
0.6532168984413147 0.72485274076461792 0.061104957014322281
0.73217177391052246 0.73022353649139404 0.058599494397640228
0.8061252236366272 0.73224568367004395 0.064291737973690033
0.88025969266891479 0.73232430219650269 0.067247815430164337
0.94247603416442871 0.72901719808578491 0.11574482917785645
0.044773414731025696 0.80443930625915527 0.059099338948726654
0.09916955977678299 0.80446934700012207 0.059737052768468857
0.16384069621562958 0.80471789836883545 0.059007905423641205
0.23562020063400269 0.8065827488899231 0.057438511401414871
0.31651648879051208 0.8035660982131958 0.059995569288730621
0.40057322382926941 0.80131274461746216 0.064513251185417175
0.48662424087524414 0.79719090461730957 0.065588392317295074
0.57051074504852295 0.79791092872619629 0.065035365521907806
0.6535612940788269 0.80146479606628418 0.061391614377498627
0.73286789655685425 0.80600208044052124 0.058056522160768509
0.80827665328979492 0.80694639682769775 0.059424813836812973
0.88262885808944702 0.80695611238479614 0.062773779034614563
0.95446407794952393 0.80686277151107788 0.061319462954998016
0.03759307786822319 0.88538211584091187 0.048594620078802109
0.093321904540061951 0.88410276174545288 0.049948390573263168
0.16078855097293854 0.88388657569885254 0.051062025129795074
0.23240409791469574 0.88406270742416382 0.051268558949232101
0.31286334991455078 0.8820452094078064 0.05467556044459343
0.39615604281425476 0.88008713722229004 0.060470640659332275
0.48272418975830078 0.87745827436447144 0.062960200011730194
0.56852161884307861 0.87678110599517822 0.062736257910728455
0.654349684715271 0.87882965803146362 0.058763138949871063
0.73357844352722168 0.88219654560089111 0.051591835916042328
0.81019192934036255 0.88399428129196167 0.0547332763671875
0.884898841381073 0.88406860828399658 0.055497698485851288
0.95876193046569824 0.88406860828399658 0.047504618763923645
0.029249005019664764 0.96193963289260864 0.032995142042636871
0.090767085552215576 0.95551222562789917 0.03700796514749527
0.1596381664276123 0.95559489727020264 0.039059940725564957
0.23196840286254883 0.95697581768035889 0.040960617363452911
0.31135267019271851 0.9529833197593689 0.047431465238332748
0.39515161514282227 0.95205605030059814 0.054073497653007507
0.4834744930267334 0.95530456304550171 0.056686896830797195
0.56892514228820801 0.95230305194854736 0.058342114090919495
0.65381723642349243 0.95199763774871826 0.054579507559537888
0.73357844352722168 0.95651805400848389 0.040020931512117386
0.81078433990478516 0.95522093772888184 0.047989893704652786
0.88701546192169189 0.95450478792190552 0.057720184326171875
0.9583355188369751 0.95775139331817627 0.04322153702378273
0.030071737244725227 0.028410354629158974 0.070856966078281403
0.09167836606502533 0.040463510900735855 0.092448890209197998
0.14507415890693665 0.059577193111181259 0.10186664015054703
0.19340366125106812 0.076596006751060486 0.105854332447052
0.24640610814094543 0.092038080096244812 0.11457757651805878
0.30200988054275513 0.10846949368715286 0.12573292851448059
0.36242854595184326 0.12849937379360199 0.13758710026741028
0.42369952797889709 0.14714324474334717 0.15072226524353027
0.48665982484817505 0.16814383864402771 0.16632938385009766
0.54792928695678711 0.18905536830425262 0.18040017783641815
0.60696464776992798 0.20915667712688446 0.19394956529140472
0.6656072735786438 0.22808322310447693 0.20612864196300507
0.72077715396881104 0.24386106431484222 0.21583293378353119
0.02224629744887352 0.10447407513856888 0.095482274889945984
0.095703929662704468 0.10474535077810287 0.09986608475446701
0.15833583474159241 0.11284352093935013 0.10736878216266632
0.21135465800762177 0.12072432041168213 0.11483127623796463
0.26366713643074036 0.1303398609161377 0.12179884314537048
0.31653028726577759 0.14354817569255829 0.13112621009349823
0.37681299448013306 0.16044725477695465 0.14288276433944702
0.43644323945045471 0.173373743891716 0.1543363630771637
0.49603655934333801 0.19045461714267731 0.16890420019626617
0.55635476112365723 0.21224977076053619 0.18474256992340088
0.61445730924606323 0.2319582998752594 0.19875209033489227
0.67267018556594849 0.25001448392868042 0.21059867739677429
0.72589981555938721 0.26539480686187744 0.22009378671646118
0.021346192806959152 0.20387628674507141 0.11928708106279373
0.098524920642375946 0.19213932752609253 0.11352688819169998
0.17956261336803436 0.18612363934516907 0.11324789375066757
0.23972675204277039 0.18575061857700348 0.11905946582555771
0.29152491688728333 0.18705911934375763 0.12890459597110748
0.34143316745758057 0.19347459077835083 0.13804261386394501
0.39835876226425171 0.20461498200893402 0.14955985546112061
0.45785418152809143 0.21666811406612396 0.16119915246963501
0.5140845775604248 0.22835804522037506 0.17372728884220123
0.56785160303115845 0.2428286075592041 0.18870982527732849
0.62349796295166016 0.25935441255569458 0.20189572870731354
0.68235641717910767 0.27674141526222229 0.21494227647781372
0.7360413670539856 0.29175099730491638 0.22461956739425659
0.030007530003786087 0.27959543466567993 0.11608965694904327
0.10293965041637421 0.26966595649719238 0.1142229437828064
0.18238392472267151 0.26425778865814209 0.11475198715925217
0.25778484344482422 0.26249650120735168 0.11493796855211258
0.32339939475059509 0.26093319058418274 0.12417295575141907
0.38006049394607544 0.26196491718292236 0.14114634692668915
0.43457359075546265 0.26565942168235779 0.15369628369808197
0.48881930112838745 0.27168107032775879 0.16669955849647522
0.5406414270401001 0.27911671996116638 0.18020272254943848
0.58978766202926636 0.2890508770942688 0.19371384382247925
0.64162886142730713 0.30117660760879517 0.20709061622619629
0.69796073436737061 0.31448879837989807 0.21970838308334351
0.75143140554428101 0.32613825798034668 0.23057860136032104
0.032171659171581268 0.35317981243133545 0.10850602388381958
0.10340370982885361 0.34601148962974548 0.11432418972253799
0.18014687299728394 0.34164255857467651 0.11899197101593018
0.25840702652931213 0.3388524055480957 0.12019567936658859
0.33249622583389282 0.33641621470451355 0.12073763459920883
0.4036315381526947 0.33586478233337402 0.12748439610004425
0.4711601734161377 0.33697807788848877 0.14569605886936188
0.53008586168289185 0.33752503991127014 0.16629861295223236
0.57275784015655518 0.33789288997650146 0.18138279020786285
0.61943107843399048 0.34576320648193359 0.19721177220344543
0.66888338327407837 0.35660901665687561 0.2124394029378891
0.72099149227142334 0.36762481927871704 0.22788213193416595
0.770530104637146 0.37831681966781616 0.24135898053646088
0.029658956453204155 0.42796537280082703 0.10844249278306961
0.099112145602703094 0.42345663905143738 0.11630048602819443
0.17616334557533264 0.42074328660964966 0.12141969054937363
0.25653338432312012 0.41781890392303467 0.12190466374158859
0.33221012353897095 0.41573435068130493 0.12040716409683228
0.41340756416320801 0.41256049275398254 0.11927337944507599
0.49434807896614075 0.41170617938041687 0.12319947779178619
0.5596117377281189 0.40989363193511963 0.14622184634208679
0.61073905229568481 0.40896445512771606 0.1716666966676712
0.65629512071609497 0.41256704926490784 0.1930096447467804
0.70363020896911621 0.42045024037361145 0.21223735809326172
0.75410318374633789 0.42969834804534912 0.23134025931358337
0.80178689956665039 0.43746301531791687 0.24758391082286835
0.028317529708147049 0.50127309560775757 0.11574535071849823
0.091578647494316101 0.49997788667678833 0.11938939988613129
0.17086480557918549 0.50154155492782593 0.11957275122404099
0.25290036201477051 0.49991223216056824 0.11755960434675217
0.3321983814239502 0.49435865879058838 0.11772215366363525
0.4161955714225769 0.48814666271209717 0.11930602043867111
0.50062543153762817 0.48690313100814819 0.11914081871509552
0.57627171277999878 0.4918665885925293 0.122710220515728
0.63975733518600464 0.49123695492744446 0.14420633018016815
0.69231057167053223 0.48696905374526978 0.17945519089698792
0.74206352233886719 0.49196615815162659 0.20572873950004578
0.79446840286254883 0.50162583589553833 0.22256405651569366
0.84648317098617554 0.50539058446884155 0.24327513575553894
0.03268846869468689 0.57768207788467407 0.12222744524478912
0.09339635819196701 0.577381432056427 0.12525559961795807
0.16687457263469696 0.58132654428482056 0.12045132368803024
0.24823421239852905 0.58108097314834595 0.11357465386390686
0.33121716976165771 0.57317650318145752 0.1168338730931282
0.41440021991729736 0.56601929664611816 0.12098560482263565
0.4974454939365387 0.5661962628364563 0.12220173329114914
0.57880610227584839 0.5720287561416626 0.1202203780412674
0.6543039083480835 0.57523870468139648 0.12421520799398422
0.71901357173919678 0.5735325813293457 0.14515513181686401
0.77599513530731201 0.57266831398010254 0.183486208319664
0.83187800645828247 0.5772826075553894 0.20700260996818542
0.8881041407585144 0.58067309856414795 0.23068884015083313
0.039893593639135361 0.65296238660812378 0.12460219115018845
0.099413059651851654 0.65410935878753662 0.12710559368133545
0.16223776340484619 0.65649163722991943 0.1220957413315773
0.23784853518009186 0.65557771921157837 0.11377669870853424
0.32543730735778809 0.65129929780960083 0.11733189225196838
0.40987220406532288 0.64666092395782471 0.12181784212589264
0.49379205703735352 0.64588505029678345 0.12310225516557693
0.57721638679504395 0.64700460433959961 0.12290214002132416
0.65490555763244629 0.6496814489364624 0.12290580570697784
0.72800350189208984 0.65240132808685303 0.12900692224502563
0.79382312297821045 0.65244215726852417 0.16048745810985565
0.86024421453475952 0.65244442224502563 0.18481042981147766
0.91721665859222412 0.65398818254470825 0.21262392401695251
0.042276449501514435 0.72820478677749634 0.12102219462394714
0.095560334622859955 0.72858434915542603 0.12318064272403717
0.15428006649017334 0.72964072227478027 0.11999984085559845
0.22934021055698395 0.72942304611206055 0.11278306692838669
0.31723746657371521 0.72687041759490967 0.11509814113378525
0.40355893969535828 0.7245444655418396 0.11961321532726288
0.48891592025756836 0.72210723161697388 0.12105026096105576
0.57366973161697388 0.72194451093673706 0.12138242274522781
0.65245503187179565 0.72482609748840332 0.12060711532831192
0.72940081357955933 0.72829759120941162 0.12361124157905579
0.80296808481216431 0.72965723276138306 0.13614021241664886
0.87537181377410889 0.72966915369033813 0.14697740972042084
0.93997597694396973 0.72952187061309814 0.17017026245594025
0.039777118712663651 0.8054160475730896 0.11334186792373657
0.09036032110452652 0.80462920665740967 0.11483598500490189
0.15112519264221191 0.80469799041748047 0.11131051927804947
0.22581295669078827 0.80368942022323608 0.10469503700733185
0.31201079487800598 0.80294191837310791 0.10705475509166718
0.39705917239189148 0.80252492427825928 0.11421359330415726
0.48376315832138062 0.80006593465805054 0.11697997897863388
0.57118457555770874 0.79904282093048096 0.11800288408994675
0.65252232551574707 0.80117934942245483 0.11847587674856186
0.72982990741729736 0.8037453293800354 0.12096071243286133
0.8068346381187439 0.80574363470077515 0.12457357347011566
0.88042545318603516 0.80595541000366211 0.1295674592256546
0.95280510187149048 0.80686277151107788 0.12977392971515656
0.035343483090400696 0.88479578495025635 0.10195215046405792
0.087441779673099518 0.88371497392654419 0.10118861496448517
0.15106476843357086 0.88339662551879883 0.095723003149032593
0.22544816136360168 0.88331317901611328 0.089526385068893433
0.30949324369430542 0.88188701868057251 0.094414912164211273
0.39278185367584229 0.88014703989028931 0.10530540347099304
0.48012581467628479 0.87973392009735107 0.11061497032642365
0.56933349370956421 0.87852662801742554 0.11375569552183151
0.65420150756835938 0.87961667776107788 0.11557698249816895
0.73324763774871826 0.88017112016677856 0.11721283942461014
0.80843240022659302 0.88075214624404907 0.1200864315032959
0.88392108678817749 0.88126301765441895 0.11888031661510468
0.95549756288528442 0.88371467590332031 0.11344464123249054
0.029859684407711029 0.95930755138397217 0.08788752555847168
0.086953781545162201 0.95397084951400757 0.085411638021469116
0.1531931608915329 0.95616602897644043 0.076416507363319397
0.22807110846042633 0.95959508419036865 0.06900293380022049
0.30873298645019531 0.9539494514465332 0.081503279507160187
0.39141792058944702 0.95212739706039429 0.095235131680965424
0.48061960935592651 0.95433717966079712 0.10285312682390213
0.56932300329208374 0.95419448614120483 0.10894472897052765
0.65508580207824707 0.95586073398590088 0.11258483678102493
0.73357844352722168 0.95498806238174438 0.11171572655439377
0.81049895286560059 0.95502001047134399 0.11435322463512421
0.88444578647613525 0.95723336935043335 0.11380252987146378
0.956595778465271 0.95785391330718994 0.11036224663257599
0.031623378396034241 0.024956976994872093 0.10904214531183243
0.082158930599689484 0.033697016537189484 0.12838390469551086
0.16088499128818512 0.057348243892192841 0.16152013838291168
0.21069461107254028 0.081266753375530243 0.1660243421792984
0.25493243336677551 0.10313326120376587 0.16794626414775848
0.30671501159667969 0.12157078087329865 0.17526711523532867
0.36735400557518005 0.14151334762573242 0.18663524091243744
0.4288102388381958 0.16035674512386322 0.1992422491312027
0.48775395750999451 0.17986395955085754 0.21142773330211639
0.54815208911895752 0.20270565152168274 0.22612786293029785
0.60658222436904907 0.22257830202579498 0.2384142279624939
0.66478657722473145 0.23957464098930359 0.24777553975582123
0.72071808576583862 0.25329625606536865 0.25535017251968384
0.021881282329559326 0.070810787379741669 0.12108276784420013
0.080238357186317444 0.084758982062339783 0.13832557201385498
0.16212081909179688 0.10944682359695435 0.16472268104553223
0.21749690175056458 0.12717713415622711 0.17200638353824615
0.26508685946464539 0.14113542437553406 0.17434260249137878
0.31914955377578735 0.15764407813549042 0.18243297934532166
0.37902513146400452 0.17232599854469299 0.19305460155010223
0.43911248445510864 0.18564130365848541 0.20373572409152985
0.49722439050674438 0.20253746211528778 0.21480238437652588
0.55479711294174194 0.2226739227771759 0.22936780750751495
0.61285388469696045 0.24156972765922546 0.24180775880813599
0.67102152109146118 0.25914081931114197 0.2518748939037323
0.72406893968582153 0.27354896068572998 0.26065462827682495
0.0095723923295736313 0.1802593469619751 0.17034889757633209
0.075743913650512695 0.17637428641319275 0.16868428885936737
0.17082437872886658 0.18061132729053497 0.17591702938079834
0.23542271554470062 0.1866617351770401 0.18202877044677734
0.28580522537231445 0.19218122959136963 0.18637053668498993
0.3372727632522583 0.20145608484745026 0.19353111088275909
0.39742973446846008 0.21416060626506805 0.20194460451602936
0.45737901329994202 0.22660286724567413 0.21048258244991302
0.51270323991775513 0.23810265958309174 0.22065058350563049
0.56745797395706177 0.25371962785720825 0.23487374186515808
0.62334895133972168 0.27021762728691101 0.24643324315547943
0.68044036626815796 0.28668040037155151 0.25779044628143311
0.73214858770370483 0.300384521484375 0.26809424161911011
0.012646649032831192 0.29557150602340698 0.20196740329265594
0.07226148247718811 0.28246662020683289 0.19596342742443085
0.1771855354309082 0.26937451958656311 0.18920968472957611
0.25592151284217834 0.26276460289955139 0.18804891407489777
0.31939446926116943 0.26169690489768982 0.19366995990276337
0.37100347876548767 0.2626129686832428 0.20239074528217316
0.42387199401855469 0.26704710721969604 0.20948338508605957
0.48006144165992737 0.27497977018356323 0.21802225708961487
0.53572481870651245 0.28557804226875305 0.22776384651660919
0.58642864227294922 0.29608571529388428 0.24009014666080475
0.63962632417678833 0.30882319808006287 0.25217518210411072
0.69460600614547729 0.32216745615005493 0.26396399736404419
0.74570959806442261 0.33362570405006409 0.27497133612632751
0.020495740696787834 0.36829447746276855 0.19457055628299713
0.085927776992321014 0.3572370707988739 0.19254055619239807
0.17533351480960846 0.34888362884521484 0.19150802493095398
0.25817906856536865 0.34096962213516235 0.19065985083580017
0.33387243747711182 0.33937078714370728 0.19020400941371918
0.40213263034820557 0.33674341440200806 0.19671155512332916
