assets/lut/pixlsus taiga.cube
# Created by: G'MIC (https://gmic.eu)
TITLE "taiga"
# LUT size
LUT_3D_SIZE 13
# Data domain
DOMAIN_MIN 0.0 0.0 0.0
DOMAIN_MAX 1.0 1.0 1.0
# LUT data points
0.011101307347416878 0.068820342421531677 0.05467161163687706
0.092434316873550415 0.063135124742984772 0.046932939440011978
0.20105326175689697 0.056033790111541748 0.033973485231399536
0.30278864502906799 0.049765702337026596 0.022076865658164024
0.3974822461605072 0.051474418491125107 0.011557994410395622
0.48424011468887329 0.05210895836353302 0.0076119368895888329
0.56379491090774536 0.057708695530891418 0.0056022941134870052
0.64603006839752197 0.052141930907964706 0.0075152376666665077
0.72653841972351074 0.043378911912441254 0.0085620954632759094
0.79863458871841431 0.037035219371318817 0.011381830088794231
0.86478257179260254 0.033193953335285187 0.019894827157258987
0.92137521505355835 0.031325604766607285 0.025288211181759834
0.97297376394271851 0.022042412310838699 0.019152337685227394
0.013508770614862442 0.15033575892448425 0.054315172135829926
0.073223292827606201 0.14292730391025543 0.050437029451131821
0.17833201587200165 0.13670675456523895 0.042366970330476761
0.28021422028541565 0.13005761802196503 0.032141398638486862
0.37957680225372314 0.121942438185215 0.017848549410700798
0.46891090273857117 0.11758594959974289 0.010322376154363155
0.56078726053237915 0.11175029724836349 0.0061446544714272022
0.64955198764801025 0.10204970091581345 0.0060086869634687901
0.73043531179428101 0.092011049389839172 0.0066139968112111092
0.80057710409164429 0.086042530834674835 0.008581886999309063
0.86538392305374146 0.07696235179901123 0.011536871083080769
0.92368078231811523 0.072685614228248596 0.015266717411577702
0.97618156671524048 0.064725048840045929 0.016402779147028923
0.016356823965907097 0.22721046209335327 0.05258573591709137
0.060578692704439163 0.22257240116596222 0.049576882272958755
0.14886628091335297 0.21812735497951508 0.049481693655252457
0.25358521938323975 0.214551642537117 0.045647848397493362
0.35702025890350342 0.21065393090248108 0.030406681820750237
0.45414620637893677 0.20539401471614838 0.017120569944381714
0.55222749710083008 0.19497227668762207 0.010312368161976337
0.64577203989028931 0.18082328140735626 0.0071810404770076275
0.72363340854644775 0.16717331111431122 0.0072198305279016495
0.79605007171630859 0.15683090686798096 0.0081091783940792084
0.86421060562133789 0.14262650907039642 0.0079207178205251694
0.9279056191444397 0.13120383024215698 0.0083730807527899742
0.97913438081741333 0.1243789941072464 0.012649745680391788
0.010919368825852871 0.3057856559753418 0.051465336233377457
0.051594633609056473 0.30146580934524536 0.050627149641513824
0.12367040663957596 0.29725372791290283 0.050207562744617462
0.22918792068958282 0.29434654116630554 0.049030646681785583
0.33620619773864746 0.2917887270450592 0.038163848221302032
0.43524223566055298 0.28864783048629761 0.0309104323387146
0.53439533710479736 0.28153350949287415 0.020297106355428696
0.62627828121185303 0.26761385798454285 0.015911625698208809
0.70664024353027344 0.25488090515136719 0.015395250171422958
0.78544324636459351 0.24098788201808929 0.009669225662946701
0.8607524037361145 0.22724299132823944 0.010705730877816677
0.92848378419876099 0.21459075808525085 0.0124853840097785
0.97472327947616577 0.210112065076828 0.01535269059240818
0.0064752614125609398 0.38052761554718018 0.059660308063030243
0.037799462676048279 0.37957999110221863 0.062257129698991776
0.10523934662342072 0.37566301226615906 0.048141747713088989
0.20819760859012604 0.37210473418235779 0.049110740423202515
0.31868267059326172 0.37052574753761292 0.046990770846605301
0.42187246680259705 0.36811506748199463 0.042942944914102554
0.51884931325912476 0.36243107914924622 0.033073246479034424
0.61153507232666016 0.35183492302894592 0.022265700623393059
0.69691520929336548 0.33902227878570557 0.019084421917796135
0.77578425407409668 0.32695379853248596 0.013281668536365032
0.85098457336425781 0.31369659304618835 0.011929650790989399
0.92111414670944214 0.30234429240226746 0.013744862750172615
0.97306251525878906 0.29796028137207031 0.014946358278393745
0.0065420111641287804 0.45234355330467224 0.056866873055696487
0.039248988032341003 0.45076128840446472 0.060761455446481705
0.10264892876148224 0.44825002551078796 0.054916456341743469
0.19821247458457947 0.45130664110183716 0.051077660173177719
0.30637702345848083 0.45190766453742981 0.050652448087930679
0.40818408131599426 0.45034137368202209 0.050962336361408234
0.50602799654006958 0.44416216015815735 0.047040123492479324
0.60150063037872314 0.43414753675460815 0.034284792840480804
0.68907397985458374 0.42323178052902222 0.0214818324893713
0.76702189445495605 0.41174149513244629 0.018931280821561813
0.84170299768447876 0.39850527048110962 0.016891539096832275
0.91249257326126099 0.38812968134880066 0.017587205395102501
0.97177237272262573 0.38456270098686218 0.017523506656289101
0.0063595790416002274 0.52394396066665649 0.04762515053153038
0.043612044304609299 0.52146846055984497 0.058307185769081116
0.1075173020362854 0.52121412754058838 0.066419027745723724
0.19529131054878235 0.52705007791519165 0.053151417523622513
0.29661554098129272 0.53245526552200317 0.044247794896364212
0.39782270789146423 0.53207546472549438 0.049756292253732681
0.49572303891181946 0.52694547176361084 0.052095569670200348
0.59119653701782227 0.5183635950088501 0.041725143790245056
0.67983013391494751 0.50828248262405396 0.030463708564639091
0.75906890630722046 0.4982028603553772 0.025562137365341187
0.83433187007904053 0.48514184355735779 0.02431018278002739
0.90333300828933716 0.47397562861442566 0.031039100140333176
0.96202874183654785 0.47080320119857788 0.035982422530651093
0.0082717146724462509 0.58530312776565552 0.04803326353430748
0.043189045041799545 0.58599936962127686 0.057390518486499786
0.10727642476558685 0.58842658996582031 0.065398305654525757
0.19400383532047272 0.59541869163513184 0.053449250757694244
0.29309618473052979 0.60273802280426025 0.045673459768295288
0.39389830827713013 0.60468810796737671 0.050128232687711716
0.48825457692146301 0.60377353429794312 0.051195584237575531
0.57944422960281372 0.59982830286026001 0.043467622250318527
0.66811263561248779 0.59329867362976074 0.035994883626699448
0.75281012058258057 0.58416694402694702 0.037350118160247803
0.82956099510192871 0.57291418313980103 0.037765577435493469
0.89676952362060547 0.56346422433853149 0.042401585727930069
0.95633143186569214 0.5595507025718689 0.048748645931482315
0.011910217814147472 0.64698290824890137 0.05157451331615448
0.044395908713340759 0.6491084098815918 0.057461906224489212
0.10497010499238968 0.65293800830841064 0.063368476927280426
0.19307756423950195 0.66063427925109863 0.056816473603248596
0.29445824027061462 0.66666793823242188 0.053000714629888535
0.39607909321784973 0.66954445838928223 0.054517034441232681
0.4888661801815033 0.67087858915328979 0.052520766854286194
0.57697361707687378 0.6723703145980835 0.047118019312620163
0.66205275058746338 0.67147815227508545 0.047887586057186127
0.74824982881546021 0.66398990154266357 0.052530743181705475
0.82726055383682251 0.65469050407409668 0.052005048841238022
0.89703327417373657 0.64883118867874146 0.04568919911980629
0.95972728729248047 0.64626836776733398 0.040508657693862915
0.014043965376913548 0.7119714617729187 0.052201572805643082
0.047659691423177719 0.71488493680953979 0.056288626044988632
0.10456983000040054 0.71989578008651733 0.061597563326358795
0.19014623761177063 0.72686809301376343 0.057980645447969437
0.29458737373352051 0.73126101493835449 0.056049242615699768
0.39810389280319214 0.73446565866470337 0.057185288518667221
0.49219289422035217 0.73835945129394531 0.056604720652103424
0.58222305774688721 0.7429879903793335 0.055326305329799652
0.66547191143035889 0.74447929859161377 0.056432116776704788
0.74556362628936768 0.73939269781112671 0.060700763016939163
0.8225141167640686 0.73270684480667114 0.060079582035541534
0.89411693811416626 0.72900062799453735 0.052791401743888855
0.96136707067489624 0.72777104377746582 0.039775580167770386
0.01581890694797039 0.77990543842315674 0.051752980798482895
0.051394682377576828 0.78323793411254883 0.053546726703643799
0.10513594746589661 0.78819692134857178 0.055908817797899246
0.18621042370796204 0.79459816217422485 0.055797412991523743
0.29214805364608765 0.79778850078582764 0.056121166795492172
0.39810091257095337 0.80148136615753174 0.057090625166893005
0.49468934535980225 0.80637878179550171 0.057923410087823868
0.5849652886390686 0.81161898374557495 0.057696085423231125
0.66879010200500488 0.8141624927520752 0.058104854077100754
0.74603652954101562 0.81184864044189453 0.060578543692827225
0.82149797677993774 0.80724573135375977 0.059125009924173355
0.89413708448410034 0.80437970161437988 0.05352000892162323
0.95829027891159058 0.80415099859237671 0.048218417912721634
0.017221234738826752 0.84983319044113159 0.049146044999361038
0.05651569738984108 0.85288542509078979 0.049833707511425018
0.10855095088481903 0.85757976770401001 0.049938440322875977
0.18367825448513031 0.86343073844909668 0.051095493137836456
0.28840988874435425 0.86566215753555298 0.05321565642952919
0.39533919095993042 0.86913931369781494 0.053228415548801422
0.49456986784934998 0.87410265207290649 0.054155852645635605
0.58522075414657593 0.87934964895248413 0.054709892719984055
0.67006498575210571 0.88313055038452148 0.053805004805326462
0.74585151672363281 0.88353514671325684 0.053697697818279266
0.81948989629745483 0.88163387775421143 0.051784142851829529
0.8931429386138916 0.88032782077789307 0.051483754068613052
0.95742237567901611 0.88030964136123657 0.050490792840719223
0.018504347652196884 0.91596245765686035 0.045440718531608582
0.063379012048244476 0.91551220417022705 0.047683205455541611
0.11469599604606628 0.92083489894866943 0.045643750578165054
0.18423415720462799 0.92751514911651611 0.04537239670753479
0.28599026799201965 0.9276776909828186 0.048577971756458282
0.39288043975830078 0.93231391906738281 0.045880995690822601
0.49397578835487366 0.93824052810668945 0.043851844966411591
0.58377879858016968 0.94079691171646118 0.046367570757865906
0.66948914527893066 0.94723641872406006 0.044227764010429382
0.74439024925231934 0.95009529590606689 0.042935822159051895
0.81605088710784912 0.95196264982223511 0.040995996445417404
0.8914031982421875 0.95179116725921631 0.044190261512994766
0.96064150333404541 0.95673823356628418 0.043088920414447784
0.01312631368637085 0.069435268640518188 0.12532292306423187
0.079995095729827881 0.0687827467918396 0.12351216375827789
0.18043071031570435 0.062779583036899567 0.11345373094081879
0.28401005268096924 0.057143792510032654 0.098297446966171265
0.38925498723983765 0.048993952572345734 0.078367702662944794
0.48651918768882751 0.04248625785112381 0.057436056435108185
0.58106952905654907 0.033449780195951462 0.040465306490659714
0.66646510362625122 0.028643125668168068 0.039734739810228348
0.74639588594436646 0.024889059364795685 0.039798453450202942
0.81510031223297119 0.017593083903193474 0.033817633986473083
0.87428241968154907 0.01965261809527874 0.04777773842215538
0.92866802215576172 0.021840892732143402 0.05890979990363121
0.9769899845123291 0.019519969820976257 0.058642532676458359
0.017138911411166191 0.14424589276313782 0.12314638495445251
0.064771212637424469 0.14705061912536621 0.11865314841270447
0.16875183582305908 0.14118364453315735 0.11228570342063904
0.27537646889686584 0.13132663071155548 0.095579646527767181
0.38429847359657288 0.11920243501663208 0.073737934231758118
0.48244607448577881 0.10731127858161926 0.053610455244779587
0.583965003490448 0.093005195260047913 0.033985331654548645
0.67568331956863403 0.076641544699668884 0.027406759560108185
0.76436525583267212 0.055069733411073685 0.019226463511586189
0.83511584997177124 0.048817981034517288 0.020235937088727951
0.89926016330718994 0.043202046304941177 0.024397158995270729
0.95590996742248535 0.044891625642776489 0.029012538492679596
0.98575448989868164 0.057185739278793335 0.050312716513872147
0.012102763168513775 0.22333629429340363 0.11789091676473618
0.031858630478382111 0.22941730916500092 0.1062045693397522
0.13540317118167877 0.22587452828884125 0.1128496527671814
0.25368177890777588 0.21950823068618774 0.10552407056093216
0.36308497190475464 0.21249555051326752 0.084505699574947357
0.46250742673873901 0.20258407294750214 0.068300999701023102
0.56790381669998169 0.18743395805358887 0.047281540930271149
0.67139065265655518 0.16816727817058563 0.031462248414754868
0.75480020046234131 0.14421515166759491 0.025961872190237045
0.83417201042175293 0.1259898841381073 0.020154273137450218
0.90505343675613403 0.11131490021944046 0.01672547310590744
0.96597200632095337 0.10276862978935242 0.018040601164102554
0.98783630132675171 0.11893409490585327 0.04950365424156189
0.007648213766515255 0.30152490735054016 0.11400469392538071
0.023697078227996826 0.30634775757789612 0.10268937796354294
0.098958216607570648 0.30444768071174622 0.10793593525886536
0.22347548604011536 0.30033731460571289 0.11194512993097305
0.33578324317932129 0.29899051785469055 0.098265163600444794
0.43952301144599915 0.29496064782142639 0.083282262086868286
0.5419425368309021 0.28531315922737122 0.061905324459075928
0.64386820793151855 0.26545810699462891 0.050439003854990005
0.73252213001251221 0.24439463019371033 0.046023860573768616
0.81638187170028687 0.2245071679353714 0.031398158520460129
0.89416277408599854 0.20915977656841278 0.022213071584701538
0.9624488353729248 0.19571967422962189 0.022008813917636871
0.98237520456314087 0.20196510851383209 0.041941996663808823
0.0081594577059149742 0.38052690029144287 0.10677088052034378
0.02294393815100193 0.38295090198516846 0.10113390535116196
0.091544821858406067 0.38017451763153076 0.1068367138504982
0.20113104581832886 0.37640196084976196 0.11319883912801743
0.31443613767623901 0.37453258037567139 0.10842105746269226
0.41821044683456421 0.3746279776096344 0.099345490336418152
0.51860582828521729 0.36984238028526306 0.082254998385906219
0.62104940414428711 0.35615053772926331 0.066334590315818787
0.71524524688720703 0.33981212973594666 0.057839442044496536
0.79778259992599487 0.32392367720603943 0.044955100864171982
0.87742036581039429 0.30659744143486023 0.034609042108058929
0.94878298044204712 0.29033118486404419 0.031682480126619339
0.97934883832931519 0.29137244820594788 0.046146947890520096
0.011603186838328838 0.45026886463165283 0.10596639662981033
0.022063011303544044 0.45366162061691284 0.10085063427686691
0.084619499742984772 0.45331814885139465 0.10331518203020096
0.1875520795583725 0.45223793387413025 0.10836177319288254
0.29883483052253723 0.45161610841751099 0.1126643642783165
0.40172082185745239 0.4530104398727417 0.1115473136305809
0.50079524517059326 0.45053598284721375 0.10454607009887695
0.60613274574279785 0.43956208229064941 0.083314023911952972
0.70647764205932617 0.42932462692260742 0.063129901885986328
0.78766334056854248 0.41489881277084351 0.056418891996145248
0.86787384748458862 0.39814278483390808 0.047569755464792252
0.9375806450843811 0.38578292727470398 0.043259654194116592
0.97588515281677246 0.3836769163608551 0.055126115679740906
0.01423226110637188 0.51868051290512085 0.10503872483968735
0.019432606175541878 0.52428746223449707 0.0991988405585289
0.073726728558540344 0.52767264842987061 0.10037107020616531
0.17597615718841553 0.52924078702926636 0.10055793076753616
0.2864137589931488 0.52950382232666016 0.1072177067399025
0.39326518774032593 0.52927368879318237 0.11304331570863724
0.49241676926612854 0.52923762798309326 0.11233333498239517
0.5941123366355896 0.52272748947143555 0.099042661488056183
0.69039738178253174 0.51580214500427246 0.08154480904340744
0.77612674236297607 0.51044511795043945 0.069100446999073029
0.8567817211151123 0.49492403864860535 0.060787484049797058
0.92650556564331055 0.47870105504989624 0.062195722013711929
0.97099387645721436 0.47582104802131653 0.072383299469947815
0.01282342616468668 0.58354854583740234 0.099652864038944244
0.02179393358528614 0.58830380439758301 0.097659029066562653
0.074502415955066681 0.59429776668548584 0.10046789050102234
0.17150774598121643 0.60158026218414307 0.098429419100284576
0.27813288569450378 0.6052049994468689 0.10242994874715805
0.38714048266410828 0.6038016676902771 0.11047299206256866
0.48660331964492798 0.60494673252105713 0.11424343287944794
0.58020055294036865 0.60341817140579224 0.11170265078544617
0.67215269804000854 0.59997069835662842 0.10023651272058487
0.76338315010070801 0.59859120845794678 0.085320807993412018
0.84422779083251953 0.58948880434036255 0.079170525074005127
0.91321605443954468 0.57449352741241455 0.083901092410087585
0.96528613567352295 0.56829535961151123 0.091055803000926971
0.013279320672154427 0.64772433042526245 0.098285064101219177
0.030111096799373627 0.6519734263420105 0.098464414477348328
0.082696311175823212 0.66002535820007324 0.10310099273920059
0.17256057262420654 0.66811090707778931 0.1032378226518631
0.27752181887626648 0.6727982759475708 0.10334776341915131
0.38427022099494934 0.67375665903091431 0.10982902348041534
0.48453399538993835 0.67465412616729736 0.11451013386249542
0.5764349102973938 0.67625159025192261 0.11580397933721542
0.66256022453308105 0.67586797475814819 0.11580358445644379
0.75223374366760254 0.67203670740127563 0.1080888956785202
0.8331490159034729 0.66462457180023193 0.10121512413024902
0.90616106986999512 0.65679085254669189 0.096017904579639435
0.9625014066696167 0.65270888805389404 0.096653223037719727
0.014140035957098007 0.71377110481262207 0.098135821521282196
0.039685163646936417 0.71974647045135498 0.098584316670894623
0.091286599636077881 0.72813999652862549 0.10218650847673416
0.17216399312019348 0.73573493957519531 0.10348667949438095
0.27890929579734802 0.73801606893539429 0.10513857752084732
0.38771882653236389 0.73913246393203735 0.11113844066858292
0.48831087350845337 0.74157536029815674 0.11636529117822647
0.57985180616378784 0.74547344446182251 0.11764699965715408
0.6629517674446106 0.74756425619125366 0.11939318478107452
0.7448735237121582 0.74447226524353027 0.11990375816822052
0.82374745607376099 0.7396242618560791 0.11439717561006546
0.89618337154388428 0.73475325107574463 0.10820376873016357
0.96095526218414307 0.73187851905822754 0.10214478522539139
0.01581307128071785 0.78227406740188599 0.097660854458808899
0.047865338623523712 0.7885327935218811 0.097807697951793671
0.099047295749187469 0.79691362380981445 0.099866278469562531
0.17473690211772919 0.80376589298248291 0.10282815992832184
0.28119036555290222 0.80402415990829468 0.1060488373041153
0.39112040400505066 0.80409407615661621 0.11043675988912582
0.49126839637756348 0.80736786127090454 0.11499131470918655
0.58106452226638794 0.81226444244384766 0.1163041815161705
0.66341859102249146 0.81634914875030518 0.11763573437929153
0.74076545238494873 0.81582498550415039 0.11877000331878662
0.81728243827819824 0.8131401538848877 0.11522604525089264
0.89219337701797485 0.8104625940322876 0.11051253974437714
0.96145749092102051 0.80866944789886475 0.10614160448312759
0.017085101455450058 0.85224270820617676 0.097634829580783844
0.055908996611833572 0.85709470510482788 0.099926985800266266
0.10862944275140762 0.86409169435501099 0.10116630792617798
0.18099111318588257 0.87000554800033569 0.10441601276397705
0.28359892964363098 0.86955124139785767 0.10580809414386749
0.39127400517463684 0.86911123991012573 0.10745363682508469
0.49145716428756714 0.87247729301452637 0.1104472428560257
0.58056426048278809 0.87773609161376953 0.11152798682451248
0.66423153877258301 0.88301181793212891 0.1121714860200882
0.73954576253890991 0.88572347164154053 0.11091455072164536
0.81507128477096558 0.88544750213623047 0.10984999686479568
0.88997048139572144 0.88503974676132202 0.10949376225471497
0.95888513326644897 0.88465261459350586 0.10896780341863632
0.019803829491138458 0.91568976640701294 0.10004080832004547
0.064664043486118317 0.91691678762435913 0.10090719163417816
0.11951339989900589 0.92097526788711548 0.10400091111660004
0.19103254377841949 0.92458075284957886 0.10835526138544083
0.28890159726142883 0.9258769154548645 0.10708281397819519
0.39192673563957214 0.92948991060256958 0.10373168438673019
0.49131757020950317 0.93422073125839233 0.10304852575063705
0.58108413219451904 0.93630564212799072 0.10523047298192978
0.66695952415466309 0.94033688306808472 0.10785550624132156
0.74069380760192871 0.94433146715164185 0.10725073516368866
0.81468671560287476 0.94751119613647461 0.1069745197892189
0.88905918598175049 0.95186388492584229 0.10854664444923401
0.96057671308517456 0.95768648386001587 0.11020009964704514
0.016044542193412781 0.072785094380378723 0.19813784956932068
0.079617835581302643 0.073801912367343903 0.1970936506986618
0.16222289204597473 0.073060251772403717 0.19565244019031525
0.2593320906162262 0.067358680069446564 0.18775004148483276
0.36372891068458557 0.061336681246757507 0.1749933660030365
0.46546846628189087 0.05519905686378479 0.15617944300174713
0.56725490093231201 0.046620670706033707 0.13820411264896393
0.65816473960876465 0.037306122481822968 0.12853839993476868
0.73989772796630859 0.026192490011453629 0.12103156000375748
0.81428533792495728 0.017852095887064934 0.11179096251726151
0.87786257266998291 0.013625649735331535 0.11093006283044815
0.93267184495925903 0.014280281960964203 0.11398818343877792
0.98019194602966309 0.01450169924646616 0.11741606891155243
0.021920746192336082 0.1440712958574295 0.19623620808124542
0.078178733587265015 0.14798299968242645 0.19644217193126678
0.15714284777641296 0.1485932469367981 0.19318188726902008
0.25492072105407715 0.14063635468482971 0.18449582159519196
0.3617195188999176 0.13003329932689667 0.16795800626277924
0.46281397342681885 0.11933019012212753 0.14708991348743439
0.56660616397857666 0.10483475029468536 0.12517137825489044
0.66600871086120605 0.084675565361976624 0.10942252725362778
0.75988167524337769 0.061470493674278259 0.094888962805271149
0.8423888087272644 0.040922321379184723 0.080713130533695221
0.91506069898605347 0.027328699827194214 0.072423957288265228
0.96809983253479004 0.031831301748752594 0.07939273864030838
0.98998391628265381 0.054117269814014435 0.10997042059898376
0.018371477723121643 0.21804390847682953 0.19389177858829498
0.059129826724529266 0.22584009170532227 0.18773254752159119
0.1283380538225174 0.23051519691944122 0.18739676475524902
0.24397556483745575 0.22402496635913849 0.18389217555522919
0.35324367880821228 0.21390879154205322 0.16514849662780762
0.45279198884963989 0.20298309624195099 0.14736874401569366
0.55631858110427856 0.18761599063873291 0.12673865258693695
0.66361469030380249 0.16528558731079102 0.10754554718732834
0.76065528392791748 0.13775351643562317 0.088584661483764648
0.8492121696472168 0.11327725648880005 0.069994784891605377
0.9263191819190979 0.091215319931507111 0.058602262288331985
0.98290181159973145 0.087852194905281067 0.064151838421821594
0.99246305227279663 0.12239101529121399 0.10854869335889816
0.013021565973758698 0.29684549570083618 0.18921099603176117
0.032833442091941833 0.30486130714416504 0.17760168015956879
0.07237117737531662 0.31155362725257874 0.16983653604984283
0.21148593723773956 0.3071189820766449 0.18401366472244263
0.33104518055915833 0.3011021614074707 0.17434339225292206
0.43369394540786743 0.29520663619041443 0.15910643339157104
0.53618484735488892 0.28273692727088928 0.1391635537147522
0.64630907773971558 0.25894135236740112 0.11691503971815109
0.74684822559356689 0.23335199058055878 0.099683083593845367
0.83097213506698608 0.21057231724262238 0.084989659488201141
0.91093742847442627 0.19285082817077637 0.071616724133491516
0.97601187229156494 0.18569424748420715 0.070362702012062073
0.98766040802001953 0.20347887277603149 0.10728653520345688
0.012604492716491222 0.37612447142601013 0.18364851176738739
0.035901822149753571 0.37978515028953552 0.1773548424243927
