assets/lut/pixlsus fadedlook.cube
# Created by: G'MIC (https://gmic.eu)
TITLE "fadedlook"
# LUT size
LUT_3D_SIZE 13
# Data domain
DOMAIN_MIN 0.0 0.0 0.0
DOMAIN_MAX 1.0 1.0 1.0
# LUT data points
0.035687822848558426 0.034873362630605698 0.037100862711668015
0.087967470288276672 0.043448444455862045 0.044510066509246826
0.15434154868125916 0.056532375514507294 0.051942653954029083
0.22113430500030518 0.07648283988237381 0.066052258014678955
0.28254210948944092 0.10521043092012405 0.088676169514656067
0.33569520711898804 0.14355090260505676 0.11728536337614059
0.39269125461578369 0.17901912331581116 0.14068566262722015
0.45757851004600525 0.20790025591850281 0.15833538770675659
0.52611744403839111 0.23498454689979553 0.17597314715385437
0.59538954496383667 0.26334205269813538 0.19676013290882111
0.66370934247970581 0.29357549548149109 0.22121694684028625
0.73049288988113403 0.32426244020462036 0.2481602281332016
0.79493927955627441 0.35429686307907104 0.27510511875152588
0.066428989171981812 0.10233670473098755 0.064094334840774536
0.10911362618207932 0.10790040343999863 0.065101996064186096
0.16671231389045715 0.11831483989953995 0.071493960916996002
0.2334938645362854 0.13068951666355133 0.083572536706924438
0.29851314425468445 0.14862407743930817 0.10218224674463272
0.35125482082366943 0.18030604720115662 0.12949766218662262
0.40593662858009338 0.2112647145986557 0.15208236873149872
0.46833503246307373 0.23681981861591339 0.16839824616909027
0.53535163402557373 0.26097032427787781 0.18479400873184204
0.60350883007049561 0.28680139780044556 0.20417723059654236
0.67124789953231812 0.31446480751037598 0.2270769327878952
0.73748236894607544 0.34179311990737915 0.25215917825698853
0.80133706331253052 0.36769002676010132 0.27668577432632446
0.10624755918979645 0.17738835513591766 0.09828021377325058
0.13803274929523468 0.17996090650558472 0.094135180115699768
0.18726123869419098 0.18731962144374847 0.096503302454948425
0.24842804670333862 0.19611170887947083 0.10498648136854172
0.30933231115341187 0.20767159759998322 0.12266797572374344
0.36459320783615112 0.22831830382347107 0.1453297883272171
0.42029294371604919 0.25091978907585144 0.16530174016952515
0.4811646044254303 0.27117812633514404 0.18058007955551147
0.54561322927474976 0.29199033975601196 0.19512841105461121
0.61203432083129883 0.31574654579162598 0.21347428858280182
0.67840838432312012 0.34076386690139771 0.23477576673030853
0.74362313747406006 0.36530977487564087 0.25764423608779907
0.80684906244277954 0.38935133814811707 0.28022557497024536
0.15503878891468048 0.2511783242225647 0.13326112926006317
0.17806878685951233 0.25376114249229431 0.12624777853488922
0.21858960390090942 0.25964313745498657 0.12709249556064606
0.27141168713569641 0.26558926701545715 0.13561101257801056
0.32651194930076599 0.27324151992797852 0.15082971751689911
0.38119199872016907 0.28557887673377991 0.16890917718410492
0.43730422854423523 0.30035534501075745 0.18522761762142181
0.49682515859603882 0.31641042232513428 0.19809477031230927
0.55863547325134277 0.33354377746582031 0.21057142317295074
0.62258464097976685 0.35386312007904053 0.22665420174598694
0.68704724311828613 0.3760780394077301 0.24597060680389404
0.75078803300857544 0.39851319789886475 0.26666638255119324
0.81295120716094971 0.42121317982673645 0.28690990805625916
0.21148227155208588 0.32456573843955994 0.17191952466964722
0.22772005200386047 0.32704252004623413 0.16489431262016296
0.25942906737327576 0.33113589882850647 0.16740167140960693
0.30314257740974426 0.33530843257904053 0.17146113514900208
0.35263508558273315 0.34066835045814514 0.18273350596427917
0.40549343824386597 0.34846168756484985 0.19822283089160919
0.45996078848838806 0.35855400562286377 0.21136537194252014
0.51689869165420532 0.37097778916358948 0.22116473317146301
0.57537007331848145 0.38489705324172974 0.23155508935451508
0.63646554946899414 0.40192496776580811 0.24499662220478058
0.69814091920852661 0.42060330510139465 0.26147934794425964
0.75987130403518677 0.44025078415870667 0.27956295013427734
0.82065647840499878 0.46073442697525024 0.29730838537216187
0.26922470331192017 0.3977293074131012 0.20845729112625122
0.28464972972869873 0.39886990189552307 0.20298691093921661
0.30770644545555115 0.40162652730941772 0.19911114871501923
0.34349018335342407 0.40522029995918274 0.20143738389015198
0.38800767064094543 0.40908747911453247 0.21344736218452454
0.43694770336151123 0.41456454992294312 0.22834120690822601
0.48781964182853699 0.42202877998352051 0.23929987847805023
0.54068350791931152 0.43137040734291077 0.24722272157669067
0.59580379724502563 0.44316986203193665 0.25590699911117554
0.6526714563369751 0.45717319846153259 0.26743486523628235
0.71235126256942749 0.47299942374229431 0.28131917119026184
0.77176833152770996 0.48961228132247925 0.29659149050712585
0.83086502552032471 0.506847083568573 0.31147685647010803
0.33159556984901428 0.47074264287948608 0.2430974543094635
0.3491705060005188 0.4699128270149231 0.24034836888313293
0.36953231692314148 0.47135612368583679 0.23698273301124573
0.39702510833740234 0.47389006614685059 0.23730646073818207
0.43301692605018616 0.47718939185142517 0.24560590088367462
0.47472274303436279 0.48158115148544312 0.2568114697933197
0.52033549547195435 0.48782068490982056 0.26643222570419312
0.5689050555229187 0.49571976065635681 0.27440190315246582
0.62055873870849609 0.50587993860244751 0.28310072422027588
0.6745685338973999 0.51752704381942749 0.29332366585731506
0.72973763942718506 0.53049314022064209 0.30543449521064758
0.7872319221496582 0.54414790868759155 0.3175346851348877
0.8436846137046814 0.55814027786254883 0.32880482077598572
0.39951884746551514 0.54127168655395508 0.27756175398826599
0.41754910349845886 0.53957438468933105 0.27746719121932983
0.43564233183860779 0.53952717781066895 0.27552857995033264
0.45707249641418457 0.54117918014526367 0.27491995692253113
0.48470848798751831 0.5442960262298584 0.27863568067550659
0.51823645830154419 0.5488249659538269 0.28544503450393677
0.55671769380569458 0.55463427305221558 0.29336214065551758
0.60083001852035522 0.5622859001159668 0.30238372087478638
0.64837801456451416 0.57087856531143188 0.31200769543647766
0.69924122095108032 0.58096802234649658 0.32237318158149719
0.75141221284866333 0.59182476997375488 0.33305573463439941
0.80516690015792847 0.60246562957763672 0.34164506196975708
0.85977554321289062 0.613148033618927 0.34867158532142639
0.47242316603660583 0.60689538717269897 0.31222972273826599
0.49067798256874084 0.60420048236846924 0.31343209743499756
0.50516897439956665 0.60467082262039185 0.31265959143638611
0.52071279287338257 0.60657310485839844 0.3109738826751709
0.54020720720291138 0.61004525423049927 0.31071770191192627
0.5647437572479248 0.6153566837310791 0.31360137462615967
0.59598404169082642 0.62186777591705322 0.32061174511909485
0.63517063856124878 0.62939071655273438 0.33087825775146484
0.67967396974563599 0.63774126768112183 0.34258595108985901
0.72716951370239258 0.64670205116271973 0.35340762138366699
0.77603495121002197 0.65551650524139404 0.36204269528388977
0.82633161544799805 0.66358047723770142 0.36751565337181091
0.87821537256240845 0.67017138004302979 0.36978158354759216
0.55297279357910156 0.66646754741668701 0.34595450758934021
0.56758999824523926 0.66553002595901489 0.34894648194313049
0.5767027735710144 0.66713511943817139 0.34803524613380432
0.58655685186386108 0.66984301805496216 0.34477820992469788
0.59729844331741333 0.67446917295455933 0.34087926149368286
0.61210983991622925 0.68138480186462402 0.3401128351688385
0.63662087917327881 0.68926465511322021 0.34616276621818542
0.67198365926742554 0.69700795412063599 0.3586476743221283
0.7134552001953125 0.70506149530410767 0.37326815724372864
0.75767529010772705 0.71289408206939697 0.38517406582832336
0.80316853523254395 0.72036153078079224 0.39230614900588989
0.85023015737533569 0.72567421197891235 0.39382097125053406
0.89945656061172485 0.72849148511886597 0.39034327864646912
0.62915557622909546 0.72458785772323608 0.37656417489051819
0.64086180925369263 0.72455352544784546 0.38303163647651672
0.64817535877227783 0.7277909517288208 0.38141724467277527
0.65500682592391968 0.73057806491851807 0.37846216559410095
0.65589076280593872 0.73716354370117188 0.37117868661880493
0.65863919258117676 0.74722981452941895 0.36456161737442017
0.67653828859329224 0.75672918558120728 0.36919891834259033
0.70923507213592529 0.76483333110809326 0.38487178087234497
0.74924862384796143 0.77231782674789429 0.40341636538505554
0.790699303150177 0.77978438138961792 0.41683045029640198
0.83240765333175659 0.78571164608001709 0.42195957899093628
0.87583351135253906 0.78784114122390747 0.41906201839447021
0.92265719175338745 0.78539615869522095 0.40897396206855774
0.70645320415496826 0.78013497591018677 0.39852151274681091
0.71567505598068237 0.78035956621170044 0.41028550267219543
0.72433286905288696 0.7830817699432373 0.41179898381233215
0.73152351379394531 0.78472423553466797 0.41529133915901184
0.71997088193893433 0.79578405618667603 0.40380337834358215
0.70636063814163208 0.81184953451156616 0.38846489787101746
0.7169191837310791 0.82395035028457642 0.39026123285293579
0.74714821577072144 0.83251464366912842 0.40855136513710022
0.78558743000030518 0.83973658084869385 0.43139708042144775
0.82427686452865601 0.84648889303207397 0.44631138443946838
0.86272776126861572 0.85065305233001709 0.45026132464408875
0.90329581499099731 0.84953874349594116 0.44332852959632874
0.94803518056869507 0.84057903289794922 0.4258466362953186
0.78433150053024292 0.8340153694152832 0.41921776533126831
0.79570144414901733 0.83127713203430176 0.4397837221622467
0.80426037311553955 0.83266937732696533 0.45240241289138794
0.80873411893844604 0.83579397201538086 0.45801019668579102
0.78567516803741455 0.85292667150497437 0.44141536951065063
0.75952774286270142 0.87544316053390503 0.41863864660263062
0.76107960939407349 0.89046269655227661 0.41434812545776367
0.78570586442947388 0.90013629198074341 0.43239611387252808
0.82062321901321411 0.90749603509902954 0.45637321472167969
0.85702002048492432 0.91296660900115967 0.47286030650138855
0.89364355802536011 0.91545093059539795 0.47766903042793274
0.9323502779006958 0.91096210479736328 0.46961620450019836
0.97490835189819336 0.89829427003860474 0.44977930188179016
0.035462398082017899 0.037251371890306473 0.084631331264972687
0.085802994668483734 0.046649664640426636 0.089426271617412567
0.14492739737033844 0.063541412353515625 0.10086736083030701
0.2110755443572998 0.084965169429779053 0.11414434760808945
0.27574488520622253 0.11385998874902725 0.1300356388092041
0.33293917775154114 0.1522185355424881 0.15046983957290649
0.39280778169631958 0.18668739497661591 0.1689305454492569
0.45983454585075378 0.21351608633995056 0.18371029198169708
0.53008580207824707 0.2388136088848114 0.19869093596935272
0.59975707530975342 0.26611506938934326 0.21718224883079529
0.66749244928359985 0.29571321606636047 0.23950746655464172
0.73315775394439697 0.32596015930175781 0.26461207866668701
0.79646956920623779 0.35444721579551697 0.28993195295333862
0.065933048725128174 0.10330010205507278 0.10503411293029785
0.10917557030916214 0.11015219241380692 0.10619756579399109
0.162199467420578 0.12216152250766754 0.11829531937837601
0.22609603404998779 0.13553249835968018 0.13054721057415009
0.29195496439933777 0.15426459908485413 0.14315894246101379
0.34800368547439575 0.18498389422893524 0.16187463700771332
0.40543720126152039 0.2159750908613205 0.17939867079257965
0.47008630633354187 0.24108771979808807 0.19315540790557861
0.53821355104446411 0.26446878910064697 0.20698736608028412
0.60691672563552856 0.28952258825302124 0.22421525418758392
0.67427057027816772 0.31625235080718994 0.24540531635284424
0.73965370655059814 0.34325161576271057 0.26886224746704102
0.80293327569961548 0.36915084719657898 0.29274550080299377
0.10500580817461014 0.17706072330474854 0.1316588819026947
0.13939988613128662 0.18059864640235901 0.1322566419839859
0.18665356934070587 0.18816466629505157 0.14231595396995544
0.24446126818656921 0.19669736921787262 0.15180635452270508
0.30413979291915894 0.20970430970191956 0.16230039298534393
0.36023274064064026 0.23035995662212372 0.17707008123397827
0.41863450407981873 0.25367000699043274 0.19217583537101746
0.48151138424873352 0.27500030398368835 0.20446515083312988
0.54742085933685303 0.29569175839424133 0.21724750101566315
0.61432391405105591 0.31822589039802551 0.23323409259319305
0.6806565523147583 0.34233534336090088 0.25293639302253723
0.7455146312713623 0.36647248268127441 0.27480199933052063
0.80832254886627197 0.39037710428237915 0.29661673307418823
0.15377907454967499 0.25128784775733948 0.16034683585166931
0.18014328181743622 0.25425803661346436 0.16430442035198212
0.22073280811309814 0.25840082764625549 0.17446835339069366
0.27004608511924744 0.26477667689323425 0.17906537652015686
0.32278722524642944 0.27355381846427917 0.18654224276542664
0.37741446495056152 0.28658244013786316 0.19828300178050995
0.43584331870079041 0.30254051089286804 0.21013735234737396
0.49615186452865601 0.31888973712921143 0.22020773589611053
0.55946707725524902 0.33638796210289001 0.2311067134141922
0.62394922971725464 0.35602334141731262 0.24525468051433563
0.68847686052322388 0.37729087471961975 0.26339307427406311
0.75200462341308594 0.39872467517852783 0.28307810425758362
0.81406509876251221 0.4211973249912262 0.30341494083404541
0.21044221520423889 0.3263871967792511 0.19458954036235809
0.23114848136901855 0.32754397392272949 0.19891877472400665
0.2622314989566803 0.33078417181968689 0.20463795959949493
0.30326575040817261 0.33520394563674927 0.20622265338897705
0.3512113094329834 0.34113112092018127 0.21286402642726898
0.40326303243637085 0.3492981493473053 0.22317850589752197
0.45808956027030945 0.35992953181266785 0.23251892626285553
0.51611900329589844 0.37230369448661804 0.24029187858104706
0.57554739713668823 0.38669863343238831 0.24903063476085663
0.63702589273452759 0.40322402119636536 0.26086348295211792
0.69892793893814087 0.42134243249893188 0.27715185284614563
0.76078498363494873 0.44029733538627625 0.29506745934486389
0.82147884368896484 0.46049925684928894 0.31312081217765808
0.26983398199081421 0.39936327934265137 0.23243795335292816
0.28965574502944946 0.39958995580673218 0.23517218232154846
0.31385993957519531 0.40191608667373657 0.23505178093910217
0.34619888663291931 0.40565648674964905 0.23324178159236908
0.38823151588439941 0.40983834862709045 0.23930065333843231
0.43580776453018188 0.41540825366973877 0.24895548820495605
0.48659548163414001 0.42289644479751587 0.25697863101959229
0.54006552696228027 0.4324830174446106 0.2632007896900177
0.59567439556121826 0.44432038068771362 0.2703501284122467
0.65294909477233887 0.45793762803077698 0.28090071678161621
0.71287375688552856 0.4733893871307373 0.2951664924621582
0.77245807647705078 0.48962804675102234 0.31117314100265503
0.83146321773529053 0.50648552179336548 0.32624977827072144
0.33344519138336182 0.47188904881477356 0.26586967706680298
0.35240641236305237 0.47121641039848328 0.26741296052932739
0.37307733297348022 0.47230762243270874 0.2659660279750824
0.39900895953178406 0.47497332096099854 0.26383382081985474
0.43341955542564392 0.47825586795806885 0.26741471886634827
0.47443363070487976 0.48263087868690491 0.27454504370689392
0.51999223232269287 0.4885556697845459 0.28158408403396606
0.56866854429244995 0.49646797776222229 0.28805190324783325
0.62060624361038208 0.5063166618347168 0.29550912976264954
0.67496734857559204 0.51818001270294189 0.30561277270317078
0.72997438907623291 0.53093224763870239 0.31820240616798401
0.78749990463256836 0.54469901323318481 0.33107608556747437
0.84408950805664062 0.55817627906799316 0.34270414710044861
0.40111681818962097 0.54171955585479736 0.29617112874984741
0.41891893744468689 0.54024869203567505 0.29685959219932556
0.43642258644104004 0.5408637523651123 0.29582986235618591
0.45730531215667725 0.54270833730697632 0.29418864846229553
0.48474380373954773 0.54547524452209473 0.29519659280776978
0.51827991008758545 0.54950594902038574 0.29955923557281494
0.5568203330039978 0.55520534515380859 0.30616053938865662
0.60119712352752686 0.56243503093719482 0.3140903115272522
0.64913058280944824 0.57121163606643677 0.32332676649093628
0.69973677396774292 0.58142673969268799 0.3337339460849762
0.75226032733917236 0.59245795011520386 0.34451210498809814
0.80604761838912964 0.60346430540084839 0.354442298412323
0.86045366525650024 0.61374235153198242 0.36178958415985107
0.47395876049995422 0.60692858695983887 0.32439270615577698
0.49017560482025146 0.60570073127746582 0.32528641819953918
0.50404983758926392 0.60625863075256348 0.32460615038871765
0.5198976993560791 0.60804164409637451 0.32244488596916199
0.54025000333786011 0.61087602376937866 0.32088345289230347
0.56529843807220459 0.61551469564437866 0.32305249571800232
0.59738749265670776 0.6216849684715271 0.32979559898376465
0.63691049814224243 0.62914448976516724 0.34030786156654358
0.68114745616912842 0.63769382238388062 0.35239478945732117
0.72845685482025146 0.64687377214431763 0.36390039324760437
0.77741265296936035 0.65626788139343262 0.37339669466018677
0.82785713672637939 0.66482609510421753 0.37979957461357117
0.87947386503219604 0.67160201072692871 0.38216850161552429
0.55046415328979492 0.66666668653488159 0.35058695077896118
0.5651739239692688 0.66600871086120605 0.35218614339828491
0.57501381635665894 0.66860741376876831 0.35198840498924255
0.58628147840499878 0.67057538032531738 0.34883531928062439
0.59885400533676147 0.67399829626083374 0.34419110417366028
0.61470508575439453 0.68017542362213135 0.34355723857879639
0.63934952020645142 0.68817400932312012 0.35088855028152466
0.67478698492050171 0.69595664739608765 0.36563318967819214
0.71632152795791626 0.70422995090484619 0.3819173276424408
0.76046854257583618 0.71299022436141968 0.39499649405479431
0.80564099550247192 0.72144573926925659 0.40284895896911621
0.85236579179763794 0.72757935523986816 0.40500038862228394
0.90155196189880371 0.72978019714355469 0.40139451622962952
0.62642490863800049 0.72475540637969971 0.37411761283874512
0.64027589559555054 0.72448444366455078 0.37720653414726257
0.64744585752487183 0.72825771570205688 0.37743321061134338
0.65509378910064697 0.73128432035446167 0.37472647428512573
0.65848416090011597 0.73592495918273926 0.36609044671058655
0.66288799047470093 0.74476486444473267 0.35997489094734192
0.68069624900817871 0.75443023443222046 0.36834713816642761
0.71345770359039307 0.76310187578201294 0.38925039768218994
0.75399243831634521 0.77117329835891724 0.41141688823699951
0.79504477977752686 0.77974313497543335 0.42605206370353699
0.83593899011611938 0.7870299220085144 0.43158581852912903
0.87905198335647583 0.79047346115112305 0.42850103974342346
0.92571735382080078 0.78732758760452271 0.4168345034122467
0.70313763618469238 0.78103810548782349 0.39632183313369751
0.71927464008331299 0.77779686450958252 0.39935517311096191
0.72490173578262329 0.78293317556381226 0.40262138843536377
0.73143815994262695 0.78468579053878784 0.40096816420555115
0.72057902812957764 0.79516327381134033 0.38635212182998657
0.71114146709442139 0.80808645486831665 0.37129479646682739
0.72082728147506714 0.8210219144821167 0.38191613554954529
0.75169676542282104 0.83055227994918823 0.41023698449134827
0.79168111085891724 0.83854025602340698 0.43937832117080688
0.82966971397399902 0.84638911485671997 0.45488780736923218
0.86719757318496704 0.85255634784698486 0.45802450180053711
0.90724271535873413 0.8525545597076416 0.44935506582260132
0.95190513134002686 0.84208095073699951 0.42763552069664001
0.78706032037734985 0.8304983377456665 0.41720438003540039
0.80121535062789917 0.82712626457214355 0.42866101861000061
0.80603843927383423 0.83108431100845337 0.43577778339385986
0.80812269449234009 0.83446931838989258 0.4297788143157959
0.78513592481613159 0.85067653656005859 0.40786030888557434
0.75909078121185303 0.87259411811828613 0.39038661122322083
0.76058274507522583 0.88879877328872681 0.40072545409202576
0.78765273094177246 0.89899963140487671 0.43058699369430542
0.82468807697296143 0.90675342082977295 0.46133729815483093
0.86128467321395874 0.91348725557327271 0.47937995195388794
0.89771503210067749 0.91737008094787598 0.48293820023536682
0.93662726879119873 0.91320496797561646 0.47115465998649597
0.97938179969787598 0.89715379476547241 0.44346296787261963
0.037582188844680786 0.042652685195207596 0.13764095306396484
0.087616175413131714 0.051822077482938766 0.13987354934215546
0.14371310174465179 0.068910308182239532 0.14965012669563293
0.20638301968574524 0.093000911176204681 0.16206057369709015
0.26923581957817078 0.12433882802724838 0.17455236613750458
0.32981285452842712 0.16115452349185944 0.18818812072277069
0.39399343729019165 0.19273251295089722 0.20114850997924805
0.46328985691070557 0.21784728765487671 0.21260955929756165
0.53469949960708618 0.24196821451187134 0.22491773962974548
0.60415792465209961 0.26863971352577209 0.24099375307559967
0.67027419805526733 0.29832258820533752 0.26140910387039185
0.73452699184417725 0.32827398180961609 0.28401657938957214
0.79682320356369019 0.35619840025901794 0.30744728446006775
0.067724369466304779 0.10597535967826843 0.15360304713249207
0.11171634495258331 0.1126285046339035 0.15490826964378357
0.16320435702800751 0.12459789961576462 0.16504682600498199
0.22348226606845856 0.14076186716556549 0.17711025476455688
0.28475305438041687 0.16355991363525391 0.18759141862392426
0.34431663155555725 0.19302575290203094 0.19939035177230835
0.40607526898384094 0.22132822871208191 0.21119578182697296
0.4728253185749054 0.24534158408641815 0.22201403975486755
0.54189831018447876 0.26793912053108215 0.23363302648067474
0.61033028364181519 0.29235893487930298 0.24880620837211609
0.67666637897491455 0.3189944326877594 0.26783451437950134
0.74111676216125488 0.34608539938926697 0.28926277160644531
0.80333679914474487 0.37208569049835205 0.31170496344566345
0.1056223139166832 0.17755952477455139 0.17372006177902222
0.14224283397197723 0.18154434859752655 0.17620377242565155
0.18850997090339661 0.18869554996490479 0.18627685308456421
0.24346429109573364 0.19926683604717255 0.19628395140171051
0.30073738098144531 0.214696004986763 0.20447720587253571
0.35751962661743164 0.23587675392627716 0.21373993158340454
0.41879045963287354 0.25820302963256836 0.22363473474979401
0.48360463976860046 0.27916139364242554 0.2332245260477066
0.55021053552627563 0.29971441626548767 0.24411608278751373
0.61694687604904175 0.32164108753204346 0.25822186470031738
0.68268322944641113 0.34507676959037781 0.27578249573707581
0.74668002128601074 0.36916652321815491 0.29611474275588989
0.80903828144073486 0.39307436347007751 0.31714090704917908
0.15227398276329041 0.25189054012298584 0.19763810932636261
0.18168699741363525 0.25507363677024841 0.20203962922096252
0.22164982557296753 0.25921511650085449 0.21173091232776642
0.26997888088226318 0.26570817828178406 0.2191789448261261
0.3220331072807312 0.27581122517585754 0.22495967149734497
0.37677362561225891 0.28990614414215088 0.23187145590782166
0.43601515889167786 0.30584242939949036 0.23967422544956207
0.49787157773971558 0.32254835963249207 0.24724774062633514
0.56154716014862061 0.34004756808280945 0.25654667615890503
0.62597721815109253 0.35921600461006165 0.26917734742164612
0.69004946947097778 0.379506915807724 0.2857072651386261
0.75321394205093384 0.40108802914619446 0.30487322807312012
0.81470972299575806 0.42277020215988159 0.3241865336894989
0.20753292739391327 0.32756724953651428 0.22661277651786804
0.23117467761039734 0.3290942907333374 0.2311355322599411
0.26378113031387329 0.33172157406806946 0.23850449919700623
0.30545705556869507 0.33595767617225647 0.24315862357616425
0.35288950800895691 0.3425121009349823 0.24741756916046143
0.40441697835922241 0.35152345895767212 0.25296086072921753
0.45946455001831055 0.36247080564498901 0.25869247317314148
0.51720649003982544 0.37525656819343567 0.26426523923873901
