assets/lut/pixlsus amstragram.cube
# Created by: G'MIC (https://gmic.eu)
TITLE "amstragram"
# LUT size
LUT_3D_SIZE 13
# Data domain
DOMAIN_MIN 0.0 0.0 0.0
DOMAIN_MAX 1.0 1.0 1.0
# LUT data points
0.09331386536359787 0.13070030510425568 0.13350208103656769
0.12813712656497955 0.13043734431266785 0.12733340263366699
0.17708569765090942 0.12183248251676559 0.10522647947072983
0.25635328888893127 0.13128355145454407 0.099028855562210083
0.34286338090896606 0.15155878663063049 0.097373664379119873
0.43000325560569763 0.17281411588191986 0.10358762741088867
0.51327013969421387 0.1913103461265564 0.11666751652956009
0.59059172868728638 0.20604948699474335 0.13828878104686737
0.6594967246055603 0.21289244294166565 0.15805171430110931
0.7123711109161377 0.21600577235221863 0.16977490484714508
0.76067113876342773 0.21513484418392181 0.17718376219272614
0.79972678422927856 0.21454848349094391 0.17881004512310028
0.83355885744094849 0.20864175260066986 0.17669710516929626
0.077732667326927185 0.15363956987857819 0.14353147149085999
0.11860954761505127 0.16051240265369415 0.13926857709884644
0.17136768996715546 0.1582883894443512 0.12164250016212463
0.24639208614826202 0.1629626452922821 0.10683774948120117
0.34674957394599915 0.18322990834712982 0.099235281348228455
0.43968388438224792 0.20878081023693085 0.10867539793252945
0.51166307926177979 0.22859707474708557 0.13320130109786987
0.58788728713989258 0.24400152266025543 0.14996908605098724
0.65995180606842041 0.25420960783958435 0.16196651756763458
0.71046245098114014 0.25884047150611877 0.17274975776672363
0.75685352087020874 0.26093703508377075 0.18077036738395691
0.79951947927474976 0.2576330304145813 0.18349656462669373
0.83499383926391602 0.25193774700164795 0.18279382586479187
0.062556624412536621 0.18503785133361816 0.15416224300861359
0.10463738441467285 0.19258253276348114 0.15325874090194702
0.15671984851360321 0.19552455842494965 0.14175312221050262
0.23837244510650635 0.20365419983863831 0.13050535321235657
0.34183612465858459 0.22441516816616058 0.12749002873897552
0.44731590151786804 0.25222653150558472 0.12510451674461365
0.53022873401641846 0.27494692802429199 0.14752466976642609
0.60441690683364868 0.29239925742149353 0.15630032122135162
0.66639918088912964 0.30387791991233826 0.16491110622882843
0.71261829137802124 0.30855065584182739 0.17656838893890381
0.7566673755645752 0.30919519066810608 0.18346768617630005
0.80005073547363281 0.30492714047431946 0.1864134669303894
0.84127169847488403 0.29770287871360779 0.18561822175979614
0.062383987009525299 0.22436457872390747 0.16368104517459869
0.10329093039035797 0.23551982641220093 0.17359749972820282
0.15234071016311646 0.24414695799350739 0.1692194938659668
0.23118604719638824 0.25516641139984131 0.16232208907604218
0.34389689564704895 0.27591019868850708 0.16188779473304749
0.45240315794944763 0.30377113819122314 0.1551973819732666
0.5426526665687561 0.32835838198661804 0.15300486981868744
0.62075728178024292 0.35002273321151733 0.15102519094944
0.67933100461959839 0.36258503794670105 0.1668827086687088
0.72785651683807373 0.36990612745285034 0.18596477806568146
0.77082997560501099 0.36967498064041138 0.19325767457485199
0.81132078170776367 0.36174193024635315 0.19528765976428986
0.84815460443496704 0.35299152135848999 0.19435709714889526
0.091367237269878387 0.27453413605690002 0.18787102401256561
0.12327007204294205 0.28688135743141174 0.19835945963859558
0.16004166007041931 0.30520588159561157 0.20862245559692383
0.22992654144763947 0.32296919822692871 0.21357470750808716
0.34474301338195801 0.34566909074783325 0.21232466399669647
0.45810925960540771 0.36761796474456787 0.20537872612476349
0.55443179607391357 0.3901924192905426 0.19645431637763977
0.63430976867675781 0.41081050038337708 0.18703590333461761
0.69710499048233032 0.42408460378646851 0.18689383566379547
0.74706274271011353 0.43315964937210083 0.19701333343982697
0.78934258222579956 0.43368467688560486 0.2033841609954834
0.82203841209411621 0.42476209998130798 0.20769290626049042
0.85048019886016846 0.41873002052307129 0.20843927562236786
0.12703993916511536 0.32778516411781311 0.20930783450603485
0.15923188626766205 0.33753624558448792 0.22129346430301666
0.19518521428108215 0.35661542415618896 0.23522382974624634
0.25895673036575317 0.38437166810035706 0.25335735082626343
0.3594917356967926 0.41528567671775818 0.26865425705909729
0.46446630358695984 0.44023436307907104 0.27020037174224854
0.56369644403457642 0.45914587378501892 0.25574478507041931
0.64669734239578247 0.47302806377410889 0.24046415090560913
0.7167394757270813 0.48621314764022827 0.22891013324260712
0.77181226015090942 0.49694567918777466 0.22322443127632141
0.80772411823272705 0.49972811341285706 0.22371828556060791
0.83422094583511353 0.49168491363525391 0.22451888024806976
0.85848104953765869 0.48642560839653015 0.22149552404880524
0.15925987064838409 0.38257375359535217 0.22694353759288788
0.1942427009344101 0.39017045497894287 0.24031804502010345
0.24396896362304688 0.40755501389503479 0.25647097826004028
0.31766998767852783 0.43735051155090332 0.27807885408401489
0.39660906791687012 0.46852660179138184 0.29960101842880249
0.47496804594993591 0.49686843156814575 0.31523135304450989
0.57291984558105469 0.52065545320510864 0.30459499359130859
0.6591992974281311 0.54098713397979736 0.29103121161460876
0.73086810111999512 0.55091637372970581 0.27440142631530762
0.791107177734375 0.56396859884262085 0.26153212785720825
0.83042007684707642 0.56856280565261841 0.25602555274963379
0.86053955554962158 0.55979984998703003 0.24992509186267853
0.87588655948638916 0.55311113595962524 0.24358759820461273
0.18186545372009277 0.43765702843666077 0.23783716559410095
0.21946968138217926 0.4438418447971344 0.25093239545822144
0.27691242098808289 0.45678341388702393 0.26637580990791321
0.35180246829986572 0.48259046673774719 0.28729301691055298
0.42367792129516602 0.50791758298873901 0.30612224340438843
0.49666827917098999 0.5316886305809021 0.31661781668663025
0.58479028940200806 0.5596805214881897 0.31888532638549805
0.67036783695220947 0.59361213445663452 0.32269746065139771
0.74038815498352051 0.61309045553207397 0.31479886174201965
0.80112606287002563 0.62752276659011841 0.29919013381004333
0.85533630847930908 0.63144820928573608 0.28251904249191284
0.88638794422149658 0.62454503774642944 0.27249959111213684
0.89600098133087158 0.61692988872528076 0.26694706082344055
0.19941723346710205 0.49488186836242676 0.24353793263435364
0.24537967145442963 0.5009620189666748 0.25767844915390015
0.30479243397712708 0.51069051027297974 0.2714209258556366
0.37177738547325134 0.52671796083450317 0.28714746236801147
0.44042566418647766 0.54433679580688477 0.30571100115776062
0.51418328285217285 0.56692492961883545 0.31308647990226746
0.5975722074508667 0.59262406826019287 0.31826633214950562
0.67913609743118286 0.62267756462097168 0.32623511552810669
0.74614804983139038 0.65493994951248169 0.33178937435150146
0.80537545680999756 0.6776542067527771 0.3227335512638092
0.86437159776687622 0.68402588367462158 0.30537816882133484
0.90670925378799438 0.6832771897315979 0.28968223929405212
0.92047131061553955 0.67684471607208252 0.28239905834197998
0.21240183711051941 0.5535205602645874 0.24584327638149261
0.26595333218574524 0.55967140197753906 0.26118770241737366
0.32403576374053955 0.56738626956939697 0.27370193600654602
0.38456031680107117 0.57468169927597046 0.28334587812423706
0.44756171107292175 0.5867464542388916 0.2933897078037262
0.51922959089279175 0.60465264320373535 0.30182152986526489
0.60000801086425781 0.62721484899520874 0.31086593866348267
0.6799004077911377 0.65017026662826538 0.32016009092330933
0.74494123458862305 0.67942595481872559 0.32720750570297241
0.80329239368438721 0.70855087041854858 0.32631900906562805
0.86066025495529175 0.72437918186187744 0.31705665588378906
0.90769392251968384 0.72587084770202637 0.30170977115631104
0.93884611129760742 0.72411072254180908 0.28901714086532593
0.21626962721347809 0.61337858438491821 0.24234519898891449
0.26668265461921692 0.61702662706375122 0.25502341985702515
0.32169896364212036 0.61962729692459106 0.26540598273277283
0.38037809729576111 0.62273883819580078 0.27488252520561218
0.44743442535400391 0.63176900148391724 0.28240159153938293
0.52115923166275024 0.64376109838485718 0.28828531503677368
0.59596508741378784 0.66103410720825195 0.30150249600410461
0.67200249433517456 0.68048453330993652 0.31300002336502075
0.73922991752624512 0.7031511664390564 0.31825524568557739
0.7974696159362793 0.72732704877853394 0.31932744383811951
0.8570670485496521 0.74471443891525269 0.31650996208190918
0.90223067998886108 0.7540774941444397 0.30771785974502563
0.93372577428817749 0.75825446844100952 0.2948344349861145
0.21595747768878937 0.67434793710708618 0.23361566662788391
0.2634035050868988 0.67249917984008789 0.24324482679367065
0.31790155172348022 0.67028689384460449 0.25149837136268616
0.37643086910247803 0.67264473438262939 0.26090344786643982
0.44444549083709717 0.67908281087875366 0.27008539438247681
0.51646989583969116 0.68607056140899658 0.27798360586166382
0.58894115686416626 0.69788521528244019 0.28951069712638855
0.66250962018966675 0.71533316373825073 0.30117097496986389
0.73268133401870728 0.73268342018127441 0.30785399675369263
0.7962384819984436 0.75262397527694702 0.30986705422401428
0.85597771406173706 0.77018511295318604 0.30799242854118347
0.89853411912918091 0.78045940399169922 0.30324113368988037
0.92916738986968994 0.78771615028381348 0.29359287023544312
0.21190854907035828 0.72968512773513794 0.22096750140190125
0.26157838106155396 0.72184473276138306 0.23149864375591278
0.31722256541252136 0.7190176248550415 0.23733320832252502
0.37610822916030884 0.72151416540145874 0.24389506876468658
0.44329553842544556 0.72273916006088257 0.25600922107696533
0.51410508155822754 0.725882887840271 0.26459291577339172
0.58698862791061401 0.73532730340957642 0.27306213974952698
0.65709590911865234 0.74747735261917114 0.28480756282806396
0.72681182622909546 0.76199299097061157 0.2937069833278656
0.79441386461257935 0.78024196624755859 0.29628258943557739
0.85435944795608521 0.79791229963302612 0.29376748204231262
0.89514154195785522 0.80577361583709717 0.29189491271972656
0.9296535849571228 0.81321847438812256 0.2859504222869873
0.090861707925796509 0.13177260756492615 0.15950877964496613
0.12757979333400726 0.13387374579906464 0.15633249282836914
0.18054966628551483 0.13183967769145966 0.14242725074291229
0.24898359179496765 0.13756991922855377 0.13248775899410248
0.33974763751029968 0.15471956133842468 0.13148127496242523
0.43868479132652283 0.18074887990951538 0.13905160129070282
0.53460478782653809 0.20243126153945923 0.14586120843887329
0.61059880256652832 0.22706121206283569 0.16027785837650299
0.66680610179901123 0.22894357144832611 0.18065959215164185
0.71659839153289795 0.23066762089729309 0.19497328996658325
0.76312768459320068 0.22960759699344635 0.20176629722118378
0.79944723844528198 0.22741295397281647 0.20314593613147736
0.82936018705368042 0.22104643285274506 0.20233197510242462
0.079734504222869873 0.15357133746147156 0.17438100278377533
0.11992357671260834 0.16107627749443054 0.16770453751087189
0.16941876709461212 0.1613941490650177 0.1533578634262085
0.24232369661331177 0.16899089515209198 0.14289170503616333
0.33872547745704651 0.18689927458763123 0.14114269614219666
0.4372713565826416 0.20831805467605591 0.14086063206195831
0.52220076322555542 0.23522059619426727 0.15593837201595306
0.59826380014419556 0.25418376922607422 0.17560482025146484
0.66283208131790161 0.26190772652626038 0.1920333057641983
0.71191215515136719 0.26611530780792236 0.19830873608589172
0.75903141498565674 0.2695193886756897 0.2044568806886673
0.79899263381958008 0.26475274562835693 0.20768000185489655
0.83288133144378662 0.25660088658332825 0.20867924392223358
0.060604605823755264 0.17306926846504211 0.18552778661251068
0.1093146950006485 0.19242063164710999 0.18628177046775818
0.1573798805475235 0.19926375150680542 0.17695659399032593
0.23667626082897186 0.20948787033557892 0.16949012875556946
0.33691978454589844 0.22824119031429291 0.16472670435905457
0.44133570790290833 0.25129067897796631 0.1620287150144577
0.52632731199264526 0.27489811182022095 0.17294119298458099
0.59900897741317749 0.29265144467353821 0.18767270445823669
0.66307926177978516 0.3046305775642395 0.19887080788612366
0.71245056390762329 0.30987697839736938 0.20385482907295227
0.75784760713577271 0.3118988573551178 0.20851391553878784
0.79965728521347046 0.30821546912193298 0.21223747730255127
0.83845621347427368 0.30084866285324097 0.21384188532829285
0.079881303012371063 0.22112153470516205 0.20650094747543335
0.11172391474246979 0.23559200763702393 0.21241955459117889
0.15020079910755157 0.24646279215812683 0.20436407625675201
0.2242317795753479 0.25912833213806152 0.20166017115116119
0.33517536520957947 0.2779792845249176 0.19925180077552795
0.44660037755966187 0.30331042408943176 0.19678886234760284
0.54003536701202393 0.32794705033302307 0.19814343750476837
0.61467814445495605 0.35005027055740356 0.20679377019405365
0.67651033401489258 0.3642297089099884 0.21408802270889282
0.72768557071685791 0.36935418844223022 0.21648330986499786
0.77269333600997925 0.36968529224395752 0.21862928569316864
0.81263774633407593 0.36359822750091553 0.22259131073951721
0.84596586227416992 0.35659688711166382 0.22485746443271637
0.11241845786571503 0.27953103184700012 0.23104600608348846
0.1343449205160141 0.28806582093238831 0.23453298211097717
0.15775620937347412 0.3067871630191803 0.23453933000564575
0.21869948506355286 0.32357138395309448 0.24295578896999359
0.32830330729484558 0.34470582008361816 0.24795213341712952
0.44912701845169067 0.36771661043167114 0.24457202851772308
0.54894208908081055 0.39202192425727844 0.23896943032741547
0.62878918647766113 0.41874808073043823 0.24352335929870605
0.69403314590454102 0.42873433232307434 0.24088466167449951
0.74732786417007446 0.43240639567375183 0.23554915189743042
0.78912049531936646 0.4328303337097168 0.23554196953773499
0.82329589128494263 0.42586082220077515 0.23838843405246735
0.85091769695281982 0.4189753532409668 0.2395775318145752
0.14113126695156097 0.33868938684463501 0.24748227000236511
0.16454757750034332 0.34277364611625671 0.25325670838356018
0.18897415697574615 0.3583676815032959 0.26140087842941284
0.23841550946235657 0.38395613431930542 0.27839386463165283
0.33221927285194397 0.41437605023384094 0.29951542615890503
0.44818222522735596 0.43832793831825256 0.30373567342758179
0.55252766609191895 0.45807495713233948 0.29309326410293579
0.64299887418746948 0.47953405976295471 0.28235402703285217
0.71500265598297119 0.49274969100952148 0.27592906355857849
0.7668757438659668 0.49650445580482483 0.26419743895530701
0.81045746803283691 0.50093615055084229 0.25912570953369141
0.84181827306747437 0.49454846978187561 0.25883340835571289
0.86014300584793091 0.48547950387001038 0.25579535961151123
0.16893747448921204 0.39703190326690674 0.26518747210502625
0.19775243103504181 0.39695256948471069 0.27573105692863464
0.23200029134750366 0.40741026401519775 0.28599876165390015
0.28437772393226624 0.43269416689872742 0.30310383439064026
0.36230912804603577 0.46764907240867615 0.33076807856559753
0.45777535438537598 0.49932399392127991 0.346384197473526
0.55852240324020386 0.52367240190505981 0.34170436859130859
0.65376275777816772 0.54004108905792236 0.32488247752189636
0.72750496864318848 0.55311644077301025 0.31512451171875
0.78660929203033447 0.56240665912628174 0.30177652835845947
0.83655810356140137 0.56986922025680542 0.28810355067253113
0.8651391863822937 0.56507861614227295 0.2813471257686615
0.87468665838241577 0.55441176891326904 0.27752277255058289
0.191302090883255 0.45086517930030823 0.27776065468788147
0.22232131659984589 0.44964426755905151 0.28903380036354065
0.26747748255729675 0.45667287707328796 0.30081567168235779
0.3261229395866394 0.47834324836730957 0.31829378008842468
0.39825791120529175 0.50824320316314697 0.34094405174255371
0.48285073041915894 0.53865748643875122 0.35475850105285645
0.57340985536575317 0.56886142492294312 0.3611350953578949
0.66574913263320923 0.60072720050811768 0.3650442361831665
0.73593950271606445 0.61578834056854248 0.35497173666954041
0.79999822378158569 0.62348842620849609 0.33847525715827942
0.85248416662216187 0.62833482027053833 0.32098156213760376
0.88166898488998413 0.6271093487739563 0.30716320872306824
0.89275866746902466 0.61906671524047852 0.30154246091842651
0.20600341260433197 0.50255864858627319 0.28684785962104797
0.24479125440120697 0.50385767221450806 0.29818421602249146
0.29547592997550964 0.51027935743331909 0.31011778116226196
0.35725972056388855 0.52565628290176392 0.32456269860267639
0.42819470167160034 0.54784202575683594 0.34092754125595093
0.5051497220993042 0.57227206230163574 0.35271018743515015
0.59205454587936401 0.60189485549926758 0.3621009886264801
0.67855912446975708 0.6355360746383667 0.37493142485618591
0.7443355917930603 0.6582571268081665 0.37384220957756042
0.80276566743850708 0.67875665426254272 0.36117810010910034
0.85888504981994629 0.68338727951049805 0.34123295545578003
0.89658910036087036 0.68491274118423462 0.3267865777015686
0.91732776165008545 0.6781952977180481 0.31989943981170654
0.21595314145088196 0.55441391468048096 0.29363039135932922
0.26102134585380554 0.55932211875915527 0.30362352728843689
0.31357106566429138 0.56579411029815674 0.31400111317634583
0.37172600626945496 0.57321071624755859 0.32435429096221924
0.43862757086753845 0.58871501684188843 0.33619940280914307
0.5147508978843689 0.60994988679885864 0.35145539045333862
0.597584068775177 0.63513147830963135 0.36467248201370239
0.67460733652114868 0.66055941581726074 0.37227419018745422
0.7421724796295166 0.68532663583755493 0.37347626686096191
0.80022209882736206 0.71235388517379761 0.36855727434158325
0.85503935813903809 0.72680312395095825 0.35356491804122925
0.90453869104385376 0.73376858234405518 0.33998855948448181
0.93368840217590332 0.73221111297607422 0.32661288976669312
0.21933688223361969 0.61148297786712646 0.2903188169002533
0.26220080256462097 0.61472833156585693 0.29837438464164734
0.31327745318412781 0.61724412441253662 0.30714046955108643
0.37059366703033447 0.62076586484909058 0.31599995493888855
0.43935570120811462 0.63225811719894409 0.3277047872543335
0.51506274938583374 0.64989578723907471 0.34257075190544128
0.5928153395652771 0.66740500926971436 0.35715675354003906
0.66593676805496216 0.68519914150238037 0.36260035634040833
0.73448938131332397 0.70771914720535278 0.36334851384162903
0.79659903049468994 0.73144334554672241 0.36284032464027405
0.85531646013259888 0.75260549783706665 0.35586097836494446
0.90335798263549805 0.76383489370346069 0.34363991022109985
0.93370980024337769 0.77003222703933716 0.32771989703178406
0.21755217015743256 0.66977977752685547 0.28133493661880493
0.26013877987861633 0.66823697090148926 0.28917920589447021
0.31276306509971619 0.66718488931655884 0.29699790477752686
0.37030148506164551 0.67018705606460571 0.30600789189338684
0.43913841247558594 0.67863166332244873 0.31745857000350952
0.5118330717086792 0.68905866146087646 0.32903316617012024
0.58612686395645142 0.70074546337127686 0.33994513750076294
0.65891015529632568 0.7149956226348877 0.34688851237297058
0.72983914613723755 0.73357051610946655 0.3492373526096344
0.79675906896591187 0.75545406341552734 0.34909543395042419
0.85613077878952026 0.77431571483612061 0.34473416209220886
0.90071940422058105 0.78550595045089722 0.33756080269813538
0.92898505926132202 0.7922554612159729 0.32613673806190491
0.21425798535346985 0.7188262939453125 0.27261549234390259
0.2588421106338501 0.71584516763687134 0.28014588356018066
0.31337827444076538 0.71373140811920166 0.28721225261688232
0.37164062261581421 0.71619552373886108 0.29530143737792969
0.43955501914024353 0.7199397087097168 0.30526888370513916
0.51003384590148926 0.72441035509109497 0.31440120935440063
0.58376431465148926 0.73244619369506836 0.32237279415130615
0.65614509582519531 0.74437898397445679 0.32874277234077454
0.72782701253890991 0.76067966222763062 0.33230534195899963
0.79654663801193237 0.78033900260925293 0.33299493789672852
0.85465645790100098 0.79695695638656616 0.33061674237251282
0.89873170852661133 0.80681639909744263 0.32762038707733154
0.92856913805007935 0.81409448385238647 0.32225802540779114
0.093392178416252136 0.13234691321849823 0.19201965630054474
0.12418662011623383 0.13250191509723663 0.18030911684036255
0.16867400705814362 0.12980668246746063 0.17058521509170532
0.23737965524196625 0.13840518891811371 0.16433613002300262
0.33340594172477722 0.15640935301780701 0.16175854206085205
0.43359547853469849 0.1816679984331131 0.17123492062091827
0.53133112192153931 0.20480512082576752 0.17600168287754059
0.61023199558258057 0.22406467795372009 0.18184100091457367
0.67106318473815918 0.2374911904335022 0.19731445610523224
0.72556060552597046 0.2423814982175827 0.21168330311775208
0.77581620216369629 0.2436414361000061 0.21652911603450775
0.81038051843643188 0.24101945757865906 0.2193094789981842
0.83274310827255249 0.23256994783878326 0.22425056993961334
0.087135240435600281 0.1591465175151825 0.2141154408454895
0.11907786875963211 0.16002665460109711 0.1982453465461731
0.16367319226264954 0.16340620815753937 0.18662554025650024
0.23470336198806763 0.17260059714317322 0.1782243400812149
0.33083105087280273 0.19039593636989594 0.17761577665805817
0.43000373244285583 0.21414755284786224 0.18283042311668396
0.52544915676116943 0.24279637634754181 0.19511628150939941
0.60672342777252197 0.26290932297706604 0.21023564040660858
0.66657763719558716 0.26759317517280579 0.21224181354045868
0.71557068824768066 0.26931026577949524 0.21320301294326782
0.77003902196884155 0.276603102684021 0.22070033848285675
0.80980223417282104 0.27343621850013733 0.22510802745819092
0.83735412359237671 0.26538953185081482 0.23101350665092468
0.071111701428890228 0.18013307452201843 0.22835063934326172
0.11046799272298813 0.19073723256587982 0.22159276902675629
0.15461389720439911 0.20003528892993927 0.20933195948600769
0.23215050995349884 0.21339660882949829 0.20333535969257355
0.33071115612983704 0.23244167864322662 0.20192579925060272
0.4330751895904541 0.25573655962944031 0.20009823143482208
0.52428507804870605 0.27908626198768616 0.20433606207370758
0.60268205404281616 0.29794719815254211 0.2138097882270813
0.66519343852996826 0.30634579062461853 0.21868860721588135
0.71694457530975342 0.31003600358963013 0.22108447551727295
0.76622492074966431 0.31269219517707825 0.22754949331283569
0.80677920579910278 0.31110328435897827 0.23404845595359802
0.84097427129745483 0.30521118640899658 0.24146223068237305
0.07906072586774826 0.22347670793533325 0.2494027316570282
0.10723093152046204 0.23346482217311859 0.24562758207321167
0.14744184911251068 0.24468815326690674 0.23906752467155457
0.22137835621833801 0.26000192761421204 0.2365473210811615
0.33005356788635254 0.28074154257774353 0.23521006107330322
0.44144859910011292 0.30610358715057373 0.23502710461616516
0.5416143536567688 0.33216953277587891 0.2363036721944809
0.61521738767623901 0.35125589370727539 0.23935334384441376
0.67097878456115723 0.36303228139877319 0.24142400920391083
0.72717452049255371 0.3667759895324707 0.24403943121433258
0.77614277601242065 0.36696884036064148 0.24520379304885864
0.81480002403259277 0.3656516969203949 0.25101503729820251
0.84509158134460449 0.36154681444168091 0.25718489289283752
0.11356090754270554 0.27941811084747314 0.2743682861328125
0.13446182012557983 0.28703182935714722 0.27837264537811279
0.15892009437084198 0.30541983246803284 0.27639934420585632
0.212179034948349 0.32197573781013489 0.27773371338844299
0.31733295321464539 0.34321379661560059 0.28138026595115662
0.44418913125991821 0.37037819623947144 0.28234091401100159
0.54896509647369385 0.39465296268463135 0.28126317262649536
0.62277454137802124 0.4137323796749115 0.27862009406089783
0.69115442037582397 0.42580306529998779 0.27405628561973572
