assets/lut/pixlsus whiter whites.cube
# Created by: G'MIC (https://gmic.eu)
TITLE "whiter_whites"
# LUT size
LUT_3D_SIZE 5
# Data domain
DOMAIN_MIN 0.0 0.0 0.0
DOMAIN_MAX 1.0 1.0 1.0
# LUT data points
0.036394529044628143 0.038725491613149643 0.039956111460924149
0.26642155647277832 0.038725491613149643 0.038928475230932236
0.49411764740943909 0.038725491613149643 0.039165109395980835
0.72573530673980713 0.038725491613149643 0.03006959892809391
0.9609265923500061 0.039847593754529953 0.032597441226243973
0.041699010878801346 0.27013251185417175 0.047791112214326859
0.26569190621376038 0.27017611265182495 0.034892603754997253
0.4980129599571228 0.27033343911170959 0.043457958847284317
0.7296568751335144 0.26749047636985779 0.041921652853488922
0.96127450466156006 0.2703431248664856 0.057157300412654877
0.049963407218456268 0.50196081399917603 0.051605150103569031
0.25795361399650574 0.50196081399917603 0.048056073486804962
0.50310415029525757 0.50196081399917603 0.047439664602279663
0.73367446660995483 0.50134789943695068 0.072071492671966553
0.96127450466156006 0.50196081399917603 0.11596982181072235
0.12590081989765167 0.73357844352722168 0.11567830294370651
0.2442929744720459 0.73357844352722168 0.1416584849357605
0.48296749591827393 0.73357844352722168 0.14027030766010284
0.72664833068847656 0.73357844352722168 0.20513537526130676
0.95802009105682373 0.73357844352722168 0.2681955099105835
0.3206794261932373 0.96127450466156006 0.32405334711074829
0.32519856095314026 0.96127450466156006 0.33205202221870422
0.47852727770805359 0.96127450466156006 0.34554874897003174
0.71969383955001831 0.96127450466156006 0.38666296005249023
0.95736908912658691 0.96127450466156006 0.43153819441795349
0.037376958876848221 0.035150475800037384 0.26522454619407654
0.26796919107437134 0.037657253444194794 0.26742455363273621
0.49803921580314636 0.038725491613149643 0.26282095909118652
0.72833317518234253 0.041975792497396469 0.25544577836990356
0.95735293626785278 0.046675931662321091 0.25133594870567322
0.03793131560087204 0.26660600304603577 0.27108776569366455
0.26645171642303467 0.26654568314552307 0.29686567187309265
0.50140970945358276 0.27006697654724121 0.26675927639007568
0.72980749607086182 0.26665613055229187 0.2689531147480011
0.95845788717269897 0.27249050140380859 0.26262363791465759
0.035578440874814987 0.49972903728485107 0.26733559370040894
0.26677927374839783 0.49981892108917236 0.26271766424179077
0.50115686655044556 0.50006413459777832 0.26682376861572266
0.73518747091293335 0.49900871515274048 0.265907883644104
0.96158379316329956 0.50196081399917603 0.26071524620056152
0.14185486733913422 0.73310917615890503 0.25330051779747009
0.27121835947036743 0.73357844352722168 0.26365947723388672
0.49262923002243042 0.73357844352722168 0.25879380106925964
0.73749667406082153 0.73357844352722168 0.2685970664024353
0.96209633350372314 0.73051637411117554 0.28117269277572632
0.32661101222038269 0.96127450466156006 0.32046395540237427
0.34177276492118835 0.96127450466156006 0.32419800758361816
0.49348121881484985 0.96127450466156006 0.34758207201957703
0.72993028163909912 0.96127450466156006 0.39112386107444763
0.96125352382659912 0.96127450466156006 0.40397471189498901
0.037990197539329529 0.038318261504173279 0.51979225873947144
0.26642155647277832 0.038725491613149643 0.52109253406524658
0.50154209136962891 0.038725491613149643 0.50323402881622314
0.72959733009338379 0.045644350349903107 0.49895450472831726
0.95735293626785278 0.0571938157081604 0.49828416109085083
0.034844595938920975 0.26642155647277832 0.51342618465423584
0.26866814494132996 0.26845899224281311 0.50023406744003296
0.49919125437736511 0.27029511332511902 0.49799463152885437
0.7296568751335144 0.2696785032749176 0.50545382499694824
0.95735293626785278 0.2797093391418457 0.50370413064956665
0.046151105314493179 0.49803921580314636 0.50143665075302124
0.26887571811676025 0.50097483396530151 0.49841773509979248
0.49452289938926697 0.49455589056015015 0.57427793741226196
0.73301059007644653 0.49875012040138245 0.49494016170501709
0.96101832389831543 0.50295794010162354 0.49850228428840637
0.15498711168766022 0.7296568751335144 0.49714836478233337
0.27377972006797791 0.73357844352722168 0.49181884527206421
0.49227428436279297 0.73333454132080078 0.48958632349967957
0.73357844352722168 0.73357844352722168 0.49308988451957703
0.96124821901321411 0.72993725538253784 0.4911990761756897
0.31781849265098572 0.96127450466156006 0.48037105798721313
0.32610610127449036 0.96220439672470093 0.49017712473869324
0.48853909969329834 0.96127450466156006 0.49818271398544312
0.72923702001571655 0.96127450466156006 0.50788331031799316
0.96098726987838745 0.96127450466156006 0.49568000435829163
0.035441797226667404 0.038725491613149643 0.70614337921142578
0.26779040694236755 0.038725491613149643 0.73127490282058716
0.50030189752578735 0.040629100054502487 0.74155342578887939
0.7288820743560791 0.056110262870788574 0.738167405128479
0.95735293626785278 0.073950625956058502 0.74397420883178711
0.028961002826690674 0.2703431248664856 0.7363661527633667
0.27044975757598877 0.27033424377441406 0.74692720174789429
0.50196081399917603 0.27032670378684998 0.73199963569641113
0.7296568751335144 0.27790388464927673 0.73776370286941528
0.95735293626785278 0.2929503321647644 0.74255925416946411
0.023408029228448868 0.50196081399917603 0.74429976940155029
0.25398081541061401 0.50196081399917603 0.74719125032424927
0.50189673900604248 0.50196081399917603 0.72244620323181152
0.7296568751335144 0.50207293033599854 0.72848594188690186
0.95735293626785278 0.51071614027023315 0.73273277282714844
0.1251811683177948 0.73357844352722168 0.73115366697311401
0.26433026790618896 0.73357844352722168 0.73743331432342529
0.50100523233413696 0.73001444339752197 0.72947442531585693
0.72966182231903076 0.72953647375106812 0.77883356809616089
0.95748186111450195 0.73374837636947632 0.73502129316329956
0.30398911237716675 0.9615710973739624 0.72853147983551025
0.32685264945030212 0.96276402473449707 0.73430049419403076
0.48942998051643372 0.96127450466156006 0.72719550132751465
0.72985249757766724 0.96127450466156006 0.73497241735458374
0.95859032869338989 0.96127450466156006 0.72946697473526001
0.034361895173788071 0.038865692913532257 0.77027595043182373
0.26288285851478577 0.038725491613149643 0.80702775716781616
0.49763470888137817 0.045578464865684509 0.87287676334381104
0.72792696952819824 0.066969059407711029 0.93037581443786621
0.96016234159469604 0.089877814054489136 0.964496910572052
0.032698418945074081 0.2703431248664856 0.84737765789031982
0.26623114943504333 0.26654160022735596 0.87695658206939697
0.50147324800491333 0.26973420381546021 0.92313086986541748
0.7296568751335144 0.28691795468330383 0.94897156953811646
0.95964479446411133 0.30578088760375977 0.96160709857940674
0.047719873487949371 0.49803921580314636 0.95755523443222046
0.25544524192810059 0.49803921580314636 0.95575249195098877
0.4980526864528656 0.49876159429550171 0.96221649646759033
0.73355066776275635 0.50755959749221802 0.95010894536972046
0.96112513542175293 0.5191575288772583 0.94925886392593384
0.15609392523765564 0.73088723421096802 0.95213949680328369
0.27909809350967407 0.7299686074256897 0.96044671535491943
0.49874228239059448 0.73337507247924805 0.96003592014312744
0.73416149616241455 0.7322380542755127 0.96628028154373169
0.95887738466262817 0.73678970336914062 0.95783066749572754
0.35050296783447266 0.96127450466156006 0.96049779653549194
0.3468497097492218 0.96127450466156006 0.96289539337158203
0.4859311580657959 0.96127450466156006 0.96017265319824219
0.73415744304656982 0.96127450466156006 0.96387124061584473
0.95862495899200439 0.96127450466156006 0.96563708782196045
