assets/lut/pixlsus sweet gelatto.cube
# Created by: G'MIC (https://gmic.eu)
TITLE "sweet_gelatto"
# LUT size
LUT_3D_SIZE 5
# Data domain
DOMAIN_MIN 0.0 0.0 0.0
DOMAIN_MAX 1.0 1.0 1.0
# LUT data points
0.069751784205436707 0.004213250707834959 0.066818192601203918
0.46186882257461548 0.015115177258849144 0.065953396260738373
0.9206501841545105 0.024317303672432899 0.061057612299919128
0.99320012331008911 0.028094662353396416 0.057906985282897949
1 0.02829609252512455 0.055870503187179565
0.069606781005859375 0.078982725739479065 0.059318751096725464
0.46333107352256775 0.12750604748725891 0.061355575919151306
0.91992664337158203 0.17051678895950317 0.0562630295753479
0.99338233470916748 0.19585448503494263 0.048380158841609955
1 0.19848830997943878 0.045759733766317368
0.073678649961948395 0.40684723854064941 0.048801615834236145
0.46179857850074768 0.48945996165275574 0.048282742500305176
0.92188328504562378 0.58201706409454346 0.033433262258768082
0.99332165718078613 0.61782002449035645 0.061313241720199585
1 0.62650096416473389 0.028959266841411591
0.080924943089485168 0.80299603939056396 0.033817112445831299
0.45538002252578735 0.84206473827362061 0.026079289615154266
0.9158174991607666 0.8847007155418396 0.019290804862976074
0.99132472276687622 0.90870028734207153 0.026643805205821991
1 0.91475999355316162 0.017019070684909821
0.079948678612709045 0.973979651927948 0.022697778418660164
0.45632851123809814 0.98090130090713501 0.016876116394996643
0.91755807399749756 0.98632627725601196 0.012541214004158974
0.99332398176193237 0.98997610807418823 0.01069819089025259
1 0.99130570888519287 0.0078823911026120186
0.11311084777116776 0.012131410650908947 0.44190689921379089
0.46791303157806396 0.023947322741150856 0.39278870820999146
0.92332828044891357 0.019760265946388245 0.36121854186058044
0.98988050222396851 0.028540622442960739 0.34433427453041077
1 0.037258103489875793 0.33471742272377014
0.080829963088035583 0.095846377313137054 0.37891918420791626
0.4606604278087616 0.1366649866104126 0.34284138679504395
0.91101574897766113 0.18749667704105377 0.30086657404899597
0.99270713329315186 0.21175141632556915 0.29309427738189697
1 0.21746444702148438 0.27651208639144897
0.073787286877632141 0.42529818415641785 0.28340891003608704
0.45803886651992798 0.52258813381195068 0.23634509742259979
0.92059147357940674 0.60665714740753174 0.19197425246238708
0.9940040111541748 0.62398141622543335 0.17662972211837769
1 0.65163981914520264 0.1637101024389267
0.11877378821372986 0.81651890277862549 0.18534435331821442
0.46141740679740906 0.8484078049659729 0.15304343402385712
0.90860581398010254 0.88791906833648682 0.11148963123559952
0.99292916059494019 0.90967988967895508 0.091319337487220764
1 0.92100930213928223 0.08400300145149231
0.11603130400180817 0.97373884916305542 0.13267828524112701
0.46331289410591125 0.97900879383087158 0.10275117307901382
0.91772836446762085 0.98792624473571777 0.06320355087518692
0.98622024059295654 0.98217487335205078 0.064897172152996063
0.99879080057144165 0.99180233478546143 0.049431264400482178
0.075215071439743042 0.010544930584728718 0.84138685464859009
0.45945814251899719 0.020264314487576485 0.77688252925872803
0.9197506308555603 0.02185853011906147 0.71474504470825195
0.99291175603866577 0.025014540180563927 0.69187766313552856
1 0.027510415762662888 0.68178063631057739
0.083723179996013641 0.11273148655891418 0.73739945888519287
0.4594801664352417 0.15099060535430908 0.66770857572555542
0.91512280702590942 0.1960713118314743 0.60233467817306519
0.99337536096572876 0.21402612328529358 0.56914174556732178
1 0.22642888128757477 0.54830658435821533
0.071059465408325195 0.44452399015426636 0.57039725780487061
0.45930713415145874 0.54373496770858765 0.48637551069259644
0.92650115489959717 0.61882835626602173 0.40873903036117554
0.9955483078956604 0.66118186712265015 0.37650588154792786
1 0.68046689033508301 0.35294064879417419
0.080373384058475494 0.82658863067626953 0.39705508947372437
0.46283191442489624 0.86357289552688599 0.32852843403816223
0.92255139350891113 0.90706169605255127 0.25103509426116943
0.99381560087203979 0.92417782545089722 0.23905512690544128
1 0.92952930927276611 0.2360113114118576
0.077708825469017029 0.97785443067550659 0.30048537254333496
0.46007007360458374 0.98000848293304443 0.23761731386184692
0.91988754272460938 0.99090659618377686 0.18129634857177734
0.99146753549575806 0.99194324016571045 0.15095937252044678
0.99912434816360474 0.99337482452392578 0.13729701936244965
0.11284741014242172 0.028123099356889725 0.92940300703048706
0.46875765919685364 0.058087848126888275 0.88822430372238159
0.92345607280731201 0.023522665724158287 0.87754160165786743
0.97973299026489258 0.043229538947343826 0.85867440700531006
0.99851948022842407 0.036396011710166931 0.85605442523956299
0.082886561751365662 0.12069880217313766 0.88953560590744019
0.45814076066017151 0.16088993847370148 0.85513567924499512
0.90787738561630249 0.20617851614952087 0.81347072124481201
0.98784041404724121 0.23998329043388367 0.78943252563476562
1 0.26721939444541931 0.7778085470199585
0.077767826616764069 0.47336095571517944 0.7920835018157959
0.45806723833084106 0.57806313037872314 0.74520576000213623
0.9257623553276062 0.64697742462158203 0.70294094085693359
0.99563181400299072 0.68240416049957275 0.68273079395294189
1 0.70648026466369629 0.67206251621246338
0.081805221736431122 0.83505135774612427 0.69718974828720093
0.46329048275947571 0.87332653999328613 0.66023737192153931
0.9225495457649231 0.92017346620559692 0.62371724843978882
0.99215954542160034 0.93077617883682251 0.60470479726791382
1 0.9441341757774353 0.58941805362701416
0.13899679481983185 0.97369146347045898 0.64245843887329102
0.4686916172504425 0.97205668687820435 0.59958022832870483
0.92243260145187378 0.99219346046447754 0.57830381393432617
0.98900562524795532 0.9883495569229126 0.57217556238174438
0.9993211030960083 0.99340081214904785 0.53835272789001465
0.080667637288570404 0.022379422560334206 0.98533439636230469
0.46770268678665161 0.05280056968331337 0.97487771511077881
0.9193693995475769 0.028361242264509201 0.97938662767410278
0.97946423292160034 0.048621591180562973 0.97188961505889893
0.99817478656768799 0.037318885326385498 0.97614628076553345
0.080871358513832092 0.12949632108211517 0.9782293438911438
0.46170744299888611 0.17549137771129608 0.95919114351272583
0.90509802103042603 0.22184987366199493 0.96167212724685669
0.98640298843383789 0.24557420611381531 0.963539719581604
1 0.25747966766357422 0.96437156200408936
0.080095909535884857 0.50005161762237549 0.96389788389205933
0.45819061994552612 0.58470004796981812 0.95802170038223267
0.92508107423782349 0.66291999816894531 0.95336234569549561
0.99397343397140503 0.70181190967559814 0.95060789585113525
1 0.72694569826126099 0.94815587997436523
0.082249119877815247 0.84193456172943115 0.94667178392410278
0.46007734537124634 0.88570171594619751 0.94249975681304932
0.92989963293075562 0.93167531490325928 0.94258904457092285
0.99415278434753418 0.94751131534576416 0.93802273273468018
1 0.95854401588439941 0.93683904409408569
0.086512953042984009 0.98058629035949707 0.94140040874481201
0.46275034546852112 0.98536485433578491 0.93730759620666504
0.92893815040588379 0.99526840448379517 0.9366377592086792
0.99390149116516113 0.99729669094085693 0.93211990594863892
1 0.99950021505355835 0.93237960338592529
