assets/lut/pixlsus unknown.cube
# Created by: G'MIC (https://gmic.eu)
TITLE "unknown"
# LUT size
LUT_3D_SIZE 7
# Data domain
DOMAIN_MIN 0.0 0.0 0.0
DOMAIN_MAX 1.0 1.0 1.0
# LUT data points
0.022772859781980515 0.022366750985383987 0.023155735805630684
0.17291106283664703 0.037660889327526093 0.026429150253534317
0.30775320529937744 0.046113315969705582 0.030658064410090446
0.48566830158233643 0.023007530719041824 0.027604285627603531
0.67782014608383179 0.011202194727957249 0.014407887123525143
0.87311559915542603 0.004016621969640255 0.0015030057402327657
0.98392987251281738 0.0045271632261574268 0.0025081259664148092
0.0076185190118849277 0.17371389269828796 0.032684866338968277
0.13972526788711548 0.17624774575233459 0.018353644758462906
0.34672635793685913 0.16898667812347412 0.010456294752657413
0.52613043785095215 0.15100184082984924 0.011491633020341396
0.72410750389099121 0.11524062603712082 0.011780308559536934
0.88180088996887207 0.061741400510072708 0.0029964072164148092
0.97875398397445679 0.069080740213394165 0.0051989834755659103
0.0043012429960072041 0.33908656239509583 0.038981880992650986
0.036594733595848083 0.3447517454624176 0.048045814037322998
0.29824763536453247 0.33918499946594238 0.0091841602697968483
0.53159165382385254 0.32114747166633606 0.0050913942977786064
0.72457444667816162 0.29165810346603394 0.0045133554376661777
0.91316831111907959 0.27035769820213318 0.0021487218327820301
0.98284339904785156 0.25960841774940491 0.0029850380960851908
0.0044053168967366219 0.50950449705123901 0.065347753465175629
0.009889235720038414 0.51206773519515991 0.094148032367229462
0.11766565591096878 0.50383526086807251 0.064126230776309967
0.47445416450500488 0.49249723553657532 0.008920975960791111
0.72095751762390137 0.47484588623046875 0.0062505383975803852
0.8980485200881958 0.45524418354034424 0.0017143548466265202
0.99166214466094971 0.46573725342750549 0.00041082044481299818
0.0039215688593685627 0.6566506028175354 0.11991119384765625
0.010049992240965366 0.66666185855865479 0.14455594122409821
0.050651654601097107 0.6753394603729248 0.17388544976711273
0.3067743182182312 0.67628014087677002 0.079527638852596283
0.65653985738754272 0.65666657686233521 0.011376204900443554
0.86796724796295166 0.64377719163894653 0.0049071968533098698
0.9946710467338562 0.64352244138717651 0.0040704617276787758
0.0039215688593685627 0.80741626024246216 0.17170184850692749
0.012101596221327782 0.81535893678665161 0.19841715693473816
0.034080490469932556 0.81947648525238037 0.23417136073112488
0.13612724840641022 0.82337981462478638 0.16953371465206146
0.53206068277359009 0.81321048736572266 0.030739668756723404
0.81772911548614502 0.80491542816162109 0.0075157014653086662
0.98702424764633179 0.80297505855560303 4.3083641685370822e-06
0.0016481586499139667 0.95532798767089844 0.27144631743431091
0.016737351194024086 0.94507944583892822 0.27086636424064636
0.018103191629052162 0.94102519750595093 0.21402812004089355
0.030814735218882561 0.95808136463165283 0.10891854017972946
0.33022618293762207 0.93283629417419434 0.066997796297073364
0.75633764266967773 0.90902584791183472 0.016118276864290237
0.95208770036697388 0.95144575834274292 0.0028754889499396086
0.023210622370243073 0.025239218026399612 0.17522092163562775
0.1723959892988205 0.042641360312700272 0.16128011047840118
0.31489661335945129 0.071820184588432312 0.15470756590366364
0.48056977987289429 0.053159136325120926 0.1392778605222702
0.67661094665527344 0.019693696871399879 0.10445325076580048
0.86795032024383545 0.0032827190589159727 0.065080799162387848
0.99106013774871826 0.0010916168102994561 0.026959244161844254
0.0042683468200266361 0.17090269923210144 0.17139135301113129
0.12927021086215973 0.17622369527816772 0.16906294226646423
0.32131588459014893 0.16931276023387909 0.14891296625137329
0.49744582176208496 0.13202114403247833 0.12086772173643112
0.68716943264007568 0.073144517838954926 0.09342232346534729
0.88083308935165405 0.041036449372768402 0.064176477491855621
0.98727941513061523 0.030786881223320961 0.047328740358352661
0.0039908615872263908 0.33662745356559753 0.18020236492156982
0.029011491686105728 0.34000402688980103 0.18630236387252808
0.2915186882019043 0.34152957797050476 0.16223044693470001
0.51949554681777954 0.31701713800430298 0.10678850114345551
0.72914880514144897 0.28965818881988525 0.088770322501659393
0.91012489795684814 0.24594996869564056 0.062887363135814667
0.99372828006744385 0.21735651791095734 0.047302007675170898
0.0078431377187371254 0.50150883197784424 0.18947851657867432
0.012092201039195061 0.50543928146362305 0.20940397679805756
0.10628527402877808 0.50797641277313232 0.2140219658613205
0.47647401690483093 0.49798774719238281 0.12530283629894257
0.71664315462112427 0.48031491041183472 0.070001982152462006
0.89986789226531982 0.46394294500350952 0.055947396904230118
0.99287956953048706 0.45061177015304565 0.045147359371185303
0.0078431377187371254 0.65722429752349854 0.22473354637622833
0.0078431377187371254 0.66916012763977051 0.23791512846946716
0.013031918555498123 0.67998766899108887 0.23468691110610962
0.22933162748813629 0.68213754892349243 0.21907259523868561
0.6522287130355835 0.66067683696746826 0.0925474613904953
0.86971437931060791 0.64844363927841187 0.058965690433979034
0.98657822608947754 0.63900744915008545 0.06094113364815712
0.006872768048197031 0.80167692899703979 0.28406274318695068
0.0078431377187371254 0.81117206811904907 0.30178102850914001
0.018953166902065277 0.82212275266647339 0.31248262524604797
0.054026227444410324 0.83322858810424805 0.3070225715637207
0.48094761371612549 0.82203769683837891 0.14639988541603088
0.82185280323028564 0.80697453022003174 0.04868876188993454
0.98851245641708374 0.8000602126121521 0.025210302323102951
0.0037294274661689997 0.94582462310791016 0.33454433083534241
0.0049114301800727844 0.95675075054168701 0.3800206184387207
0.012423541396856308 0.95162773132324219 0.36606895923614502
0.028626639395952225 0.95208394527435303 0.29559934139251709
0.22640395164489746 0.95107483863830566 0.20976495742797852
0.72780078649520874 0.92789441347122192 0.08245290070772171
0.97253119945526123 0.94574880599975586 0.014154950156807899
0.017698893323540688 0.050276290625333786 0.33971089124679565
0.16742913424968719 0.045266572386026382 0.32447198033332825
0.32746413350105286 0.055014755576848984 0.30615690350532532
0.5105862021446228 0.078318051993846893 0.2996833324432373
0.6926458477973938 0.034434404224157333 0.26225444674491882
0.89071178436279297 0.0036609724629670382 0.23126104474067688
0.99226725101470947 0.0036274031735956669 0.20188608765602112
0.0058937370777130127 0.17383164167404175 0.33034852147102356
0.10759028792381287 0.17107412219047546 0.32188081741333008
0.31206545233726501 0.1663888543844223 0.30754616856575012
0.50289463996887207 0.17035391926765442 0.29871746897697449
0.69609242677688599 0.098956331610679626 0.26089227199554443
0.87340062856674194 0.021372701972723007 0.2115175724029541
0.99138623476028442 0.012263637967407703 0.19356341660022736
0.0037231144960969687 0.33114469051361084 0.32738271355628967
0.031926590949296951 0.32923877239227295 0.32346367835998535
0.28703492879867554 0.3383452296257019 0.3311537504196167
0.49863690137863159 0.30885612964630127 0.29449200630187988
0.70134061574935913 0.27153855562210083 0.26073646545410156
0.89489203691482544 0.19614788889884949 0.22572594881057739
0.99693858623504639 0.14761768281459808 0.21965044736862183
0.0081700794398784637 0.48806923627853394 0.3399406373500824
0.012303415685892105 0.50677073001861572 0.35470354557037354
0.10214803367853165 0.50039225816726685 0.35396811366081238
0.46165293455123901 0.50117629766464233 0.33069610595703125
0.70828157663345337 0.4720822274684906 0.27848145365715027
0.90053939819335938 0.45291465520858765 0.25372022390365601
0.99541699886322021 0.41408523917198181 0.22817569971084595
0.017670037224888802 0.64181959629058838 0.36839103698730469
0.017646504566073418 0.65235358476638794 0.37746086716651917
0.022558968514204025 0.6738508939743042 0.38368800282478333
0.20983736217021942 0.68046760559082031 0.39264261722564697
0.65159446001052856 0.66219234466552734 0.30492129921913147
0.87403023242950439 0.63919520378112793 0.25411537289619446
0.98563337326049805 0.62362748384475708 0.24193166196346283
0.015977703034877777 0.79000049829483032 0.41574957966804504
0.014816852286458015 0.79893523454666138 0.42001140117645264
0.013749575242400169 0.81911104917526245 0.41506126523017883
0.031659472733736038 0.84003585577011108 0.46058580279350281
0.41224047541618347 0.83331996202468872 0.38747289776802063
0.81450885534286499 0.80866259336471558 0.27614179253578186
0.99026519060134888 0.79520845413208008 0.23811158537864685
0.010286054573953152 0.93004733324050903 0.44781279563903809
0.0090983519330620766 0.94665652513504028 0.4638066291809082
0.010417923331260681 0.95675230026245117 0.50597655773162842
0.040351897478103638 0.94374662637710571 0.46585777401924133
0.18841016292572021 0.96388965845108032 0.42674225568771362
0.7052345871925354 0.9345889687538147 0.29830414056777954
0.96775692701339722 0.94262129068374634 0.20040951669216156
0.014472527429461479 0.072533294558525085 0.50840920209884644
0.13593833148479462 0.10271915793418884 0.48613262176513672
0.31410276889801025 0.10268273204565048 0.47066584229469299
0.50741696357727051 0.10398487746715546 0.46113541722297668
0.71118432283401489 0.047535587102174759 0.44867753982543945
0.89286273717880249 0.013839811086654663 0.40709331631660461
0.98496198654174805 0.0067827710881829262 0.3979601263999939
0.013318439945578575 0.17709535360336304 0.49563315510749817
0.09717133641242981 0.17848685383796692 0.48783484101295471
0.31532678008079529 0.1694437712430954 0.47148281335830688
0.51283723115921021 0.1731976717710495 0.47290590405464172
0.71917945146560669 0.14745697379112244 0.45655769109725952
0.88938343524932861 0.025494638830423355 0.4030611515045166
0.99354618787765503 0.0091032739728689194 0.37804621458053589
0.0075226128101348877 0.32619205117225647 0.4780573844909668
0.011394590139389038 0.32704618573188782 0.46770578622817993
0.26549074053764343 0.32639360427856445 0.48524641990661621
0.50936555862426758 0.31865066289901733 0.47887781262397766
0.70591884851455688 0.28913259506225586 0.45604401826858521
0.88271123170852661 0.16378112137317657 0.39525175094604492
0.99441170692443848 0.078856192529201508 0.37229719758033752
0.012052139267325401 0.47228652238845825 0.48232242465019226
0.010320551693439484 0.4801408052444458 0.47566494345664978
0.13342657685279846 0.48709097504615784 0.48040255904197693
0.47094768285751343 0.49869439005851746 0.49702921509742737
0.69167459011077881 0.46727684140205383 0.45405369997024536
0.88848662376403809 0.418394535779953 0.41953760385513306
0.99759089946746826 0.36336791515350342 0.38608747720718384
0.029219144955277443 0.62871533632278442 0.51465457677841187
0.032751478254795074 0.64131242036819458 0.51098728179931641
0.054017428308725357 0.6629834771156311 0.50680941343307495
0.27037772536277771 0.67099988460540771 0.52740341424942017
0.65017557144165039 0.66404038667678833 0.49202084541320801
0.87130582332611084 0.63715702295303345 0.44265472888946533
0.99333351850509644 0.61790841817855835 0.42755070328712463
0.027698112651705742 0.78624206781387329 0.54092860221862793
0.030780522152781487 0.79188746213912964 0.5411345362663269
0.023400340229272842 0.80657470226287842 0.51830720901489258
0.05500468984246254 0.83228075504302979 0.57390004396438599
0.36423766613006592 0.83951151371002197 0.58150762319564819
0.8163641095161438 0.81126165390014648 0.47204640507698059
0.99271672964096069 0.7873384952545166 0.42806392908096313
0.014768428169190884 0.92499375343322754 0.56090474128723145
0.03142089769244194 0.92631900310516357 0.57356113195419312
0.025548314675688744 0.93349450826644897 0.60865670442581177
0.014593790285289288 0.9647146463394165 0.65013599395751953
0.11120559275150299 0.97517210245132446 0.62971955537796021
0.64718365669250488 0.95726436376571655 0.53032571077346802
0.97083145380020142 0.94460219144821167 0.43914321064949036
0.02511666901409626 0.11193828284740448 0.6696128249168396
0.1012837141752243 0.14038453996181488 0.65647536516189575
0.29841828346252441 0.13761727511882782 0.64192169904708862
0.50124263763427734 0.13027788698673248 0.63343346118927002
0.7068789005279541 0.097731329500675201 0.62175393104553223
0.89698076248168945 0.048292510211467743 0.60397046804428101
0.98346167802810669 0.025000089779496193 0.59153962135314941
0.022179607301950455 0.19204841554164886 0.66060560941696167
0.10263480246067047 0.20134267210960388 0.65612560510635376
0.29305738210678101 0.19566230475902557 0.64820230007171631
0.51074784994125366 0.20807956159114838 0.6479111909866333
0.71705412864685059 0.19344203174114227 0.63975495100021362
0.90410387516021729 0.082185424864292145 0.62147551774978638
0.98846298456192017 0.029288677498698235 0.59133017063140869
0.0056250928901135921 0.32610851526260376 0.6242862343788147
0.041912678629159927 0.32583311200141907 0.62422239780426025
0.2431393563747406 0.32672089338302612 0.64507156610488892
0.50210034847259521 0.32685384154319763 0.65351778268814087
0.71759635210037231 0.31341928243637085 0.6505470871925354
0.91409051418304443 0.25237679481506348 0.63525933027267456
0.99090468883514404 0.1160665899515152 0.59985464811325073
0.0088552441447973251 0.47571900486946106 0.63017690181732178
0.0091286450624465942 0.47979137301445007 0.61656445264816284
0.10973268747329712 0.48589518666267395 0.6155092716217041
0.45570358633995056 0.48975744843482971 0.63874268531799316
0.69585675001144409 0.48585966229438782 0.65046536922454834
0.89028841257095337 0.42821875214576721 0.61638891696929932
0.99555319547653198 0.34623384475708008 0.5758281946182251
0.022864308208227158 0.63549154996871948 0.6526673436164856
0.032254327088594437 0.63962984085083008 0.63303542137145996
0.033483646810054779 0.64133363962173462 0.59969049692153931
0.34352767467498779 0.65741956233978271 0.6460222601890564
0.65703326463699341 0.66270118951797485 0.65912353992462158
0.8678659200668335 0.63796001672744751 0.631999671459198
0.99334251880645752 0.58288449048995972 0.58049845695495605
0.033452007919549942 0.79778087139129639 0.67225998640060425
0.039891291409730911 0.80254071950912476 0.66531157493591309
0.035880353301763535 0.81139290332794189 0.65725153684616089
0.17335788905620575 0.81825834512710571 0.67404723167419434
0.50446182489395142 0.82023370265960693 0.68151623010635376
0.82128691673278809 0.80988097190856934 0.6473802924156189
0.99254953861236572 0.79519087076187134 0.61681622266769409
0.019341383129358292 0.93051415681838989 0.67741763591766357
0.043586026877164841 0.92530226707458496 0.68712085485458374
0.053680524230003357 0.91255515813827515 0.69728916883468628
0.094942383468151093 0.93694931268692017 0.72242057323455811
0.077432490885257721 0.97640323638916016 0.79664057493209839
0.55724525451660156 0.97026574611663818 0.73489445447921753
0.96141159534454346 0.94892442226409912 0.63190585374832153
0.018316784873604774 0.12489423900842667 0.8208734393119812
0.1154676228761673 0.1381075531244278 0.80798685550689697
0.29699346423149109 0.13398869335651398 0.80332547426223755
0.50483816862106323 0.13453127443790436 0.79990202188491821
0.70717859268188477 0.11774683743715286 0.79160141944885254
0.89449054002761841 0.086260654032230377 0.7958253026008606
0.9747089147567749 0.059181198477745056 0.78887224197387695
0.01749846525490284 0.20822475850582123 0.81586557626724243
0.11471650004386902 0.21233339607715607 0.81186532974243164
0.28592401742935181 0.22047716379165649 0.80869913101196289
0.502113938331604 0.22144056856632233 0.80309540033340454
0.70879507064819336 0.2035071849822998 0.79788362979888916
0.89463227987289429 0.14829626679420471 0.80143988132476807
0.97303777933120728 0.11059635877609253 0.79493314027786255
0.0068793501704931259 0.33836555480957031 0.78675532341003418
0.061716686934232712 0.34151080250740051 0.78537559509277344
0.25123697519302368 0.34824469685554504 0.80869454145431519
0.49321967363357544 0.34196645021438599 0.80123758316040039
0.70913791656494141 0.32409003376960754 0.80431538820266724
0.89303833246231079 0.28969079256057739 0.79921573400497437
0.98611819744110107 0.22443395853042603 0.79598689079284668
0.0060380073264241219 0.48496913909912109 0.76935464143753052
0.015270951204001904 0.49194410443305969 0.76342713832855225
0.10233833640813828 0.49807876348495483 0.76734364032745361
0.43896505236625671 0.50053989887237549 0.79602319002151489
0.69160842895507812 0.49218043684959412 0.80274933576583862
0.89548230171203613 0.46674454212188721 0.80365908145904541
0.99521702527999878 0.38333871960639954 0.79316997528076172
0.011437449604272842 0.65017670392990112 0.79806578159332275
0.026199445128440857 0.65423548221588135 0.78170335292816162
0.042816430330276489 0.64680176973342896 0.75143980979919434
0.31585261225700378 0.64987468719482422 0.7484315037727356
0.64760458469390869 0.65748727321624756 0.7897113561630249
0.86989080905914307 0.64397656917572021 0.79747152328491211
0.9960092306137085 0.57719188928604126 0.77721786499023438
0.015228495933115482 0.80220544338226318 0.79875242710113525
0.03472759947180748 0.809184730052948 0.79823809862136841
0.048026829957962036 0.81377154588699341 0.78637659549713135
0.18852095305919647 0.8114553689956665 0.77420449256896973
0.54776310920715332 0.81341332197189331 0.79306846857070923
0.83388274908065796 0.80776059627532959 0.79274183511734009
0.99136865139007568 0.78378134965896606 0.76855760812759399
0.0092378053814172745 0.93914896249771118 0.79339945316314697
0.034402377903461456 0.93778038024902344 0.79403513669967651
0.047298058867454529 0.92338347434997559 0.80162221193313599
0.14180934429168701 0.9292798638343811 0.81091225147247314
0.38360056281089783 0.94978153705596924 0.80924421548843384
0.54883402585983276 0.96778291463851929 0.87978976964950562
0.97529858350753784 0.94850432872772217 0.78408181667327881
0.0067175021395087242 0.11607565730810165 0.96342790126800537
0.072907179594039917 0.13391798734664917 0.94936048984527588
0.26959654688835144 0.14296001195907593 0.93865978717803955
0.51439273357391357 0.13066139817237854 0.94495069980621338
0.71247404813766479 0.10813760012388229 0.9403231143951416
0.86592739820480347 0.077633827924728394 0.92598748207092285
0.98575717210769653 0.024790311232209206 0.95370560884475708
0.0079982234165072441 0.21484921872615814 0.94717222452163696
0.10177972912788391 0.21516150236129761 0.94424569606781006
0.27788469195365906 0.21850197017192841 0.95209234952926636
0.50553566217422485 0.21548880636692047 0.94713711738586426
0.71032148599624634 0.19631724059581757 0.94418925046920776
0.8661307692527771 0.149664506316185 0.92366319894790649
0.96609306335449219 0.14058366417884827 0.94074064493179321
0.011424928903579712 0.34978967905044556 0.93663835525512695
0.090369217097759247 0.3560030460357666 0.93237578868865967
0.26174849271774292 0.34942218661308289 0.94144260883331299
0.4876219630241394 0.34088078141212463 0.94307112693786621
0.70185893774032593 0.32954728603363037 0.94405663013458252
0.86542755365371704 0.31056129932403564 0.93700754642486572
0.98344755172729492 0.28947329521179199 0.95597732067108154
0.0055794510990381241 0.50716036558151245 0.92245221138000488
0.01756560429930687 0.50902718305587769 0.92650210857391357
0.13617035746574402 0.51186054944992065 0.93960750102996826
0.43838351964950562 0.50382983684539795 0.93579310178756714
0.67404454946517944 0.50311106443405151 0.93288612365722656
0.86660730838775635 0.4813026487827301 0.9380497932434082
0.98597902059555054 0.4713960587978363 0.94860506057739258
0.0077784368768334389 0.66486227512359619 0.93100333213806152
0.012649506330490112 0.6667865514755249 0.92750459909439087
0.085270717740058899 0.67120778560638428 0.92025136947631836
0.36096525192260742 0.66465002298355103 0.92215472459793091
0.63358283042907715 0.6668088436126709 0.9244992733001709
0.85480976104736328 0.65521365404129028 0.93786895275115967
0.9938921332359314 0.63613522052764893 0.9389534592628479
0.013491207733750343 0.81503629684448242 0.91777294874191284
0.021974422037601471 0.81834429502487183 0.91389089822769165
0.027562817558646202 0.81985586881637573 0.91145807504653931
0.075898565351963043 0.82211399078369141 0.90305477380752563
0.54723036289215088 0.81385982036590576 0.9213252067565918
0.82503950595855713 0.80682229995727539 0.92601674795150757
0.99447977542877197 0.79196304082870483 0.93562597036361694
0.0016518387710675597 0.96986681222915649 0.90436297655105591
0.0077689825557172298 0.97119784355163574 0.89501309394836426
0.016503037884831429 0.95852649211883545 0.8885873556137085
0.027219465002417564 0.96767795085906982 0.90011221170425415
0.16902315616607666 0.96700841188430786 0.90040421485900879
0.65088534355163574 0.96648210287094116 0.94435930252075195
0.982643723487854 0.94688785076141357 0.92676317691802979
