assets/lut/pixlsus taiga.cube
# Created by: G'MIC (https://gmic.eu)
TITLE "taiga"
# LUT size
LUT_3D_SIZE 7
# Data domain
DOMAIN_MIN 0.0 0.0 0.0
DOMAIN_MAX 1.0 1.0 1.0
# LUT data points
0.011101307347416878 0.068820342421531677 0.05467161163687706
0.20105326175689697 0.056033790111541748 0.033973485231399536
0.3974822461605072 0.051474418491125107 0.011557994410395622
0.56379491090774536 0.057708695530891418 0.0056022941134870052
0.72653841972351074 0.043378911912441254 0.0085620954632759094
0.86478257179260254 0.033193953335285187 0.019894827157258987
0.97297376394271851 0.022042412310838699 0.019152337685227394
0.016356823965907097 0.22721046209335327 0.05258573591709137
0.14886628091335297 0.21812735497951508 0.049481693655252457
0.35702025890350342 0.21065393090248108 0.030406681820750237
0.55222749710083008 0.19497227668762207 0.010312368161976337
0.72363340854644775 0.16717331111431122 0.0072198305279016495
0.86421060562133789 0.14262650907039642 0.0079207178205251694
0.97913438081741333 0.1243789941072464 0.012649745680391788
0.0064752614125609398 0.38052761554718018 0.059660308063030243
0.10523934662342072 0.37566301226615906 0.048141747713088989
0.31868267059326172 0.37052574753761292 0.046990770846605301
0.51884931325912476 0.36243107914924622 0.033073246479034424
0.69691520929336548 0.33902227878570557 0.019084421917796135
0.85098457336425781 0.31369659304618835 0.011929650790989399
0.97306251525878906 0.29796028137207031 0.014946358278393745
0.0063595790416002274 0.52394396066665649 0.04762515053153038
0.1075173020362854 0.52121412754058838 0.066419027745723724
0.29661554098129272 0.53245526552200317 0.044247794896364212
0.49572303891181946 0.52694547176361084 0.052095569670200348
0.67983013391494751 0.50828248262405396 0.030463708564639091
0.83433187007904053 0.48514184355735779 0.02431018278002739
0.96202874183654785 0.47080320119857788 0.035982422530651093
0.011910217814147472 0.64698290824890137 0.05157451331615448
0.10497010499238968 0.65293800830841064 0.063368476927280426
0.29445824027061462 0.66666793823242188 0.053000714629888535
0.4888661801815033 0.67087858915328979 0.052520766854286194
0.66205275058746338 0.67147815227508545 0.047887586057186127
0.82726055383682251 0.65469050407409668 0.052005048841238022
0.95972728729248047 0.64626836776733398 0.040508657693862915
0.01581890694797039 0.77990543842315674 0.051752980798482895
0.10513594746589661 0.78819692134857178 0.055908817797899246
0.29214805364608765 0.79778850078582764 0.056121166795492172
0.49468934535980225 0.80637878179550171 0.057923410087823868
0.66879010200500488 0.8141624927520752 0.058104854077100754
0.82149797677993774 0.80724573135375977 0.059125009924173355
0.95829027891159058 0.80415099859237671 0.048218417912721634
0.018504347652196884 0.91596245765686035 0.045440718531608582
0.11469599604606628 0.92083489894866943 0.045643750578165054
0.28599026799201965 0.9276776909828186 0.048577971756458282
0.49397578835487366 0.93824052810668945 0.043851844966411591
0.66948914527893066 0.94723641872406006 0.044227764010429382
0.81605088710784912 0.95196264982223511 0.040995996445417404
0.96064150333404541 0.95673823356628418 0.043088920414447784
0.016044542193412781 0.072785094380378723 0.19813784956932068
0.16222289204597473 0.073060251772403717 0.19565244019031525
0.36372891068458557 0.061336681246757507 0.1749933660030365
0.56725490093231201 0.046620670706033707 0.13820411264896393
0.73989772796630859 0.026192490011453629 0.12103156000375748
0.87786257266998291 0.013625649735331535 0.11093006283044815
0.98019194602966309 0.01450169924646616 0.11741606891155243
0.018371477723121643 0.21804390847682953 0.19389177858829498
0.1283380538225174 0.23051519691944122 0.18739676475524902
0.35324367880821228 0.21390879154205322 0.16514849662780762
0.55631858110427856 0.18761599063873291 0.12673865258693695
0.76065528392791748 0.13775351643562317 0.088584661483764648
0.9263191819190979 0.091215319931507111 0.058602262288331985
0.99246305227279663 0.12239101529121399 0.10854869335889816
0.012604492716491222 0.37612447142601013 0.18364851176738739
0.071807652711868286 0.38399484753608704 0.16751527786254883
0.30635848641395569 0.37917914986610413 0.18169316649436951
0.51652175188064575 0.37234437465667725 0.15415598452091217
0.72809892892837524 0.33588248491287231 0.11585431545972824
0.89015227556228638 0.29428490996360779 0.093125827610492706
0.98118132352828979 0.29024827480316162 0.11706477403640747
0.022643204778432846 0.51768791675567627 0.16789546608924866
0.057829421013593674 0.53292864561080933 0.15452991425991058
0.27039125561714172 0.53017383813858032 0.16992665827274323
0.49512183666229248 0.52894121408462524 0.17942556738853455
0.69297969341278076 0.51566493511199951 0.15141554176807404
0.86838704347610474 0.49377161264419556 0.11777554452419281
0.97822242975234985 0.47672069072723389 0.13431909680366516
0.02164643257856369 0.65081387758255005 0.15616784989833832
0.076382458209991455 0.66995513439178467 0.15425604581832886
0.25606784224510193 0.68121862411499023 0.16268931329250336
0.47433516383171082 0.67964005470275879 0.18014049530029297
0.65984970331192017 0.67910826206207275 0.18257631361484528
0.83352839946746826 0.6735999584197998 0.16247712075710297
0.96894145011901855 0.65708506107330322 0.15948277711868286
0.020505433902144432 0.78746742010116577 0.15627717971801758
0.10014878958463669 0.80614656209945679 0.15989445149898529
0.27124291658401489 0.81238341331481934 0.16755099594593048
0.48144295811653137 0.81177645921707153 0.18036335706710815
0.65723252296447754 0.81686830520629883 0.18444390594959259
0.81067430973052979 0.81767088174819946 0.18057356774806976
0.9614555835723877 0.81221139430999756 0.17216597497463226
0.019692739471793175 0.92159438133239746 0.15904006361961365
0.12787073850631714 0.92081332206726074 0.17244328558444977
0.29466569423675537 0.92586082220077515 0.17413340508937836
0.49006929993629456 0.93463617563247681 0.16916565597057343
0.66704761981964111 0.9376671314239502 0.1757330596446991
0.81263190507888794 0.94881004095077515 0.17881214618682861
0.95846009254455566 0.95807170867919922 0.18292021751403809
0.027131369337439537 0.08054700493812561 0.34224092960357666
0.16243614256381989 0.084875099360942841 0.34194090962409973
0.32378685474395752 0.087295383214950562 0.3409779965877533
0.52338290214538574 0.070519663393497467 0.32429790496826172
0.71183931827545166 0.045773644000291824 0.31145653128623962
0.85959982872009277 0.025598324835300446 0.29816955327987671
0.97097432613372803 0.026942983269691467 0.29078283905982971
0.026482794433832169 0.22508272528648376 0.34243869781494141
0.15786413848400116 0.23345059156417847 0.33816364407539368
0.31562471389770508 0.23390935361385345 0.33771869540214539
0.51963770389556885 0.20737433433532715 0.31393671035766602
0.7265893816947937 0.16096816956996918 0.28991669416427612
0.89576441049575806 0.11665172129869461 0.2659858763217926
0.98870933055877686 0.12919020652770996 0.27930080890655518
0.0266545619815588 0.36976268887519836 0.34033861756324768
0.14716476202011108 0.37989184260368347 0.33823230862617493
0.28854286670684814 0.38830593228340149 0.33093073964118958
0.50617516040802002 0.37262749671936035 0.309713214635849
0.72159308195114136 0.32395359873771667 0.27282893657684326
0.88471579551696777 0.28376349806785583 0.25153389573097229
0.99215328693389893 0.29419580101966858 0.27572649717330933
0.046947959810495377 0.51512664556503296 0.32463616132736206
0.1130654439330101 0.52894830703735352 0.31667616963386536
0.24396216869354248 0.54148143529891968 0.30721139907836914
0.47976356744766235 0.53915786743164062 0.32413893938064575
0.68936681747436523 0.51333236694335938 0.30150124430656433
0.86462515592575073 0.48146188259124756 0.27220135927200317
0.98339223861694336 0.47309517860412598 0.27931451797485352
0.050063759088516235 0.65776163339614868 0.3132459819316864
0.095424383878707886 0.67722582817077637 0.30652040243148804
0.25322571396827698 0.68529903888702393 0.31209033727645874
0.4707120954990387 0.68437790870666504 0.32473382353782654
0.65691679716110229 0.68061095476150513 0.32671105861663818
0.83059465885162354 0.67185401916503906 0.30497005581855774
0.96851283311843872 0.65658104419708252 0.30133935809135437
0.03462359681725502 0.79527872800827026 0.30971300601959229
0.10108420997858047 0.8084293007850647 0.30747950077056885
0.26594197750091553 0.81544345617294312 0.31953722238540649
0.47393661737442017 0.81445395946502686 0.32825544476509094
0.65463602542877197 0.81470954418182373 0.33037582039833069
0.8080897331237793 0.82152646780014038 0.32767501473426819
0.96100062131881714 0.81516844034194946 0.32466393709182739
0.023500390350818634 0.92631536722183228 0.312336266040802
0.11314211040735245 0.92496025562286377 0.31685593724250793
0.28205174207687378 0.92701238393783569 0.32392361760139465
0.48938146233558655 0.92953741550445557 0.32303372025489807
0.66861951351165771 0.93596488237380981 0.32209339737892151
0.81208121776580811 0.94947624206542969 0.3279411792755127
0.95511293411254883 0.9543272852897644 0.33311054110527039
0.041718188673257828 0.086973734200000763 0.49355864524841309
0.16979558765888214 0.093687392771244049 0.49170985817909241
0.31952697038650513 0.091253139078617096 0.49096918106079102
0.49223390221595764 0.08693213015794754 0.49435865879058838
0.6879076361656189 0.065803438425064087 0.49173995852470398
0.83819437026977539 0.049319054931402206 0.47459420561790466
0.96574020385742188 0.039787456393241882 0.46281269192695618
0.065348617732524872 0.22748567163944244 0.48255428671836853
0.16526815295219421 0.24047023057937622 0.489564448595047
0.31012913584709167 0.23992747068405151 0.48302164673805237
0.48262706398963928 0.23057647049427032 0.48201689124107361
0.6869046688079834 0.19921773672103882 0.48561272025108337
0.85848414897918701 0.16220834851264954 0.47190910577774048
0.96921855211257935 0.16069790720939636 0.46329835057258606
0.084538251161575317 0.37608113884925842 0.47651326656341553
0.16481298208236694 0.38315418362617493 0.48575371503829956
0.31009200215339661 0.38995298743247986 0.49186611175537109
0.47512957453727722 0.38767030835151672 0.4854024350643158
0.68083328008651733 0.35135403275489807 0.48028594255447388
0.85829490423202515 0.3144281804561615 0.46767327189445496
0.98196756839752197 0.31008696556091309 0.45928934216499329
0.03921959176659584 0.52843225002288818 0.48455736041069031
0.15023598074913025 0.53145390748977661 0.48546317219734192
0.30127346515655518 0.53916436433792114 0.48943465948104858
0.47293990850448608 0.54098397493362427 0.48834937810897827
0.67476832866668701 0.52594530582427979 0.47433292865753174
0.85336977243423462 0.48620122671127319 0.44657573103904724
0.99060940742492676 0.47294130921363831 0.44250550866127014
0.0589713454246521 0.66531848907470703 0.48617264628410339
0.13853491842746735 0.67050278186798096 0.4875483512878418
0.3014722466468811 0.67757582664489746 0.48893389105796814
0.49436765909194946 0.68729937076568604 0.50122183561325073
0.65561032295227051 0.68547004461288452 0.49461460113525391
0.83261442184448242 0.67184633016586304 0.46428880095481873
0.97972893714904785 0.65956467390060425 0.45955157279968262
0.049999192357063293 0.79925298690795898 0.48593378067016602
0.129873126745224 0.79938971996307373 0.48624882102012634
0.29395383596420288 0.80732637643814087 0.49098330736160278
0.48803538084030151 0.80842632055282593 0.49809524416923523
0.65787124633789062 0.81144028902053833 0.49008649587631226
0.81394112110137939 0.82106888294219971 0.48424530029296875
0.96497827768325806 0.81617963314056396 0.48000794649124146
0.033152710646390915 0.93493562936782837 0.49103754758834839
0.11264628916978836 0.92914491891860962 0.48618322610855103
0.28092464804649353 0.92353695631027222 0.48732715845108032
0.47806525230407715 0.92058485746383667 0.4895595908164978
0.66639900207519531 0.93092530965805054 0.48686635494232178
0.81757670640945435 0.9457021951675415 0.48908877372741699
0.95867562294006348 0.9582248330116272 0.49245938658714294
0.039853982627391815 0.075535029172897339 0.6559186577796936
0.1798015683889389 0.079986155033111572 0.65479987859725952
0.32564839720726013 0.084256507456302643 0.6534004807472229
0.49122732877731323 0.086010292172431946 0.65366971492767334
0.66247695684432983 0.072708755731582642 0.66238629817962646
0.81395637989044189 0.083619289100170135 0.64934414625167847
0.94537502527236938 0.083937086164951324 0.63214784860610962
0.077154524624347687 0.21855555474758148 0.6399686336517334
0.18025581538677216 0.22801284492015839 0.6355968713760376
0.31386569142341614 0.23372781276702881 0.63831233978271484
0.47911262512207031 0.23097385466098785 0.6461101770401001
0.65949785709381104 0.22524723410606384 0.66100358963012695
0.81498527526855469 0.21245989203453064 0.64937251806259155
0.95255494117736816 0.19715602695941925 0.64088940620422363
0.077090919017791748 0.36303526163101196 0.63803434371948242
0.18327298760414124 0.37602376937866211 0.63628298044204712
0.31615099310874939 0.38497430086135864 0.64634048938751221
0.47980186343193054 0.386574387550354 0.64585751295089722
0.65482693910598755 0.37922078371047974 0.65814483165740967
0.81935745477676392 0.35279771685600281 0.64498734474182129
0.96312028169631958 0.3378337025642395 0.64249962568283081
0.039355676621198654 0.50866198539733887 0.6538359522819519
0.17281457781791687 0.51836138963699341 0.64552682638168335
0.31617623567581177 0.53214496374130249 0.64908504486083984
0.47910800576210022 0.53901898860931396 0.65625834465026855
0.65268915891647339 0.53622186183929443 0.65574681758880615
0.82806533575057983 0.51159000396728516 0.63766801357269287
0.97389072179794312 0.49985221028327942 0.63754373788833618
0.063758209347724915 0.66312962770462036 0.66031515598297119
0.16741415858268738 0.67089110612869263 0.6532512903213501
0.31978264451026917 0.6758391261100769 0.65114229917526245
0.490682452917099 0.68227291107177734 0.65812808275222778
0.66558349132537842 0.68296694755554199 0.6523626446723938
0.83232194185256958 0.66586685180664062 0.63329541683197021
0.98357522487640381 0.64397644996643066 0.61692583560943604
0.067390859127044678 0.80810022354125977 0.66218894720077515
0.15668447315692902 0.80712509155273438 0.66036903858184814
0.31090369820594788 0.80812191963195801 0.65741258859634399
0.49038875102996826 0.80800259113311768 0.66076564788818359
0.67984616756439209 0.80596256256103516 0.66096407175064087
0.81680446863174438 0.81844693422317505 0.6477007269859314
0.97091495990753174 0.81317150592803955 0.63516455888748169
0.041324105113744736 0.94356834888458252 0.66326475143432617
0.13902157545089722 0.94096022844314575 0.66462355852127075
0.29460802674293518 0.93500661849975586 0.66169947385787964
0.48367315530776978 0.92683064937591553 0.65656399726867676
0.6791037917137146 0.92369282245635986 0.65712404251098633
0.82508766651153564 0.93627971410751343 0.65546572208404541
0.96069449186325073 0.9560856819152832 0.65205633640289307
0.052500106394290924 0.068104252219200134 0.80963730812072754
0.18779613077640533 0.072138227522373199 0.80265301465988159
0.32807421684265137 0.072876632213592529 0.80235439538955688
0.48928353190422058 0.073267541825771332 0.80564659833908081
0.659820556640625 0.071917109191417694 0.81644135713577271
0.80759447813034058 0.080365188419818878 0.80906707048416138
0.94999390840530396 0.11036508530378342 0.80165964365005493
0.065581515431404114 0.20793159306049347 0.80380904674530029
0.19482336938381195 0.21337336301803589 0.79426831007003784
0.32549476623535156 0.22056560218334198 0.79542094469070435
0.49005526304244995 0.21766626834869385 0.8050352931022644
0.65630680322647095 0.21566501259803772 0.81496399641036987
0.80531245470046997 0.20811185240745544 0.80706620216369629
0.95404446125030518 0.19254331290721893 0.80269694328308105
0.064233057200908661 0.35409367084503174 0.80055397748947144
0.1921069473028183 0.36679559946060181 0.79568803310394287
0.32568544149398804 0.37844124436378479 0.79864978790283203
0.48624584078788757 0.37828388810157776 0.80346405506134033
0.65503489971160889 0.37107086181640625 0.81362104415893555
0.80281680822372437 0.35968217253684998 0.80327039957046509
0.94629502296447754 0.3468378484249115 0.7967219352722168
0.046988051384687424 0.49832165241241455 0.80998551845550537
0.17918321490287781 0.50899982452392578 0.80547302961349487
0.3239777684211731 0.5256161093711853 0.80294120311737061
0.4817216694355011 0.53300708532333374 0.80700516700744629
0.65107548236846924 0.53233087062835693 0.81004565954208374
0.80844748020172119 0.52516883611679077 0.80434894561767578
0.95723956823348999 0.50871753692626953 0.79881048202514648
0.056311048567295074 0.65764468908309937 0.81184226274490356
0.17611086368560791 0.66303187608718872 0.80822724103927612
0.32256332039833069 0.67394840717315674 0.80445504188537598
0.48370304703712463 0.67859506607055664 0.80676257610321045
0.6586681604385376 0.67467093467712402 0.80356383323669434
0.81503307819366455 0.67422455549240112 0.80291140079498291
0.96626114845275879 0.65855532884597778 0.79433357715606689
0.065654486417770386 0.8128623366355896 0.81512826681137085
0.17551411688327789 0.8123241662979126 0.81181496381759644
0.32209202647209167 0.8139723539352417 0.80695885419845581
0.48973795771598816 0.8145635724067688 0.80749702453613281
0.6599278450012207 0.81632000207901001 0.80539721250534058
0.82189750671386719 0.81338596343994141 0.8018069863319397
0.97251397371292114 0.80074882507324219 0.78080058097839355
0.042094390839338303 0.95251870155334473 0.81459838151931763
0.1579042375087738 0.95021337270736694 0.81229692697525024
0.31163674592971802 0.94849056005477905 0.81158888339996338
0.49018064141273499 0.94410091638565063 0.81193894147872925
0.67837059497833252 0.9368165135383606 0.81265604496002197
0.83932125568389893 0.92556685209274292 0.81183987855911255
0.96383553743362427 0.95598107576370239 0.79912036657333374
0.046563569456338882 0.046865008771419525 0.95496982336044312
0.19133961200714111 0.053963124752044678 0.94581109285354614
0.33800792694091797 0.051252342760562897 0.94751435518264771
0.49952301383018494 0.05173085629940033 0.94904762506484985
0.65948468446731567 0.049020372331142426 0.95695793628692627
0.80792880058288574 0.047756090760231018 0.95417958498001099
0.95619213581085205 0.048814047127962112 0.95303177833557129
0.06267266720533371 0.19642484188079834 0.94366967678070068
0.19705793261528015 0.20123977959156036 0.94627672433853149
0.33693346381187439 0.20480312407016754 0.95011264085769653
0.50049006938934326 0.2041030079126358 0.95054632425308228
0.65585654973983765 0.19927306473255157 0.94881957769393921
0.80294120311737061 0.19412308931350708 0.94312584400177002
0.95378607511520386 0.19643764197826385 0.9482232928276062
0.051853224635124207 0.34606990218162537 0.95081841945648193
0.18842205405235291 0.35808616876602173 0.94404655694961548
0.32929182052612305 0.36418169736862183 0.95519214868545532
0.50027841329574585 0.36130788922309875 0.95228862762451172
0.65764498710632324 0.3573143482208252 0.95246618986129761
0.80440318584442139 0.35526356101036072 0.95181930065155029
0.9500507116317749 0.35072740912437439 0.94759255647659302
0.042958248406648636 0.49638792872428894 0.95070093870162964
0.18025708198547363 0.50810343027114868 0.94311022758483887
0.3346591591835022 0.51270139217376709 0.9466361403465271
0.49781954288482666 0.51462137699127197 0.95417666435241699
0.65769189596176147 0.51745319366455078 0.95230895280838013
0.8073430061340332 0.52139836549758911 0.95366305112838745
0.95704150199890137 0.51154410839080811 0.94890099763870239
0.043205816298723221 0.65691655874252319 0.95056486129760742
0.17969882488250732 0.66339379549026489 0.95265895128250122
0.33231183886528015 0.66624599695205688 0.95140659809112549
0.49694594740867615 0.66343498229980469 0.9481157660484314
0.66074734926223755 0.66552060842514038 0.94746965169906616
0.8109898567199707 0.67290234565734863 0.95433622598648071
0.95700305700302124 0.67239433526992798 0.95636814832687378
0.052926681935787201 0.8114631175994873 0.95863223075866699
0.18019397556781769 0.81446182727813721 0.95612984895706177
0.32703617215156555 0.81598639488220215 0.9572942852973938
0.49380618333816528 0.81669515371322632 0.95316559076309204
0.66058158874511719 0.81610023975372314 0.95461487770080566
0.81449598073959351 0.81661009788513184 0.95417928695678711
0.96228164434432983 0.81314241886138916 0.95367830991744995
0.04565734788775444 0.95919406414031982 0.95974397659301758
0.17898483574390411 0.9596516489982605 0.95788270235061646
0.32551336288452148 0.95849430561065674 0.95955222845077515
0.49452310800552368 0.95746409893035889 0.95911842584609985
0.66265791654586792 0.95797193050384521 0.95939284563064575
0.81846445798873901 0.95544636249542236 0.95980405807495117
0.96486043930053711 0.95277965068817139 0.95708167552947998
