assets/lut/pixlsus modern film.cube
# Created by: G'MIC (https://gmic.eu)
TITLE "modern_film"
# LUT size
LUT_3D_SIZE 13
# Data domain
DOMAIN_MIN 0.0 0.0 0.0
DOMAIN_MAX 1.0 1.0 1.0
# LUT data points
0.03982582688331604 0.037006542086601257 0.037714641541242599
0.11616085469722748 0.037607245147228241 0.038572244346141815
0.17896002531051636 0.047353856265544891 0.046651475131511688
0.23893699049949646 0.060934297740459442 0.058335427194833755
0.2970588207244873 0.077743560075759888 0.072358675301074982
0.35456356406211853 0.098630227148532867 0.092126466333866119
0.4216158390045166 0.10920179635286331 0.10314036160707474
0.51231735944747925 0.088914729654788971 0.084524504840373993
0.60922145843505859 0.064918786287307739 0.05912264809012413
0.7023894190788269 0.049536775797605515 0.040099125355482101
0.79229384660720825 0.040204081684350967 0.026316877454519272
0.87945437431335449 0.035115096718072891 0.017837854102253914
0.96408003568649292 0.031852617859840393 0.017234234139323235
0.042278125882148743 0.11316226422786713 0.032308436930179596
0.11851357668638229 0.11182994395494461 0.041255548596382141
0.18897527456283569 0.11397206783294678 0.053335841745138168
0.24895642697811127 0.12004207819700241 0.069506071507930756
0.30632561445236206 0.12845088541507721 0.086238488554954529
0.36458501219749451 0.13945744931697845 0.1051485687494278
0.4332764744758606 0.1427294909954071 0.11591646075248718
0.5215526819229126 0.12671978771686554 0.099486738443374634
0.61719107627868652 0.1103358119726181 0.071700677275657654
0.70992070436477661 0.10091337561607361 0.049053654074668884
0.79852503538131714 0.096218258142471313 0.032264575362205505
0.88393485546112061 0.094684794545173645 0.022093126550316811
0.96686667203903198 0.095350839197635651 0.021102696657180786
0.073371529579162598 0.18472574651241302 0.058884892612695694
0.13419920206069946 0.18539172410964966 0.058818891644477844
0.20070020854473114 0.18658554553985596 0.065054513514041901
0.26139497756958008 0.18884716928005219 0.081918977200984955
0.31889894604682922 0.19288930296897888 0.10333292186260223
0.3776887059211731 0.19867409765720367 0.1251378059387207
0.4450066089630127 0.19932562112808228 0.13593541085720062
0.5310637354850769 0.18876101076602936 0.11736545711755753
0.62536484003067017 0.17540411651134491 0.086721457540988922
0.71702051162719727 0.16636958718299866 0.061368726193904877
0.80407112836837769 0.16302892565727234 0.042297888547182083
0.88726478815078735 0.16297835111618042 0.030249083414673805
0.9684264063835144 0.16479387879371643 0.028478315100073814
0.1162458211183548 0.25455757975578308 0.091545075178146362
0.16325525939464569 0.25655403733253479 0.089492708444595337
0.21687191724777222 0.25861841440200806 0.092152044177055359
0.27633002400398254 0.26062354445457458 0.10406035184860229
0.33731430768966675 0.26323360204696655 0.1218087300658226
0.39876320958137512 0.26667845249176025 0.14155678451061249
0.46504288911819458 0.2668212354183197 0.15166448056697845
0.54689317941665649 0.25919380784034729 0.13434988260269165
0.63706463575363159 0.24854177236557007 0.10472645610570908
0.72590255737304688 0.24052262306213379 0.077393539249897003
0.80991894006729126 0.23743860423564911 0.055618718266487122
0.89068663120269775 0.23817431926727295 0.042022883892059326
0.96911066770553589 0.23965844511985779 0.040009353309869766
0.16546398401260376 0.32369145750999451 0.13002859055995941
0.20170137286186218 0.32608151435852051 0.12864415347576141
0.24263285100460052 0.32907700538635254 0.12821744382381439
0.29777491092681885 0.3314969539642334 0.13458067178726196
0.36041325330734253 0.33380240201950073 0.14533227682113647
0.42432478070259094 0.3357943594455719 0.15900145471096039
0.49167945981025696 0.33524498343467712 0.16534514725208282
0.56867241859436035 0.33067029714584351 0.14805230498313904
0.65287280082702637 0.3235262930393219 0.12000739574432373
0.73643022775650024 0.31798753142356873 0.092142127454280853
0.81630611419677734 0.31614768505096436 0.069982893764972687
0.89307254552841187 0.31638559699058533 0.058768000453710556
0.96911764144897461 0.3189692497253418 0.059681206941604614
0.21309229731559753 0.39427682757377625 0.17506761848926544
0.24621228873729706 0.39564508199691772 0.17205445468425751
0.28201216459274292 0.39848896861076355 0.16819633543491364
0.32988926768302917 0.40153089165687561 0.16840444505214691
0.3869483470916748 0.40417852997779846 0.17475998401641846
0.44914188981056213 0.40558931231498718 0.18727564811706543
0.51708787679672241 0.40517070889472961 0.18957476317882538
0.59105122089385986 0.40313634276390076 0.16432386636734009
0.66960316896438599 0.40006300806999207 0.13066713511943817
0.74754989147186279 0.39717856049537659 0.10147646814584732
0.82328206300735474 0.39619612693786621 0.083586975932121277
0.89691722393035889 0.39709633588790894 0.080841630697250366
0.96955883502960205 0.39907801151275635 0.090704463422298431
0.24045561254024506 0.46688377857208252 0.20028035342693329
0.27773693203926086 0.46760529279708862 0.19901959598064423
0.31680074334144592 0.47019004821777344 0.1956731379032135
0.35964187979698181 0.47374480962753296 0.18876518309116364
0.41097581386566162 0.47681775689125061 0.19169440865516663
0.47207951545715332 0.47826778888702393 0.20678244531154633
0.53910177946090698 0.47839778661727905 0.20762686431407928
0.61085158586502075 0.47843137383460999 0.17686377465724945
0.68491297960281372 0.4779370129108429 0.1398889422416687
0.75905263423919678 0.47677627205848694 0.11053668707609177
0.83108979463577271 0.47683444619178772 0.098401054739952087
0.90149378776550293 0.47786712646484375 0.1072893813252449
0.97117000818252563 0.47940945625305176 0.12835046648979187
0.23664817214012146 0.54687821865081787 0.18848833441734314
0.27874007821083069 0.54683619737625122 0.18799693882465363
0.32257643342018127 0.54849445819854736 0.18372818827629089
0.36838066577911377 0.55156224966049194 0.17633767426013947
0.42190700769424438 0.5545419454574585 0.17533662915229797
0.48384341597557068 0.55593860149383545 0.183444544672966
0.55201900005340576 0.55608713626861572 0.18673272430896759
0.62385338544845581 0.55589812994003296 0.17198790609836578
0.69795334339141846 0.55570250749588013 0.14806489646434784
0.77079635858535767 0.55570167303085327 0.1271347850561142
0.84106236696243286 0.55612272024154663 0.12292042374610901
0.90889286994934082 0.55770879983901978 0.13930125534534454
0.9750019907951355 0.55943804979324341 0.16535602509975433
0.21740998327732086 0.6299852728843689 0.16267046332359314
0.25794243812561035 0.63015115261077881 0.16172780096530914
0.30364632606506348 0.63159489631652832 0.1574166864156723
0.35301768779754639 0.63420313596725464 0.15129987895488739
0.41053533554077148 0.63666486740112305 0.14627417922019958
0.4776465892791748 0.63847595453262329 0.14451667666435242
0.54936701059341431 0.63843429088592529 0.15450906753540039
0.62478417158126831 0.63717103004455566 0.16301658749580383
0.70322525501251221 0.6358826756477356 0.16234467923641205
0.7794690728187561 0.63497841358184814 0.15921354293823242
0.85061204433441162 0.6357153058052063 0.16461721062660217
0.91681581735610962 0.63668316602706909 0.18187783658504486
0.9798092246055603 0.63796955347061157 0.20522326231002808
0.20663869380950928 0.7141948938369751 0.15713967382907867
0.23759894073009491 0.71472573280334473 0.15677201747894287
0.27548244595527649 0.71605086326599121 0.15588237345218658
0.32133874297142029 0.7181670069694519 0.15244948863983154
0.37947052717208862 0.72041243314743042 0.14610502123832703
0.44947510957717896 0.72219210863113403 0.1423974335193634
0.52593404054641724 0.72183036804199219 0.1547713428735733
0.6081123948097229 0.71971005201339722 0.17521496117115021
0.69493693113327026 0.71674478054046631 0.19238506257534027
0.77878290414810181 0.7145501971244812 0.20576629042625427
0.8532179594039917 0.71402841806411743 0.21970170736312866
0.920654296875 0.71485024690628052 0.2364400178194046
0.98259782791137695 0.71753257513046265 0.25496214628219604
0.22177474200725555 0.79740118980407715 0.18790812790393829
0.23479552567005157 0.79825299978256226 0.18889316916465759
0.25381600856781006 0.7998538613319397 0.19250547885894775
0.28657883405685425 0.80161112546920776 0.19287104904651642
0.33958351612091064 0.80403983592987061 0.18900482356548309
0.40726298093795776 0.80547463893890381 0.187839075922966
0.48597100377082825 0.80542409420013428 0.19843612611293793
0.57434558868408203 0.80320197343826294 0.21842959523200989
0.66898638010025024 0.79972344636917114 0.24109701812267303
0.76075714826583862 0.79663741588592529 0.2627958357334137
0.84298950433731079 0.79495531320571899 0.28229072690010071
0.91579097509384155 0.79531663656234741 0.29858079552650452
0.98093479871749878 0.79685145616531372 0.31312653422355652
0.2621174156665802 0.87952917814254761 0.24566642940044403
0.25654572248458862 0.88097870349884033 0.24762217700481415
0.25485467910766602 0.88226526975631714 0.25377637147903442
0.27023088932037354 0.88425981998443604 0.25867068767547607
0.31129312515258789 0.88651323318481445 0.25798681378364563
0.37003132700920105 0.88874411582946777 0.25989261269569397
0.44388267397880554 0.88949275016784668 0.26865959167480469
0.53376513719558716 0.88730514049530029 0.28444984555244446
0.63347327709197998 0.88363337516784668 0.30464440584182739
0.7312462329864502 0.88009679317474365 0.32651945948600769
0.82130366563796997 0.87797582149505615 0.34654960036277771
0.90170007944107056 0.87745767831802368 0.36232903599739075
0.97388386726379395 0.8779759407043457 0.37434381246566772
0.31656357645988464 0.96087992191314697 0.31437128782272339
0.29744935035705566 0.9620969295501709 0.31634286046028137
0.28275012969970703 0.9637637734413147 0.32277387380599976
0.28425738215446472 0.96565788984298706 0.32995593547821045
0.30876711010932922 0.96802443265914917 0.33515426516532898
0.35284125804901123 0.96974259614944458 0.34074199199676514
0.41670605540275574 0.97093558311462402 0.34912270307540894
0.50371402502059937 0.96971088647842407 0.360271155834198
0.60297411680221558 0.96721619367599487 0.37529289722442627
0.70281344652175903 0.96397727727890015 0.39301374554634094
0.79677408933639526 0.96163094043731689 0.41028967499732971
0.88307970762252808 0.96000367403030396 0.42402899265289307
0.96296697854995728 0.95992487668991089 0.4351046085357666
0.043209075927734375 0.038783624768257141 0.1047690287232399
0.1155286431312561 0.041824787855148315 0.10395771265029907
0.18026864528656006 0.050857678055763245 0.10113172233104706
0.23954686522483826 0.064160332083702087 0.10020118951797485
0.29724535346031189 0.080574527382850647 0.10405702888965607
0.35550874471664429 0.097492143511772156 0.11181902140378952
0.42484802007675171 0.10563358664512634 0.11355098336935043
0.51452523469924927 0.09233257919549942 0.095964841544628143
0.61127316951751709 0.067862868309020996 0.079214833676815033
0.70460659265518188 0.04897778108716011 0.069324314594268799
0.79413026571273804 0.038892544806003571 0.062618046998977661
0.88095319271087646 0.033757079392671585 0.060615971684455872
0.9651305079460144 0.031004901975393295 0.065611742436885834
0.048453971743583679 0.11221831291913986 0.10016445070505142
0.11762803047895432 0.11318060010671616 0.10309340804815292
0.18862266838550568 0.11670466512441635 0.10624708235263824
0.2504214346408844 0.12252387404441833 0.10851342976093292
0.3078816831111908 0.12966614961624146 0.11256030201911926
0.36613261699676514 0.13845182955265045 0.1211625337600708
0.43444439768791199 0.14234752953052521 0.12626837193965912
0.52262645959854126 0.13103795051574707 0.10938319563865662
0.61891067028045654 0.11296090483665466 0.087113231420516968
0.71192282438278198 0.10014352202415466 0.073134914040565491
0.80055171251296997 0.094564251601696014 0.064083337783813477
0.88548022508621216 0.093401648104190826 0.059969119727611542
0.96796518564224243 0.094011105597019196 0.064042814075946808
0.072920076549053192 0.18564318120479584 0.10942883789539337
0.13157813251018524 0.18738771975040436 0.11000896990299225
0.19909211993217468 0.18895165622234344 0.11490113288164139
0.26182299852371216 0.19105589389801025 0.12075646966695786
0.32121095061302185 0.19401822984218597 0.12920884788036346
0.38003027439117432 0.19836372137069702 0.14038759469985962
0.44758278131484985 0.19931784272193909 0.14374479651451111
0.53299915790557861 0.1909986287355423 0.12211927771568298
0.62730634212493896 0.17734205722808838 0.09498964250087738
0.71874195337295532 0.16625736653804779 0.079260073602199554
0.80573576688766479 0.1615699827671051 0.068300671875476837
0.88888084888458252 0.16144335269927979 0.061950385570526123
0.96910560131072998 0.16349050402641296 0.064086571335792542
0.11357977241277695 0.25569307804107666 0.12788838148117065
0.16063471138477325 0.25841745734214783 0.12804651260375977
0.2163013219833374 0.26103821396827698 0.13120442628860474
0.27633854746818542 0.2628779411315918 0.13777349889278412
0.33962473273277283 0.26479727029800415 0.14676383137702942
0.40191558003425598 0.26727420091629028 0.15733674168586731
0.4673207700252533 0.26701506972312927 0.16018858551979065
0.54758685827255249 0.26050457358360291 0.13858497142791748
0.63763332366943359 0.25005418062210083 0.11006046086549759
0.72660642862319946 0.24106501042842865 0.090004265308380127
0.81090384721755981 0.23607781529426575 0.075982697308063507
0.89157170057296753 0.23644529283046722 0.06710447371006012
0.96911764144897461 0.23915144801139832 0.067196443676948547
0.16220669448375702 0.32483670115470886 0.15258960425853729
0.19998945295810699 0.32785722613334656 0.15289895236492157
0.24232357740402222 0.33140116930007935 0.15255542099475861
0.29799762368202209 0.33379539847373962 0.15864989161491394
0.36247259378433228 0.33572238683700562 0.16734854876995087
0.42748540639877319 0.33723074197769165 0.17557381093502045
0.49292215704917908 0.33675915002822876 0.17460359632968903
0.56846857070922852 0.33248841762542725 0.15097467601299286
0.65201336145401001 0.3254607617855072 0.12275167554616928
0.73615866899490356 0.31889480352401733 0.10066291689872742
0.81672853231430054 0.31609496474266052 0.085066162049770355
0.89447224140167236 0.31653177738189697 0.076721116900444031
0.96941155195236206 0.3189692497253418 0.077638067305088043
0.20881526172161102 0.39497298002243042 0.18554407358169556
0.24437566101551056 0.39704608917236328 0.18432357907295227
0.27984398603439331 0.40086251497268677 0.17841604351997375
0.32877370715141296 0.40389099717140198 0.18203267455101013
0.38776880502700806 0.4061884880065918 0.19200243055820465
0.45090049505233765 0.40736514329910278 0.20234638452529907
0.51741123199462891 0.40719166398048401 0.19743271172046661
0.5898749828338623 0.40562954545021057 0.16622386872768402
0.6679266095161438 0.40190142393112183 0.13318063318729401
0.74703496694564819 0.39839819073677063 0.1075652614235878
0.82327580451965332 0.39718234539031982 0.092866621911525726
0.89745581150054932 0.39786377549171448 0.091901175677776337
0.97027796506881714 0.3999076783657074 0.10154716670513153
0.2357436865568161 0.46761134266853333 0.20448087155818939
0.27620244026184082 0.46932733058929443 0.20336326956748962
0.31379538774490356 0.47231209278106689 0.1964239627122879
0.35821878910064697 0.47593539953231812 0.19387194514274597
0.41164746880531311 0.47858747839927673 0.20231860876083374
0.47251242399215698 0.4793664813041687 0.21558460593223572
0.53898018598556519 0.479704350233078 0.2136782705783844
0.61010044813156128 0.47935432195663452 0.18438892066478729
0.68433624505996704 0.47844859957695007 0.14551372826099396
0.75805813074111938 0.47837749123573303 0.11274924129247665
0.83033257722854614 0.47834199666976929 0.099858134984970093
0.90174812078475952 0.47912740707397461 0.11009648442268372
0.97155565023422241 0.48092326521873474 0.13111929595470428
0.22910045087337494 0.54763782024383545 0.18748404085636139
0.2752881646156311 0.54791635274887085 0.18603093922138214
0.32100287079811096 0.55003809928894043 0.1797368973493576
0.36816301941871643 0.55314522981643677 0.1764025092124939
0.42271068692207336 0.55576968193054199 0.18269036710262299
0.48421528935432434 0.55672132968902588 0.19459693133831024
0.55206608772277832 0.55718553066253662 0.19873860478401184
0.62385541200637817 0.5572887659072876 0.18362528085708618
0.69747668504714966 0.55726951360702515 0.15547329187393188
0.76942580938339233 0.55814719200134277 0.12682873010635376
0.83946645259857178 0.55906385183334351 0.11843803524971008
0.90831148624420166 0.55951583385467529 0.13574136793613434
0.9745519757270813 0.56071162223815918 0.16164061427116394
0.20143483579158783 0.6309700608253479 0.15185075998306274
0.25001621246337891 0.63115763664245605 0.15120641887187958
0.30211818218231201 0.63297528028488159 0.14609114825725555
0.3542938232421875 0.63538157939910889 0.14521521329879761
0.41164538264274597 0.63767498731613159 0.15129618346691132
0.47834876179695129 0.63860291242599487 0.15924671292304993
0.5501893162727356 0.63860291242599487 0.16918045282363892
0.62569260597229004 0.63814526796340942 0.17379182577133179
0.70326274633407593 0.63698732852935791 0.16871260106563568
0.77887630462646484 0.63676470518112183 0.15945795178413391
0.84966754913330078 0.63676470518112183 0.16027629375457764
0.91603648662567139 0.63754421472549438 0.17572525143623352
0.97874176502227783 0.64039236307144165 0.19843849539756775
0.18483272194862366 0.71566736698150635 0.13774365186691284
0.2261340469121933 0.71592420339584351 0.13954418897628784
0.27298229932785034 0.71723562479019165 0.13945278525352478
0.3235873281955719 0.71928149461746216 0.14114658534526825
0.38235139846801758 0.72105568647384644 0.14518050849437714
0.45186257362365723 0.72224265336990356 0.15000131726264954
0.52891820669174194 0.72217965126037598 0.16217677295207977
0.61085659265518188 0.72034204006195068 0.17951285839080811
0.69549322128295898 0.71810764074325562 0.19413194060325623
0.77823340892791748 0.71587079763412476 0.20459133386611938
0.85348570346832275 0.71488755941390991 0.21586455404758453
0.92100101709365845 0.71689873933792114 0.23040340840816498
0.98177081346511841 0.71839684247970581 0.24782679975032806
0.20254535973072052 0.79865545034408569 0.16726492345333099
0.22389024496078491 0.7995564341545105 0.16867323219776154
0.25250244140625 0.80083358287811279 0.17365358769893646
0.29153317213058472 0.80210298299789429 0.17819473147392273
0.3452087938785553 0.80424326658248901 0.18087127804756165
0.4129173755645752 0.80541282892227173 0.18461182713508606
0.49156841635704041 0.80542051792144775 0.19530913233757019
0.57850378751754761 0.80381804704666138 0.21514886617660522
0.67062443494796753 0.80058330297470093 0.23809652030467987
0.76143598556518555 0.79744750261306763 0.25963521003723145
0.84502226114273071 0.79581058025360107 0.28011840581893921
0.917347252368927 0.79602688550949097 0.29513174295425415
0.98061037063598633 0.79827249050140381 0.30825468897819519
0.24570170044898987 0.88057827949523926 0.22327250242233276
0.24702824652194977 0.88160783052444458 0.22544370591640472
0.25477588176727295 0.88272708654403687 0.23312842845916748
0.27658692002296448 0.88396352529525757 0.24147659540176392
0.3177085816860199 0.8857840895652771 0.24734103679656982
0.37627983093261719 0.88737952709197998 0.2531396746635437
0.45062464475631714 0.88793987035751343 0.26237007975578308
0.53882110118865967 0.88681566715240479 0.27819386124610901
0.63524770736694336 0.88418996334075928 0.29936307668685913
0.73208796977996826 0.88100236654281616 0.32285168766975403
0.82275515794754028 0.87852305173873901 0.34515070915222168
0.90255475044250488 0.87814599275588989 0.36127948760986328
0.97308003902435303 0.87927258014678955 0.37300258874893188
0.30182287096977234 0.96127218008041382 0.28986957669258118
0.28914305567741394 0.96235483884811401 0.29349488019943237
0.28109836578369141 0.96364891529083252 0.30275604128837585
0.28674748539924622 0.96495354175567627 0.31437203288078308
0.31252047419548035 0.96610057353973389 0.32549563050270081
0.35811313986778259 0.96795326471328735 0.33519637584686279
0.42300307750701904 0.96910041570663452 0.34368562698364258
0.50715136528015137 0.96885579824447632 0.35412073135375977
0.60318452119827271 0.96739387512207031 0.36986067891120911
0.70153748989105225 0.965110182762146 0.38929891586303711
0.7953721284866333 0.96300750970840454 0.408580482006073
0.88159584999084473 0.96185946464538574 0.42429915070533752
0.96065354347229004 0.96169555187225342 0.43654018640518188
0.050067737698554993 0.046506725251674652 0.1522388756275177
0.11166410148143768 0.050387825816869736 0.15367361903190613
0.17757026851177216 0.057123519480228424 0.15397655963897705
0.23994697630405426 0.067181020975112915 0.15474013984203339
0.29844483733177185 0.081587500870227814 0.15744321048259735
0.35588225722312927 0.098164893686771393 0.15832935273647308
0.42472752928733826 0.1041230708360672 0.15368726849555969
0.51319462060928345 0.090004414319992065 0.14001461863517761
0.61053848266601562 0.065084569156169891 0.1284290999174118
0.70443201065063477 0.048101224005222321 0.1212804764509201
0.79426306486129761 0.039064653217792511 0.11875969171524048
0.8812829852104187 0.034062791615724564 0.12225515395402908
0.96537041664123535 0.031058577820658684 0.13193637132644653
0.064012013375759125 0.11372673511505127 0.16119104623794556
0.12099920213222504 0.11632554233074188 0.16131727397441864
0.18698884546756744 0.120207779109478 0.164618119597435
0.25070169568061829 0.12493614107370377 0.16584540903568268
0.30988407135009766 0.1318187415599823 0.16685613989830017
0.36727762222290039 0.14064924418926239 0.16875477135181427
0.43436330556869507 0.14317266643047333 0.16608288884162903
0.52155125141143799 0.13119538128376007 0.15026018023490906
0.61832576990127563 0.11165075749158859 0.13312017917633057
0.71161776781082153 0.099493063986301422 0.12269528210163116
0.80054128170013428 0.094349943101406097 0.11841624975204468
0.88581258058547974 0.093184418976306915 0.11940509825944901
0.96830493211746216 0.093358062207698822 0.12739989161491394
0.083661638200283051 0.18493884801864624 0.16815260052680969
0.13546957075595856 0.18790507316589355 0.17005136609077454
0.19904348254203796 0.19116351008415222 0.17759665846824646
0.26216202974319458 0.19334369897842407 0.17949502170085907
0.32318669557571411 0.19605909287929535 0.18005037307739258
0.38250207901000977 0.19990696012973785 0.18308484554290771
0.44866245985031128 0.20002013444900513 0.1801733672618866
0.53287619352340698 0.19143328070640564 0.15909953415393829
0.62657982110977173 0.17730705440044403 0.13650400936603546
0.71842050552368164 0.16618016362190247 0.12483227252960205
0.80589324235916138 0.16122809052467346 0.11930915713310242
0.88951617479324341 0.16067212820053101 0.11804670095443726
0.96911764144897461 0.16278916597366333 0.12383729219436646
0.11713387072086334 0.25644788146018982 0.1808074414730072
0.16249684989452362 0.2594335675239563 0.18298985064029694
0.21666447818279266 0.26268064975738525 0.18909724056720734
0.27622130513191223 0.26482608914375305 0.19390417635440826
0.33981555700302124 0.26670515537261963 0.19683456420898438
0.4023996889591217 0.26842108368873596 0.19978225231170654
0.46752086281776428 0.26772007346153259 0.19645750522613525
0.54798728227615356 0.26092121005058289 0.17279098927974701
0.63743674755096436 0.25025478005409241 0.14693765342235565
0.7266424298286438 0.24127057194709778 0.13210360705852509
0.81156331300735474 0.23579226434230804 0.12392860651016235
0.89241921901702881 0.23527456820011139 0.11990626901388168
0.96997678279876709 0.2386680394411087 0.12321995943784714
0.16209262609481812 0.32661908864974976 0.20016336441040039
0.20120279490947723 0.32926389575004578 0.20113733410835266
0.2447112649679184 0.33283537626266479 0.20273670554161072
0.29849839210510254 0.33565095067024231 0.20842990279197693
0.36158537864685059 0.33751592040061951 0.21449515223503113
0.42642587423324585 0.33848625421524048 0.21813894808292389
0.49300175905227661 0.33757272362709045 0.21112023293972015
