assets/lut/pixlsus newspaper.cube
# Created by: G'MIC (https://gmic.eu)
TITLE "newspaper"
# LUT size
LUT_3D_SIZE 13
# Data domain
DOMAIN_MIN 0.0 0.0 0.0
DOMAIN_MAX 1.0 1.0 1.0
# LUT data points
0.14035384356975555 0.11351071298122406 0.12708736956119537
0.22660258412361145 0.11913599073886871 0.13485035300254822
0.25294896960258484 0.10137626528739929 0.12435449659824371
0.30196210741996765 0.11018126457929611 0.1375519186258316
0.35441103577613831 0.11272874474525452 0.14994809031486511
0.41140931844711304 0.12103407829999924 0.16839037835597992
0.46440675854682922 0.13376910984516144 0.18744531273841858
0.5040474534034729 0.13666181266307831 0.19797186553478241
0.53966021537780762 0.14146792888641357 0.20906989276409149
0.57646745443344116 0.14867162704467773 0.22144544124603271
0.62137770652770996 0.16221310198307037 0.23851682245731354
0.66069215536117554 0.16746364533901215 0.25077402591705322
0.69187593460083008 0.16565638780593872 0.25710725784301758
0.09567667543888092 0.1282382607460022 0.07842380553483963
0.20935031771659851 0.19265580177307129 0.12100430577993393
0.33254507184028625 0.23576752841472626 0.16156120598316193
0.40776336193084717 0.2432951033115387 0.18182782828807831
0.44847291707992554 0.22714798152446747 0.18770810961723328
0.48568341135978699 0.21697512269020081 0.19843542575836182
0.52862995862960815 0.22425532341003418 0.21545334160327911
0.56073993444442749 0.21946327388286591 0.22214885056018829
0.59038847684860229 0.21836623549461365 0.22893360257148743
0.61891043186187744 0.21599645912647247 0.23885855078697205
0.6535530686378479 0.2188582718372345 0.24890092015266418
0.6911308765411377 0.22279317677021027 0.26041367650032043
0.72391772270202637 0.22318913042545319 0.27130413055419922
0.10559297353029251 0.16761884093284607 0.088547155261039734
0.21446520090103149 0.22962826490402222 0.11592378467321396
0.25436863303184509 0.2426990270614624 0.12109202891588211
0.36519277095794678 0.29446065425872803 0.16113492846488953
0.48337617516517639 0.33040064573287964 0.20401358604431152
0.55560994148254395 0.34039276838302612 0.22768847644329071
0.59685778617858887 0.33177280426025391 0.24230949580669403
0.61683320999145508 0.30938655138015747 0.24335205554962158
0.64052492380142212 0.30183303356170654 0.24937616288661957
0.66820305585861206 0.29765933752059937 0.25927722454071045
0.69592034816741943 0.29070138931274414 0.26486018300056458
0.72651851177215576 0.28712540864944458 0.27214640378952026
0.76002496480941772 0.28820687532424927 0.28405359387397766
0.12344855815172195 0.2189657986164093 0.10527439415454865
0.23872728645801544 0.28342631459236145 0.13241752982139587
0.2950974702835083 0.30133906006813049 0.13972166180610657
0.31321772933006287 0.30390751361846924 0.13974300026893616
0.42082741856575012 0.3595007061958313 0.17931234836578369
0.53891903162002563 0.40234807133674622 0.22147800028324127
0.62299859523773193 0.41686365008354187 0.25101041793823242
0.66202956438064575 0.40743431448936462 0.26243290305137634
0.691852867603302 0.40113002061843872 0.27375435829162598
0.71764051914215088 0.39116230607032776 0.2802790105342865
0.73765707015991211 0.37416604161262512 0.28264027833938599
0.76294565200805664 0.36339429020881653 0.28721138834953308
0.79310327768325806 0.36136403679847717 0.2969307005405426
0.14120484888553619 0.27903351187705994 0.12413955479860306
0.25094231963157654 0.33499571681022644 0.15022706985473633
0.34079641103744507 0.36902037262916565 0.16064397990703583
0.3611445426940918 0.3634026050567627 0.15680532157421112
0.38236480951309204 0.37410628795623779 0.16182786226272583
0.47795668244361877 0.42338681221008301 0.19582957029342651
0.57811832427978516 0.46001061797142029 0.23149490356445312
0.65498781204223633 0.47050908207893372 0.26132878661155701
0.71382999420166016 0.4786580502986908 0.28139808773994446
0.75380772352218628 0.47212260961532593 0.29012987017631531
0.77676922082901001 0.45604607462882996 0.29367080330848694
0.79993027448654175 0.44323509931564331 0.30094465613365173
0.82745993137359619 0.43645977973937988 0.30642682313919067
0.16555009782314301 0.34710249304771423 0.14644871652126312
0.26183170080184937 0.38716718554496765 0.16219495236873627
0.35953125357627869 0.42385786771774292 0.17448863387107849
0.41999518871307373 0.43546202778816223 0.179751917719841
0.42672586441040039 0.42914751172065735 0.17855189740657806
0.44944241642951965 0.44075471162796021 0.18292231857776642
0.52991342544555664 0.4880276620388031 0.21231994032859802
0.61151695251464844 0.50730925798416138 0.24298770725727081
0.68119806051254272 0.51704680919647217 0.26577571034431458
0.74378347396850586 0.52404904365539551 0.28386834263801575
0.79295533895492554 0.52465361356735229 0.29937881231307983
0.83008253574371338 0.52040570974349976 0.31063425540924072
0.86069607734680176 0.51004189252853394 0.3190789520740509
0.18044468760490417 0.40059682726860046 0.1617879718542099
0.27097117900848389 0.43365535140037537 0.17723889648914337
0.37131798267364502 0.47044891119003296 0.18963074684143066
0.45384633541107178 0.49403709173202515 0.19774095714092255
0.4887213408946991 0.49439004063606262 0.19943635165691376
0.49265387654304504 0.49374479055404663 0.20024566352367401
0.5077894926071167 0.50099366903305054 0.20235075056552887
0.57070732116699219 0.52929937839508057 0.22409546375274658
0.64341652393341064 0.54566687345504761 0.24953556060791016
0.70939713716506958 0.55814802646636963 0.2714838981628418
0.77087128162384033 0.56638473272323608 0.29367503523826599
0.82700151205062866 0.57336890697479248 0.31229934096336365
0.87504845857620239 0.57730942964553833 0.32580721378326416
0.19747000932693481 0.44496020674705505 0.1779562383890152
0.27541086077690125 0.47195509076118469 0.18840318918228149
0.36447617411613464 0.50180184841156006 0.19858255982398987
0.45723560452461243 0.52888095378875732 0.20963606238365173
0.52096939086914062 0.54075294733047485 0.21271990239620209
0.53531217575073242 0.53864604234695435 0.21359258890151978
0.53088933229446411 0.53231346607208252 0.20847527682781219
0.54445177316665649 0.53759664297103882 0.21106493473052979
0.60696780681610107 0.5664064884185791 0.23672999441623688
0.67262518405914307 0.58571302890777588 0.25775972008705139
0.73811691999435425 0.59762930870056152 0.28228956460952759
0.79920864105224609 0.60673969984054565 0.30406051874160767
0.85266304016113281 0.61704427003860474 0.31992968916893005
0.2086341381072998 0.48298311233520508 0.19078277051448822
0.28044658899307251 0.50566011667251587 0.19713141024112701
0.36162766814231873 0.53062039613723755 0.20593135058879852
0.45963865518569946 0.56351786851882935 0.22090673446655273
0.53852635622024536 0.58434605598449707 0.22818736732006073
0.57012295722961426 0.58163416385650635 0.22559221088886261
0.57181775569915771 0.57674634456634521 0.2239481657743454
0.56678551435470581 0.56956785917282104 0.22118179500102997
0.58193886280059814 0.57586455345153809 0.22373348474502563
0.64002203941345215 0.60163885354995728 0.24490399658679962
0.70792198181152344 0.62599200010299683 0.26956480741500854
0.76863569021224976 0.63867878913879395 0.29143977165222168
0.82537674903869629 0.65051209926605225 0.31049776077270508
0.21064724028110504 0.51404476165771484 0.19683355093002319
0.28542050719261169 0.53794646263122559 0.20785205066204071
0.36771443486213684 0.56381481885910034 0.21837739646434784
0.45728537440299988 0.59222185611724854 0.23112392425537109
0.54209429025650024 0.61595058441162109 0.23926045000553131
0.59286683797836304 0.62355458736419678 0.24072311818599701
0.61039787530899048 0.62087935209274292 0.23822367191314697
0.60617601871490479 0.61371946334838867 0.23721124231815338
0.60726070404052734 0.60971373319625854 0.23468586802482605
0.62688690423965454 0.61843413114547729 0.24036431312561035
0.67850732803344727 0.64303475618362427 0.25726211071014404
0.73960733413696289 0.66727739572525024 0.27840688824653625
0.79949051141738892 0.68160045146942139 0.29638418555259705
0.22376316785812378 0.55204945802688599 0.208354651927948
0.2925666868686676 0.57227921485900879 0.21883967518806458
0.37219518423080444 0.59665656089782715 0.229615718126297
0.45607021450996399 0.62154781818389893 0.24008679389953613
0.54238390922546387 0.64647042751312256 0.24948446452617645
0.60771745443344116 0.66228306293487549 0.25827157497406006
0.63607066869735718 0.66232585906982422 0.25754621624946594
0.64423608779907227 0.65782076120376587 0.2546277642250061
0.64934086799621582 0.65473872423171997 0.2525850236415863
0.65129101276397705 0.65159744024276733 0.24969032406806946
0.65958666801452637 0.653175950050354 0.24930506944656372
0.71166020631790161 0.68276673555374146 0.26745426654815674
0.77118480205535889 0.7064623236656189 0.28583717346191406
0.23985995352268219 0.59339219331741333 0.22234430909156799
0.30441975593566895 0.61087018251419067 0.2307649552822113
0.37889757752418518 0.63113099336624146 0.23931966722011566
0.45940828323364258 0.65488791465759277 0.24921208620071411
0.54350078105926514 0.67895537614822388 0.26104316115379333
0.61661392450332642 0.69730949401855469 0.27159604430198669
0.65657961368560791 0.7022550106048584 0.27302157878875732
0.6788678765296936 0.6996009349822998 0.26897749304771423
0.69055753946304321 0.69669800996780396 0.26525667309761047
0.69009524583816528 0.69201362133026123 0.26122874021530151
0.69005072116851807 0.68937873840332031 0.25899609923362732
0.69930481910705566 0.69541871547698975 0.25922891497612
0.74553382396697998 0.72381758689880371 0.27474814653396606
0.2486291229724884 0.62840116024017334 0.23194676637649536
0.31463891267776489 0.64357870817184448 0.24050924181938171
0.38824883103370667 0.66291201114654541 0.24863433837890625
0.46435254812240601 0.68560194969177246 0.25604972243309021
0.54360091686248779 0.70909345149993896 0.26696136593818665
0.62121522426605225 0.72830063104629517 0.27813786268234253
0.67705726623535156 0.73898905515670776 0.28077542781829834
0.70886111259460449 0.73660004138946533 0.27740868926048279
0.72779762744903564 0.73392689228057861 0.27222791314125061
0.72757047414779663 0.72939383983612061 0.27168416976928711
0.72564989328384399 0.72605246305465698 0.26965880393981934
0.7259596586227417 0.72496747970581055 0.26756352186203003
0.73532146215438843 0.73106831312179565 0.27047908306121826
0.18712584674358368 0.14390815794467926 0.23897683620452881
0.28358113765716553 0.14596769213676453 0.26849347352981567
0.30796107649803162 0.12729458510875702 0.24207961559295654
0.34950536489486694 0.12745298445224762 0.23085090517997742
0.39920845627784729 0.13352975249290466 0.23619881272315979
0.44984889030456543 0.14551529288291931 0.24538932740688324
0.49549770355224609 0.14937086403369904 0.25324776768684387
0.53056854009628296 0.14260886609554291 0.25571265816688538
0.56337136030197144 0.14870928227901459 0.2609952986240387
0.59829878807067871 0.1568361222743988 0.2701723575592041
0.63671118021011353 0.1639951765537262 0.28256440162658691
0.67369729280471802 0.16922113299369812 0.2928825318813324
0.7047417163848877 0.17067925631999969 0.30037030577659607
0.16050262749195099 0.20460496842861176 0.20751306414604187
0.28229698538780212 0.25438278913497925 0.26362872123718262
0.38674107193946838 0.27619132399559021 0.2980094850063324
0.45697686076164246 0.27399694919586182 0.30054348707199097
0.48959040641784668 0.25296548008918762 0.28892099857330322
0.52301943302154541 0.24158371984958649 0.28328236937522888
0.55834835767745972 0.23798106610774994 0.28601977229118347
0.58717823028564453 0.22797846794128418 0.28279420733451843
0.61448061466217041 0.22698616981506348 0.28465685248374939
0.64122039079666138 0.22627890110015869 0.28975841403007507
0.67245793342590332 0.22655355930328369 0.29733610153198242
0.70667654275894165 0.22871764004230499 0.30575650930404663
0.73682838678359985 0.22836725413799286 0.31466847658157349
0.1356661319732666 0.22099381685256958 0.17279134690761566
0.26382002234458923 0.2815399169921875 0.21940392255783081
0.31057211756706238 0.29696238040924072 0.23195420205593109
0.41505250334739685 0.33860510587692261 0.26953232288360596
0.52764683961868286 0.36182472109794617 0.30822485685348511
0.59134072065353394 0.36009767651557922 0.32154425978660583
0.62316441535949707 0.34362524747848511 0.31780382990837097
0.6431233286857605 0.31780937314033508 0.30863884091377258
0.66515147686004639 0.31295368075370789 0.31005501747131348
0.68918687105178833 0.30816361308097839 0.31345626711845398
0.71620398759841919 0.30229547619819641 0.31837171316146851
0.746052086353302 0.29979845881462097 0.32526782155036926
0.77278739213943481 0.2994019091129303 0.33178770542144775
0.14783203601837158 0.26787552237510681 0.17926278710365295
0.27804422378540039 0.33116677403450012 0.21823951601982117
0.33870473504066467 0.34569314122200012 0.22884376347064972
0.36205485463142395 0.35292437672615051 0.23444889485836029
0.46160989999771118 0.39603888988494873 0.27119731903076172
0.57226192951202393 0.42777302861213684 0.30921727418899536
0.65573984384536743 0.44085556268692017 0.33340999484062195
0.69170063734054565 0.42543196678161621 0.3375241756439209
0.71627819538116455 0.41255241632461548 0.33824449777603149
0.73740941286087036 0.40003398060798645 0.33853909373283386
0.75697928667068481 0.38504374027252197 0.33852186799049377
0.78358513116836548 0.37711021304130554 0.34032294154167175
0.80818283557891846 0.37471061944961548 0.34563723206520081
0.16044506430625916 0.31950262188911438 0.19096899032592773
0.27629742026329041 0.37248897552490234 0.22211161255836487
0.37758058309555054 0.40801951289176941 0.23928231000900269
0.40447232127189636 0.40745970606803894 0.24007117748260498
0.42269375920295715 0.41461566090583801 0.24145232141017914
0.51310628652572632 0.45741945505142212 0.27422663569450378
0.60740172863006592 0.48347491025924683 0.30841633677482605
0.67759019136428833 0.48734980821609497 0.33166149258613586
0.74025386571884155 0.49113914370536804 0.35037606954574585
0.77156072854995728 0.48077008128166199 0.35374864935874939
0.79518783092498779 0.46712970733642578 0.35384988784790039
0.82049190998077393 0.45644739270210266 0.35549736022949219
0.84352141618728638 0.44852432608604431 0.3572172224521637
0.18655887246131897 0.37920239567756653 0.21014150977134705
0.28962695598602295 0.42208817601203918 0.23194751143455505
0.39503023028373718 0.46080625057220459 0.24972182512283325
0.45327413082122803 0.47049495577812195 0.25246894359588623
0.46462461352348328 0.4668269157409668 0.24894550442695618
0.48441404104232788 0.47717225551605225 0.25559866428375244
0.55757856369018555 0.51195263862609863 0.28279885649681091
0.63528108596801758 0.52444404363632202 0.31052437424659729
0.70481359958648682 0.52978801727294922 0.33399835228919983
0.76344019174575806 0.53493452072143555 0.34972110390663147
0.80971753597259521 0.53431230783462524 0.36094796657562256
0.84734815359115601 0.52968615293502808 0.36961501836776733
0.87801283597946167 0.52132225036621094 0.37455204129219055
0.20554517209529877 0.43246051669120789 0.2253882884979248
0.29699668288230896 0.46642538905143738 0.24358586966991425
0.39815607666969299 0.50104212760925293 0.2561374306678772
0.48417773842811584 0.52555304765701294 0.26255947351455688
0.51595109701156616 0.52383971214294434 0.26437762379646301
0.5218508243560791 0.52377355098724365 0.26644676923751831
0.5380253791809082 0.53098863363265991 0.26840585470199585
0.59437143802642822 0.55247753858566284 0.28703099489212036
0.66405194997787476 0.56368798017501831 0.31274151802062988
0.72919845581054688 0.57532608509063721 0.33458042144775391
0.78743183612823486 0.58003199100494385 0.35381677746772766
0.84073072671890259 0.58286565542221069 0.37028518319129944
0.89098221063613892 0.58582121133804321 0.38413870334625244
0.21418273448944092 0.47168207168579102 0.23420263826847076
0.29562264680862427 0.49930670857429504 0.24755294620990753
0.38934645056724548 0.52858668565750122 0.25740349292755127
0.48429626226425171 0.55757629871368408 0.26872467994689941
0.5406641960144043 0.5657961368560791 0.27458274364471436
0.55984610319137573 0.5658566951751709 0.27763798832893372
0.55691635608673096 0.56003415584564209 0.2710934579372406
0.56921929121017456 0.56292307376861572 0.27275553345680237
0.62773644924163818 0.58797955513000488 0.29505965113639832
0.69702982902526855 0.60550969839096069 0.32038742303848267
0.75868642330169678 0.61418598890304565 0.34176364541053772
0.81625998020172119 0.62136602401733398 0.36000579595565796
0.87008398771286011 0.6279265284538269 0.37511005997657776
0.22010631859302521 0.50530719757080078 0.23988017439842224
0.29074528813362122 0.52568608522415161 0.24562661349773407
0.37854442000389099 0.55138128995895386 0.25679567456245422
0.47610941529273987 0.58262413740158081 0.27113699913024902
0.55345380306243896 0.60353589057922363 0.28242310881614685
0.58570015430450439 0.60311323404312134 0.28521272540092468
0.58962506055831909 0.59969592094421387 0.28270724415779114
0.59010344743728638 0.59552592039108276 0.28102341294288635
0.60460394620895386 0.5976141095161438 0.28136935830116272
0.66326212882995605 0.62483489513397217 0.30216079950332642
0.72741693258285522 0.644203782081604 0.32485777139663696
0.78592818975448608 0.65456134080886841 0.34508049488067627
0.8419378399848938 0.66253370046615601 0.36186438798904419
0.22283129394054413 0.53596329689025879 0.2435179203748703
0.29402855038642883 0.55585581064224243 0.25033298134803772
0.3807956874370575 0.58126962184906006 0.26167204976081848
0.47230261564254761 0.60983932018280029 0.27642947435379028
0.55331611633300781 0.63309472799301147 0.28984707593917847
0.60191935300827026 0.64081978797912598 0.29580309987068176
0.62082493305206299 0.64030176401138306 0.2936546802520752
0.62387388944625854 0.63549482822418213 0.29124882817268372
0.62712728977203369 0.63084942102432251 0.28663167357444763
0.64837956428527832 0.63898169994354248 0.29232355952262878
0.70062386989593506 0.66461914777755737 0.31154593825340271
0.75628316402435303 0.6839715838432312 0.33044058084487915
0.81291556358337402 0.69392448663711548 0.34819591045379639
0.23404790461063385 0.57079529762268066 0.25080803036689758
0.30143427848815918 0.58875840902328491 0.25832077860832214
0.38332945108413696 0.61244577169418335 0.26891681551933289
0.46782448887825012 0.63725417852401733 0.28117716312408447
0.55085641145706177 0.66093683242797852 0.29535707831382751
0.61730140447616577 0.67768889665603638 0.30614843964576721
0.64640593528747559 0.67924094200134277 0.30525252223014832
0.66017758846282959 0.6755865216255188 0.30214640498161316
0.66851603984832764 0.67448467016220093 0.30028006434440613
0.67336440086364746 0.67264699935913086 0.29857572913169861
0.68210726976394653 0.6753268837928772 0.30063885450363159
0.72726994752883911 0.70189452171325684 0.31551536917686462
0.78675729036331177 0.72039693593978882 0.3352496325969696
0.24942415952682495 0.60879868268966675 0.26138725876808167
0.31128054857254028 0.62412649393081665 0.26803559064865112
0.38774874806404114 0.64528447389602661 0.27776381373405457
0.46977084875106812 0.66892081499099731 0.29006832838058472
0.55249333381652832 0.69246619939804077 0.30457848310470581
0.62918287515640259 0.71267759799957275 0.31734135746955872
0.67093288898468018 0.71796870231628418 0.3190162181854248
0.69370198249816895 0.71507740020751953 0.31426307559013367
0.70634740591049194 0.71333980560302734 0.31017875671386719
0.70675158500671387 0.70896786451339722 0.30717134475708008
0.70465028285980225 0.70463079214096069 0.30548945069313049
0.71471947431564331 0.71138942241668701 0.30801182985305786
0.75474470853805542 0.73797416687011719 0.32001855969429016
0.26123937964439392 0.64254522323608398 0.2714448869228363
0.32041442394256592 0.65626269578933716 0.27810978889465332
0.39479812979698181 0.67567312717437744 0.28730210661888123
0.47456252574920654 0.69820278882980347 0.2990967333316803
0.55517131090164185 0.72170686721801758 0.31279617547988892
0.63170051574707031 0.74191701412200928 0.32438749074935913
0.68737882375717163 0.75031960010528564 0.32737916707992554
0.71954667568206787 0.74938017129898071 0.3230990469455719
0.73594814538955688 0.74666178226470947 0.31845751404762268
0.74095076322555542 0.74362719058990479 0.31622448563575745
0.74026280641555786 0.74062341451644897 0.31524601578712463
0.73907822370529175 0.73856186866760254 0.31399416923522949
0.74578076601028442 0.7437361478805542 0.31571197509765625
0.17283248901367188 0.11999525129795074 0.2602044939994812
0.30608564615249634 0.1528443843126297 0.32057765126228333
0.32464912533760071 0.13102228939533234 0.31526243686676025
0.3677787184715271 0.1338631808757782 0.31715488433837891
0.42635434865951538 0.1422211080789566 0.31713539361953735
0.48292520642280579 0.16490937769412994 0.32722875475883484
0.52939623594284058 0.16973038017749786 0.33111637830734253
0.55670762062072754 0.15339827537536621 0.32346242666244507
0.58631628751754761 0.15527458488941193 0.32026228308677673
0.62018018960952759 0.16187377274036407 0.32481697201728821
0.65306276082992554 0.16323250532150269 0.33142808079719543
0.68721890449523926 0.16803264617919922 0.33971086144447327
0.71934980154037476 0.17192794382572174 0.34650418162345886
0.21741780638694763 0.26122000813484192 0.33867242932319641
0.39260920882225037 0.32425802946090698 0.40493360161781311
0.4172838032245636 0.29223430156707764 0.40597620606422424
0.47360721230506897 0.28311431407928467 0.41298598051071167
0.51717805862426758 0.26351234316825867 0.38689157366752625
0.55991214513778687 0.2618621289730072 0.37464764714241028
0.59449154138565063 0.25764292478561401 0.36866036057472229
0.61382824182510376 0.24077555537223816 0.3568749725818634
0.63723969459533691 0.23552127182483673 0.34805229306221008
0.66409331560134888 0.23510195314884186 0.34735298156738281
0.69452852010726929 0.23564374446868896 0.35282900929450989
0.72612887620925903 0.23661017417907715 0.35895085334777832
0.75360375642776489 0.23536187410354614 0.3631250262260437
0.15979719161987305 0.25200742483139038 0.25417903065681458
0.30952683091163635 0.32184642553329468 0.32041636109352112
0.34018713235855103 0.32106798887252808 0.32801729440689087
0.4388987123966217 0.35324510931968689 0.37808257341384888
0.56058841943740845 0.38035598397254944 0.41288238763809204
0.62772148847579956 0.38086172938346863 0.41829460859298706
0.65772140026092529 0.36220124363899231 0.40721377730369568
0.67097026109695435 0.33450847864151001 0.3896273672580719
0.68932908773422241 0.32516464591026306 0.37837380170822144
0.7122991681098938 0.3185446560382843 0.37421324849128723
0.73816591501235962 0.31119635701179504 0.37465494871139526
0.76531028747558594 0.31023815274238586 0.37899553775787354
0.78545868396759033 0.31023436784744263 0.38035726547241211
0.15855222940444946 0.28374168276786804 0.2450127899646759
0.2994571328163147 0.34787523746490479 0.3025507926940918
0.35850870609283447 0.3627178966999054 0.31229647994041443
0.38082388043403625 0.37171173095703125 0.3198566734790802
0.49488350749015808 0.42259922623634338 0.36451888084411621
0.6075974702835083 0.45310413837432861 0.40342262387275696
0.68534249067306519 0.45885583758354187 0.42253443598747253
0.71844804286956787 0.44179433584213257 0.4194297194480896
0.73808127641677856 0.42399498820304871 0.40745294094085693
0.75855052471160889 0.41018813848495483 0.4011940062046051
0.77898943424224854 0.39563897252082825 0.3965732753276825
0.80289685726165771 0.38818502426147461 0.39643770456314087
0.82171893119812012 0.38473981618881226 0.39760658144950867
0.17645251750946045 0.3490879237651825 0.25772225856781006
0.29965716600418091 0.40034785866737366 0.29746845364570618
0.40810075402259827 0.43682876229286194 0.32147678732872009
0.43206989765167236 0.43555361032485962 0.32327648997306824
0.45182338356971741 0.44399145245552063 0.32553344964981079
0.54787194728851318 0.48798993229866028 0.36185362935066223
0.63851833343505859 0.50572127103805542 0.39339530467987061
0.70296871662139893 0.50528347492218018 0.41072705388069153
0.75958389043807983 0.50313180685043335 0.41984295845031738
