assets/lut/pixlsus street.cube
# Created by: G'MIC (https://gmic.eu)
TITLE "street"
# LUT size
LUT_3D_SIZE 7
# Data domain
DOMAIN_MIN 0.0 0.0 0.0
DOMAIN_MAX 1.0 1.0 1.0
# LUT data points
0.02587565965950489 0.026892179623246193 0.024570735171437263
0.14821280539035797 0.025191213935613632 0.0046203462406992912
0.30516508221626282 0.051122717559337616 0.012349820695817471
0.47062516212463379 0.11056699603796005 0.035674165934324265
0.63557887077331543 0.182292640209198 0.054769746959209442
0.78426814079284668 0.22988653182983398 0.056277241557836533
0.92283833026885986 0.26310551166534424 0.05213513970375061
0.096682712435722351 0.17541654407978058 0.11428448557853699
0.18423512578010559 0.16748271882534027 0.080384604632854462
0.32864397764205933 0.17063702642917633 0.057650621980428696
0.48731276392936707 0.18586383759975433 0.049313727766275406
0.6404876708984375 0.20188973844051361 0.046713061630725861
0.78090953826904297 0.22798039019107819 0.049979954957962036
0.91135597229003906 0.24563607573509216 0.04828166589140892
0.14807936549186707 0.33941265940666199 0.20949144661426544
0.23179954290390015 0.3366970419883728 0.19326452910900116
0.37143266201019287 0.33566266298294067 0.16190974414348602
0.51916372776031494 0.33090135455131531 0.12242093682289124
0.6614919900894165 0.31615301966667175 0.080628730356693268
0.79091435670852661 0.29962894320487976 0.060838945209980011
0.91295379400253296 0.27795955538749695 0.049347013235092163
0.2247195690870285 0.50677764415740967 0.31079131364822388
0.30603104829788208 0.50919675827026367 0.29809701442718506
0.42688962817192078 0.50953739881515503 0.27732637524604797
0.55979073047637939 0.50593912601470947 0.24669887125492096
0.69250565767288208 0.50106865167617798 0.20705369114875793
0.81687355041503906 0.48186963796615601 0.16587407886981964
0.93344634771347046 0.41733428835868835 0.1114795133471489
0.32854485511779785 0.66514712572097778 0.41760215163230896
0.39528638124465942 0.66772341728210449 0.40818655490875244
0.48973065614700317 0.66597282886505127 0.3964601457118988
0.60481923818588257 0.66421568393707275 0.38136222958564758
0.72605293989181519 0.66423434019088745 0.36286512017250061
0.84297215938568115 0.66532653570175171 0.33066609501838684
0.94904863834381104 0.63282567262649536 0.27827572822570801
0.41913953423500061 0.81239646673202515 0.52678841352462769
0.47433191537857056 0.8148421049118042 0.51759827136993408
0.55044078826904297 0.81509065628051758 0.5100475549697876
0.64858162403106689 0.81471753120422363 0.50304800271987915
0.75624698400497437 0.8154560923576355 0.49102199077606201
0.87063896656036377 0.8139348030090332 0.46740740537643433
0.97005373239517212 0.79685443639755249 0.43052351474761963
0.4948371946811676 0.95549947023391724 0.63323014974594116
0.54267764091491699 0.95950013399124146 0.62337589263916016
0.60687416791915894 0.96226215362548828 0.61584645509719849
0.69170355796813965 0.96474707126617432 0.61061376333236694
0.78853583335876465 0.96519607305526733 0.60053956508636475
0.90290230512619019 0.96325266361236572 0.58428782224655151
0.99629026651382446 0.95503926277160645 0.56345415115356445
0.027247350662946701 0.050667271018028259 0.1250530332326889
0.14558033645153046 0.033179681748151779 0.097516916692256927
0.2915407121181488 0.059504713863134384 0.10087157785892487
0.46104070544242859 0.11552669852972031 0.12399308383464813
0.62689268589019775 0.17299087345600128 0.13573536276817322
0.77558547258377075 0.21475069224834442 0.13016225397586823
0.91317355632781982 0.24194623529911041 0.1222175732254982
0.091580800712108612 0.18956661224365234 0.19921186566352844
0.18066351115703583 0.17905016243457794 0.17639897763729095
0.31270548701286316 0.17705516517162323 0.14260898530483246
0.47883164882659912 0.19723251461982727 0.13856607675552368
0.63773179054260254 0.21353846788406372 0.13398373126983643
0.77705293893814087 0.22462479770183563 0.12029803544282913
0.9048340916633606 0.23382380604743958 0.10877788811922073
0.13427230715751648 0.34957998991012573 0.2885163426399231
0.22511132061481476 0.34583172202110291 0.27003207802772522
0.36112985014915466 0.33836066722869873 0.23494912683963776
0.50687342882156372 0.3367496132850647 0.20004969835281372
0.65327167510986328 0.32107144594192505 0.15623697638511658
0.78466290235519409 0.29428082704544067 0.12092925608158112
0.90437865257263184 0.26937255263328552 0.10594400018453598
0.20595897734165192 0.51067227125167847 0.37870433926582336
0.28998687863349915 0.50948858261108398 0.3667198121547699
0.41252127289772034 0.50586670637130737 0.34581822156906128
0.54590070247650146 0.50029623508453369 0.31221923232078552
0.68130767345428467 0.49305182695388794 0.26267707347869873
0.80372351408004761 0.46591013669967651 0.21782897412776947
0.91837447881698608 0.40998485684394836 0.17577598989009857
0.31315332651138306 0.66761642694473267 0.47480905055999756
0.37899118661880493 0.66475743055343628 0.4665122926235199
0.47473135590553284 0.66188818216323853 0.45357385277748108
0.59481513500213623 0.66029411554336548 0.43371647596359253
0.72138732671737671 0.66329389810562134 0.40605676174163818
0.83368569612503052 0.66328459978103638 0.37879312038421631
0.93934720754623413 0.62595188617706299 0.33115571737289429
0.40306085348129272 0.81204432249069214 0.57434684038162231
0.454100102186203 0.812885582447052 0.56423717737197876
0.53224259614944458 0.81212562322616577 0.55611860752105713
0.63968461751937866 0.8125377893447876 0.54821306467056274
0.75642889738082886 0.81526589393615723 0.53363847732543945
0.86979323625564575 0.81517523527145386 0.50969606637954712
0.96679532527923584 0.79855978488922119 0.47140613198280334
0.4752534031867981 0.95422077178955078 0.67222660779953003
0.51804989576339722 0.95728689432144165 0.66148847341537476
0.58349579572677612 0.9598279595375061 0.65415489673614502
0.677989661693573 0.96128833293914795 0.65062624216079712
0.78621745109558105 0.96218681335449219 0.64143854379653931
0.90002286434173584 0.96029233932495117 0.62127995491027832
0.99201732873916626 0.95200276374816895 0.59038001298904419
0.066483452916145325 0.089181430637836456 0.26553496718406677
0.15879112482070923 0.072988159954547882 0.23957176506519318
0.28824391961097717 0.083398513495922089 0.23300540447235107
0.44961637258529663 0.12036683410406113 0.24558494985103607
0.61717480421066284 0.16171252727508545 0.2566457986831665
0.76833039522171021 0.19674982130527496 0.24608471989631653
0.90822750329971313 0.22325068712234497 0.23511140048503876
0.094100147485733032 0.21099171042442322 0.30918332934379578
0.17574651539325714 0.19415365159511566 0.28656706213951111
0.29983919858932495 0.17585574090480804 0.25938296318054199
0.46268931031227112 0.19300606846809387 0.26443412899971008
0.62555170059204102 0.21339902281761169 0.26894465088844299
0.76885998249053955 0.22450706362724304 0.25132918357849121
0.8996589183807373 0.23381547629833221 0.2295563668012619
0.12147445976734161 0.36123579740524292 0.38835403323173523
0.22116194665431976 0.35854038596153259 0.37332931160926819
0.35523256659507751 0.35242399573326111 0.34905239939689636
0.48906862735748291 0.34099319577217102 0.31520229578018188
0.63640677928924561 0.32842174172401428 0.29138323664665222
0.77254831790924072 0.3086540699005127 0.2619456946849823
0.89561140537261963 0.28671395778656006 0.23230160772800446
0.18196253478527069 0.5108298659324646 0.46243825554847717
0.27663958072662354 0.51280224323272705 0.45550113916397095
0.40359270572662354 0.51737833023071289 0.44030529260635376
0.53335082530975342 0.51089560985565186 0.40525877475738525
0.664417564868927 0.4961879551410675 0.35999014973640442
0.78897672891616821 0.46613997220993042 0.31904500722885132
0.90653234720230103 0.41990745067596436 0.2832796573638916
0.28016304969787598 0.66105926036834717 0.54279637336730957
0.35672983527183533 0.66116899251937866 0.53658133745193481
0.45508405566215515 0.66152453422546387 0.52110570669174194
0.57884496450424194 0.6624683141708374 0.49868389964103699
0.70436209440231323 0.66357564926147461 0.46679419279098511
0.82203429937362671 0.65032130479812622 0.4352547824382782
0.93396127223968506 0.61458420753479004 0.3985881507396698
0.37035509943962097 0.80745065212249756 0.62581789493560791
0.42761456966400146 0.80849438905715942 0.61858701705932617
0.50492209196090698 0.80927401781082153 0.60578334331512451
0.62002295255661011 0.81128138303756714 0.5969012975692749
0.74224448204040527 0.81411343812942505 0.58020812273025513
0.8598749041557312 0.81114727258682251 0.55768316984176636
0.96599066257476807 0.79487448930740356 0.52396070957183838
0.44466403126716614 0.95110154151916504 0.71219062805175781
0.48419287800788879 0.9545130729675293 0.70182603597640991
0.54643034934997559 0.95738667249679565 0.68987369537353516
0.65275180339813232 0.95889025926589966 0.68910837173461914
0.76949018239974976 0.95979338884353638 0.68087148666381836
0.88594383001327515 0.95862478017807007 0.66332381963729858
0.9873579740524292 0.95433521270751953 0.63115513324737549
0.11732321232557297 0.13920307159423828 0.45205786824226379
0.20256355404853821 0.13595658540725708 0.4298880398273468
0.3282257616519928 0.13213779032230377 0.43301907181739807
0.47268468141555786 0.13456450402736664 0.43096274137496948
0.63077187538146973 0.1483859121799469 0.43645840883255005
0.78061789274215698 0.169033482670784 0.42573878169059753
0.92624413967132568 0.18780297040939331 0.42187222838401794
0.10720008611679077 0.2474856972694397 0.47015824913978577
0.2002788633108139 0.23541158437728882 0.45444199442863464
0.32862776517868042 0.21349161863327026 0.44522961974143982
0.47345402836799622 0.20183651149272919 0.43965768814086914
0.62677097320556641 0.20486250519752502 0.44057062268257141
0.77542954683303833 0.21477377414703369 0.43366560339927673
0.91590029001235962 0.2304873913526535 0.42196854948997498
0.10015514492988586 0.37880244851112366 0.50658786296844482
0.21426892280578613 0.37876027822494507 0.50162041187286377
0.3538644015789032 0.36612340807914734 0.49027243256568909
0.4815678596496582 0.33439043164253235 0.45699024200439453
0.62801247835159302 0.32619911432266235 0.44803661108016968
0.77246260643005371 0.32068368792533875 0.43710324168205261
0.9084894061088562 0.31459644436836243 0.42205971479415894
0.13350754976272583 0.50918155908584595 0.55305671691894531
0.24962155520915985 0.519500732421875 0.55351793766021729
0.38874116539955139 0.52611070871353149 0.54520732164382935
0.52055233716964722 0.51463925838470459 0.51592564582824707
0.65040534734725952 0.497781902551651 0.48378545045852661
0.78598034381866455 0.47820931673049927 0.45914927124977112
0.91668856143951416 0.4445052444934845 0.43921241164207458
0.21736113727092743 0.65459269285202026 0.60807657241821289
0.30633488297462463 0.65810775756835938 0.60634243488311768
0.41970789432525635 0.6626933217048645 0.5941651463508606
0.55239188671112061 0.66713094711303711 0.57619035243988037
0.68026745319366455 0.66413062810897827 0.54762560129165649
0.81153786182403564 0.64870935678482056 0.52110272645950317
0.93792819976806641 0.62012976408004761 0.49579524993896484
0.29658234119415283 0.80465364456176758 0.66776120662689209
0.36027711629867554 0.80557584762573242 0.66507858037948608
0.44866093993186951 0.80777573585510254 0.65099149942398071
0.58174079656600952 0.81273150444030762 0.64687430858612061
0.71261143684387207 0.81477755308151245 0.63006007671356201
0.84150606393814087 0.80975013971328735 0.60925436019897461
0.96471548080444336 0.79700636863708496 0.58041757345199585
0.3731614351272583 0.9533805251121521 0.73850840330123901
0.41201654076576233 0.95647329092025757 0.73330026865005493
0.47522646188735962 0.95952469110488892 0.71528178453445435
0.60479694604873657 0.96070295572280884 0.71939241886138916
0.73346775770187378 0.95979863405227661 0.70970386266708374
0.86043775081634521 0.95996922254562378 0.69668793678283691
0.97720903158187866 0.95939213037490845 0.66493231058120728
0.16546249389648438 0.18180228769779205 0.61333280801773071
0.24068485200405121 0.18437033891677856 0.59662157297134399
0.36492082476615906 0.18182332813739777 0.60842680931091309
0.50445377826690674 0.16840936243534088 0.6063266396522522
0.64414310455322266 0.15947671234607697 0.59860318899154663
0.78731751441955566 0.16039158403873444 0.59698790311813354
0.93201333284378052 0.16213075816631317 0.60208213329315186
0.1341271847486496 0.28071129322052002 0.62215524911880493
0.22307415306568146 0.2739831805229187 0.60957705974578857
0.35370129346847534 0.25943487882614136 0.61124986410140991
0.49866583943367004 0.24104024469852448 0.61078023910522461
0.64010435342788696 0.22268754243850708 0.60155844688415527
0.78582936525344849 0.22034308314323425 0.60221976041793823
0.92762130498886108 0.23095911741256714 0.60274124145507812
0.093597471714019775 0.40049412846565247 0.64621829986572266
0.205963134765625 0.39496561884880066 0.63613414764404297
0.34518015384674072 0.37680011987686157 0.63017326593399048
0.48932600021362305 0.3553408682346344 0.61721956729888916
0.64057296514511108 0.34266170859336853 0.61686587333679199
0.78946560621261597 0.33649489283561707 0.61733251810073853
0.93079167604446411 0.33213675022125244 0.6080925464630127
0.09646277129650116 0.50844347476959229 0.6611829400062561
0.22429056465625763 0.52143198251724243 0.66550576686859131
0.36494860053062439 0.51944273710250854 0.66050249338150024
0.5005144476890564 0.50234085321426392 0.64023089408874512
0.64108341932296753 0.48608177900314331 0.62419736385345459
0.7880014181137085 0.48005533218383789 0.61260080337524414
0.92904430627822876 0.46486589312553406 0.60080957412719727
0.19127479195594788 0.64922308921813965 0.69644159078598022
0.28503650426864624 0.65537482500076294 0.70036572217941284
0.40550693869590759 0.65988463163375854 0.69404488801956177
0.53425651788711548 0.66060811281204224 0.67727535963058472
0.66060245037078857 0.65455454587936401 0.65193712711334229
0.79943335056304932 0.64433234930038452 0.63255608081817627
0.93442296981811523 0.62627488374710083 0.61112159490585327
0.27809599041938782 0.79892241954803467 0.74651128053665161
0.33077764511108398 0.79997509717941284 0.74187898635864258
0.43117102980613708 0.80270439386367798 0.7333647608757019
0.56732648611068726 0.80959314107894897 0.72993451356887817
0.69193130731582642 0.81187254190444946 0.70846271514892578
0.82251816987991333 0.80757910013198853 0.68870943784713745
0.95578920841217041 0.79783385992050171 0.66437387466430664
0.30736032128334045 0.95352709293365479 0.79658991098403931
0.36057832837104797 0.95454424619674683 0.79500240087509155
0.44955840706825256 0.95595383644104004 0.78562480211257935
0.58063209056854248 0.95919108390808105 0.78530967235565186
0.71304798126220703 0.9609447717666626 0.77110397815704346
0.84263366460800171 0.96127450466156006 0.75992536544799805
0.97058409452438354 0.95878750085830688 0.73898541927337646
0.20108100771903992 0.21617646515369415 0.69675475358963013
0.24774496257305145 0.21806082129478455 0.67042833566665649
0.351316899061203 0.21969753503799438 0.66472584009170532
0.48054012656211853 0.21480676531791687 0.65643191337585449
0.61166346073150635 0.20823052525520325 0.63760972023010254
0.73826134204864502 0.2133038192987442 0.62330687046051025
0.86135077476501465 0.23224543035030365 0.61898195743560791
0.17101718485355377 0.30617621541023254 0.72033214569091797
0.2369275838136673 0.30665239691734314 0.7070918083190918
0.3488810658454895 0.29929390549659729 0.69498467445373535
0.48599809408187866 0.2856425940990448 0.68348473310470581
0.62059086561203003 0.25796863436698914 0.66010671854019165
0.74903577566146851 0.24064810574054718 0.63973557949066162
0.86072546243667603 0.25373470783233643 0.62053883075714111
0.11446864157915115 0.42598047852516174 0.75843936204910278
0.21255819499492645 0.42302978038787842 0.74850773811340332
0.34387728571891785 0.41592925786972046 0.73594856262207031
0.4900800883769989 0.40327149629592896 0.71947920322418213
0.63363611698150635 0.37302306294441223 0.70646888017654419
0.76380401849746704 0.34076392650604248 0.68132621049880981
0.87535315752029419 0.31620350480079651 0.64294791221618652
0.11961079388856888 0.53964114189147949 0.78474324941635132
0.22972755134105682 0.54127705097198486 0.78209632635116577
0.36110293865203857 0.53702956438064575 0.77123183012008667
0.49963566660881042 0.52393102645874023 0.75238633155822754
0.63984131813049316 0.50657504796981812 0.73710727691650391
0.77360671758651733 0.4871639609336853 0.71593809127807617
0.89351183176040649 0.45518076419830322 0.67902964353561401
0.23483918607234955 0.65681898593902588 0.81761676073074341
0.31551548838615417 0.66055285930633545 0.81717473268508911
0.41694530844688416 0.66094249486923218 0.80632805824279785
0.53407168388366699 0.65627843141555786 0.78586810827255249
0.65630662441253662 0.65151464939117432 0.76410913467407227
0.78453242778778076 0.64512914419174194 0.74539047479629517
0.91180539131164551 0.62510848045349121 0.71868777275085449
0.34925132989883423 0.78913962841033936 0.8672606348991394
0.39787381887435913 0.79109156131744385 0.8637046217918396
0.47505265474319458 0.7935977578163147 0.85373926162719727
0.57945966720581055 0.80024617910385132 0.84098082780838013
0.68748384714126587 0.80486005544662476 0.81852573156356812
0.80302327871322632 0.80022495985031128 0.79542255401611328
0.92722553014755249 0.78855496644973755 0.76941746473312378
0.42949247360229492 0.93910515308380127 0.93860787153244019
0.46944037079811096 0.93860459327697754 0.93395215272903442
0.5290340781211853 0.94015955924987793 0.92330962419509888
0.62081408500671387 0.944244384765625 0.91590237617492676
0.7255898118019104 0.9503471851348877 0.89995861053466797
0.83705013990402222 0.95242339372634888 0.87774801254272461
0.95805346965789795 0.94901525974273682 0.85303175449371338
0.24257874488830566 0.26306071877479553 0.79051172733306885
0.28742903470993042 0.2636907696723938 0.77137583494186401
0.37100106477737427 0.26493874192237854 0.76249921321868896
0.48454225063323975 0.2615821361541748 0.74421697854995728
0.61198657751083374 0.25052991509437561 0.72718936204910278
0.72914677858352661 0.25041669607162476 0.7084890604019165
0.83577847480773926 0.26813498139381409 0.69348543882369995
0.20452487468719482 0.34923270344734192 0.82050681114196777
0.26605817675590515 0.35050395131111145 0.81146514415740967
0.36553046107292175 0.34775042533874512 0.80448001623153687
0.49147897958755493 0.33632266521453857 0.78491866588592529
0.6240660548210144 0.31021136045455933 0.76010680198669434
0.7416878342628479 0.28379595279693604 0.72903138399124146
0.84522801637649536 0.28048354387283325 0.70269632339477539
0.15308676660060883 0.46237051486968994 0.86055582761764526
0.23767051100730896 0.46273791790008545 0.85512721538543701
0.35582709312438965 0.45879912376403809 0.84521609544754028
0.49645254015922546 0.4482458233833313 0.82780873775482178
0.63747090101242065 0.42543557286262512 0.8078010082244873
0.75820636749267578 0.38256314396858215 0.77531737089157104
0.86538970470428467 0.34023100137710571 0.73884046077728271
0.15557625889778137 0.57317084074020386 0.89305686950683594
0.2478090226650238 0.57367724180221558 0.88994294404983521
0.36720085144042969 0.57164674997329712 0.87990254163742065
0.505950927734375 0.56305700540542603 0.86295759677886963
0.64585131406784058 0.55243599414825439 0.84879618883132935
0.77272647619247437 0.52937060594558716 0.82893931865692139
0.88743734359741211 0.4877316951751709 0.79435110092163086
0.24584122002124786 0.67558425664901733 0.91822177171707153
0.32133454084396362 0.67781972885131836 0.91554325819015503
0.4164741039276123 0.67850041389465332 0.90540754795074463
0.53202801942825317 0.67549377679824829 0.89073896408081055
0.65607661008834839 0.67292231321334839 0.87739467620849609
0.77990198135375977 0.66665017604827881 0.86158221960067749
0.90171670913696289 0.64212667942047119 0.834442138671875
0.35318508744239807 0.78827106952667236 0.95588123798370361
0.41227966547012329 0.79208189249038696 0.95196998119354248
0.48003998398780823 0.79554486274719238 0.94189608097076416
0.57204186916351318 0.79978066682815552 0.93254047632217407
0.67897135019302368 0.80327975749969482 0.92001521587371826
0.79172664880752563 0.7986750602722168 0.89897733926773071
0.91435831785202026 0.78400927782058716 0.8734889030456543
0.44552737474441528 0.92683953046798706 0.99080753326416016
0.49770399928092957 0.9286382794380188 0.99701762199401855
0.55275088548660278 0.93172800540924072 0.99645739793777466
0.62325054407119751 0.93552869558334351 0.99239826202392578
0.7167738676071167 0.9418824315071106 0.98403722047805786
0.82357895374298096 0.94486045837402344 0.96547460556030273
0.9442826509475708 0.94404357671737671 0.9451485276222229
