assets/lut/pixlsus fadedlook.cube
# Created by: G'MIC (https://gmic.eu)
TITLE "fadedlook"
# LUT size
LUT_3D_SIZE 5
# Data domain
DOMAIN_MIN 0.0 0.0 0.0
DOMAIN_MAX 1.0 1.0 1.0
# LUT data points
0.035687822848558426 0.034873362630605698 0.037100862711668015
0.22113430500030518 0.07648283988237381 0.066052258014678955
0.39269125461578369 0.17901912331581116 0.14068566262722015
0.59538954496383667 0.26334205269813538 0.19676013290882111
0.79493927955627441 0.35429686307907104 0.27510511875152588
0.15503878891468048 0.2511783242225647 0.13326112926006317
0.27141168713569641 0.26558926701545715 0.13561101257801056
0.43730422854423523 0.30035534501075745 0.18522761762142181
0.62258464097976685 0.35386312007904053 0.22665420174598694
0.81295120716094971 0.42121317982673645 0.28690990805625916
0.33159556984901428 0.47074264287948608 0.2430974543094635
0.39702510833740234 0.47389006614685059 0.23730646073818207
0.52033549547195435 0.48782068490982056 0.26643222570419312
0.6745685338973999 0.51752704381942749 0.29332366585731506
0.8436846137046814 0.55814027786254883 0.32880482077598572
0.55297279357910156 0.66646754741668701 0.34595450758934021
0.58655685186386108 0.66984301805496216 0.34477820992469788
0.63662087917327881 0.68926465511322021 0.34616276621818542
0.75767529010772705 0.71289408206939697 0.38517406582832336
0.89945656061172485 0.72849148511886597 0.39034327864646912
0.78433150053024292 0.8340153694152832 0.41921776533126831
0.80873411893844604 0.83579397201538086 0.45801019668579102
0.76107960939407349 0.89046269655227661 0.41434812545776367
0.85702002048492432 0.91296660900115967 0.47286030650138855
0.97490835189819336 0.89829427003860474 0.44977930188179016
0.039363712072372437 0.049802068620920181 0.20011909306049347
0.20614485442638397 0.099090501666069031 0.21405570209026337
0.39723899960517883 0.19491708278656006 0.23767465353012085
0.60601335763931274 0.27084213495254517 0.27196773886680603
0.79635041952133179 0.35773965716362 0.33086395263671875
0.15240545570850372 0.25147026777267456 0.24583438038825989
0.27196410298347473 0.26735696196556091 0.26091140508651733
0.43950483202934265 0.30929619073867798 0.27421855926513672
0.62794840335845947 0.36183658242225647 0.29979482293128967
0.81510657072067261 0.42440974712371826 0.35057163238525391
0.3359566330909729 0.47346729040145874 0.31953859329223633
0.40171036124229431 0.4790891706943512 0.32429239153862
0.52313065528869629 0.49216130375862122 0.32852783799171448
0.67707079648971558 0.52131688594818115 0.34665903449058533
0.84536230564117432 0.56122463941574097 0.38384014368057251
0.55013597011566162 0.67041885852813721 0.38096943497657776
0.58115345239639282 0.67427033185958862 0.37896135449409485
0.63914018869400024 0.68983989953994751 0.38355845212936401
0.76165759563446045 0.71177691221237183 0.42118504643440247
0.9045560359954834 0.73566514253616333 0.43803423643112183
0.79030990600585938 0.82858872413635254 0.43065813183784485
0.799277663230896 0.83329987525939941 0.41558679938316345
0.75768131017684937 0.88738954067230225 0.41623112559318542
0.86234819889068604 0.91067302227020264 0.49695950746536255
0.98239630460739136 0.8981052041053772 0.46588975191116333
0.051531128585338593 0.081834010779857635 0.40472522377967834
0.21842925250530243 0.13161148130893707 0.37538456916809082
0.4093325138092041 0.20600205659866333 0.3732750415802002
0.60487687587738037 0.27293398976325989 0.40393522381782532
0.79461902379989624 0.3545343279838562 0.44336691498756409
0.1704624742269516 0.25756937265396118 0.41689637303352356
0.28838783502578735 0.27932789921760559 0.40104573965072632
0.45206522941589355 0.31763046979904175 0.40357768535614014
0.63225817680358887 0.36533635854721069 0.42903962731361389
0.81529980897903442 0.43000933527946472 0.46155121922492981
0.34965208172798157 0.47573950886726379 0.44410750269889832
0.40892481803894043 0.48352381587028503 0.44174075126647949
0.53001797199249268 0.49736505746841431 0.44140270352363586
0.68404430150985718 0.52638673782348633 0.46108090877532959
0.84791809320449829 0.56750774383544922 0.4860609769821167
0.56161510944366455 0.67516261339187622 0.47301092743873596
0.5798143744468689 0.67896366119384766 0.47146427631378174
0.63697701692581177 0.69709879159927368 0.48805120587348938
0.76311707496643066 0.71639114618301392 0.51322412490844727
0.90384954214096069 0.73681187629699707 0.51047462224960327
0.78907352685928345 0.83808326721191406 0.49069866538047791
0.7578355073928833 0.85926216840744019 0.4845726490020752
0.75638163089752197 0.89570349454879761 0.53466755151748657
0.86228305101394653 0.91024947166442871 0.57364451885223389
0.98152512311935425 0.90489757061004639 0.54214727878570557
0.12902925908565521 0.1495051234960556 0.54154562950134277
0.26130756735801697 0.17504680156707764 0.52772980928421021
0.42474761605262756 0.21925383806228638 0.54112857580184937
0.61024445295333862 0.28566429018974304 0.56276696920394897
0.79864656925201416 0.3655036985874176 0.58897298574447632
0.23138877749443054 0.28477996587753296 0.55757194757461548
0.32457131147384644 0.29916161298751831 0.54966932535171509
0.46322739124298096 0.32776442170143127 0.56255626678466797
0.63684558868408203 0.37616649270057678 0.58345448970794678
0.81821179389953613 0.43979814648628235 0.60297411680221558
0.37673342227935791 0.48244455456733704 0.58503150939941406
0.43465355038642883 0.48831799626350403 0.58261752128601074
0.5402258038520813 0.50139415264129639 0.58956485986709595
0.69075876474380493 0.53054165840148926 0.60814172029495239
0.85574662685394287 0.57100397348403931 0.62260490655899048
0.54145801067352295 0.68582248687744141 0.61146515607833862
0.56479483842849731 0.69523638486862183 0.62208026647567749
0.64721792936325073 0.70235270261764526 0.63056164979934692
0.77142870426177979 0.72191041707992554 0.64782559871673584
0.9192509651184082 0.74104529619216919 0.64251816272735596
0.70937895774841309 0.87786865234375 0.62405747175216675
0.70882499217987061 0.88707166910171509 0.63301557302474976
0.76673531532287598 0.90494149923324585 0.67280381917953491
0.8713451623916626 0.92040783166885376 0.69952255487442017
0.99022316932678223 0.92269325256347656 0.67964714765548706
0.22276857495307922 0.20330777764320374 0.69317531585693359
0.31947740912437439 0.21577915549278259 0.6920045018196106
0.45355367660522461 0.25092387199401855 0.71010243892669678
0.6266556978225708 0.31527727842330933 0.72826296091079712
0.81145167350769043 0.39580619335174561 0.74863815307617188
0.28836077451705933 0.30728599429130554 0.70791441202163696
0.36141765117645264 0.3215566873550415 0.71337580680847168
0.48051196336746216 0.3505304753780365 0.73035895824432373
0.64894181489944458 0.39910399913787842 0.74487775564193726
0.82588815689086914 0.45632824301719666 0.75874513387680054
0.40704861283302307 0.48959836363792419 0.73482596874237061
0.45700132846832275 0.49594491720199585 0.73878419399261475
0.55466300249099731 0.5120856761932373 0.75046324729919434
0.70128732919692993 0.54179185628890991 0.76425385475158691
0.86350935697555542 0.58177047967910767 0.77380186319351196
0.54611748456954956 0.69511860609054565 0.77218341827392578
0.58430862426757812 0.70217210054397583 0.7765924334526062
0.66514164209365845 0.70897984504699707 0.78255945444107056
0.78349334001541138 0.72741502523422241 0.79260814189910889
0.92886936664581299 0.75448358058929443 0.79830425977706909
0.7011680006980896 0.89941114187240601 0.80779951810836792
0.72756284475326538 0.9052884578704834 0.81814295053482056
0.79098552465438843 0.9125823974609375 0.82661241292953491
0.89207297563552856 0.92499208450317383 0.83565682172775269
0.99279522895812988 0.94199842214584351 0.83898943662643433
