assets/lut/pixlsus night spy.cube
# Created by: G'MIC (https://gmic.eu)
TITLE "night_spy"
# LUT size
LUT_3D_SIZE 5
# Data domain
DOMAIN_MIN 0.0 0.0 0.0
DOMAIN_MAX 1.0 1.0 1.0
# LUT data points
0.00048346424591727555 0 0
0.0088614374399185181 0 0
0.042506109923124313 0 0
0.11014369875192642 0 0
0.18021957576274872 0 0
0.062034487724304199 0.12183056771755219 0.06232139840722084
0.17207318544387817 0.091754019260406494 0.0038667565677314997
0.26804766058921814 0.071181327104568481 0.00012754552881233394
0.38999810814857483 0.057087961584329605 0
0.48089241981506348 0.047392256557941437 0
0.27523139119148254 0.45071879029273987 0.27537032961845398
0.4137546718120575 0.42757260799407959 0.19885917007923126
0.55502510070800781 0.39080402255058289 0.10450413823127747
0.67508292198181152 0.35224291682243347 0.029510019347071648
0.69580960273742676 0.3086903989315033 0.032950382679700851
0.61151087284088135 0.89717680215835571 0.60929292440414429
0.72340250015258789 0.84779298305511475 0.51241064071655273
0.72164458036422729 0.67478513717651367 0.38030862808227539
0.71020722389221191 0.56408166885375977 0.33187416195869446
0.70626360177993774 0.5162045955657959 0.33696654438972473
0.75871390104293823 0.97165876626968384 0.75831639766693115
0.75433588027954102 0.87449640035629272 0.62763386964797974
0.73180180788040161 0.72913509607315063 0.53954517841339111
0.72146415710449219 0.65755563974380493 0.52955174446105957
0.71743470430374146 0.62635207176208496 0.55458301305770874
0 0 0.0043154247105121613
0.0011084462748840451 0 0.0038373759016394615
0.0088908327743411064 0 0
0.059760630130767822 0 0
0.1285112202167511 0 0
0.0022011550609022379 0.038618933409452438 0.10597380250692368
0.052177473902702332 0.018650203943252563 0.050670892000198364
0.14992265403270721 0.010013490915298462 0.0030996734276413918
0.25024163722991943 0.0091168871149420738 0
0.35626190900802612 0.0055622025392949581 0
0.1214526891708374 0.34621170163154602 0.33465495705604553
0.2450752854347229 0.31316092610359192 0.24821168184280396
0.38739657402038574 0.27961993217468262 0.15407355129718781
0.52961653470993042 0.25223040580749512 0.072686381638050079
0.65535610914230347 0.23620232939720154 0.020344095304608345
0.41819080710411072 0.76000630855560303 0.63327765464782715
0.54645127058029175 0.72843968868255615 0.54542559385299683
0.67335563898086548 0.68411803245544434 0.44789651036262512
0.70693314075469971 0.56593507528305054 0.35126426815986633
0.70597046613693237 0.50297278165817261 0.34144231677055359
0.61022567749023438 0.91231399774551392 0.7544710636138916
0.75241482257843018 0.95706570148468018 0.75293606519699097
0.74038952589035034 0.7887534499168396 0.62109369039535522
0.72373014688491821 0.67591142654418945 0.56482905149459839
0.71924018859863281 0.63318330049514771 0.57980096340179443
0 0 0.0033373665064573288
0 0 0.0054055307991802692
0.0037418738938868046 0 0.0028157401829957962
0.0059594097547233105 0 0
0.062883831560611725 0 0
0 0.0027695898897945881 0.12155544757843018
0.00017082363774534315 0.0021415860392153263 0.080372951924800873
0.02423400804400444 0 0.023162707686424255
0.11629559099674225 0 0.00070428289473056793
0.21120159327983856 0.00036814072518609464 0
0.0073941550217568874 0.23645935952663422 0.36843612790107727
0.092089630663394928 0.21377591788768768 0.31806978583335876
0.22850456833839417 0.18123972415924072 0.22755035758018494
0.3666362464427948 0.14262445271015167 0.13226114213466644
0.49065113067626953 0.10916238278150558 0.053516343235969543
0.22843672335147858 0.61360257863998413 0.65642851591110229
0.34943768382072449 0.58554768562316895 0.57143986225128174
0.47164613008499146 0.54144787788391113 0.48038309812545776
0.62134349346160889 0.51276904344558716 0.38972160220146179
0.69749468564987183 0.46062380075454712 0.32626610994338989
0.44342774152755737 0.74939209222793579 0.72613966464996338
0.57760107517242432 0.81230407953262329 0.7382999062538147
0.73763233423233032 0.87155008316040039 0.741690993309021
0.72772365808486938 0.69976603984832764 0.61599576473236084
0.71974354982376099 0.64036226272583008 0.61108344793319702
0 0 0.00024813483469188213
0 0 0.0012292750179767609
0 0 0.0039215688593685627
0.0039215688593685627 0 0.0039215688593685627
0.0025010800454765558 0 0
0 0.00086651969468221068 0.11536028981208801
0 9.1148824139963835e-05 0.10811080783605576
0.0028543509542942047 0 0.059259034693241119
0.0083627142012119293 0 0.0068541131913661957
0.076428942382335663 0 0.0012770559405907989
0 0.14721591770648956 0.37602183222770691
0.0043974034488201141 0.11081717908382416 0.3233121931552887
0.069031752645969391 0.077105037868022919 0.29864591360092163
0.19579820334911346 0.039455786347389221 0.19632434844970703
0.3133370578289032 0.020426835864782333 0.11458460241556168
0.058274887502193451 0.48587030172348022 0.69514268636703491
0.16584934294223785 0.46146765351295471 0.62687397003173828
0.28882116079330444 0.41420868039131165 0.52485436201095581
0.42998632788658142 0.37768512964248657 0.4287550151348114
0.56437206268310547 0.34843048453330994 0.34517601132392883
0.3334692120552063 0.62792837619781494 0.71086138486862183
0.41993993520736694 0.65530741214752197 0.71371203660964966
0.55276811122894287 0.70359319448471069 0.72189450263977051
0.7139098048210144 0.75985383987426758 0.71473544836044312
0.72268044948577881 0.64962655305862427 0.64307916164398193
0 0 0.0036146724596619606
0 0 0.01358108501881361
0 0 0.0031308343168348074
0 0 0.0016895368462428451
8.6346793978009373e-05 0 0
0 0 0.12019451707601547
0 2.5850184101727791e-05 0.13071833550930023
0 0 0.099397130310535431
0.00057854747865349054 0 0.025306776165962219
0.0033659541513770819 0 0.0021332683973014355
0 0.079208359122276306 0.36508598923683167
0 0.045305617153644562 0.35406598448753357
0.00063401763327419758 0.019041921943426132 0.2906876802444458
0.058760296553373337 0.0048566032201051712 0.22467342019081116
0.15667113661766052 0.0028354120440781116 0.15476879477500916
0.028318218886852264 0.35646751523017883 0.65401989221572876
0.031403962522745132 0.35088926553726196 0.65423297882080078
0.12950785458087921 0.3136904239654541 0.58686262369155884
0.26476800441741943 0.26793384552001953 0.48586216568946838
0.39537659287452698 0.23555541038513184 0.39717161655426025
0.25171384215354919 0.53872710466384888 0.70180660486221313
0.34092450141906738 0.56253921985626221 0.70463985204696655
0.44288328289985657 0.586517333984375 0.70488548278808594
0.55110496282577515 0.61450862884521484 0.70719021558761597
0.66832524538040161 0.61716008186340332 0.6709975004196167
