assets/lut/pixlsus cinematic mexico.cube
# Created by: G'MIC (https://gmic.eu)
TITLE "cinematic_mexico"
# LUT size
LUT_3D_SIZE 7
# Data domain
DOMAIN_MIN 0.0 0.0 0.0
DOMAIN_MAX 1.0 1.0 1.0
# LUT data points
0.033000435680150986 0.026350777596235275 0.024312891066074371
0.15786981582641602 0.068078048527240753 0.018091509118676186
0.27379247546195984 0.093686170876026154 0.011407126672565937
0.40224039554595947 0.10942263156175613 0.0059015010483562946
0.52031451463699341 0.18094651401042938 0.014878545887768269
0.61603903770446777 0.21579650044441223 0.03106982633471489
0.68880212306976318 0.20119419693946838 0.032463103532791138
0.080918498337268829 0.12231123447418213 0.085527069866657257
0.18085004389286041 0.13661055266857147 0.045418143272399902
0.27760323882102966 0.14564646780490875 0.015632733702659607
0.40219900012016296 0.19359895586967468 0.013677814044058323
0.51854318380355835 0.23951965570449829 0.0089942030608654022
0.60048282146453857 0.260710209608078 0.019513702020049095
0.6776123046875 0.26286160945892334 0.025875017046928406
0.17302463948726654 0.23601791262626648 0.11555724591016769
0.23585033416748047 0.24806849658489227 0.1282113790512085
0.31340146064758301 0.26248264312744141 0.079039506614208221
0.43917009234428406 0.29396423697471619 0.012847421690821648
0.56277108192443848 0.32870423793792725 0.023118965327739716
0.62840414047241211 0.34870254993438721 0.013689003884792328
0.69761943817138672 0.36194139719009399 0.029812278226017952
0.21874655783176422 0.35283973813056946 0.1379050612449646
0.29636189341545105 0.35423934459686279 0.15494793653488159
0.37302383780479431 0.38270860910415649 0.16274732351303101
0.46984019875526428 0.41380095481872559 0.073402971029281616
0.55662411451339722 0.43328115344047546 0.020499510690569878
0.66816627979278564 0.47306075692176819 0.030942564830183983
0.74027258157730103 0.48538312315940857 0.02289663627743721
0.24078729748725891 0.47568878531455994 0.1466166228055954
0.32482871413230896 0.47589969635009766 0.16406944394111633
0.41433429718017578 0.48546740412712097 0.16842344403266907
0.49732008576393127 0.50069421529769897 0.1075427457690239
0.57781225442886353 0.540821373462677 0.060111474245786667
0.66968047618865967 0.57175219058990479 0.073582656681537628
0.75638777017593384 0.58678197860717773 0.036567118018865585
0.24562431871891022 0.59361416101455688 0.14348267018795013
0.33146750926971436 0.58438217639923096 0.15376318991184235
0.42158094048500061 0.57876092195510864 0.1516956239938736
0.5126069188117981 0.58823925256729126 0.11812420934438705
0.60437208414077759 0.61244183778762817 0.1083834320306778
0.68646633625030518 0.63246423006057739 0.14144720137119293
0.7666468620300293 0.68124896287918091 0.087480999529361725
0.23063170909881592 0.70709133148193359 0.13293205201625824
0.32303842902183533 0.69067984819412231 0.13793213665485382
0.41969728469848633 0.68528801202774048 0.13191567361354828
0.52970331907272339 0.68010103702545166 0.12456589937210083
0.62707251310348511 0.68993234634399414 0.12220977991819382
0.71046650409698486 0.70452684164047241 0.12864077091217041
0.7883526086807251 0.73757350444793701 0.095317244529724121
0.052872106432914734 0.081289716064929962 0.11178678274154663
0.16214616596698761 0.11070358008146286 0.10231588035821915
0.32949867844581604 0.10839230567216873 0.099001459777355194
0.42349284887313843 0.11327369511127472 0.08064696192741394
0.52088910341262817 0.19702976942062378 0.081515461206436157
0.6196739673614502 0.22984500229358673 0.11011458933353424
0.70493412017822266 0.22612255811691284 0.12354942411184311
0.070668987929821014 0.14494974911212921 0.14008708298206329
0.16364993155002594 0.15767167508602142 0.14164787530899048
0.31620949506759644 0.16876298189163208 0.075786754488945007
0.43066114187240601 0.18768365681171417 0.054006792604923248
0.52018457651138306 0.25009873509407043 0.063754618167877197
0.61930209398269653 0.28886398673057556 0.098416253924369812
0.69301056861877441 0.29567724466323853 0.1131860762834549
0.15595491230487823 0.25562247633934021 0.19218181073665619
0.22595064342021942 0.26525700092315674 0.20149911940097809
0.33567911386489868 0.2870713472366333 0.17033033072948456
0.4727998673915863 0.30685734748840332 0.085450194776058197
0.58500105142593384 0.32838445901870728 0.06237875297665596
0.63285601139068604 0.35752260684967041 0.081545136868953705
0.69822394847869873 0.37187162041664124 0.10097435116767883
0.21908269822597504 0.37455910444259644 0.22136707603931427
0.3040650486946106 0.37923213839530945 0.23097559809684753
0.37448182702064514 0.40630245208740234 0.24466690421104431
0.50079512596130371 0.42902684211730957 0.18131010234355927
0.60909914970397949 0.4539264440536499 0.12282988429069519
0.69223213195800781 0.47472617030143738 0.080195635557174683
0.72650289535522461 0.49054288864135742 0.10331477969884872
0.25724372267723083 0.48872345685958862 0.24003385007381439
0.33226904273033142 0.4827105700969696 0.24332667887210846
0.41696599125862122 0.49446606636047363 0.25051850080490112
0.52202999591827393 0.52675539255142212 0.22448031604290009
0.60243690013885498 0.56036341190338135 0.16740083694458008
0.69269907474517822 0.58580702543258667 0.14110590517520905
0.76130926609039307 0.60309255123138428 0.11973851174116135
0.25977766513824463 0.60090053081512451 0.24050030112266541
0.3400166928768158 0.58937788009643555 0.24369807541370392
0.43065708875656128 0.58490216732025146 0.24515870213508606
0.53117793798446655 0.60352003574371338 0.22781072556972504
0.61171334981918335 0.63178318738937378 0.16585454344749451
0.69146513938903809 0.67041879892349243 0.19858221709728241
0.78255420923233032 0.69945633411407471 0.18257389962673187
0.2415769100189209 0.71253818273544312 0.23880910873413086
0.33376309275627136 0.69219106435775757 0.23960058391094208
0.42605781555175781 0.68800729513168335 0.2368224710226059
0.53192108869552612 0.69088256359100342 0.22248657047748566
0.63536202907562256 0.70455068349838257 0.20711913704872131
0.7137526273727417 0.73523098230361938 0.22999578714370728
0.78670728206634521 0.77279019355773926 0.234954833984375
0.091295398771762848 0.13297298550605774 0.21701586246490479
0.17867647111415863 0.15994095802307129 0.22047530114650726
0.33074632287025452 0.1812988668680191 0.1661650538444519
0.45231038331985474 0.18970930576324463 0.18031676113605499
0.56031179428100586 0.2216600626707077 0.20428936183452606
0.64913558959960938 0.24864354729652405 0.23006877303123474
0.73319274187088013 0.25423547625541687 0.24775904417037964
0.091644108295440674 0.17802800238132477 0.20827986299991608
0.16368438303470612 0.21036794781684875 0.23870506882667542
0.33858233690261841 0.23329934477806091 0.19253027439117432
0.46951225399971008 0.25414302945137024 0.17468683421611786
0.56718134880065918 0.27706801891326904 0.19094622135162354
0.64462757110595703 0.32360666990280151 0.21860833466053009
0.71452927589416504 0.33479410409927368 0.23804126679897308
0.15917982161045074 0.28083616495132446 0.27093076705932617
0.20450387895107269 0.29777005314826965 0.29311329126358032
0.34895646572113037 0.33804559707641602 0.31274116039276123
0.51405853033065796 0.35359019041061401 0.27560165524482727
0.5885310173034668 0.35547399520874023 0.22043649852275848
0.66500288248062134 0.39771232008934021 0.22486859560012817
0.72062283754348755 0.41919183731079102 0.23337028920650482
0.22479602694511414 0.40423440933227539 0.33071714639663696
0.30033910274505615 0.4063819944858551 0.34658664464950562
0.39909368753433228 0.44681066274642944 0.35955539345741272
0.53259557485580444 0.49496448040008545 0.34828269481658936
0.64972645044326782 0.50350135564804077 0.29275220632553101
0.7089727520942688 0.5147775411605835 0.24801832437515259
0.75883603096008301 0.51687365770339966 0.2395746260881424
0.27475029230117798 0.51100289821624756 0.35531377792358398
0.35313528776168823 0.51417404413223267 0.36048802733421326
0.45586150884628296 0.53587490320205688 0.37346801161766052
0.55862975120544434 0.57780492305755615 0.36823582649230957
0.65942049026489258 0.6079636812210083 0.34992927312850952
0.7356688380241394 0.62864780426025391 0.30531257390975952
0.80236101150512695 0.64487636089324951 0.28075781464576721
0.27213907241821289 0.62131547927856445 0.35813125967979431
0.36558640003204346 0.6163564920425415 0.36434811353683472
0.46653586626052856 0.6177908182144165 0.37066531181335449
0.56628310680389404 0.63656139373779297 0.37020912766456604
0.66014343500137329 0.66227203607559204 0.34840980172157288
0.73507577180862427 0.69926071166992188 0.33865499496459961
0.81768953800201416 0.74279570579528809 0.34529438614845276
0.25241515040397644 0.73077398538589478 0.36304116249084473
0.35211202502250671 0.71009343862533569 0.36535418033599854
0.45510280132293701 0.70159435272216797 0.36919620633125305
0.5619887113571167 0.71564149856567383 0.36553633213043213
0.6637081503868103 0.73837125301361084 0.36573642492294312
0.74094003438949585 0.76952946186065674 0.39025753736495972
0.80583900213241577 0.82253378629684448 0.38453835248947144
0.1242745965719223 0.17394615709781647 0.31773906946182251
0.20769865810871124 0.20494380593299866 0.34181028604507446
0.33915877342224121 0.23259632289409637 0.32658094167709351
0.47920927405357361 0.25069242715835571 0.33256193995475769
0.59216451644897461 0.27176129817962646 0.3499085009098053
0.68351727724075317 0.28594577312469482 0.37040802836418152
0.76896804571151733 0.2825920581817627 0.39930039644241333
0.14492301642894745 0.24301673471927643 0.31601318717002869
0.20925706624984741 0.27578309178352356 0.34297654032707214
0.33862555027008057 0.31507158279418945 0.36474156379699707
0.49155312776565552 0.32979333400726318 0.34374022483825684
0.60113686323165894 0.35115858912467957 0.35080420970916748
0.69216275215148926 0.38013395667076111 0.38148707151412964
0.76068001985549927 0.38430526852607727 0.38979408144950867
0.19159090518951416 0.34013563394546509 0.38549900054931641
0.24496345221996307 0.35820242762565613 0.39553049206733704
0.35124954581260681 0.3995722234249115 0.41360750794410706
0.51409000158309937 0.43324413895606995 0.42460697889328003
0.64187133312225342 0.45941975712776184 0.41179752349853516
0.71883440017700195 0.47844117879867554 0.40172436833381653
0.78221124410629272 0.48499897122383118 0.39315029978752136
0.25659734010696411 0.46034806966781616 0.46100631356239319
0.32629039883613586 0.46291309595108032 0.465544193983078
0.40321677923202515 0.49952641129493713 0.50177526473999023
0.55198031663894653 0.54669797420501709 0.5078885555267334
0.68980598449707031 0.56663525104522705 0.47268036007881165
0.75922757387161255 0.57777440547943115 0.4338829517364502
0.83068108558654785 0.58014309406280518 0.41015714406967163
0.29222890734672546 0.5611993670463562 0.49823254346847534
0.37426692247390747 0.5587228536605835 0.50342744588851929
0.47328090667724609 0.58050751686096191 0.52242755889892578
0.59680700302124023 0.63482332229614258 0.52767723798751831
0.69665747880935669 0.66945570707321167 0.52451986074447632
0.77678591012954712 0.68639296293258667 0.49043735861778259
0.82328587770462036 0.67906844615936279 0.43657058477401733
0.29175025224685669 0.65937334299087524 0.50831609964370728
0.38276016712188721 0.6494821310043335 0.50652140378952026
0.49665144085884094 0.65754246711730957 0.51273524761199951
0.60966825485229492 0.68528580665588379 0.53151530027389526
0.7002989649772644 0.72089207172393799 0.53195881843566895
0.77838408946990967 0.74975007772445679 0.5394587516784668
0.84214907884597778 0.78378432989120483 0.51154321432113647
0.26668640971183777 0.75764966011047363 0.51055550575256348
0.3768179714679718 0.74373000860214233 0.51549381017684937
0.48690640926361084 0.7390601634979248 0.52449756860733032
0.59618842601776123 0.74822086095809937 0.53256583213806152
0.69826793670654297 0.77662813663482666 0.53451430797576904
0.77582603693008423 0.8145022988319397 0.55889499187469482
0.84106683731079102 0.8649410605430603 0.57056933641433716
0.1476103812456131 0.19764815270900726 0.45364600419998169
0.23859743773937225 0.23490448296070099 0.47458478808403015
0.35370627045631409 0.2677207887172699 0.49380901455879211
0.48790019750595093 0.28890812397003174 0.50508290529251099
0.61445295810699463 0.31135717034339905 0.5106508731842041
0.71383261680603027 0.32794246077537537 0.52252310514450073
0.80414336919784546 0.31759154796600342 0.54319560527801514
0.18260458111763 0.2873954176902771 0.46213126182556152
0.25477612018585205 0.32043054699897766 0.48090031743049622
0.35794374346733093 0.36353814601898193 0.50334632396697998
0.49633467197418213 0.39201724529266357 0.52238947153091431
0.62835550308227539 0.41355392336845398 0.53059691190719604
0.72527980804443359 0.42699724435806274 0.53832775354385376
0.8052985668182373 0.42957296967506409 0.54261308908462524
0.22567734122276306 0.39033570885658264 0.50857961177825928
0.29660609364509583 0.41326585412025452 0.50909686088562012
0.37650343775749207 0.45835816860198975 0.52938121557235718
0.51241427659988403 0.48970988392829895 0.54777610301971436
0.6536095142364502 0.51918017864227295 0.55665314197540283
0.74042075872421265 0.52932500839233398 0.55228614807128906
0.81454610824584961 0.53433525562286377 0.54694598913192749
0.28060206770896912 0.50087255239486694 0.5654977560043335
0.36169695854187012 0.51467388868331909 0.56717520952224731
0.43020907044410706 0.54635477066040039 0.58552408218383789
0.53807103633880615 0.57823640108108521 0.59638303518295288
0.68601149320602417 0.61740851402282715 0.59542334079742432
0.77053505182266235 0.63094997406005859 0.58585482835769653
0.82872706651687622 0.64262515306472778 0.56816607713699341
0.31467348337173462 0.60120445489883423 0.60576963424682617
0.40505585074424744 0.60252392292022705 0.60638672113418579
0.49974414706230164 0.62208640575408936 0.62687188386917114
0.60549968481063843 0.67320090532302856 0.66848993301391602
0.71793568134307861 0.70813995599746704 0.65654903650283813
0.79906570911407471 0.71989458799362183 0.63142359256744385
0.83659672737121582 0.73792040348052979 0.60357338190078735
0.31513294577598572 0.69255030155181885 0.62233138084411621
0.41564726829528809 0.68528681993484497 0.62578773498535156
0.52607244253158569 0.69359809160232544 0.64381909370422363
0.63360202312469482 0.72307699918746948 0.66647630929946899
0.74089646339416504 0.77009391784667969 0.6745833158493042
0.81772083044052124 0.79436206817626953 0.67803901433944702
0.87293362617492676 0.81226098537445068 0.64780783653259277
0.29691359400749207 0.78322774171829224 0.62886738777160645
0.40522012114524841 0.7687724232673645 0.63073265552520752
0.52013909816741943 0.76331436634063721 0.64420437812805176
0.62697923183441162 0.77714991569519043 0.65990513563156128
0.73176515102386475 0.80589479207992554 0.66756176948547363
0.81248348951339722 0.84319609403610229 0.67361903190612793
0.86943066120147705 0.87851542234420776 0.66910189390182495
0.16665275394916534 0.20780377089977264 0.58721178770065308
0.25649383664131165 0.24013973772525787 0.59796428680419922
0.36799788475036621 0.27438032627105713 0.61713415384292603
0.49549543857574463 0.30033034086227417 0.63438981771469116
0.62811058759689331 0.31591722369194031 0.65531909465789795
0.73981654644012451 0.32341852784156799 0.67025244235992432
0.83107125759124756 0.32179856300354004 0.67809981107711792
0.2016662061214447 0.30762162804603577 0.59960740804672241
0.28312581777572632 0.33215954899787903 0.60100388526916504
0.38236105442047119 0.37425214052200317 0.61376023292541504
0.50820726156234741 0.4072628915309906 0.63522452116012573
0.63716191053390503 0.4271099865436554 0.65768539905548096
0.74436140060424805 0.43623363971710205 0.67008155584335327
0.82536536455154419 0.43654230237007141 0.6707037091255188
0.23032060265541077 0.411325603723526 0.61733341217041016
0.31127026677131653 0.42913371324539185 0.60783451795578003
0.4017922580242157 0.46855676174163818 0.62103497982025146
0.53041505813598633 0.50918567180633545 0.6436464786529541
0.65341079235076904 0.54173380136489868 0.66638273000717163
0.75258475542068481 0.55214184522628784 0.67187952995300293
0.82790970802307129 0.5528186559677124 0.67135226726531982
0.28385624289512634 0.52295112609863281 0.65930032730102539
0.36662882566452026 0.536834716796875 0.65087985992431641
0.45324301719665527 0.56191223859786987 0.64683407545089722
0.55954432487487793 0.60140550136566162 0.65865558385848999
0.67462247610092163 0.64961034059524536 0.69271755218505859
0.77216047048568726 0.66164302825927734 0.68596428632736206
0.84072160720825195 0.66703552007675171 0.68233203887939453
0.32314935326576233 0.62440699338912964 0.69706964492797852
0.4278927743434906 0.63533037900924683 0.69497895240783691
0.52915048599243164 0.65534240007400513 0.70007932186126709
0.61984658241271973 0.69641894102096558 0.7206839919090271
0.71210652589797974 0.73989063501358032 0.73700326681137085
0.80143469572067261 0.75265312194824219 0.70942157506942749
0.85429507493972778 0.75798052549362183 0.70790392160415649
0.33597394824028015 0.71857714653015137 0.71797680854797363
0.44244414567947388 0.72007578611373901 0.71801555156707764
0.55028808116912842 0.72653722763061523 0.72661727666854858
0.66551858186721802 0.75022405385971069 0.73784118890762329
0.75916761159896851 0.79450643062591553 0.76781195402145386
0.82654732465744019 0.81943094730377197 0.75263935327529907
0.88117897510528564 0.83162409067153931 0.73713356256484985
0.31913051009178162 0.8144075870513916 0.73668354749679565
0.43267670273780823 0.79907405376434326 0.73229408264160156
0.54695439338684082 0.80043452978134155 0.73950397968292236
0.6542326807975769 0.80958807468414307 0.75326383113861084
0.76340788602828979 0.836475670337677 0.76281416416168213
0.83975988626480103 0.86595350503921509 0.76730656623840332
0.8987688422203064 0.89432311058044434 0.77523374557495117
0.16088980436325073 0.19730934500694275 0.70932388305664062
0.25982299447059631 0.22699019312858582 0.7121347188949585
0.37483417987823486 0.26149564981460571 0.72894173860549927
0.50300753116607666 0.28654822707176208 0.74948406219482422
0.63889861106872559 0.30519506335258484 0.76884859800338745
0.75447839498519897 0.31007221341133118 0.78714323043823242
0.85344541072845459 0.30595380067825317 0.80082798004150391
0.19341298937797546 0.30412590503692627 0.70476847887039185
0.28366893529891968 0.32848531007766724 0.70348644256591797
0.38995805382728577 0.36292466521263123 0.71111702919006348
0.51893264055252075 0.39581003785133362 0.7327539324760437
0.64287346601486206 0.41882321238517761 0.75555461645126343
0.75219917297363281 0.42994776368141174 0.77306091785430908
0.84458386898040771 0.43046611547470093 0.78499394655227661
0.21995177865028381 0.41245913505554199 0.71667587757110596
0.31164968013763428 0.42983153462409973 0.70454663038253784
0.41037136316299438 0.46336007118225098 0.71152102947235107
0.53201025724411011 0.50202208757400513 0.72541201114654541
0.65621638298034668 0.53319662809371948 0.7534368634223938
0.75910031795501709 0.54771637916564941 0.76853352785110474
0.84452003240585327 0.54867517948150635 0.7768215537071228
0.27078995108604431 0.53522288799285889 0.74969828128814697
0.3592713475227356 0.53764218091964722 0.72870856523513794
0.45332822203636169 0.5618818998336792 0.72627979516983032
0.56685376167297363 0.60624301433563232 0.73868066072463989
0.68022328615188599 0.64525175094604492 0.7626529335975647
0.77517473697662354 0.66509264707565308 0.76880407333374023
0.85276061296463013 0.66600888967514038 0.77521026134490967
0.31834268569946289 0.64288800954818726 0.78289461135864258
0.41832709312438965 0.64742988348007202 0.77007824182510376
0.52003699541091919 0.66496598720550537 0.76698511838912964
0.61688899993896484 0.70118534564971924 0.77006351947784424
0.71343588829040527 0.74118310213088989 0.78719866275787354
0.79648524522781372 0.76258432865142822 0.7865290641784668
0.86089271306991577 0.76775991916656494 0.78232288360595703
0.34043604135513306 0.74068856239318848 0.81237626075744629
0.44259679317474365 0.74090772867202759 0.80027836561203003
0.55393093824386597 0.7495846152305603 0.79638409614562988
0.66424012184143066 0.77191579341888428 0.79885643720626831
0.75690871477127075 0.80889242887496948 0.81945806741714478
0.82312637567520142 0.84398335218429565 0.82641828060150146
0.87631332874298096 0.84976565837860107 0.81485837697982788
0.32749280333518982 0.83571404218673706 0.83239287137985229
0.44400462508201599 0.82831317186355591 0.82054662704467773
0.55708837509155273 0.82799363136291504 0.81626743078231812
0.66804105043411255 0.83521872758865356 0.8226999044418335
0.76449275016784668 0.84881269931793213 0.82750952243804932
0.84600621461868286 0.87840378284454346 0.83379226922988892
0.90722876787185669 0.91204267740249634 0.83879566192626953
