assets/lut/pixlsus sweet gelatto.cube
# Created by: G'MIC (https://gmic.eu)
TITLE "sweet_gelatto"
# LUT size
LUT_3D_SIZE 13
# Data domain
DOMAIN_MIN 0.0 0.0 0.0
DOMAIN_MAX 1.0 1.0 1.0
# LUT data points
0.069751784205436707 0.004213250707834959 0.066818192601203918
0.19373977184295654 0.0079979244619607925 0.069057762622833252
0.32331669330596924 0.01071644201874733 0.066142484545707703
0.46186882257461548 0.015115177258849144 0.065953396260738373
0.61274510622024536 0.020169785246253014 0.072036877274513245
0.77008450031280518 0.023228934034705162 0.072016499936580658
0.9206501841545105 0.024317303672432899 0.061057612299919128
0.96914958953857422 0.026312660425901413 0.062429733574390411
0.98167163133621216 0.026600033044815063 0.062881499528884888
0.99320012331008911 0.028094662353396416 0.057906985282897949
0.99612200260162354 0.030312975868582726 0.060015540570020676
0.99956560134887695 0.031480588018894196 0.061776120215654373
1 0.02829609252512455 0.055870503187179565
0.072351329028606415 0.01554342545568943 0.067342884838581085
0.19736568629741669 0.023767389357089996 0.06924140453338623
0.32527393102645874 0.029732184484601021 0.065481014549732208
0.46275991201400757 0.040026616305112839 0.06495935469865799
0.61274510622024536 0.04568399116396904 0.070434629917144775
0.76948720216751099 0.047996163368225098 0.070274248719215393
0.91856271028518677 0.051019735634326935 0.060275059193372726
0.96883761882781982 0.062098126858472824 0.06147582083940506
0.98177528381347656 0.073014862835407257 0.063182622194290161
0.99338001012802124 0.081279203295707703 0.061197917908430099
0.99618464708328247 0.08025011420249939 0.06148935854434967
0.99991035461425781 0.078293807804584503 0.062362432479858398
1 0.077447809278964996 0.057964250445365906
0.073490604758262634 0.040807146579027176 0.064440436661243439
0.19633154571056366 0.051653411239385605 0.068103998899459839
0.32632553577423096 0.067291915416717529 0.067811824381351471
0.46423095464706421 0.08001602441072464 0.066921740770339966
0.61294209957122803 0.088364802300930023 0.070144876837730408
0.76995295286178589 0.093373194336891174 0.067090891301631927
0.9190218448638916 0.097761757671833038 0.056260500103235245
0.96875780820846558 0.1103387251496315 0.057669173926115036
0.98182326555252075 0.12587124109268188 0.05967114120721817
0.99338233470916748 0.13712915778160095 0.057641826570034027
0.99620097875595093 0.13604001700878143 0.058223199099302292
1 0.13185375928878784 0.057165585458278656
1 0.13047578930854797 0.053449206054210663
0.069606781005859375 0.078982725739479065 0.059318751096725464
0.19313293695449829 0.094726890325546265 0.062311150133609772
0.32447865605354309 0.110901840031147 0.06143537163734436
0.46333107352256775 0.12750604748725891 0.061355575919151306
0.61285847425460815 0.14424788951873779 0.067455694079399109
0.77036017179489136 0.15832546353340149 0.064687319099903107
0.91992664337158203 0.17051678895950317 0.0562630295753479
0.96923142671585083 0.18175919353961945 0.056337215006351471
0.9819750189781189 0.19007965922355652 0.055043809115886688
0.99338233470916748 0.19585448503494263 0.048380158841609955
0.99620097875595093 0.19870495796203613 0.050067588686943054
1 0.1990816593170166 0.048240810632705688
1 0.19848830997943878 0.045759733766317368
0.070682570338249207 0.14685837924480438 0.056646384298801422
0.19058473408222198 0.16674952208995819 0.05566101148724556
0.32202327251434326 0.1877908855676651 0.054424960166215897
0.46313956379890442 0.21066194772720337 0.056826438754796982
0.61291468143463135 0.23471760749816895 0.063554607331752777
0.76969945430755615 0.25598755478858948 0.063306353986263275
0.91724121570587158 0.27368533611297607 0.059180974960327148
0.96812814474105835 0.28395393490791321 0.057786155492067337
0.98169451951980591 0.29185137152671814 0.057668261229991913
0.99338233470916748 0.2984316349029541 0.058869216591119766
0.99644619226455688 0.30214059352874756 0.053682036697864532
1 0.30778446793556213 0.045769680291414261
1 0.31001919507980347 0.04182109609246254
0.070808202028274536 0.25015294551849365 0.051516767591238022
0.18914878368377686 0.27485448122024536 0.048726893961429596
0.32032337784767151 0.30071872472763062 0.049294460564851761
0.46245414018630981 0.32848387956619263 0.048347070813179016
0.61276459693908691 0.35649928450584412 0.052375014871358871
0.77018940448760986 0.38103625178337097 0.048973351716995239
0.92307746410369873 0.40464550256729126 0.03956909105181694
0.96858924627304077 0.42043158411979675 0.047158394008874893
0.98208332061767578 0.43445396423339844 0.060626160353422165
0.99338233470916748 0.44280818104743958 0.073656700551509857
0.9977756142616272 0.44302424788475037 0.063677996397018433
1 0.45034933090209961 0.043906882405281067
1 0.45534080266952515 0.032774951308965683
0.073678649961948395 0.40684723854064941 0.048801615834236145
0.19018168747425079 0.44193047285079956 0.048177935183048248
0.31873366236686707 0.46860751509666443 0.04586956650018692
0.46179857850074768 0.48945996165275574 0.048282742500305176
0.61139768362045288 0.51827478408813477 0.049599844962358475
0.76864326000213623 0.55097442865371704 0.043977268040180206
0.92188328504562378 0.58201706409454346 0.033433262258768082
0.96914762258529663 0.6001020073890686 0.038243401795625687
0.98261368274688721 0.61452299356460571 0.049897540360689163
0.99332165718078613 0.61782002449035645 0.061313241720199585
0.99900412559509277 0.61026620864868164 0.058704808354377747
1 0.61861121654510498 0.042881056666374207
1 0.62650096416473389 0.028959266841411591
0.07992902398109436 0.58350265026092529 0.046596016734838486
0.19254164397716522 0.60422593355178833 0.046326115727424622
0.31866839528083801 0.62535452842712402 0.041656315326690674
0.46018430590629578 0.64211761951446533 0.043866761028766632
0.60968458652496338 0.66224104166030884 0.044859029352664948
0.76735234260559082 0.68981462717056274 0.037933334708213806
0.92146569490432739 0.71995651721954346 0.026592209935188293
0.9688878059387207 0.73453277349472046 0.029926704242825508
0.98108863830566406 0.74303328990936279 0.039422009140253067
0.99215966463088989 0.74792170524597168 0.047118917107582092
0.99819880723953247 0.75330346822738647 0.046411730349063873
1 0.755959153175354 0.03641115128993988
1 0.7632218599319458 0.024270929396152496
0.080964617431163788 0.70334774255752563 0.035680703818798065
0.19520244002342224 0.71667277812957764 0.040917281061410904
0.32015648484230042 0.73545747995376587 0.038204941898584366
0.4576924741268158 0.75373750925064087 0.034718021750450134
0.60532009601593018 0.77157360315322876 0.03398406133055687
0.76389741897583008 0.79286116361618042 0.029149163514375687
0.91738760471343994 0.81351935863494873 0.021607208997011185
0.96699845790863037 0.82449531555175781 0.023531237617135048
0.97938024997711182 0.83271247148513794 0.029129715636372566
0.99157547950744629 0.84256577491760254 0.03411802276968956
0.99927598237991333 0.85001194477081299 0.035075169056653976
1 0.85010510683059692 0.028881866484880447
1 0.85534167289733887 0.019390704110264778
0.080924943089485168 0.80299603939056396 0.033817112445831299
0.19634409248828888 0.81237399578094482 0.037385229021310806
0.32247397303581238 0.82735240459442139 0.033912360668182373
0.45538002252578735 0.84206473827362061 0.026079289615154266
0.60248899459838867 0.85303217172622681 0.026024941354990005
0.7619621753692627 0.86704725027084351 0.024809848517179489
0.9158174991607666 0.8847007155418396 0.019290804862976074
0.96648484468460083 0.8939245343208313 0.020109064877033234
0.97889763116836548 0.90010523796081543 0.023583745583891869
0.99132472276687622 0.90870028734207153 0.026643805205821991
0.99957603216171265 0.91291356086730957 0.027323106303811073
1 0.9120219349861145 0.023127881810069084
1 0.91475999355316162 0.017019070684909821
0.081230491399765015 0.87559604644775391 0.028129981830716133
0.19681361317634583 0.88261371850967407 0.031291857361793518
0.32238978147506714 0.89261323213577271 0.030044136568903923
0.45392909646034241 0.90403515100479126 0.023505894467234612
0.6011807918548584 0.91351151466369629 0.021635975688695908
0.76170879602432251 0.92529201507568359 0.019220300018787384
0.91805779933929443 0.93739140033721924 0.01537456177175045
0.96748077869415283 0.94052630662918091 0.016824521124362946
0.97994768619537354 0.94256263971328735 0.019554078578948975
0.99202656745910645 0.94795453548431396 0.021375963464379311
0.99922901391983032 0.95087021589279175 0.020893275737762451
1 0.95172238349914551 0.017032938078045845
1 0.95512223243713379 0.011885025538504124
0.086469583213329315 0.92715013027191162 0.026949355378746986
0.1981024444103241 0.93438613414764404 0.027488244697451591
0.32426866888999939 0.94377082586288452 0.024860741570591927
0.45616418123245239 0.95158648490905762 0.018167788162827492
0.60183113813400269 0.95543640851974487 0.017031650990247726
0.75970715284347534 0.96042871475219727 0.017149921506643295
0.90992218255996704 0.96568077802658081 0.016771802678704262
0.96630609035491943 0.96724212169647217 0.016898062080144882
0.98059338331222534 0.96754997968673706 0.016951931640505791
0.99206709861755371 0.96957701444625854 0.017107272520661354
0.99707537889480591 0.97295653820037842 0.01598573662340641
0.99999153614044189 0.97297793626785278 0.013667955994606018
1 0.97350496053695679 0.010892471298575401
0.079948678612709045 0.973979651927948 0.022697778418660164
0.19672767817974091 0.9734504222869873 0.02459137886762619
0.32392638921737671 0.97570168972015381 0.022865265607833862
0.45632851123809814 0.98090130090713501 0.016876116394996643
0.60357922315597534 0.9817044734954834 0.015618626959621906
0.76348119974136353 0.98246479034423828 0.014990892261266708
0.91755807399749756 0.98632627725601196 0.012541214004158974
0.96934354305267334 0.98756128549575806 0.012220061384141445
0.98216962814331055 0.98777288198471069 0.01182244997471571
0.99332398176193237 0.98997610807418823 0.01069819089025259
0.99608308076858521 0.99026501178741455 0.010504105128347874
0.99929100275039673 0.98959368467330933 0.0098277218639850616
1 0.99130570888519287 0.0078823911026120186
0.073315337300300598 0.0042970692738890648 0.17967508733272552
0.19797056913375854 0.0082357069477438927 0.18013443052768707
0.32554468512535095 0.01228942908346653 0.17628917098045349
0.46614512801170349 0.017894474789500237 0.17047922313213348
0.61473125219345093 0.021658653393387794 0.16634216904640198
0.77018266916275024 0.02326468750834465 0.15992280840873718
0.92048197984695435 0.023319244384765625 0.15078094601631165
0.96751934289932251 0.025756072252988815 0.14945918321609497
0.97971969842910767 0.02868499793112278 0.14981955289840698
0.99163359403610229 0.03174223005771637 0.149161696434021
0.99687850475311279 0.032759662717580795 0.14721591770648956
0.99999803304672241 0.032721560448408127 0.14583177864551544
1 0.033928830176591873 0.14143580198287964
0.074585512280464172 0.017288193106651306 0.17434348165988922
0.19922433793544769 0.024719851091504097 0.17253318428993225
0.32590517401695251 0.031980626285076141 0.16877743601799011
0.46588799357414246 0.042414512485265732 0.16140957176685333
0.61396044492721558 0.048114176839590073 0.15808491408824921
0.7695125937461853 0.04989604651927948 0.15369082987308502
0.91903680562973022 0.051351107656955719 0.14518174529075623
0.96784919500350952 0.061682235449552536 0.14432965219020844
0.98043441772460938 0.07267366349697113 0.14523407816886902
0.99180430173873901 0.081764593720436096 0.14395199716091156
0.99635440111160278 0.082377612590789795 0.14285123348236084
0.99999773502349854 0.080155424773693085 0.14030773937702179
1 0.080593794584274292 0.13277500867843628
0.074210584163665771 0.043480757623910904 0.16858881711959839
0.1959284245967865 0.052418503910303116 0.16717323660850525
0.32568290829658508 0.066054403781890869 0.16485163569450378
0.46602284908294678 0.082350634038448334 0.15674035251140594
0.61311846971511841 0.092114344239234924 0.15155455470085144
0.76877206563949585 0.094862513244152069 0.14662636816501617
0.917877197265625 0.099270671606063843 0.13839280605316162
0.96760851144790649 0.11126244068145752 0.13743053376674652
0.98084992170333862 0.12603080272674561 0.13740770518779755
0.99241191148757935 0.13734599947929382 0.13504491746425629
0.99615681171417236 0.13847994804382324 0.13340550661087036
0.99975728988647461 0.13583296537399292 0.13206206262111664
1 0.13427901268005371 0.12550817430019379
0.070891395211219788 0.082819677889347076 0.16056571900844574
0.19357882440090179 0.098464831709861755 0.15752637386322021
0.32450094819068909 0.11563515663146973 0.15363092720508575
0.46412041783332825 0.13288749754428864 0.14663706719875336
0.61177343130111694 0.14731962978839874 0.1442272961139679
0.76847219467163086 0.16076898574829102 0.13708518445491791
0.91876256465911865 0.17345723509788513 0.12758630514144897
0.96815270185470581 0.18412287533283234 0.12743344902992249
0.98118871450424194 0.19168832898139954 0.12639507651329041
0.99336832761764526 0.19882383942604065 0.1210782527923584
0.99611145257949829 0.20383092761039734 0.1205257773399353
0.99950766563415527 0.20510710775852203 0.12069544941186905
1 0.20331366360187531 0.11859121918678284
0.07111002504825592 0.15236291289329529 0.14894813299179077
0.19017794728279114 0.17114052176475525 0.1436542272567749
0.32212242484092712 0.19139653444290161 0.13855926692485809
0.46247786283493042 0.21193002164363861 0.13568665087223053
0.6119002103805542 0.23283848166465759 0.13498573005199432
0.76907205581665039 0.25114601850509644 0.12569437921047211
0.92241364717483521 0.27061223983764648 0.11382317543029785
0.96797937154769897 0.28207427263259888 0.11469331383705139
0.9809575080871582 0.2913479208946228 0.1143680065870285
0.99338233470916748 0.30231174826622009 0.10782443732023239
0.99614173173904419 0.30864256620407104 0.10832588374614716
0.99967402219772339 0.31326910853385925 0.10979216545820236
1 0.31474807858467102 0.10683213919401169
0.072420202195644379 0.25667932629585266 0.13460132479667664
0.18923600018024445 0.28067213296890259 0.12949058413505554
0.31982380151748657 0.30873838067054749 0.12629052996635437
0.46168777346611023 0.33679792284965515 0.1214379221200943
0.61092627048492432 0.36486539244651794 0.11680702120065689
0.76806652545928955 0.3881135880947113 0.10763579607009888
0.92235863208770752 0.4108680784702301 0.097104258835315704
0.9681515097618103 0.42521283030509949 0.096683129668235779
0.98140257596969604 0.43885412812232971 0.096805095672607422
0.99338233470916748 0.44850686192512512 0.091777399182319641
0.99784392118453979 0.45328244566917419 0.092951022088527679
1 0.4633936882019043 0.092287324368953705
1 0.46489149332046509 0.087065376341342926
0.075338684022426605 0.41817262768745422 0.11674058437347412
0.18926726281642914 0.44496747851371765 0.11355890333652496
0.31867027282714844 0.48051950335502625 0.10721598565578461
0.46071213483810425 0.50528991222381592 0.10410289466381073
0.60859411954879761 0.53264772891998291 0.099606804549694061
0.76619493961334229 0.56118971109390259 0.090289190411567688
0.92132234573364258 0.59003061056137085 0.079073883593082428
0.96867841482162476 0.60637778043746948 0.077123142778873444
0.982391357421875 0.61986202001571655 0.076239340007305145
0.99338233470916748 0.62379217147827148 0.074181564152240753
0.99937093257904053 0.62176471948623657 0.073047995567321777
1 0.63507789373397827 0.06976579874753952
1 0.64192014932632446 0.066170498728752136
0.086646184325218201 0.58823609352111816 0.10193083435297012
0.1924634575843811 0.60371202230453491 0.10033603757619858
0.31989246606826782 0.62542611360549927 0.092737264931201935
0.4598829448223114 0.64808768033981323 0.087556682527065277
0.60676056146621704 0.67029225826263428 0.086081832647323608
0.76476061344146729 0.6968112587928772 0.076493315398693085
0.92134106159210205 0.72573268413543701 0.064590856432914734
0.9684908390045166 0.73962825536727905 0.062386292964220047
0.98119163513183594 0.74770694971084595 0.060791015625
0.99324172735214233 0.753243088722229 0.058451902121305466
0.99865621328353882 0.75967812538146973 0.05626201257109642
1 0.76673662662506104 0.054483033716678619
1 0.77494364976882935 0.053181324154138565
0.097661562263965607 0.70664387941360474 0.090518057346343994
0.19600452482700348 0.71856474876403809 0.089552499353885651
0.32152625918388367 0.7342950701713562 0.081427209079265594
0.45943239331245422 0.75650417804718018 0.074843190610408783
0.60437524318695068 0.77723139524459839 0.070972844958305359
0.76250708103179932 0.79754632711410522 0.063035450875759125
0.91799122095108032 0.81841039657592773 0.053493157029151917
0.96678876876831055 0.82902330160140991 0.052097350358963013
0.97947126626968384 0.83676886558532715 0.050830870866775513
0.9924466609954834 0.84608751535415649 0.046914957463741302
0.99959361553192139 0.8514028787612915 0.04472515732049942
1 0.84865874052047729 0.046003378927707672
1 0.85438072681427002 0.045614488422870636
0.099573872983455658 0.80715274810791016 0.081006996333599091
0.19643807411193848 0.81538444757461548 0.080825909972190857
0.32142704725265503 0.82762700319290161 0.075135007500648499
0.4562339186668396 0.84164738655090332 0.065184168517589569
0.60124379396438599 0.85457605123519897 0.059920486062765121
0.76035082340240479 0.87013256549835205 0.052491985261440277
0.91504621505737305 0.8889198899269104 0.043876960873603821
0.96558022499084473 0.89745652675628662 0.042381182312965393
0.97881984710693359 0.90298563241958618 0.041486088186502457
0.99189466238021851 0.91059178113937378 0.037602875381708145
0.9997638463973999 0.9138253927230835 0.035705506801605225
1 0.91143345832824707 0.037672560662031174
1 0.91327142715454102 0.036919087171554565
0.10038000345230103 0.8750377893447876 0.071622006595134735
0.1978289783000946 0.88211023807525635 0.07249903678894043
0.32221564650535583 0.89211207628250122 0.068101190030574799
0.45532596111297607 0.90421450138092041 0.058135192841291428
0.60103899240493774 0.91377103328704834 0.051649671047925949
0.76080882549285889 0.92492681741714478 0.044178489595651627
0.91847538948059082 0.93932324647903442 0.035156667232513428
0.96600532531738281 0.94288802146911621 0.033730465918779373
0.97887051105499268 0.94563174247741699 0.033509273082017899
0.9917333722114563 0.94990646839141846 0.030485115945339203
0.99898475408554077 0.95274865627288818 0.027964767068624496
1 0.95268738269805908 0.028053672984242439
1 0.95524114370346069 0.027107523754239082
0.10177455097436905 0.92535293102264404 0.06576596200466156
0.20109425485134125 0.93168193101882935 0.064457207918167114
0.32526275515556335 0.93906193971633911 0.058586031198501587
0.4567311704158783 0.94637453556060791 0.049094241112470627
0.60192924737930298 0.95232105255126953 0.042847082018852234
0.76221013069152832 0.96040970087051392 0.03661620244383812
0.91679161787033081 0.96928113698959351 0.029048396274447441
0.96668893098831177 0.96962612867355347 0.028182040899991989
0.97935080528259277 0.96905636787414551 0.028781590983271599
0.99130350351333618 0.96970975399017334 0.026913616806268692
0.99662572145462036 0.97245997190475464 0.024396784603595734
0.99966061115264893 0.97298401594161987 0.024027597159147263
1 0.97526258230209351 0.023768691346049309
0.097148358821868896 0.96945613622665405 0.058980636298656464
0.19948869943618774 0.97047829627990723 0.057131435722112656
0.32565772533416748 0.97229957580566406 0.052562445402145386
0.45719435811042786 0.97664511203765869 0.043951459228992462
0.60458409786224365 0.97992265224456787 0.037009429186582565
0.76346641778945923 0.98304295539855957 0.030850114300847054
0.91703397035598755 0.98718816041946411 0.02558918297290802
0.96719193458557129 0.98766946792602539 0.02454783208668232
0.97987794876098633 0.98753732442855835 0.024095602333545685
0.99163413047790527 0.98913884162902832 0.022372854873538017
0.9960142970085144 0.98965179920196533 0.020227469503879547
0.99851912260055542 0.98912733793258667 0.019655220210552216
1 0.99057716131210327 0.01961263082921505
0.09209480881690979 0.0072153126820921898 0.30666470527648926
0.19848105311393738 0.0083821313455700874 0.29782134294509888
0.32412135601043701 0.013511328957974911 0.29039376974105835
0.46892476081848145 0.020661013200879097 0.28224098682403564
0.61831402778625488 0.024056289345026016 0.27452513575553894
0.7721792459487915 0.024045158177614212 0.26401719450950623
0.92219007015228271 0.021394049748778343 0.25213634967803955
0.96634632349014282 0.025566460564732552 0.24765801429748535
0.9779742956161499 0.029274854809045792 0.24712793529033661
0.99021011590957642 0.030241064727306366 0.24713785946369171
0.9982374906539917 0.031410787254571915 0.24577304720878601
1 0.03341197595000267 0.24007540941238403
1 0.036865562200546265 0.23621894419193268
0.081343568861484528 0.020381104201078415 0.29521894454956055
0.19756573438644409 0.027881711721420288 0.28764170408248901
0.32514616847038269 0.035867489874362946 0.27937999367713928
0.46869635581970215 0.045122317969799042 0.26982325315475464
0.61705553531646729 0.051276322454214096 0.26082319021224976
0.77100038528442383 0.053477883338928223 0.2508125901222229
0.9185519814491272 0.05364990234375 0.24051916599273682
0.96648770570755005 0.061173442751169205 0.23838269710540771
0.97906696796417236 0.071254059672355652 0.2389700710773468
0.99107092618942261 0.079615667462348938 0.23825471103191376
0.9970516562461853 0.083373427391052246 0.23526281118392944
1 0.081584811210632324 0.22863641381263733
1 0.084074564278125763 0.22317123413085938
0.075118139386177063 0.045281756669282913 0.28327235579490662
0.19344113767147064 0.053511198610067368 0.27551001310348511
0.32166957855224609 0.065105274319648743 0.26705896854400635
0.46616199612617493 0.082600884139537811 0.25666528940200806
0.61327189207077026 0.095182798802852631 0.24742206931114197
0.7692033052444458 0.097786813974380493 0.23798282444477081
0.92320674657821655 0.10199332237243652 0.22732073068618774
0.96784693002700806 0.11320392042398453 0.22648072242736816
0.97992366552352905 0.1262068897485733 0.2276114821434021
0.99190050363540649 0.13662512600421906 0.22551001608371735
0.99610722064971924 0.13974352180957794 0.22115552425384521
0.99929767847061157 0.13964183628559113 0.21521015465259552
1 0.13835623860359192 0.209249347448349
0.073673158884048462 0.087912373244762421 0.26812481880187988
0.19229288399219513 0.10281597822904587 0.25901526212692261
0.3208162784576416 0.11856019496917725 0.24947912991046906
0.46252420544624329 0.13673087954521179 0.2400226891040802
0.60914438962936401 0.14972767233848572 0.23220787942409515
0.76508694887161255 0.16195650398731232 0.22308969497680664
0.91389018297195435 0.17996841669082642 0.21229703724384308
0.96696662902832031 0.19194163382053375 0.21114873886108398
0.98113971948623657 0.19963712990283966 0.21141183376312256
0.99265003204345703 0.20724844932556152 0.20721720159053802
0.99608457088470459 0.21408301591873169 0.20172879099845886
0.9989926815032959 0.21462485194206238 0.19753627479076385
1 0.21043536067008972 0.19300851225852966
0.073229752480983734 0.15811340510845184 0.2482353150844574
0.19088004529476166 0.17469289898872375 0.23865875601768494
0.3196689784526825 0.19396887719631195 0.22920368611812592
0.46141907572746277 0.21368609368801117 0.22037340700626373
0.6087641716003418 0.23336866497993469 0.21277783811092377
0.76640725135803223 0.25465145707130432 0.20270368456840515
0.91800045967102051 0.27728253602981567 0.19038115441799164
0.96784931421279907 0.29070577025413513 0.18952316045761108
0.98122137784957886 0.30322608351707458 0.18882414698600769
0.99236488342285156 0.31449711322784424 0.18329907953739166
0.99657630920410156 0.32230126857757568 0.17555674910545349
0.99987673759460449 0.32532098889350891 0.17354719340801239
1 0.32540059089660645 0.16984866559505463
0.070766225457191467 0.26055574417114258 0.22563152015209198
0.18972444534301758 0.28352206945419312 0.21751914918422699
0.31844234466552734 0.31206268072128296 0.20631563663482666
0.460409015417099 0.33959364891052246 0.19713965058326721
