assets/lut/pixlsus cinematic lady bird.cube
# Created by: G'MIC (https://gmic.eu)
TITLE "cinematic_lady_bird"
# LUT size
LUT_3D_SIZE 13
# Data domain
DOMAIN_MIN 0.0 0.0 0.0
DOMAIN_MAX 1.0 1.0 1.0
# LUT data points
0.037049043923616409 0.027976151555776596 0.038278840482234955
0.11335169523954391 0.029873283579945564 0.034534230828285217
0.25218680500984192 0.037808287888765335 0.034212958067655563
0.37763911485671997 0.038291122764348984 0.031447526067495346
0.46770229935646057 0.037263832986354828 0.029418332502245903
0.52795463800430298 0.04370492696762085 0.020395928993821144
0.57979363203048706 0.049094211310148239 0.02276630699634552
0.62575584650039673 0.04938526451587677 0.031225884333252907
0.67905038595199585 0.038436394184827805 0.025240145623683929
0.71342545747756958 0.043570410460233688 0.025665970519185066
0.75029540061950684 0.035929303616285324 0.031514529138803482
0.78098249435424805 0.036694306880235672 0.060722276568412781
0.80311083793640137 0.042319204658269882 0.084478460252285004
0.034669253975152969 0.084370240569114685 0.049469742923974991
0.083921350538730621 0.083488836884498596 0.05849914625287056
0.18061801791191101 0.092447035014629364 0.052475005388259888
0.29407322406768799 0.10291091352701187 0.0394122414290905
0.39460524916648865 0.10560201108455658 0.039014134556055069
0.47174420952796936 0.11623509973287582 0.033080410212278366
0.54238176345825195 0.11720269918441772 0.025520309805870056
0.60849916934967041 0.10570818185806274 0.028613101691007614
0.66546905040740967 0.10071149468421936 0.022010190412402153
0.69933211803436279 0.11261244863271713 0.02244039811193943
0.74343907833099365 0.098053321242332458 0.041128765791654587
0.7795146107673645 0.10238289833068848 0.082755818963050842
0.80970251560211182 0.11945796012878418 0.099501021206378937
0.03473275899887085 0.15117126703262329 0.062529005110263824
0.093735009431838989 0.1446811705827713 0.064677819609642029
0.18270084261894226 0.15366707742214203 0.06305287778377533
0.28911194205284119 0.17576773464679718 0.048784893006086349
0.37882626056671143 0.18108545243740082 0.04174436628818512
0.45961162447929382 0.18861117959022522 0.042739015072584152
0.53478783369064331 0.20052562654018402 0.026892434805631638
0.61755681037902832 0.20690546929836273 0.020806211978197098
0.68748193979263306 0.20384140312671661 0.022167939692735672
0.73160064220428467 0.18964461982250214 0.030263623222708702
0.77150857448577881 0.18678545951843262 0.053908359259366989
0.79986059665679932 0.19138559699058533 0.096669167280197144
0.83044487237930298 0.21280090510845184 0.11957264691591263
0.037599124014377594 0.21397459506988525 0.085281595587730408
0.096686676144599915 0.21473391354084015 0.075549378991127014
0.19238388538360596 0.22612035274505615 0.076622545719146729
0.30565652251243591 0.24228495359420776 0.070310510694980621
0.3886415958404541 0.25236213207244873 0.071813873946666718
0.46973064541816711 0.26506376266479492 0.074903540313243866
0.55487239360809326 0.2736440896987915 0.039655841886997223
0.63693660497665405 0.27951395511627197 0.029589349403977394
0.70251458883285522 0.28361758589744568 0.02961762435734272
0.75230675935745239 0.27237510681152344 0.042989183217287064
0.80184298753738403 0.27344217896461487 0.073747001588344574
0.8314250111579895 0.28263083100318909 0.10309461504220963
0.85361462831497192 0.29931408166885376 0.12950386106967926
0.036179337650537491 0.26997902989387512 0.10238518565893173
0.094899214804172516 0.27851063013076782 0.086567901074886322
0.18685907125473022 0.29266691207885742 0.085663154721260071
0.30900579690933228 0.30975419282913208 0.082218736410140991
0.40476107597351074 0.31194648146629333 0.06761595606803894
0.48978534340858459 0.33265405893325806 0.088735215365886688
0.57189077138900757 0.3433404266834259 0.056327491998672485
0.64675223827362061 0.35003188252449036 0.048724275082349777
0.71147233247756958 0.35716044902801514 0.055344853550195694
0.76720911264419556 0.36089855432510376 0.067850850522518158
0.81113386154174805 0.3596281111240387 0.084160976111888885
0.84570819139480591 0.36377823352813721 0.11296313256025314
0.87267935276031494 0.36966276168823242 0.13278661668300629
0.033042594790458679 0.3213956356048584 0.11440253257751465
0.093385554850101471 0.33266708254814148 0.10795455425977707
0.18099136650562286 0.3498280942440033 0.096178598701953888
0.28894719481468201 0.36669644713401794 0.084492869675159454
0.39761555194854736 0.38184231519699097 0.083480849862098694
0.48290878534317017 0.40102940797805786 0.085683755576610565
0.56708145141601562 0.40956452488899231 0.080153308808803558
0.64349770545959473 0.42005890607833862 0.090736016631126404
0.71471107006072998 0.42774245142936707 0.093268059194087982
0.7756267786026001 0.4336758553981781 0.11204402893781662
0.81736397743225098 0.43433466553688049 0.10818921029567719
0.85477358102798462 0.43665897846221924 0.1419689953327179
0.88051170110702515 0.43723282217979431 0.14796556532382965
0.04290458932518959 0.37584948539733887 0.11802755296230316
0.11327429115772247 0.39252910017967224 0.12493311613798141
0.20249496400356293 0.40779322385787964 0.1107434406876564
0.30010434985160828 0.41826009750366211 0.093573600053787231
0.40314128994941711 0.44014933705329895 0.081122137606143951
0.48497021198272705 0.46140193939208984 0.071701958775520325
0.57422918081283569 0.47239977121353149 0.082900851964950562
0.64929616451263428 0.48928478360176086 0.10993338376283646
0.71476328372955322 0.49683976173400879 0.11540357023477554
0.77397352457046509 0.50170606374740601 0.13114906847476959
0.82069635391235352 0.50488042831420898 0.14837433397769928
0.85515087842941284 0.50357437133789062 0.16571804881095886
0.87544852495193481 0.50019639730453491 0.15649192035198212
0.058942817151546478 0.43310487270355225 0.11983910202980042
0.14018674194812775 0.45533961057662964 0.13271401822566986
0.22907188534736633 0.46773070096969604 0.11606638133525848
0.31947508454322815 0.48081851005554199 0.093225441873073578
0.41520577669143677 0.49987462162971497 0.076166115701198578
0.50807374715805054 0.51158618927001953 0.056230656802654266
0.5900338888168335 0.52424126863479614 0.057484075427055359
0.65654134750366211 0.54650866985321045 0.088178776204586029
0.71435809135437012 0.55842173099517822 0.11268647015094757
0.76880282163619995 0.56474536657333374 0.13060429692268372
0.81707799434661865 0.56848841905593872 0.15590097010135651
0.84943151473999023 0.56910222768783569 0.16637422144412994
0.8704230785369873 0.5664680004119873 0.16037638485431671
0.092580385506153107 0.48935264348983765 0.13549321889877319
0.16844035685062408 0.50424659252166748 0.13175056874752045
0.26630035042762756 0.51532143354415894 0.11281509697437286
0.34683337807655334 0.53527384996414185 0.1025286391377449
0.43355855345726013 0.54880750179290771 0.080654740333557129
0.52415603399276733 0.55693179368972778 0.059397365897893906
0.5998685359954834 0.57840901613235474 0.056548040360212326
0.66562485694885254 0.59090572595596313 0.066419430077075958
0.7148173451423645 0.60690450668334961 0.081490926444530487
0.76805144548416138 0.61804980039596558 0.11094488948583603
0.81506943702697754 0.622353196144104 0.14437486231327057
0.84445536136627197 0.63179713487625122 0.16020569205284119
0.86828172206878662 0.6344638466835022 0.16198763251304626
0.1290554404258728 0.5220940113067627 0.13325288891792297
0.19433139264583588 0.53395932912826538 0.1247250884771347
0.28560039401054382 0.55052739381790161 0.11321795731782913
0.36890473961830139 0.5724446177482605 0.10887224972248077
0.45561379194259644 0.59066545963287354 0.084903761744499207
0.5445631742477417 0.59964025020599365 0.059320680797100067
0.61558657884597778 0.61556386947631836 0.063061445951461792
0.68076235055923462 0.62798094749450684 0.059967368841171265
0.7342645525932312 0.64569711685180664 0.072569482028484344
0.78114867210388184 0.66380822658538818 0.10836935788393021
0.8150489330291748 0.6748160719871521 0.13582278788089752
0.848499596118927 0.68748986721038818 0.15071506798267365
0.87672924995422363 0.68972408771514893 0.14643067121505737
0.17559210956096649 0.56481868028640747 0.12570127844810486
0.21292628347873688 0.56872493028640747 0.12025785446166992
0.29267734289169312 0.58351606130599976 0.11524254083633423
0.37758511304855347 0.59645962715148926 0.10295949876308441
0.46024692058563232 0.61602878570556641 0.095468021929264069
0.54547268152236938 0.63673925399780273 0.089409634470939636
0.62940084934234619 0.65387123823165894 0.077072829008102417
0.70037955045700073 0.66747987270355225 0.06578141450881958
0.7494695782661438 0.68327456712722778 0.077638588845729828
0.78765410184860229 0.70190751552581787 0.09769313782453537
0.82808494567871094 0.7174907922744751 0.11587401479482651
0.87181860208511353 0.72788691520690918 0.1281435638666153
0.89627498388290405 0.73189467191696167 0.12861190736293793
0.16875304281711578 0.60988068580627441 0.12061247229576111
0.22136111557483673 0.61179184913635254 0.11928524076938629
0.29664760828018188 0.62180852890014648 0.11337783187627792
0.37505486607551575 0.63374572992324829 0.10330992937088013
0.45372536778450012 0.65095645189285278 0.10248743742704391
0.53325337171554565 0.67336434125900269 0.10191759467124939
0.61679321527481079 0.69632738828659058 0.081157207489013672
0.71061939001083374 0.70727938413619995 0.071417786180973053
0.76956558227539062 0.72069597244262695 0.08523482084274292
0.82443922758102417 0.73400712013244629 0.086185038089752197
0.87027627229690552 0.74979913234710693 0.094543799757957458
0.90048593282699585 0.76767301559448242 0.11867813766002655
0.90978163480758667 0.77567744255065918 0.12852774560451508
0.15315966308116913 0.65164220333099365 0.11113810539245605
0.22263383865356445 0.65316766500473022 0.11342824250459671
0.29738762974739075 0.65873867273330688 0.10942818224430084
0.37105467915534973 0.6674683690071106 0.099874995648860931
0.44436353445053101 0.68201428651809692 0.095636598765850067
0.51464706659317017 0.70420098304748535 0.087826654314994812
0.58808475732803345 0.72958505153656006 0.067649111151695251
0.69427895545959473 0.74055677652359009 0.062306556850671768
0.78894788026809692 0.75103384256362915 0.068638548254966736
0.8415302038192749 0.77434355020523071 0.092702783644199371
0.88486576080322266 0.79231423139572144 0.11459941416978836
0.91347271203994751 0.80868995189666748 0.14101940393447876
0.92230159044265747 0.8188440203666687 0.13300657272338867
0.03305378183722496 0.036287330090999603 0.08936532586812973
0.098934128880500793 0.041790682822465897 0.08906332403421402
0.22448979318141937 0.046274282038211823 0.095969513058662415
0.35514181852340698 0.041384380310773849 0.09214513748884201
0.45412293076515198 0.040678661316633224 0.07810751348733902
0.52119165658950806 0.04597308486700058 0.073498576879501343
0.58276402950286865 0.045898199081420898 0.07860960066318512
0.62874132394790649 0.050741981714963913 0.078608252108097076
0.66895210742950439 0.051276307553052902 0.07545885443687439
0.69690501689910889 0.055398620665073395 0.072886370122432709
0.74174207448959351 0.035187695175409317 0.083494670689105988
0.78371310234069824 0.035079445689916611 0.12070255726575851
0.79940378665924072 0.044001411646604538 0.13614991307258606
0.027589760720729828 0.089097045361995697 0.096243150532245636
0.070827975869178772 0.093487761914730072 0.103731669485569
0.16555556654930115 0.10159584134817123 0.10433482378721237
0.28478983044624329 0.10965075343847275 0.090921483933925629
0.38870358467102051 0.1117803081870079 0.076606988906860352
0.45551669597625732 0.11945156008005142 0.080429643392562866
0.54075688123703003 0.11614807695150375 0.080590009689331055
0.61591917276382446 0.10982482135295868 0.083843022584915161
0.65762770175933838 0.10225100070238113 0.07728944718837738
0.69329959154129028 0.10175461322069168 0.064462356269359589
0.74772989749908447 0.098520241677761078 0.081254787743091583
0.7804640531539917 0.10299974679946899 0.11117604374885559
0.79874712228775024 0.11646643280982971 0.12458270043134689
0.026093201711773872 0.15579433739185333 0.11477690935134888
0.075423896312713623 0.15693387389183044 0.11438976973295212
0.1681944876909256 0.16561779379844666 0.11783858388662338
0.26976978778839111 0.17947337031364441 0.10378353297710419
0.36984708905220032 0.18804855644702911 0.094686470925807953
0.45813241600990295 0.19562156498432159 0.085134468972682953
0.53367453813552856 0.20094959437847137 0.070835158228874207
0.62211388349533081 0.20670388638973236 0.083319693803787231
0.68645912408828735 0.20609992742538452 0.083157122135162354
0.73917418718338013 0.19963182508945465 0.071541883051395416
0.79112279415130615 0.19887560606002808 0.077740222215652466
0.80854260921478271 0.19943080842494965 0.11604708433151245
0.83152192831039429 0.21846339106559753 0.13556604087352753
0.03701699897646904 0.22085914015769958 0.13966396450996399
0.074083290994167328 0.2230425626039505 0.1267019510269165
0.16596540808677673 0.23538541793823242 0.14037936925888062
0.27426424622535706 0.2483132928609848 0.13672780990600586
0.37300777435302734 0.25474745035171509 0.12722058594226837
0.47085434198379517 0.26988548040390015 0.11877869069576263
0.55146908760070801 0.27763187885284424 0.09181339293718338
0.63609075546264648 0.28236275911331177 0.076555915176868439
0.70242005586624146 0.28261744976043701 0.072007842361927032
0.76198208332061768 0.28308966755867004 0.079369895160198212
0.81628251075744629 0.27464744448661804 0.084647700190544128
0.84419399499893188 0.29960671067237854 0.11866920441389084
0.86412131786346436 0.31520098447799683 0.14447890222072601
0.037047829478979111 0.27959135174751282 0.15594527125358582
0.078344829380512238 0.28451770544052124 0.15206415951251984
0.16521979868412018 0.3044535219669342 0.15554820001125336
0.26767751574516296 0.31766512989997864 0.15306171774864197
0.3893982470035553 0.31856310367584229 0.1390518844127655
0.48919156193733215 0.33507874608039856 0.1366402804851532
0.5740240216255188 0.3425753116607666 0.10432867705821991
0.6496768593788147 0.35008203983306885 0.081673577427864075
0.71754324436187744 0.36003682017326355 0.077850103378295898
0.77364647388458252 0.36357942223548889 0.099996738135814667
0.81734204292297363 0.36631566286087036 0.097150824964046478
0.85697007179260254 0.37655889987945557 0.13818907737731934
0.87366580963134766 0.38052728772163391 0.16310437023639679
0.033323712646961212 0.3307901918888092 0.16826164722442627
0.083231985569000244 0.33980569243431091 0.17243067920207977
0.16912318766117096 0.3593030571937561 0.16558355093002319
0.2671663761138916 0.37218895554542542 0.16253888607025146
0.39997544884681702 0.39164397120475769 0.15107689797878265
0.49252846837043762 0.40129789710044861 0.15106567740440369
0.58677929639816284 0.40866801142692566 0.1329561322927475
0.65467005968093872 0.41986182332038879 0.12384697049856186
0.7228388786315918 0.43289893865585327 0.1297881007194519
0.78820633888244629 0.44300428032875061 0.15101900696754456
0.82528084516525269 0.44461202621459961 0.13906893134117126
0.86430180072784424 0.44559529423713684 0.17720365524291992
0.87840861082077026 0.4432433545589447 0.18302138149738312
0.040875855833292007 0.38604748249053955 0.17438355088233948
0.10257677733898163 0.40095105767250061 0.18089552223682404
0.18613874912261963 0.41791900992393494 0.17735543847084045
0.28458875417709351 0.43249183893203735 0.17817094922065735
0.39824247360229492 0.45450720191001892 0.16421693563461304
0.50017297267913818 0.4664396345615387 0.15993234515190125
0.57616108655929565 0.48267689347267151 0.17556454241275787
0.6499561071395874 0.49804836511611938 0.17086635529994965
0.71992385387420654 0.50526618957519531 0.168675497174263
0.78630703687667847 0.51355201005935669 0.16603100299835205
0.83196872472763062 0.51638531684875488 0.1730923056602478
0.8609427809715271 0.50911957025527954 0.18781036138534546
0.87579178810119629 0.50589996576309204 0.1896851658821106
0.061785709112882614 0.44184154272079468 0.17957940697669983
0.1268925815820694 0.46127998828887939 0.18708443641662598
0.20912943780422211 0.47898328304290771 0.18295454978942871
0.30387178063392639 0.49654409289360046 0.17970244586467743
0.40189898014068604 0.51398837566375732 0.16228152811527252
0.5068204402923584 0.52498024702072144 0.13632529973983765
0.58535510301589966 0.54091304540634155 0.13845212757587433
0.65513092279434204 0.55314815044403076 0.1641259640455246
0.72090858221054077 0.56440287828445435 0.16817755997180939
0.7864653468132019 0.57216137647628784 0.16701249778270721
0.82999640703201294 0.57601267099380493 0.17887160181999207
0.85530763864517212 0.57376372814178467 0.18648393452167511
0.87285751104354858 0.57106035947799683 0.18933333456516266
0.092516578733921051 0.48872232437133789 0.18296338617801666
0.15516704320907593 0.49825787544250488 0.17961354553699493
0.23354414105415344 0.5174257755279541 0.17752489447593689
0.32718104124069214 0.54857665300369263 0.18474039435386658
0.42553147673606873 0.56821757555007935 0.16864390671253204
0.51243424415588379 0.57719868421554565 0.14795561134815216
0.60093992948532104 0.58609580993652344 0.13348330557346344
0.66615712642669678 0.59755605459213257 0.13716332614421844
0.72631561756134033 0.61294782161712646 0.14434878528118134
0.79124468564987183 0.6219632625579834 0.16132217645645142
0.83060449361801147 0.62745898962020874 0.17983466386795044
0.85373044013977051 0.63618755340576172 0.18593569099903107
0.87102663516998291 0.6391526460647583 0.18637658655643463
0.1235191822052002 0.5288352370262146 0.18396119773387909
0.18278436362743378 0.53510397672653198 0.17540453374385834
0.25411641597747803 0.55208909511566162 0.17224201560020447
0.34426853060722351 0.59041517972946167 0.19414319097995758
0.44370341300964355 0.61367827653884888 0.16009509563446045
0.52916806936264038 0.62042135000228882 0.14268405735492706
0.60962742567062378 0.63042193651199341 0.13850739598274231
0.67822223901748657 0.64198046922683716 0.13524402678012848
0.73690700531005859 0.6566813588142395 0.13430120050907135
0.79124265909194946 0.66979122161865234 0.14160330593585968
0.8317720890045166 0.68338948488235474 0.17261087894439697
0.85525280237197876 0.69981461763381958 0.1776687353849411
0.87690919637680054 0.69881641864776611 0.18346919119358063
0.15391761064529419 0.5728725790977478 0.18325258791446686
0.20049338042736053 0.5796167254447937 0.17882508039474487
0.27520003914833069 0.59538590908050537 0.17629657685756683
0.36153760552406311 0.61702102422714233 0.17791590094566345
0.44937562942504883 0.63394737243652344 0.16002717614173889
0.53727263212203979 0.64885926246643066 0.14544954895973206
0.62009948492050171 0.6674467921257019 0.13727080821990967
0.69400888681411743 0.68421190977096558 0.13516466319561005
0.74721276760101318 0.69689929485321045 0.14231964945793152
0.79227221012115479 0.71102726459503174 0.14294792711734772
0.83771944046020508 0.73688054084777832 0.15114873647689819
0.87516212463378906 0.74350696802139282 0.16205951571464539
0.89606559276580811 0.73826706409454346 0.17947262525558472
0.16016128659248352 0.61783826351165771 0.17930333316326141
0.21536614000797272 0.62191802263259888 0.17820902168750763
0.29025009274482727 0.63270139694213867 0.17342069745063782
0.36820906400680542 0.64515143632888794 0.16725689172744751
0.4465707540512085 0.66039049625396729 0.16417762637138367
0.52963441610336304 0.67857420444488525 0.15025098621845245
0.61146235466003418 0.70575827360153198 0.13151441514492035
0.69750005006790161 0.72426515817642212 0.13643550872802734
0.75913536548614502 0.73586350679397583 0.1577722430229187
0.82189381122589111 0.74453848600387573 0.15384012460708618
0.87204980850219727 0.76035696268081665 0.14915074408054352
0.9059022068977356 0.77027994394302368 0.15636317431926727
0.91168981790542603 0.77496629953384399 0.17910081148147583
0.15428550541400909 0.65759760141372681 0.17236681282520294
0.21897216141223907 0.66049861907958984 0.17238631844520569
0.29241633415222168 0.66717326641082764 0.17011940479278564
0.36629447340965271 0.67809814214706421 0.16728387773036957
0.4415123462677002 0.69185096025466919 0.16150261461734772
0.51565313339233398 0.70859581232070923 0.14989332854747772
0.59028482437133789 0.73100417852401733 0.1337621659040451
0.68602055311203003 0.74887645244598389 0.14578789472579956
0.78243207931518555 0.76555567979812622 0.16795070469379425
0.84312033653259277 0.78088033199310303 0.18074586987495422
0.88633614778518677 0.79804521799087524 0.17754757404327393
0.91960322856903076 0.81290102005004883 0.18741282820701599
0.92774826288223267 0.8162497878074646 0.20084305107593536
0.023072591051459312 0.050817079842090607 0.15634268522262573
0.085141919553279877 0.055480446666479111 0.15554027259349823
0.18999823927879333 0.055856578052043915 0.15937615931034088
0.32832056283950806 0.053031083196401596 0.16787867248058319
0.42360246181488037 0.05008220300078392 0.15170300006866455
0.51489353179931641 0.05146433413028717 0.16026808321475983
0.58748406171798706 0.049205482006072998 0.15644343197345734
0.63614612817764282 0.050058744847774506 0.14084632694721222
0.67835080623626709 0.047181971371173859 0.13616339862346649
0.71240001916885376 0.0401126928627491 0.14304713904857635
0.7459149956703186 0.033852759748697281 0.1564679890871048
0.76288336515426636 0.037311941385269165 0.16259792447090149
0.78531771898269653 0.043720632791519165 0.17899425327777863
0.016612272709608078 0.10106810182332993 0.16486647725105286
0.059852000325918198 0.10428453236818314 0.16051913797855377
0.14881497621536255 0.11552641540765762 0.16698950529098511
0.27448433637619019 0.1226065531373024 0.16224454343318939
0.36813256144523621 0.11896538734436035 0.14662849903106689
0.45583111047744751 0.12680713832378387 0.16125649213790894
0.54839295148849487 0.12566924095153809 0.15238079428672791
0.62288588285446167 0.11533816158771515 0.14840394258499146
0.67252516746520996 0.10149776935577393 0.14687354862689972
0.71322047710418701 0.099740900099277496 0.1479906439781189
0.75534439086914062 0.098227374255657196 0.15089665353298187
0.77931910753250122 0.11424174904823303 0.16408254206180573
0.79441744089126587 0.12570104002952576 0.17751568555831909
0.020384978502988815 0.16461955010890961 0.17932160198688507
0.062687143683433533 0.1674046665430069 0.17818410694599152
0.15110896527767181 0.1778448075056076 0.18526923656463623
0.26154676079750061 0.19181777536869049 0.18562836945056915
0.36380615830421448 0.19977748394012451 0.17664104700088501
0.45986756682395935 0.20944081246852875 0.17789165675640106
0.54536813497543335 0.21145334839820862 0.15848477184772491
0.63244616985321045 0.21532897651195526 0.16577008366584778
0.69872760772705078 0.2087751179933548 0.16909044981002808
0.74629467725753784 0.20054605603218079 0.15610504150390625
0.78753048181533813 0.20247679948806763 0.14509323239326477
0.81777966022491455 0.22571390867233276 0.17369718849658966
0.83438229560852051 0.23380585014820099 0.1891588568687439
0.026562424376606941 0.22811837494373322 0.1999739408493042
0.063696511089801788 0.23045572638511658 0.19428576529026031
0.14450177550315857 0.24292641878128052 0.20124125480651855
0.26555150747299194 0.26108774542808533 0.21300457417964935
0.37460926175117493 0.27376654744148254 0.2082669734954834
0.47204238176345825 0.28269007802009583 0.20192138850688934
0.55999666452407837 0.2879168689250946 0.18778717517852783
0.63824355602264404 0.29624432325363159 0.1610281765460968
0.70719331502914429 0.29194143414497375 0.14599345624446869
0.7616768479347229 0.2852746844291687 0.14161147177219391
0.80790477991104126 0.28670385479927063 0.1304531991481781
0.8476681113243103 0.30905312299728394 0.15671287477016449
0.86421185731887817 0.30947217345237732 0.17705921828746796
0.026141058653593063 0.29032024741172791 0.21635749936103821
0.075977474451065063 0.29357102513313293 0.21787929534912109
0.14726269245147705 0.30442914366722107 0.21829356253147125
0.25013583898544312 0.3203563392162323 0.22545436024665833
0.37755557894706726 0.3415931761264801 0.2246435284614563
