assets/lut/pixlsus expired 69.cube
# Created by: G'MIC (https://gmic.eu)
TITLE "expired_69"
# LUT size
LUT_3D_SIZE 5
# Data domain
DOMAIN_MIN 0.0 0.0 0.0
DOMAIN_MAX 1.0 1.0 1.0
# LUT data points
0.035047419369220734 0.040115192532539368 0.043806098401546478
0.21020360291004181 0.08096642792224884 0.11133106052875519
0.40769600868225098 0.13368961215019226 0.1891179233789444
0.64586234092712402 0.13771234452724457 0.13550511002540588
0.88081783056259155 0.12241973727941513 0.095817714929580688
0.091843515634536743 0.25251147150993347 0.13549339771270752
0.25096014142036438 0.2693684995174408 0.15300960838794708
0.42506325244903564 0.30150091648101807 0.20479190349578857
0.65118581056594849 0.31797993183135986 0.14561767876148224
0.88985168933868408 0.30985340476036072 0.10443597286939621
0.15105791389942169 0.47833529114723206 0.23207338154315948
0.30569440126419067 0.48205387592315674 0.23572468757629395
0.47260138392448425 0.50046169757843018 0.24875451624393463
0.67777901887893677 0.51914829015731812 0.17529325187206268
0.9110906720161438 0.51851803064346313 0.12816011905670166
0.16632859408855438 0.71004903316497803 0.18355460464954376
0.33885908126831055 0.71208220720291138 0.1904028058052063
0.52574563026428223 0.71930617094039917 0.19919408857822418
0.72036737203598022 0.73126143217086792 0.22894710302352905
0.93720322847366333 0.73473495244979858 0.26526710391044617
0.33023837208747864 0.93916839361190796 0.32756707072257996
0.38275444507598877 0.93869292736053467 0.32760530710220337
0.56411153078079224 0.94126838445663452 0.31933635473251343
0.76476049423217773 0.9470827579498291 0.35618042945861816
0.9659188985824585 0.95161324739456177 0.42863470315933228
0.040884505957365036 0.054289396852254868 0.22837679088115692
0.21601234376430511 0.090255275368690491 0.2691313624382019
0.41318461298942566 0.12900836765766144 0.33674335479736328
0.64422780275344849 0.13582836091518402 0.3188774585723877
0.88487225770950317 0.12433510273694992 0.19082276523113251
0.094082042574882507 0.25773930549621582 0.29022449254989624
0.25197836756706238 0.27150800824165344 0.3040916919708252
0.43187436461448669 0.30136215686798096 0.35220694541931152
0.65430378913879395 0.31717461347579956 0.3331916332244873
0.89535528421401978 0.31389787793159485 0.2081051766872406
0.14777371287345886 0.47832730412483215 0.3783726692199707
0.30944684147834778 0.48255950212478638 0.38052365183830261
0.47504565119743347 0.49923333525657654 0.3972109854221344
0.67756938934326172 0.51713258028030396 0.35746508836746216
0.91269314289093018 0.51893711090087891 0.21307773888111115
0.18422715365886688 0.71004903316497803 0.35515657067298889
0.34124758839607239 0.71004903316497803 0.3469703197479248
0.52435076236724854 0.71795320510864258 0.35957211256027222
0.71879559755325317 0.73098450899124146 0.3582724928855896
0.93865925073623657 0.7361915111541748 0.28147286176681519
0.33385440707206726 0.93864840269088745 0.34142857789993286
0.41241216659545898 0.93850493431091309 0.34926775097846985
0.58023762702941895 0.94079679250717163 0.36609825491905212
0.77498936653137207 0.94759339094161987 0.36615744233131409
0.96734714508056641 0.95444846153259277 0.42876055836677551
0.049337469041347504 0.067179284989833832 0.42322990298271179
0.2270427942276001 0.09372672438621521 0.45291182398796082
0.42584130167961121 0.12208117544651031 0.5013192892074585
0.64845579862594604 0.13377246260643005 0.4982745349407196
0.89032697677612305 0.12955275177955627 0.38413557410240173
0.086393721401691437 0.26438400149345398 0.4704214334487915
0.25665929913520813 0.2793009877204895 0.4822363555431366
0.44361048936843872 0.30207234621047974 0.51899927854537964
0.66048413515090942 0.31666344404220581 0.51007616519927979
0.90048837661743164 0.31660690903663635 0.39343249797821045
0.12706169486045837 0.48254376649856567 0.53332120180130005
0.30266761779785156 0.48746055364608765 0.54273527860641479
0.47998803853988647 0.50076472759246826 0.55522793531417847
0.6810615062713623 0.5164063572883606 0.53241878747940063
0.91474348306655884 0.52140682935714722 0.41254016757011414
0.1656835526227951 0.71068066358566284 0.54358494281768799
0.32758617401123047 0.71051305532455444 0.54757356643676758
0.52082836627960205 0.7184639573097229 0.54926925897598267
0.71544057130813599 0.73211199045181274 0.56294482946395874
0.93923133611679077 0.73900735378265381 0.44001498818397522
0.32826799154281616 0.93874835968017578 0.4451775848865509
0.39395102858543396 0.94008404016494751 0.46714544296264648
0.57924109697341919 0.94200760126113892 0.44646206498146057
0.77601510286331177 0.94978290796279907 0.45436623692512512
0.97314774990081787 0.95594298839569092 0.4900529682636261
0.07234712690114975 0.089638188481330872 0.60702371597290039
0.25339078903198242 0.10429555922746658 0.62456560134887695
0.45232641696929932 0.12274189293384552 0.65648579597473145
0.66043156385421753 0.13918969035148621 0.67954719066619873
0.8945123553276062 0.13892066478729248 0.59020406007766724
0.087874710559844971 0.28244629502296448 0.64096945524215698
0.27011868357658386 0.29172524809837341 0.64857757091522217
0.46808540821075439 0.30673575401306152 0.67090266942977905
0.67511516809463501 0.32056793570518494 0.67712563276290894
0.90656775236129761 0.3212648332118988 0.58977299928665161
0.1212107315659523 0.49519374966621399 0.68059742450714111
0.30176743865013123 0.49860057234764099 0.68385535478591919
0.49586856365203857 0.50813513994216919 0.69731980562210083
0.69384229183197021 0.52107840776443481 0.69726830720901489
0.91780507564544678 0.52807265520095825 0.61417657136917114
0.18794827163219452 0.71629804372787476 0.71052592992782593
0.34270048141479492 0.71762079000473022 0.72189474105834961
0.53162300586700439 0.72422510385513306 0.72742956876754761
0.72354245185852051 0.73418843746185303 0.73293203115463257
0.94558697938919067 0.74290007352828979 0.63777166604995728
0.33657410740852356 0.94207090139389038 0.65350610017776489
0.39958581328392029 0.94263088703155518 0.65149039030075073
0.58075582981109619 0.9469069242477417 0.64972281455993652
0.77751004695892334 0.95284080505371094 0.65631550550460815
0.9755244255065918 0.95802628993988037 0.65649831295013428
0.12477818131446838 0.12428126484155655 0.7541203498840332
0.30305811762809753 0.12280889600515366 0.75211071968078613
0.5003739595413208 0.12471599131822586 0.75577265024185181
0.70089000463485718 0.13487739861011505 0.77324908971786499
0.90608662366867065 0.14630503952503204 0.77360200881958008
0.12509438395500183 0.31397470831871033 0.76794832944869995
0.31107023358345032 0.31158214807510376 0.76360362768173218
0.51324653625488281 0.31215688586235046 0.76796281337738037
0.71046054363250732 0.32310748100280762 0.78826683759689331
0.91669058799743652 0.3339419960975647 0.77580529451370239
0.13999040424823761 0.51602011919021606 0.78445827960968018
0.3330267071723938 0.51422053575515747 0.78073984384536743
0.53369009494781494 0.51564401388168335 0.78043454885482788
0.73102235794067383 0.52185028791427612 0.79229378700256348
0.92901420593261719 0.53661918640136719 0.79703432321548462
0.19089564681053162 0.73018401861190796 0.81049269437789917
0.36695072054862976 0.73074448108673096 0.81426990032196045
0.56061685085296631 0.73392331600189209 0.81463134288787842
0.75408077239990234 0.73881369829177856 0.8204801082611084
0.95162451267242432 0.74931460618972778 0.82607191801071167
0.35561919212341309 0.94982093572616577 0.83166259527206421
0.40818685293197632 0.95054131746292114 0.83401322364807129
0.59560054540634155 0.95295721292495728 0.83751481771469116
0.78870624303817749 0.95823413133621216 0.84316468238830566
0.97644364833831787 0.96335494518280029 0.8421514630317688
