assets/lut/pixlsus taiga.cube
# Created by: G'MIC (https://gmic.eu)
TITLE "taiga"
# LUT size
LUT_3D_SIZE 5
# Data domain
DOMAIN_MIN 0.0 0.0 0.0
DOMAIN_MAX 1.0 1.0 1.0
# LUT data points
0.011101307347416878 0.068820342421531677 0.05467161163687706
0.30278864502906799 0.049765702337026596 0.022076865658164024
0.56379491090774536 0.057708695530891418 0.0056022941134870052
0.79863458871841431 0.037035219371318817 0.011381830088794231
0.97297376394271851 0.022042412310838699 0.019152337685227394
0.010919368825852871 0.3057856559753418 0.051465336233377457
0.22918792068958282 0.29434654116630554 0.049030646681785583
0.53439533710479736 0.28153350949287415 0.020297106355428696
0.78544324636459351 0.24098788201808929 0.009669225662946701
0.97472327947616577 0.210112065076828 0.01535269059240818
0.0063595790416002274 0.52394396066665649 0.04762515053153038
0.19529131054878235 0.52705007791519165 0.053151417523622513
0.49572303891181946 0.52694547176361084 0.052095569670200348
0.75906890630722046 0.4982028603553772 0.025562137365341187
0.96202874183654785 0.47080320119857788 0.035982422530651093
0.014043965376913548 0.7119714617729187 0.052201572805643082
0.19014623761177063 0.72686809301376343 0.057980645447969437
0.49219289422035217 0.73835945129394531 0.056604720652103424
0.74556362628936768 0.73939269781112671 0.060700763016939163
0.96136707067489624 0.72777104377746582 0.039775580167770386
0.018504347652196884 0.91596245765686035 0.045440718531608582
0.18423415720462799 0.92751514911651611 0.04537239670753479
0.49397578835487366 0.93824052810668945 0.043851844966411591
0.74439024925231934 0.95009529590606689 0.042935822159051895
0.96064150333404541 0.95673823356628418 0.043088920414447784
0.021054405719041824 0.074665606021881104 0.26972728967666626
0.24395543336868286 0.079412318766117096 0.26948326826095581
0.54664903879165649 0.063246510922908783 0.23400449752807617
0.80116754770278931 0.028208892792463303 0.20729784667491913
0.97623986005783081 0.019661249592900276 0.20541392266750336
0.025086691603064537 0.29562863707542419 0.26695743203163147
0.208158940076828 0.31136670708656311 0.25968059897422791
0.53206449747085571 0.28199893236160278 0.21953292191028595
0.82482457160949707 0.20831000804901123 0.16818933188915253
0.99067872762680054 0.20595736801624298 0.19118142127990723
0.032653570175170898 0.5147060751914978 0.24486628174781799
0.14059358835220337 0.53811192512512207 0.22329887747764587
0.49157953262329102 0.53289663791656494 0.24850998818874359
0.78142255544662476 0.49936109781265259 0.20934559404850006
0.98428183794021606 0.47302132844924927 0.20760148763656616
0.038808442652225494 0.72428059577941895 0.22689667344093323
0.15508313477039337 0.751087486743927 0.22787715494632721
0.47101894021034241 0.75066882371902466 0.25211995840072632
0.73433083295822144 0.75056570768356323 0.25503289699554443
0.96211111545562744 0.73862630128860474 0.2424197793006897
0.021391505375504494 0.92470872402191162 0.22906951606273651
0.1972421258687973 0.92413949966430664 0.24785417318344116
0.48968285322189331 0.93278729915618896 0.24471168220043182
0.73819071054458618 0.94241118431091309 0.24976049363613129
0.95796829462051392 0.9579932689666748 0.25903680920600891
0.041718188673257828 0.086973734200000763 0.49355864524841309
0.24252034723758698 0.091405801475048065 0.4913458526134491
0.49223390221595764 0.08693213015794754 0.49435865879058838
0.76712584495544434 0.056427046656608582 0.48371481895446777
0.96574020385742188 0.039787456393241882 0.46281269192695618
0.075036875903606415 0.30210992693901062 0.47775322198867798
0.23405744135379791 0.31526204943656921 0.48607629537582397
0.47565409541130066 0.31012573838233948 0.48279353976249695
0.77520763874053955 0.25352928042411804 0.48443892598152161
0.97305214405059814 0.23144009709358215 0.46297076344490051
0.03921959176659584 0.52843225002288818 0.48455736041069031
0.22282305359840393 0.53799331188201904 0.48937535285949707
0.47293990850448608 0.54098397493362427 0.48834937810897827
0.76723027229309082 0.50547987222671509 0.4617537260055542
0.99060940742492676 0.47294130921363831 0.44250550866127014
0.058067906647920609 0.73162001371383667 0.48599717020988464
0.21125686168670654 0.73739445209503174 0.48720237612724304
0.49221327900886536 0.74845248460769653 0.50108689069747925
0.73482459783554077 0.75194072723388672 0.48745748400688171
0.97456604242324829 0.74183636903762817 0.4674772322177887
0.033152710646390915 0.93493562936782837 0.49103754758834839
0.18420372903347015 0.92802137136459351 0.48553651571273804
0.47806525230407715 0.92058485746383667 0.4895595908164978
0.74728977680206299 0.93909239768981934 0.486408531665802
0.95867562294006348 0.9582248330116272 0.49245938658714294
0.045192059129476547 0.070916362106800079 0.73447436094284058
0.25313782691955566 0.07676861435174942 0.72853684425354004
0.48935368657112122 0.079715132713317871 0.73069643974304199
0.73684179782867432 0.077342957258224487 0.73926162719726562
0.9460105299949646 0.10181131958961487 0.71784341335296631
0.070250704884529114 0.28517454862594604 0.72055321931838989
0.25449654459953308 0.30358874797821045 0.71503645181655884
0.48279297351837158 0.30473771691322327 0.72415411472320557
0.73001956939697266 0.2957921028137207 0.73514777421951294
0.95151108503341675 0.26691725850105286 0.72369813919067383
0.041915595531463623 0.50179612636566162 0.73452603816986084
0.24723032116889954 0.52094173431396484 0.7256629467010498
0.47518953680992126 0.54063200950622559 0.73154425621032715
0.72944670915603638 0.53717762231826782 0.73217689990997314
0.96763592958450317 0.50401812791824341 0.71988719701766968
0.07372690737247467 0.74099582433700562 0.73980027437210083
0.24693690240383148 0.74191457033157349 0.73321408033370972
0.48911169171333313 0.74733853340148926 0.73321211338043213
0.74398535490036011 0.74747967720031738 0.72738361358642578
0.97793632745742798 0.71799308061599731 0.69539737701416016
0.038306530565023422 0.94919884204864502 0.73925817012786865
0.22088821232318878 0.94612932205200195 0.73901593685150146
0.48666828870773315 0.93676000833511353 0.73741620779037476
0.76409399509429932 0.92643284797668457 0.73760372400283813
0.96225100755691528 0.95725476741790771 0.72430741786956787
0.046563569456338882 0.046865008771419525 0.95496982336044312
0.2630971372127533 0.049042914062738419 0.95023399591445923
0.49952301383018494 0.05173085629940033 0.94904762506484985
0.73372632265090942 0.047667603939771652 0.95749229192733765
0.95619213581085205 0.048814047127962112 0.95303177833557129
0.060784567147493362 0.27190205454826355 0.94515377283096313
0.26298826932907104 0.28356724977493286 0.94727492332458496
0.49938881397247314 0.28554686903953552 0.9537125825881958
0.72930169105529785 0.2750934362411499 0.94705134630203247
0.95491188764572144 0.27644398808479309 0.95379823446273804
0.042958248406648636 0.49638792872428894 0.95070093870162964
0.25476127862930298 0.51108306646347046 0.9449496865272522
0.49781954288482666 0.51462137699127197 0.95417666435241699
0.73356467485427856 0.52163422107696533 0.95362180471420288
0.95704150199890137 0.51154410839080811 0.94890099763870239
0.04195072129368782 0.73538583517074585 0.95738071203231812
0.25334322452545166 0.74129951000213623 0.95787721872329712
0.49578595161437988 0.74065178632736206 0.94877582788467407
0.73723137378692627 0.74222606420516968 0.95437228679656982
0.96085411310195923 0.74237358570098877 0.95564728975296021
0.04565734788775444 0.95919406414031982 0.95974397659301758
0.25190496444702148 0.95928233861923218 0.95856934785842896
0.49452310800552368 0.95746409893035889 0.95911842584609985
0.74163943529129028 0.95707571506500244 0.95884644985198975
0.96486043930053711 0.95277965068817139 0.95708167552947998
