assets/lut/pixlsus uzbek bukhara.cube
# Created by: G'MIC (https://gmic.eu)
TITLE "uzbek_bukhara"
# LUT size
LUT_3D_SIZE 5
# Data domain
DOMAIN_MIN 0.0 0.0 0.0
DOMAIN_MAX 1.0 1.0 1.0
# LUT data points
0.0020048252772539854 0.0025337967090308666 0.036193549633026123
0.07774747908115387 0.0035158793907612562 0.032742965966463089
0.27922189235687256 0.0027304107788950205 0.036798708140850067
0.53731703758239746 0.0010479646734893322 0.025558831170201302
0.8831864595413208 0 0.0047311224043369293
0.0028210808522999287 0.13180328905582428 0.033321890980005264
0.11357260495424271 0.13788290321826935 0.052510220557451248
0.32432490587234497 0.12630531191825867 0.055376432836055756
0.6038661003112793 0.03000824898481369 0.026596369221806526
0.94886875152587891 0.0049291276372969151 0.0063971127383410931
1.2925092050863896e-05 0.42267501354217529 0.011216571554541588
0.020959712564945221 0.42035862803459167 0.0072075636126101017
0.37448295950889587 0.46253028512001038 0.011325402185320854
0.75192981958389282 0.47079667448997498 0.01136093121021986
0.99315571784973145 0.40858271718025208 0.0011632433161139488
7.1806069172453135e-05 0.86703991889953613 0.00251007080078125
0.0012024225434288383 0.86211901903152466 0.0016481736674904823
0.2570401132106781 0.86513602733612061 0.00090580357937142253
0.8020508885383606 0.85557854175567627 0.0039536119438707829
0.99182647466659546 0.85445016622543335 0
0.12940330803394318 0.99997198581695557 0.0025384640321135521
0.25833728909492493 0.99867856502532959 0.0021089292131364346
0.55297672748565674 0.99785226583480835 0
0.87138932943344116 0.99809819459915161 0
0.99572992324829102 0.99967759847640991 0.0014737148303538561
0 0.0039819902740418911 0.13615939021110535
0.07354399561882019 0.00046364279114641249 0.16685612499713898
0.28167805075645447 0.0022541419602930546 0.19153475761413574
0.55389726161956787 0.00079106347402557731 0.18036004900932312
0.90313756465911865 0 0.16660766303539276
1.7368092812830582e-05 0.12806139886379242 0.19989757239818573
0.089121997356414795 0.12454624474048615 0.20429779589176178
0.3279634416103363 0.11472229659557343 0.21494013071060181
0.62178820371627808 0.020541053265333176 0.19940252602100372
0.95836079120635986 0.0072228075005114079 0.17660290002822876
0 0.44780579209327698 0.19101651012897491
0.021219516173005104 0.4361971914768219 0.19103950262069702
0.39490160346031189 0.4621555507183075 0.22638200223445892
0.75448077917098999 0.43609276413917542 0.21084024012088776
0.99572330713272095 0.39042627811431885 0.13736201822757721
7.1222639235202223e-05 0.88914746046066284 0.028229000046849251
0.0056685800664126873 0.87653076648712158 0.037317045032978058
0.27038154006004333 0.86474967002868652 0.036899283528327942
0.81823468208312988 0.86172479391098022 0.087842635810375214
0.99632447957992554 0.85437518358230591 0.074142545461654663
0.19449351727962494 0.99986213445663452 0.037486761808395386
0.27216774225234985 0.99856764078140259 0.029163524508476257
0.57370764017105103 0.99841064214706421 0.026163961738348007
0.88844799995422363 0.99751240015029907 0.036012087017297745
0.99605041742324829 0.99921047687530518 0.091853544116020203
0.0015318627702072263 0.0016607994912192225 0.36716517806053162
0.016908563673496246 0.00017691220273263752 0.38364443182945251
0.27350524067878723 0 0.43183332681655884
0.59281909465789795 0 0.43131816387176514
0.96362423896789551 0 0.42936637997627258
0 0.099676139652729034 0.42726683616638184
0.023326350376009941 0.090408593416213989 0.43996736407279968
0.31842640042304993 0.063104309141635895 0.46238282322883606
0.65767389535903931 0.011288227513432503 0.4554697573184967
0.98632693290710449 0.00031151864095591009 0.44214770197868347
0 0.47916713356971741 0.50297117233276367
0.00076205685036256909 0.46596753597259521 0.49234732985496521
0.39531376957893372 0.44305479526519775 0.47804084420204163
0.78338789939880371 0.42703056335449219 0.45533034205436707
0.99446946382522583 0.35218533873558044 0.41990518569946289
0.00019782570598181337 0.92811745405197144 0.42559307813644409
0.032694365829229355 0.90804082155227661 0.3999771773815155
0.37491047382354736 0.8746497631072998 0.3739827573299408
0.83437466621398926 0.85950320959091187 0.42733070254325867
0.99755400419235229 0.8459363579750061 0.4197753369808197
0.3150239884853363 1 0.40290090441703796
0.38041764497756958 0.99755895137786865 0.38955789804458618
0.62154752016067505 0.99840044975280762 0.36660215258598328
0.90816456079483032 0.99839985370635986 0.39670902490615845
0.99792826175689697 0.99898910522460938 0.50346654653549194
0.0022492802236229181 0.0034279767423868179 0.64836990833282471
0.025840086862444878 0.0063093598000705242 0.66775393486022949
0.24359701573848724 0.0024186377413570881 0.69720113277435303
0.66880625486373901 0 0.70852041244506836
0.9789702296257019 0 0.71246838569641113
1.0367000868427567e-05 0.044540673494338989 0.72804540395736694
0.012706038542091846 0.047986738383769989 0.73788857460021973
0.30406028032302856 0.030696913599967957 0.74238616228103638
0.74928200244903564 0.0092869177460670471 0.73650592565536499
0.98450380563735962 0.0071216956712305546 0.73068970441818237
0 0.43414783477783203 0.78569775819778442
0.015725424513220787 0.43634441494941711 0.78868567943572998
0.42148095369338989 0.40973350405693054 0.77913928031921387
0.83718639612197876 0.38588297367095947 0.75020372867584229
0.99708449840545654 0.36993640661239624 0.73187202215194702
0.019885553047060966 0.93024587631225586 0.7776724100112915
0.0296783447265625 0.92808645963668823 0.77645844221115112
0.49439945816993713 0.89232069253921509 0.75039899349212646
0.86011821031570435 0.8516039252281189 0.72898286581039429
0.99656409025192261 0.84000867605209351 0.71994006633758545
0.54290497303009033 1 0.7727665901184082
0.57375246286392212 1 0.77274411916732788
0.7311897873878479 0.99997901916503906 0.75219035148620605
0.93663692474365234 1 0.72973597049713135
0.99947106838226318 0.99786138534545898 0.76819843053817749
0.0047682966105639935 0.0026220881845802069 0.93984943628311157
0.077275432646274567 0.0052791819907724857 0.92995631694793701
0.33024877309799194 0.00056523340754210949 0.95979493856430054
0.78038126230239868 0 0.95515471696853638
0.99378329515457153 0 0.97096866369247437
0.0014858320355415344 0.020346667617559433 0.9806247353553772
0.039458930492401123 0.016002684831619263 0.96282869577407837
0.43337538838386536 0.011329366825520992 0.96856892108917236
0.84830057621002197 0.0036030339542776346 0.97713148593902588
0.99615883827209473 0.0069357031024992466 0.97609472274780273
0.0096358051523566246 0.41220733523368835 0.98414671421051025
0.2000332772731781 0.43740436434745789 0.98651224374771118
0.58749079704284668 0.40195977687835693 0.98759663105010986
0.92749100923538208 0.34706425666809082 0.98271828889846802
1 0.37120383977890015 0.98257780075073242
0.26737752556800842 0.89480572938919067 0.9628416895866394
0.31415918469429016 0.89782631397247314 0.96193313598632812
0.65677189826965332 0.87617599964141846 0.96014738082885742
0.9258541464805603 0.84386199712753296 0.94730466604232788
1 0.83715593814849854 0.92747259140014648
0.74533390998840332 1 0.8967244029045105
0.77191221714019775 1 0.89512968063354492
0.87059503793716431 1 0.89128047227859497
0.98583108186721802 1 0.88639819622039795
1 1 0.88868033885955811
