assets/lut/pixlsus unknown.cube
# Created by: G'MIC (https://gmic.eu)
TITLE "unknown"
# LUT size
LUT_3D_SIZE 13
# Data domain
DOMAIN_MIN 0.0 0.0 0.0
DOMAIN_MAX 1.0 1.0 1.0
# LUT data points
0.022772859781980515 0.022366750985383987 0.023155735805630684
0.097184576094150543 0.025222614407539368 0.022477826103568077
0.17291106283664703 0.037660889327526093 0.026429150253534317
0.23289656639099121 0.053743340075016022 0.031011303886771202
0.30775320529937744 0.046113315969705582 0.030658064410090446
0.38871237635612488 0.028757132589817047 0.028108334168791771
0.48566830158233643 0.023007530719041824 0.027604285627603531
0.58484292030334473 0.018679136410355568 0.02253144234418869
0.67782014608383179 0.011202194727957249 0.014407887123525143
0.77226012945175171 0.0065695969387888908 0.0061769522726535797
0.87311559915542603 0.004016621969640255 0.0015030057402327657
0.95482522249221802 0.0037947711534798145 0.0013127196580171585
0.98392987251281738 0.0045271632261574268 0.0025081259664148092
0.0095343943685293198 0.090473353862762451 0.024107495322823524
0.073709346354007721 0.091580301523208618 0.020670244470238686
0.17505891621112823 0.094957210123538971 0.017573950812220573
0.2550986111164093 0.097184233367443085 0.019895575940608978
0.32998746633529663 0.091397255659103394 0.023569533601403236
0.41903707385063171 0.083809196949005127 0.02476450614631176
0.51327699422836304 0.07484869658946991 0.022815180942416191
0.61671209335327148 0.065514281392097473 0.019967950880527496
0.71335995197296143 0.041348431259393692 0.014625414274632931
0.79021674394607544 0.02644641324877739 0.0078177358955144882
0.87860965728759766 0.015932105481624603 0.0027082255110144615
0.95216327905654907 0.014128128066658974 0.0031798118725419044
0.98112726211547852 0.019676821306347847 0.0039167068898677826
0.0076185190118849277 0.17371389269828796 0.032684866338968277
0.031443919986486435 0.17556189000606537 0.028757296502590179
0.13972526788711548 0.17624774575233459 0.018353644758462906
0.25500494241714478 0.1749112457036972 0.0099747302010655403
0.34672635793685913 0.16898667812347412 0.010456294752657413
0.43254795670509338 0.15879051387310028 0.0132548613473773
0.52613043785095215 0.15100184082984924 0.011491633020341396
0.63748103380203247 0.14269977807998657 0.012589981779456139
0.72410750389099121 0.11524062603712082 0.011780308559536934
0.81224548816680908 0.096171058714389801 0.0072691375389695168
0.88180088996887207 0.061741400510072708 0.0029964072164148092
0.95295840501785278 0.060340419411659241 0.0041351919062435627
0.97875398397445679 0.069080740213394165 0.0051989834755659103
0.006242804229259491 0.25614085793495178 0.037705454975366592
0.023532329127192497 0.25846827030181885 0.036769088357686996
0.071198515594005585 0.26040253043174744 0.029924236238002777
0.21511086821556091 0.2587127685546875 0.010693075135350227
0.34019872546195984 0.2536415159702301 0.0047597098164260387
0.43503651022911072 0.23972006142139435 0.005395552609115839
0.52547293901443481 0.22740824520587921 0.0042675393633544445
0.63565880060195923 0.22174738347530365 0.0067201354540884495
0.72470879554748535 0.20392759144306183 0.0072163748554885387
0.82145583629608154 0.18614554405212402 0.0053260056301951408
0.89572614431381226 0.14765019714832306 0.002683302853256464
0.96051895618438721 0.14907644689083099 0.0035734288394451141
0.9787592887878418 0.1558644026517868 0.0065452577546238899
0.0043012429960072041 0.33908656239509583 0.038981880992650986
0.013662854209542274 0.34212362766265869 0.047524858266115189
0.036594733595848083 0.3447517454624176 0.048045814037322998
0.13455672562122345 0.34355315566062927 0.028152599930763245
0.29824763536453247 0.33918499946594238 0.0091841602697968483
0.42551609873771667 0.33100149035453796 0.0057608513161540031
0.53159165382385254 0.32114747166633606 0.0050913942977786064
0.63588356971740723 0.30551975965499878 0.0050998912192881107
0.72457444667816162 0.29165810346603394 0.0045133554376661777
0.82118308544158936 0.28386715054512024 0.0026820462662726641
0.91316831111907959 0.27035769820213318 0.0021487218327820301
0.97658979892730713 0.26200598478317261 0.00096821505576372147
0.98284339904785156 0.25960841774940491 0.0029850380960851908
0.0037926319055259228 0.42372635006904602 0.050295885652303696
0.007484855130314827 0.42878422141075134 0.0603775754570961
0.019161120057106018 0.43013125658035278 0.078594326972961426
0.060589298605918884 0.42034816741943359 0.066251777112483978
0.2198256254196167 0.41981345415115356 0.025035468861460686
0.38338157534599304 0.4162139892578125 0.010463939048349857
0.52009367942810059 0.40716144442558289 0.0091441432014107704
0.63680398464202881 0.39552986621856689 0.0060588163323700428
0.72988563776016235 0.38406187295913696 0.0046166363172233105
0.81303143501281738 0.37148186564445496 0.0011734756408259273
0.90473788976669312 0.35798048973083496 0.0020758085884153843
0.97818517684936523 0.36422842741012573 0.0004203497082926333
0.98733186721801758 0.36459630727767944 0.0004012762219645083
0.0044053168967366219 0.50950449705123901 0.065347753465175629
0.0048290626145899296 0.51318764686584473 0.061846025288105011
0.009889235720038414 0.51206773519515991 0.094148032367229462
0.029549364000558853 0.50429040193557739 0.11369651556015015
0.11766565591096878 0.50383526086807251 0.064126230776309967
0.30738639831542969 0.50494205951690674 0.023475198075175285
0.47445416450500488 0.49249723553657532 0.008920975960791111
0.61373299360275269 0.4803345799446106 0.0027259527705609798
0.72095751762390137 0.47484588623046875 0.0062505383975803852
0.81449055671691895 0.46743306517601013 0.0039431853219866753
0.8980485200881958 0.45524418354034424 0.0017143548466265202
0.96989142894744873 0.4565824568271637 0.0018143298802897334
0.99166214466094971 0.46573725342750549 0.00041082044481299818
0.0045080147683620453 0.58503836393356323 0.088424414396286011
0.0048576355911791325 0.58964771032333374 0.086744882166385651
0.010063410736620426 0.59128552675247192 0.11003334075212479
0.029292730614542961 0.58573508262634277 0.13470196723937988
0.077659234404563904 0.5888182520866394 0.11452973634004593
0.21449406445026398 0.59611469507217407 0.069504216313362122
0.41894993185997009 0.58689767122268677 0.017208563163876534
0.57715487480163574 0.57380515336990356 0.0054918327368795872
0.69366657733917236 0.56596547365188599 0.0081823607906699181
0.79524010419845581 0.55912798643112183 0.0061959810554981232
0.88640475273132324 0.55382364988327026 0.0039841444231569767
0.96395689249038696 0.55301433801651001 0.0039668064564466476
0.99317800998687744 0.55700641870498657 0.0035733391996473074
0.0039215688593685627 0.6566506028175354 0.11991119384765625
0.0058668698184192181 0.66158461570739746 0.12360015511512756
0.010049992240965366 0.66666185855865479 0.14455594122409821
0.023355253040790558 0.66832852363586426 0.17279127240180969
0.050651654601097107 0.6753394603729248 0.17388544976711273
0.10030949860811234 0.68306839466094971 0.16104030609130859
0.3067743182182312 0.67628014087677002 0.079527638852596283
0.52320420742034912 0.66562336683273315 0.018242750316858292
0.65653985738754272 0.65666657686233521 0.011376204900443554
0.77013558149337769 0.64888352155685425 0.0058795553632080555
0.86796724796295166 0.64377719163894653 0.0049071968533098698
0.95490133762359619 0.64244574308395386 0.0038865632377564907
0.9946710467338562 0.64352244138717651 0.0040704617276787758
0.0039215688593685627 0.73037111759185791 0.14867562055587769
0.0062779895961284637 0.73553311824798584 0.15349166095256805
0.010294057428836823 0.7404903769493103 0.17616096138954163
0.021630171686410904 0.74587196111679077 0.20082053542137146
0.036354977637529373 0.75289314985275269 0.20883771777153015
0.059012707322835922 0.75749611854553223 0.20797169208526611
0.19863396883010864 0.75410360097885132 0.14844934642314911
0.43830209970474243 0.7462049126625061 0.051840238273143768
0.60747843980789185 0.73820000886917114 0.014246877282857895
0.73342722654342651 0.73084646463394165 0.0091169318184256554
0.84709805250167847 0.72734332084655762 0.0059647355228662491
0.94648867845535278 0.72557967901229858 0.0028794980607926846
0.99375444650650024 0.72558814287185669 0.0013521232176572084
0.0039215688593685627 0.80741626024246216 0.17170184850692749
0.0055422913283109665 0.81215745210647583 0.17690184712409973
0.012101596221327782 0.81535893678665161 0.19841715693473816
0.024086881428956985 0.81696248054504395 0.22178775072097778
0.034080490469932556 0.81947648525238037 0.23417136073112488
0.046934552490711212 0.82338410615921021 0.22608558833599091
0.13612724840641022 0.82337981462478638 0.16953371465206146
0.33927431702613831 0.81653386354446411 0.076218277215957642
0.53206068277359009 0.81321048736572266 0.030739668756723404
0.69108837842941284 0.80863004922866821 0.011667154729366302
0.81772911548614502 0.80491542816162109 0.0075157014653086662
0.9267963171005249 0.80345273017883301 0.0032627030741423368
0.98702424764633179 0.80297505855560303 4.3083641685370822e-06
0.0039215688593685627 0.88561838865280151 0.19916217029094696
0.0051788180135190487 0.88760852813720703 0.19774366915225983
0.014431852847337723 0.88518112897872925 0.22928936779499054
0.023634158074855804 0.88187187910079956 0.25097787380218506
0.026418916881084442 0.88331282138824463 0.2353309690952301
0.030420670285820961 0.88824856281280518 0.19710171222686768
0.078852713108062744 0.89092522859573364 0.14542746543884277
0.22362218797206879 0.88652127981185913 0.08868725597858429
0.42472395300865173 0.87949883937835693 0.052329014986753464
0.6417199969291687 0.86821204423904419 0.021867536008358002
0.78237444162368774 0.87077385187149048 0.010982992127537727
0.89518857002258301 0.87704050540924072 0.0056407256051898003
0.97388708591461182 0.87784934043884277 0.0009604959050193429
0.0016481586499139667 0.95532798767089844 0.27144631743431091
0.0066877477802336216 0.94978070259094238 0.25000613927841187
0.016737351194024086 0.94507944583892822 0.27086636424064636
0.019082328304648399 0.94000643491744995 0.25474521517753601
0.018103191629052162 0.94102519750595093 0.21402812004089355
0.018039314076304436 0.94797599315643311 0.16232162714004517
0.030814735218882561 0.95808136463165283 0.10891854017972946
0.1024090051651001 0.95636910200119019 0.088760435581207275
0.33022618293762207 0.93283629417419434 0.066997796297073364
0.58584201335906982 0.90866541862487793 0.037821870297193527
0.75633764266967773 0.90902584791183472 0.016118276864290237
0.8646843433380127 0.93224054574966431 0.0080222040414810181
0.95208770036697388 0.95144575834274292 0.0028754889499396086
0.020551180467009544 0.022103851661086082 0.090905286371707916
0.095841258764266968 0.023852255195379257 0.086919032037258148
0.17166619002819061 0.0395926833152771 0.085175611078739166
0.23469428718090057 0.056236684322357178 0.087270684540271759
0.30618801712989807 0.056408017873764038 0.086297951638698578
0.38164845108985901 0.041889563202857971 0.078607462346553802
0.47088354825973511 0.026164678856730461 0.069055549800395966
0.57545876502990723 0.018134921789169312 0.058867063373327255
0.67869442701339722 0.014732091687619686 0.048906631767749786
0.77337205410003662 0.0087631074711680412 0.031523536890745163
0.87211316823959351 0.0030054429080337286 0.017612278461456299
0.95685750246047974 0.0026977390516549349 0.013942494057118893
0.98561781644821167 0.0032887477427721024 0.0080280080437660217
0.0092875463888049126 0.09130936861038208 0.091397106647491455
0.070241458714008331 0.091700263321399689 0.088493779301643372
0.16765306890010834 0.09672190248966217 0.084151551127433777
0.24343618750572205 0.099553205072879791 0.081083439290523529
0.31579366326332092 0.090893931686878204 0.075840547680854797
0.39271450042724609 0.072655647993087769 0.068810328841209412
0.47882232069969177 0.054253522306680679 0.063840277493000031
0.58549517393112183 0.039463866502046585 0.053784582763910294
0.68727248907089233 0.026499325409531593 0.040644478052854538
0.77918088436126709 0.012129360809922218 0.024453885853290558
0.88100230693817139 0.0098668420687317848 0.021690428256988525
0.96095091104507446 0.0070784776471555233 0.012840391136705875
0.98411434888839722 0.010077532380819321 0.0088848639279603958
0.0056612798944115639 0.17289465665817261 0.096030518412590027
0.030987055972218513 0.17605045437812805 0.092797130346298218
0.13655661046504974 0.17782774567604065 0.085981197655200958
0.24771247804164886 0.17610779404640198 0.074171163141727448
0.33449399471282959 0.16815151274204254 0.062323998659849167
0.41466745734214783 0.15201504528522491 0.055455628782510757
0.50264382362365723 0.13210102915763855 0.050237976014614105
0.61813735961914062 0.12598390877246857 0.049330633133649826
0.71432030200958252 0.1077013835310936 0.046547416597604752
0.80097502470016479 0.072757869958877563 0.028010109439492226
0.88258862495422363 0.0343971848487854 0.01722634956240654
0.96196877956390381 0.038124337792396545 0.014032700099050999
0.9812849760055542 0.049349796026945114 0.016267828643321991
0.0044609368778765202 0.25401571393013 0.10325095802545547
0.014515536837279797 0.25862163305282593 0.10074201226234436
0.063734613358974457 0.26183059811592102 0.097141861915588379
0.2107231616973877 0.26059293746948242 0.076378844678401947
0.33527079224586487 0.25523790717124939 0.051540836691856384
0.43471536040306091 0.24457456171512604 0.04003080353140831
0.52319777011871338 0.22766253352165222 0.031963169574737549
0.62724560499191284 0.21558333933353424 0.032528895884752274
0.72540378570556641 0.20208217203617096 0.03660951554775238
0.81854534149169922 0.172846719622612 0.028151838108897209
0.8995898962020874 0.11969885975122452 0.016832195222377777
0.96408164501190186 0.12390105426311493 0.018532607704401016
0.98216813802719116 0.13852265477180481 0.022275198251008987
0.004065539687871933 0.33737167716026306 0.10811509937047958
0.0093570929020643234 0.34178406000137329 0.1083407998085022
0.023199791088700294 0.34511643648147583 0.11382893472909927
0.12295404821634293 0.34442979097366333 0.097181431949138641
0.29424348473548889 0.34085068106651306 0.062445979565382004
0.42333018779754639 0.33292841911315918 0.042789757251739502
0.52893537282943726 0.32140463590621948 0.034079607576131821
0.63322705030441284 0.30687841773033142 0.02905883826315403
0.73049449920654297 0.29593738913536072 0.022940048947930336
0.82153129577636719 0.28065627813339233 0.015063252300024033
0.90884929895401001 0.25399696826934814 0.012972872704267502
0.976451575756073 0.24601456522941589 0.014653059653937817
0.98805606365203857 0.24126686155796051 0.016395434737205505
0.0046314164064824581 0.42213767766952515 0.11413068324327469
0.0050531276501715183 0.42654365301132202 0.11506154388189316
0.011748773977160454 0.42954725027084351 0.12885436415672302
0.045221589505672455 0.42633110284805298 0.12200602889060974
0.20709720253944397 0.42406168580055237 0.087480358779430389
0.38059622049331665 0.41619694232940674 0.056014057248830795
0.51163125038146973 0.4065096378326416 0.035326473414897919
0.63067615032196045 0.39652606844902039 0.024528473615646362
0.73096239566802979 0.38765826821327209 0.017881192266941071
0.82104265689849854 0.37944525480270386 0.012539807707071304
0.90769106149673462 0.36100578308105469 0.0096262013539671898
0.97742581367492676 0.3555854856967926 0.006336466409265995
0.9930344820022583 0.35394161939620972 0.009308280423283577
0.007424328476190567 0.50424343347549438 0.12455881386995316
0.0068527818657457829 0.50863039493560791 0.12442497164011002
0.011227715760469437 0.50899219512939453 0.13890057802200317
0.02515869215130806 0.50410920381546021 0.1441468745470047
0.11023195832967758 0.5066106915473938 0.12771971523761749
0.30092671513557434 0.50613689422607422 0.082195892930030823
0.47425258159637451 0.49724605679512024 0.034473434090614319
0.61150765419006348 0.48596292734146118 0.020038589835166931
0.71796947717666626 0.47731387615203857 0.021123310551047325
0.81151896715164185 0.47034439444541931 0.019128313288092613
0.90029644966125488 0.45962375402450562 0.011776569299399853
0.97186434268951416 0.455515056848526 0.0062810559757053852
0.99352562427520752 0.46117129921913147 0.0073882904835045338
0.0078235697001218796 0.58259475231170654 0.14186199009418488
0.0078179752454161644 0.5879826545715332 0.14167489111423492
0.0092549640685319901 0.59084314107894897 0.1511700302362442
0.017607385292649269 0.59035021066665649 0.16944141685962677
0.051534045487642288 0.59421330690383911 0.16872066259384155
0.16765673458576202 0.59880763292312622 0.1317877322435379
0.40672624111175537 0.5915062427520752 0.059797398746013641
0.57300698757171631 0.57787156105041504 0.029009964317083359
0.69062280654907227 0.56978863477706909 0.027569325640797615
0.79550337791442871 0.56292754411697388 0.02129942923784256
0.88893234729766846 0.56011867523193359 0.0094507252797484398
0.96548455953598022 0.55744683742523193 0.0062136030755937099
0.99086904525756836 0.55735641717910767 0.013381583616137505
0.0076428134925663471 0.65565991401672363 0.17004546523094177
0.007828177884221077 0.66067367792129517 0.1725466251373291
0.0079896217212080956 0.66682440042495728 0.17896287143230438
0.013975629583001137 0.67215216159820557 0.19193395972251892
0.028676815330982208 0.67866182327270508 0.20773756504058838
0.069921575486660004 0.68588268756866455 0.2005431205034256
0.29011553525924683 0.67762446403503418 0.11609643697738647
0.51687610149383545 0.66721707582473755 0.049391593784093857
0.65367305278778076 0.6594085693359375 0.035230420529842377
0.77056419849395752 0.65063202381134033 0.017596898600459099
0.86900424957275391 0.64744925498962402 0.011444301344454288
0.95589143037796021 0.644703209400177 0.0080256890505552292
0.99111819267272949 0.64135861396789551 0.01265137642621994
0.0065041636116802692 0.73016452789306641 0.19757357239723206
0.0077566108666360378 0.73509246110916138 0.20125265419483185
0.0082344654947519302 0.74110668897628784 0.20885951817035675
0.015380799770355225 0.7458266019821167 0.21835005283355713
0.025251425802707672 0.75251072645187378 0.23207603394985199
0.039560519158840179 0.76024585962295532 0.24014943838119507
0.16997578740119934 0.75806230306625366 0.19209301471710205
0.4042879045009613 0.750343918800354 0.10452675819396973
0.60275536775588989 0.7408638596534729 0.037798099219799042
0.73866415023803711 0.73222869634628296 0.018049158155918121
0.85190409421920776 0.7274787425994873 0.014311098493635654
0.94545036554336548 0.7240673303604126 0.0085413018241524696
0.99294191598892212 0.72256213426589966 0.0061946646310389042
0.0040583889931440353 0.80579906702041626 0.22460609674453735
0.0062531866133213043 0.80985051393508911 0.22971618175506592
0.0087674306705594063 0.81378304958343506 0.24048162996768951
0.016767345368862152 0.81557708978652954 0.2546941339969635
0.028476117178797722 0.8202587366104126 0.26166543364524841
0.036800369620323181 0.82622438669204712 0.25884616374969482
0.087696343660354614 0.82867395877838135 0.22289779782295227
0.27803367376327515 0.8234977126121521 0.14332012832164764
0.51745033264160156 0.8155255913734436 0.062159053981304169
0.68935370445251465 0.80985033512115479 0.036829032003879547
0.82296234369277954 0.80497097969055176 0.020779898390173912
0.93313473463058472 0.80286312103271484 0.0078012356534600258
0.98845487833023071 0.8025435209274292 0.0029760473407804966
0.0039215688593685627 0.87974172830581665 0.25670531392097473
0.0042707556858658791 0.88295161724090576 0.27244526147842407
0.0095014683902263641 0.88506996631622314 0.28351911902427673
0.017340656369924545 0.885109543800354 0.29384920001029968
0.023151876404881477 0.88638567924499512 0.2836546003818512
0.027389630675315857 0.88933521509170532 0.25330188870429993
0.050761576741933823 0.89315915107727051 0.21069422364234924
0.17260323464870453 0.89102315902709961 0.15743403136730194
0.39500832557678223 0.8818739652633667 0.10190565884113312
0.61916422843933105 0.87316662073135376 0.056142799556255341
0.78036177158355713 0.87440603971481323 0.021211512386798859
0.89823663234710693 0.87815862894058228 0.0088414512574672699
0.9741855263710022 0.87731468677520752 0.0047087725251913071
0.0010544272372499108 0.95156067609786987 0.29483026266098022
0.003088274272158742 0.95427429676055908 0.32694685459136963
0.0097878249362111092 0.94980382919311523 0.3259066641330719
0.013660595752298832 0.94630193710327148 0.31050589680671692
0.014951414428651333 0.94512444734573364 0.27852329611778259
0.017676049843430519 0.94909530878067017 0.23585283756256104
0.026819325983524323 0.95412802696228027 0.1928141862154007
0.078265219926834106 0.95501279830932617 0.16392360627651215
0.28426855802536011 0.9384421706199646 0.12943419814109802
0.5441698431968689 0.91795992851257324 0.077520690858364105
0.74506956338882446 0.91726058721542358 0.028960388153791428
0.86894983053207397 0.93435043096542358 0.012064002454280853
0.96000194549560547 0.94861310720443726 0.0051298104226589203
0.023210622370243073 0.025239218026399612 0.17522092163562775
0.094399258494377136 0.028088005259633064 0.16860680282115936
0.1723959892988205 0.042641360312700272 0.16128011047840118
0.24120093882083893 0.062533013522624969 0.15611752867698669
0.31489661335945129 0.071820184588432312 0.15470756590366364
0.38683316111564636 0.065410420298576355 0.14488279819488525
0.48056977987289429 0.053159136325120926 0.1392778605222702
0.57851725816726685 0.032509986311197281 0.12201610207557678
0.67661094665527344 0.019693696871399879 0.10445325076580048
0.77032947540283203 0.0084153870120644569 0.081655986607074738
0.86795032024383545 0.0032827190589159727 0.065080799162387848
0.9621315598487854 0.0016140807420015335 0.043695814907550812
0.99106013774871826 0.0010916168102994561 0.026959244161844254
0.0071429982781410217 0.0931435227394104 0.17098098993301392
0.06549420952796936 0.09428781270980835 0.16951893270015717
0.16027724742889404 0.096693389117717743 0.16380366683006287
0.23957915604114532 0.10284049808979034 0.15622690320014954
0.31670358777046204 0.10717727243900299 0.15107172727584839
0.4022122323513031 0.10159831494092941 0.14828309416770935
0.48668572306632996 0.076487764716148376 0.1327989399433136
0.57778429985046387 0.042461186647415161 0.11242365837097168
0.67548960447311401 0.023291464895009995 0.094693534076213837
0.77078914642333984 0.0095126284286379814 0.076990671455860138
0.87055486440658569 0.007709114346653223 0.065167352557182312
0.96302539110183716 0.003698625834658742 0.042756758630275726
0.98947769403457642 0.0048305587843060493 0.033872239291667938
0.0042683468200266361 0.17090269923210144 0.17139135301113129
0.024504045024514198 0.17499364912509918 0.1713605672121048
0.12927021086215973 0.17622369527816772 0.16906294226646423
0.23647643625736237 0.17466427385807037 0.16051693260669708
0.32131588459014893 0.16931276023387909 0.14891296625137329
0.40589860081672668 0.15659286081790924 0.13807801902294159
0.49744582176208496 0.13202114403247833 0.12086772173643112
0.59393793344497681 0.10521923750638962 0.10601665824651718
0.68716943264007568 0.073144517838954926 0.09342232346534729
0.78474932909011841 0.050491556525230408 0.077083274722099304
0.88083308935165405 0.041036449372768402 0.064176477491855621
0.96808469295501709 0.032058864831924438 0.046420708298683167
0.98727941513061523 0.030786881223320961 0.047328740358352661
0.0044661727733910084 0.25184774398803711 0.17605032026767731
0.012398200109601021 0.25686070322990417 0.17588430643081665
0.063997708261013031 0.26006758213043213 0.1775185763835907
0.20571793615818024 0.26132693886756897 0.17059645056724548
0.325461745262146 0.25526326894760132 0.15106697380542755
0.41435056924819946 0.23625460267066956 0.12977433204650879
0.50704753398895264 0.21782927215099335 0.1118563637137413
0.61019068956375122 0.20162284374237061 0.098421536386013031
0.71721392869949341 0.18959850072860718 0.097486145794391632
0.81369966268539429 0.15936665236949921 0.084139414131641388
0.90927749872207642 0.1357291042804718 0.070065714418888092
0.9754711389541626 0.11728239059448242 0.061717357486486435
