assets/lut/pixlsus prussian blue.cube
# Created by: G'MIC (https://gmic.eu)
TITLE "prussian_blue"
# LUT size
LUT_3D_SIZE 5
# Data domain
DOMAIN_MIN 0.0 0.0 0.0
DOMAIN_MAX 1.0 1.0 1.0
# LUT data points
0.036974243819713593 0.040642037987709045 0.034547798335552216
0.26003429293632507 0.045767989009618759 0.046621523797512054
0.49092864990234375 0.04541638121008873 0.046568628400564194
0.71485614776611328 0.045686356723308563 0.050469193607568741
0.94945716857910156 0.042986221611499786 0.047102056443691254
0.043319940567016602 0.26148241758346558 0.050705630332231522
0.27051821351051331 0.27029761672019958 0.040449943393468857
0.50609201192855835 0.2671666145324707 0.03979898989200592
0.73409640789031982 0.2695758044719696 0.040923293679952621
0.96784859895706177 0.26632043719291687 0.042675063014030457
0.043943233788013458 0.49234813451766968 0.052252121269702911
0.26642155647277832 0.50141614675521851 0.045782126486301422
0.49940976500511169 0.49803921580314636 0.042159765958786011
0.73817020654678345 0.49803921580314636 0.03787212073802948
0.97392648458480835 0.49411764740943909 0.038587622344493866
0.040593612939119339 0.7245790958404541 0.052400700747966766
0.25876179337501526 0.73715341091156006 0.050129115581512451
0.49686822295188904 0.73349636793136597 0.045143816620111465
0.73341327905654907 0.72877973318099976 0.04091021791100502
0.96732538938522339 0.72541928291320801 0.040855962783098221
0.04020194336771965 0.95756804943084717 0.047605164349079132
0.25795677304267883 0.97016912698745728 0.046611260622739792
0.4890502393245697 0.96911764144897461 0.042647060006856918
0.72228378057479858 0.96236979961395264 0.042647060006856918
0.95698833465576172 0.95735293626785278 0.042647060006856918
0.0015762777766212821 0.04734325036406517 0.094693921506404877
0.13254386186599731 0.074852421879768372 0.21297605335712433
0.38839906454086304 0.065595827996730804 0.27108043432235718
0.63213950395584106 0.063577629625797272 0.2837618887424469
0.868488609790802 0.060937244445085526 0.28913924098014832
0.065210558474063873 0.20673191547393799 0.2474968433380127
0.26296314597129822 0.26774907112121582 0.26310053467750549
0.48947128653526306 0.27029001712799072 0.27480486035346985
0.72282522916793823 0.27138474583625793 0.27287039160728455
0.95346850156784058 0.26950553059577942 0.27484467625617981
0.073576956987380981 0.4401383101940155 0.29891908168792725
0.26983731985092163 0.49393224716186523 0.28111380338668823
0.50129258632659912 0.49906429648399353 0.26697450876235962
0.74500340223312378 0.49803921580314636 0.26249998807907104
0.97295266389846802 0.49693512916564941 0.26595824956893921
0.056954387575387955 0.68412876129150391 0.30740123987197876
0.26045411825180054 0.7300117015838623 0.29065641760826111
0.49062302708625793 0.7372434139251709 0.27169066667556763
0.72897613048553467 0.72973573207855225 0.26269435882568359
0.96153372526168823 0.72752147912979126 0.26623493432998657
0.041167121380567551 0.94959980249404907 0.28971618413925171
0.25482261180877686 0.9704892635345459 0.28027498722076416
0.48627451062202454 0.96916663646697998 0.27032363414764404
0.71799427270889282 0.96225833892822266 0.26642155647277832
0.95316869020462036 0.95735293626785278 0.26941204071044922
0 0.060428351163864136 0.12876547873020172
0.035483758896589279 0.098918452858924866 0.25702059268951416
0.23609760403633118 0.11166173964738846 0.38599446415901184
0.4842602014541626 0.10370247066020966 0.46257126331329346
0.73156660795211792 0.092187099158763885 0.49863332509994507
0.032476864755153656 0.17860950529575348 0.32836180925369263
0.1842259019613266 0.25921407341957092 0.34017810225486755
0.36664137244224548 0.29965794086456299 0.4443371593952179
0.63066214323043823 0.290831059217453 0.50173354148864746
0.8681337833404541 0.28404530882835388 0.50946605205535889
0.10017663985490799 0.38592308759689331 0.46876034140586853
0.28670191764831543 0.46393260359764099 0.48579201102256775
0.49683043360710144 0.50093376636505127 0.50101721286773682
0.74003678560256958 0.49804407358169556 0.50515353679656982
0.96028035879135132 0.49844643473625183 0.50111764669418335
0.081639759242534637 0.6366877555847168 0.52890914678573608
0.26897606253623962 0.72623395919799805 0.51703524589538574
0.49023944139480591 0.73965895175933838 0.50316905975341797
0.72743320465087891 0.73052990436553955 0.49340754747390747
0.95716911554336548 0.7296568751335144 0.49411764740943909
0.043503332883119583 0.95272183418273926 0.51131176948547363
0.26114901900291443 0.9686400294303894 0.50435924530029297
0.49053782224655151 0.96371126174926758 0.49638611078262329
0.71867716312408447 0.95910447835922241 0.4917655885219574
0.95035713911056519 0.95735293626785278 0.49461200833320618
0.0030135659035295248 0.077959410846233368 0.16560538113117218
0.013758460991084576 0.12045528739690781 0.28474485874176025
0.11304840445518494 0.14206774532794952 0.43383586406707764
0.32873383164405823 0.14784699678421021 0.56039321422576904
0.57983756065368652 0.13276635110378265 0.65189898014068604
0.007725689560174942 0.1764671802520752 0.36962595582008362
0.087532579898834229 0.24423633515834808 0.40288493037223816
0.21986928582191467 0.31143462657928467 0.50482338666915894
0.51642423868179321 0.31964811682701111 0.64532732963562012
0.78821855783462524 0.30440613627433777 0.71177655458450317
0.070878364145755768 0.33241260051727295 0.55510205030441284
0.25508555769920349 0.43041622638702393 0.60003125667572021
0.48510634899139404 0.4972233772277832 0.69962567090988159
0.73984712362289429 0.49892839789390564 0.73450034856796265
0.9690430760383606 0.49774596095085144 0.73331129550933838
0.10100354999303818 0.6124873161315918 0.69581848382949829
0.27363461256027222 0.72045838832855225 0.72656100988388062
0.49968567490577698 0.73384296894073486 0.73257458209991455
0.73070061206817627 0.72959786653518677 0.7257620096206665
0.95423001050949097 0.7296568751335144 0.72528350353240967
0.040314916521310806 0.96068984270095825 0.72834968566894531
0.2703431248664856 0.95785272121429443 0.72762948274612427
0.498911052942276 0.95297878980636597 0.72539263963699341
0.7254488468170166 0.95339584350585938 0.72551870346069336
0.95343136787414551 0.95731562376022339 0.72573530673980713
0.0048768138512969017 0.096575342118740082 0.19603396952152252
0.0028813381213694811 0.13473255932331085 0.31734979152679443
0.05865580216050148 0.16833813488483429 0.4623284637928009
0.19395636022090912 0.17864148318767548 0.60985338687896729
0.41386538743972778 0.18087244033813477 0.7352442741394043
0 0.19083596765995026 0.4094998836517334
0.015470108017325401 0.23733018338680267 0.45687556266784668
0.10683216899633408 0.3048585057258606 0.54398012161254883
0.3506043553352356 0.34499409794807434 0.71609389781951904
0.74536597728729248 0.32109066843986511 0.87280464172363281
0.029893703758716583 0.30713626742362976 0.60374945402145386
0.18572911620140076 0.40465009212493896 0.6660391092300415
0.45723852515220642 0.49555796384811401 0.87047433853149414
0.72830229997634888 0.49915808439254761 0.95567268133163452
0.96411812305450439 0.49822232127189636 0.96057218313217163
0.086287587881088257 0.57700216770172119 0.82270270586013794
0.26875132322311401 0.70865952968597412 0.92828893661499023
0.50214487314224243 0.73304170370101929 0.9698900580406189
0.72900062799453735 0.7296568751335144 0.96036458015441895
0.95532286167144775 0.7296568751335144 0.95756977796554565
0.03779086098074913 0.96658015251159668 0.96780705451965332
0.27030867338180542 0.95643502473831177 0.95923519134521484
0.50196081399917603 0.95199519395828247 0.96123284101486206
0.72976887226104736 0.95325028896331787 0.96140754222869873
0.95732492208480835 0.95735293626785278 0.95855629444122314
