assets/lut/pixlsus night spy.cube
# Created by: G'MIC (https://gmic.eu)
TITLE "night_spy"
# LUT size
LUT_3D_SIZE 13
# Data domain
DOMAIN_MIN 0.0 0.0 0.0
DOMAIN_MAX 1.0 1.0 1.0
# LUT data points
0.00048346424591727555 0 0
0.0028366087935864925 0 0
0.0037334815133363008 0 0
0.0088614374399185181 0 0
0.010499019175767899 0 0
0.024720599874854088 0 0
0.042506109923124313 0 0
0.064940735697746277 0 0
0.087420478463172913 0 0
0.11014369875192642 0 0
0.13191166520118713 0 0
0.15750963985919952 0 0
0.18021957576274872 0 0
0.0013735753018409014 0.0021006865426898003 0.0023655311670154333
0.0055236215703189373 0.0013223984278738499 0.00051094504306092858
0.021604275330901146 0.00062393490225076675 0
0.049312964081764221 1.7772001228877343e-05 0
0.068704448640346527 0.00017047957226168364 0
0.092464223504066467 0.00016044167568907142 0
0.11327335238456726 0 0
0.13778552412986755 9.8733344202628359e-06 0
0.16346947848796844 1.5797335436218418e-05 0
0.18790543079376221 0 0
0.21130333840847015 2.9620001441799104e-05 0
0.23699462413787842 7.3062670708168298e-05 0
0.2609456479549408 0 0
0.018212979659438133 0.039552651345729828 0.019809482619166374
0.043772425502538681 0.030507810413837433 0.0067367404699325562
0.073280364274978638 0.023597821593284607 0.00045879589742980897
0.1042700856924057 0.0192884411662817 2.8722426577587612e-05
0.1340414434671402 0.014389501884579659 0
0.1656012088060379 0.011567508801817894 0
0.19988328218460083 0.0078380806371569633 0
0.23389019072055817 0.0070260441862046719 0
0.25969815254211426 0.0081862201914191246 0
0.28567439317703247 0.0057067722082138062 0
0.31014314293861389 0.0040783751755952835 0
0.33487346768379211 0.0056580188684165478 0
0.35693159699440002 0.0043361140415072441 0
0.062034487724304199 0.12183056771755219 0.06232139840722084
0.10320564359426498 0.11014203727245331 0.034363016486167908
0.14202539622783661 0.10010965168476105 0.012633978389203548
0.17207318544387817 0.091754019260406494 0.0038667565677314997
0.19937139749526978 0.082651369273662567 0.00084035535110160708
0.2324930876493454 0.077567189931869507 0.00054816453484818339
0.26804766058921814 0.071181327104568481 0.00012754552881233394
0.31029230356216431 0.068566292524337769 0
0.35098725557327271 0.062414176762104034 0
0.38999810814857483 0.057087961584329605 0
0.42430698871612549 0.050355516374111176 0
0.45524376630783081 0.048433281481266022 0
0.48089241981506348 0.047392256557941437 0
0.12330440431833267 0.21970456838607788 0.12357213348150253
0.16450783610343933 0.20572188496589661 0.092176251113414764
0.2066815048456192 0.19345209002494812 0.062214959412813187
0.24740831553936005 0.18372347950935364 0.037796482443809509
0.28361192345619202 0.17218667268753052 0.016563145443797112
0.31570383906364441 0.16440263390541077 0.0082683190703392029
0.35121291875839233 0.15986013412475586 0.0048401476815342903
0.39019355177879333 0.15746656060218811 0.0017717248992994428
0.43044939637184143 0.15166029334068298 0.00061222148360684514
0.47287443280220032 0.15002751350402832 0
0.51436573266983032 0.14173522591590881 0
0.55581128597259521 0.13632632791996002 0
0.60153877735137939 0.13287650048732758 0
0.19093798100948334 0.32467341423034668 0.1904599666595459
0.23202028870582581 0.31185981631278992 0.1610700786113739
0.2780158519744873 0.30224555730819702 0.13111813366413116
0.32124939560890198 0.2934175431728363 0.10837499797344208
0.36460596323013306 0.28173470497131348 0.079274706542491913
0.40952107310295105 0.26928478479385376 0.049318097531795502
0.45555084943771362 0.25878828763961792 0.024965249001979828
0.49653857946395874 0.25535187125205994 0.013309343717992306
0.53288185596466064 0.25175631046295166 0.0077521828934550285
0.56746280193328857 0.24916428327560425 0.0026763167697936296
0.60180413722991943 0.24358133971691132 0.0023707819636911154
0.63384717702865601 0.23605573177337646 0.0019865746144205332
0.65811640024185181 0.22689071297645569 0.0010202295379713178
0.27523139119148254 0.45071879029273987 0.27537032961845398
0.32177799940109253 0.44413253664970398 0.25224596261978149
0.37008297443389893 0.43755143880844116 0.22465817630290985
0.4137546718120575 0.42757260799407959 0.19885917007923126
0.4560491144657135 0.41478767991065979 0.1705775111913681
0.5052487850189209 0.40464675426483154 0.13874530792236328
0.55502510070800781 0.39080402255058289 0.10450413823127747
0.60666632652282715 0.38183689117431641 0.074360638856887817
0.64522868394851685 0.36986622214317322 0.05152110755443573
0.67508292198181152 0.35224291682243347 0.029510019347071648
0.68649232387542725 0.33881330490112305 0.031500138342380524
0.69288885593414307 0.32055342197418213 0.028658129274845123
0.69580960273742676 0.3086903989315033 0.032950382679700851
0.38423523306846619 0.60130596160888672 0.38353368639945984
0.4294930100440979 0.59394150972366333 0.35974377393722534
0.47510462999343872 0.58326905965805054 0.32835370302200317
0.5179673433303833 0.5719459056854248 0.29998189210891724
0.55993056297302246 0.55951982736587524 0.27389964461326599
0.60449421405792236 0.54673421382904053 0.24277070164680481
0.65192389488220215 0.53381717205047607 0.20870634913444519
0.68585664033889771 0.51131772994995117 0.17982055246829987
0.69883549213409424 0.47887417674064636 0.15609388053417206
0.7024155855178833 0.44333598017692566 0.13468645513057709
0.70572471618652344 0.42370572686195374 0.13251011073589325
0.70588111877441406 0.40733122825622559 0.13329383730888367
0.70557063817977905 0.38919362425804138 0.13477005064487457
0.49773380160331726 0.75209420919418335 0.49618476629257202
0.54162681102752686 0.74364537000656128 0.4716554582118988
0.58786863088607788 0.73407942056655884 0.44213110208511353
0.63001823425292969 0.72048753499984741 0.41002252697944641
0.66809558868408203 0.70336455106735229 0.37830314040184021
0.69403338432312012 0.67416298389434814 0.34453824162483215
0.7113158106803894 0.63393229246139526 0.30558958649635315
0.70977568626403809 0.58865612745285034 0.27973029017448425
0.70795392990112305 0.54777765274047852 0.2588188648223877
0.70673686265945435 0.51343417167663574 0.24190410971641541
0.70592594146728516 0.48977476358413696 0.23759299516677856
0.70588237047195435 0.47212693095207214 0.23783200979232788
0.70588237047195435 0.45731973648071289 0.24049122631549835
0.61151087284088135 0.89717680215835571 0.60929292440414429
0.65462934970855713 0.88943290710449219 0.58242559432983398
0.69690865278244019 0.87721401453018188 0.55041563510894775
0.72340250015258789 0.84779298305511475 0.51241064071655273
0.73168087005615234 0.79711002111434937 0.46676221489906311
0.72735154628753662 0.73458147048950195 0.42010051012039185
0.72164458036422729 0.67478513717651367 0.38030862808227539
0.7169918417930603 0.63007867336273193 0.3570648729801178
0.71296525001525879 0.5971255898475647 0.34569936990737915
0.71020722389221191 0.56408166885375977 0.33187416195869446
0.70919913053512573 0.5421825647354126 0.32783234119415283
0.70772057771682739 0.52852654457092285 0.33233845233917236
0.70626360177993774 0.5162045955657959 0.33696654438972473
0.70985031127929688 0.96202802658081055 0.70956611633300781
0.74151313304901123 0.96334797143936157 0.67500501871109009
0.75918036699295044 0.94758552312850952 0.62698143720626831
0.75539106130599976 0.89186197519302368 0.57462489604949951
0.74463111162185669 0.82366949319839478 0.52285146713256836
0.73461121320724487 0.7596706748008728 0.47733896970748901
0.72657990455627441 0.70148772001266479 0.44210761785507202
0.72108030319213867 0.65966469049453735 0.42159274220466614
0.71714162826538086 0.63455367088317871 0.41836240887641907
0.71423673629760742 0.60821950435638428 0.41359743475914001
0.7125471830368042 0.58602863550186157 0.40972411632537842
0.71118354797363281 0.57247328758239746 0.41413819789886475
0.71008086204528809 0.56076949834823608 0.4179844856262207
0.75589936971664429 0.97196793556213379 0.75481522083282471
0.7675134539604187 0.97131562232971191 0.71104240417480469
0.7668842077255249 0.94637417793273926 0.65811353921890259
0.75523281097412109 0.88397109508514404 0.60310286283493042
0.74497514963150024 0.82492172718048096 0.56086575984954834
0.73710042238235474 0.77176856994628906 0.52736556529998779
0.72960120439529419 0.71995753049850464 0.49770897626876831
0.72415274381637573 0.67944628000259399 0.47793039679527283
0.72100192308425903 0.65790975093841553 0.47595173120498657
0.71837568283081055 0.63771152496337891 0.47882214188575745
0.71643781661987305 0.61833155155181885 0.47942131757736206
0.71493512392044067 0.60666447877883911 0.48456352949142456
0.71379965543746948 0.59602624177932739 0.48959982395172119
0.75871390104293823 0.97165876626968384 0.75831639766693115
0.76760315895080566 0.9649849534034729 0.71800273656845093
0.76410794258117676 0.93055790662765503 0.67238658666610718
0.75433588027954102 0.87449640035629272 0.62763386964797974
0.74458074569702148 0.8198775053024292 0.59237760305404663
0.73776042461395264 0.77299666404724121 0.56369578838348389
0.73180180788040161 0.72913509607315063 0.53954517841339111
0.72695058584213257 0.69604802131652832 0.5252414345741272
0.72432094812393188 0.67590785026550293 0.5248294472694397
0.72146415710449219 0.65755563974380493 0.52955174446105957
0.71960830688476562 0.64208739995956421 0.53575855493545532
0.7177005410194397 0.63274198770523071 0.54347777366638184
0.71743470430374146 0.62635207176208496 0.55458301305770874
0 0 0.00084690767107531428
0.00014190674119163305 0 0.0026164334267377853
0.0014155968092381954 0 0.0011869393056258559
0.0040378496050834656 0 0
0.0056727388873696327 0 0
0.014632954262197018 0 0
0.029943773522973061 0 0
0.052535727620124817 0 0
0.073217816650867462 0 0
0.092827647924423218 0 0
0.11622070521116257 0 0
0.1426980048418045 0 0
0.16448263823986053 0 0
2.1392224880401045e-06 0.0012971765827387571 0.0043363086879253387
0.0011696759611368179 0.00045198926818557084 0.0031054029241204262
0.0071848849765956402 0.00015629787230864167 0.00035439286148175597
0.019925689324736595 2.7151669200975448e-05 0
0.037092771381139755 4.1303446778329089e-05 0
0.06053079292178154 0.00033741371589712799 0
0.087762512266635895 1.2835334018745925e-05 0
0.11452493071556091 0.00021260579524096102 0
0.14132855832576752 3.5544002457754686e-05 0
0.16376303136348724 0 0
0.18969359993934631 0.0003324171993881464 0
0.21774740517139435 0.00094489305047318339 0
0.24022266268730164 0 0
0.0031096364837139845 0.0191484484821558 0.030790695920586586
0.016784204170107841 0.015316877514123917 0.017014117911458015
0.039587326347827911 0.01025072019547224 0.0042169759981334209
0.067182727158069611 0.0077476352453231812 0.0004673378134611994
0.095369346439838409 0.0055715674534440041 0
0.12476404011249542 0.0059933383017778397 0
0.15965540707111359 0.0029584846924990416 0
0.19218011200428009 0.0045105577446520329 0
0.22634035348892212 0.0032781115733087063 0
0.25240632891654968 0.0025951459538191557 0
0.28316628932952881 0.0043352912180125713 0
0.31336617469787598 0.0042051877826452255 0
0.33061474561691284 0.002100327517837286 0
0.025937443599104881 0.094621710479259491 0.085621416568756104
0.062377121299505234 0.084425397217273712 0.060063470155000687
0.10190252959728241 0.074143864214420319 0.033020436763763428
0.13601769506931305 0.06396687775850296 0.012063314206898212
0.16409215331077576 0.056418940424919128 0.0028641195967793465
0.1948574036359787 0.051959466189146042 0.0035302555188536644
0.23108497262001038 0.044948052614927292 0.0012407191097736359
0.26838186383247375 0.042483385652303696 0
0.30577805638313293 0.03959287703037262 0
0.34316897392272949 0.036410551518201828 0
0.38283032178878784 0.028161875903606415 0
0.41857963800430298 0.025234626606106758 0
0.44576197862625122 0.02676829881966114 0
0.078525707125663757 0.19107785820960999 0.1463824063539505
0.12139204144477844 0.17915435135364532 0.11753695458173752
0.16223488748073578 0.16705740988254547 0.088895000517368317
0.20360319316387177 0.15436007082462311 0.05794055387377739
0.24113182723522186 0.14208048582077026 0.031916927546262741
0.27712637186050415 0.13249784708023071 0.015786787495017052
0.31104880571365356 0.12770763039588928 0.0074400058947503567
0.34725335240364075 0.12553361058235168 0.002996108029037714
0.38291910290718079 0.12273246794939041 0.001225834246724844
0.4226195216178894 0.12041590362787247 0.00012542126933112741
0.46293312311172485 0.11200904101133347 0
0.50456303358078003 0.10603079944849014 0
0.54717355966567993 0.10381866246461868 0
0.14358916878700256 0.29285034537315369 0.21162970364093781
0.18529605865478516 0.28143531084060669 0.18286846578121185
0.2270333468914032 0.26940047740936279 0.15334644913673401
0.2730528712272644 0.2622247040271759 0.1288299560546875
0.31161797046661377 0.2455144077539444 0.096284620463848114
0.35683903098106384 0.23283426463603973 0.065204501152038574
0.4047374427318573 0.22270332276821136 0.038478463888168335
0.44694197177886963 0.21990036964416504 0.024533245712518692
0.4828886091709137 0.21778994798660278 0.016082523390650749
0.51658165454864502 0.21481762826442719 0.0097686322405934334
0.55568718910217285 0.21022263169288635 0.0062072305008769035
0.59390676021575928 0.20277814567089081 0.0043883528560400009
0.63269472122192383 0.19631761312484741 0.0026355220470577478
0.2222127765417099 0.41318899393081665 0.29290017485618591
0.26815280318260193 0.4060359001159668 0.26676571369171143
0.31293529272079468 0.39700606465339661 0.2387302964925766
0.3564859926700592 0.38694372773170471 0.21158541738986969
0.39454525709152222 0.36777803301811218 0.17698915302753448
0.4394344687461853 0.35290849208831787 0.1438508927822113
0.4912162721157074 0.34139865636825562 0.11135512590408325
0.54165911674499512 0.33493712544441223 0.086717285215854645
0.58852118253707886 0.3296598494052887 0.066528677940368652
0.63342040777206421 0.32620441913604736 0.049155350774526596
0.66843771934509277 0.31739255785942078 0.033190947026014328
0.68406957387924194 0.29956936836242676 0.025052942335605621
0.69143790006637573 0.28539681434631348 0.026480088010430336
0.32677468657493591 0.55772030353546143 0.39427193999290466
0.37039855122566223 0.5507240891456604 0.36871740221977234
0.41317358613014221 0.5387764573097229 0.33810922503471375
0.45586779713630676 0.52722835540771484 0.30832520127296448
0.49780625104904175 0.51395469903945923 0.27800878882408142
0.54228633642196655 0.49930551648139954 0.24676354229450226
0.59304958581924438 0.48594078421592712 0.21365532279014587
0.63848066329956055 0.47499454021453857 0.18769367039203644
0.67318439483642578 0.45861908793449402 0.16371139883995056
0.69277846813201904 0.4339178204536438 0.14208321273326874
0.70349133014678955 0.41045555472373962 0.12928038835525513
0.70568448305130005 0.39113405346870422 0.12609937787055969
0.7054283618927002 0.37776690721511841 0.13063356280326843
0.43632835149765015 0.70695120096206665 0.50411009788513184
0.47895023226737976 0.69776260852813721 0.47728952765464783
0.52435457706451416 0.68748313188552856 0.4491436779499054
0.56601637601852417 0.67445886135101318 0.4181678295135498
0.60741531848907471 0.66110217571258545 0.38636094331741333
0.64923501014709473 0.64513248205184937 0.35463738441467285
0.68693047761917114 0.62041819095611572 0.31822377443313599
0.70113170146942139 0.58549821376800537 0.29049757122993469
0.70369678735733032 0.54472988843917847 0.26480945944786072
0.70405024290084839 0.50856351852416992 0.24531105160713196
0.70543581247329712 0.48230504989624023 0.23617464303970337
0.70588237047195435 0.46559646725654602 0.23716482520103455
0.70588237047195435 0.45430555939674377 0.24275156855583191
0.54760372638702393 0.85548430681228638 0.61727815866470337
0.59014111757278442 0.84506291151046753 0.58949929475784302
0.63440287113189697 0.83383822441101074 0.56020742654800415
0.67520767450332642 0.81922781467437744 0.52731460332870483
0.70804858207702637 0.79500949382781982 0.49043428897857666
0.72008210420608521 0.74925673007965088 0.44870796799659729
0.72000902891159058 0.69063073396682739 0.40411701798439026
0.71632438898086548 0.63854426145553589 0.3708958625793457
0.71226948499679565 0.59956157207489014 0.35183155536651611
0.70962041616439819 0.56803673505783081 0.33982449769973755
0.70852530002593994 0.54190760850906372 0.33236366510391235
0.70854181051254272 0.52609962224960327 0.33437547087669373
0.70728611946105957 0.51291388273239136 0.33744794130325317
0.64731162786483765 0.95290678739547729 0.71736413240432739
0.69257402420043945 0.95099461078643799 0.69261842966079712
0.73169094324111938 0.9472772479057312 0.65943259000778198
0.75044625997543335 0.91702651977539062 0.6145254373550415
0.74650418758392334 0.85284888744354248 0.56174230575561523
0.73590421676635742 0.78699874877929688 0.51444441080093384
0.72673487663269043 0.7229924201965332 0.46973767876625061
0.72117036581039429 0.66895371675491333 0.43514534831047058
0.71695196628570557 0.63544219732284546 0.42261430621147156
0.71423673629760742 0.61167734861373901 0.41974726319313049
0.7121957540512085 0.58846378326416016 0.41602307558059692
0.71109002828598022 0.57307213544845581 0.41859811544418335
0.71062946319580078 0.56086623668670654 0.4222322404384613
0.70243686437606812 0.96690809726715088 0.76085275411605835
0.74959033727645874 0.97029292583465576 0.75024467706680298
0.7647210955619812 0.9637453556060791 0.70444214344024658
0.76028406620025635 0.92016243934631348 0.65131914615631104
0.74912923574447632 0.85696303844451904 0.60084837675094604
0.73989629745483398 0.79670196771621704 0.55907225608825684
0.73118865489959717 0.74064397811889648 0.52288186550140381
0.72459477186203003 0.69007879495620728 0.49181714653968811
0.72100657224655151 0.66136342287063599 0.48316305875778198
0.7183833122253418 0.64016425609588623 0.48360142111778259
0.7162507176399231 0.62064671516418457 0.48496359586715698
0.71533924341201782 0.60824018716812134 0.4909130334854126
0.7149122953414917 0.59726154804229736 0.49604737758636475
0.71309381723403931 0.96836960315704346 0.76469439268112183
0.75511151552200317 0.96953058242797852 0.755992591381073
0.76697272062301636 0.95671916007995605 0.71489924192428589
0.75936442613601685 0.90435492992401123 0.66789472103118896
0.74934607744216919 0.84671014547348022 0.6249966025352478
0.74114853143692017 0.79416924715042114 0.58992427587509155
0.73394632339477539 0.74572932720184326 0.56034713983535767
0.72800838947296143 0.70633018016815186 0.54027700424194336
0.7246934175491333 0.68188321590423584 0.53534817695617676
0.72179436683654785 0.66159909963607788 0.53710669279098511
0.72002220153808594 0.64393001794815063 0.54213833808898926
0.71882051229476929 0.63409268856048584 0.55033838748931885
0.71853268146514893 0.62771803140640259 0.56243878602981567
0 0 0.0039471942000091076
8.2277783803874627e-06 0 0.005435016006231308
9.9600998510140926e-05 0 0.003874415997415781
0.00029020122019574046 0 0.0011942096753045917
0.0013297585537657142 0 0
0.0056115393526852131 0 0
0.017357636243104935 0 0
0.034254513680934906 0 0
0.057250317186117172 0 0
0.07742907851934433 0 0
0.10055120289325714 0 0
0.12518309056758881 0 0
0.14708556234836578 0 0
0 0 0.0055438620038330555
4.6075560931058135e-06 0 0.0057043335400521755
0.0015443540178239346 0 0.0033662533387541771
0.0036496331449598074 0 0.00065318087581545115
0.01387608889490366 0 0
0.033286210149526596 0 0
0.059898599982261658 0 0
0.087157353758811951 3.2088337320601568e-05 0
0.11360348016023636 0 0
0.13786906003952026 8.8366337877232581e-05 0
0.16480441391468048 0.0006833693478256464 0
0.19213226437568665 0.00059172685723751783 0
0.21405187249183655 0 0
0.0001802631450118497 0.0058156931772828102 0.037640020251274109
0.0022712110076099634 0.0051853256300091743 0.023822082206606865
0.012888381257653236 0.0023653218522667885 0.0097200730815529823
0.032574553042650223 0.0029132917989045382 0.0030205370858311653
0.05898468941450119 0.0009633083245716989 0.00025185977574437857
0.088566064834594727 0.001620064489543438 7.4797985689656343e-06
0.12244615703821182 0.0025273789651691914 0
0.15572942793369293 0.0030835620127618313 0
0.18528711795806885 0.0019501032074913383 0
0.21305373311042786 0.0042942119762301445 0
0.24902518093585968 0.0052131949923932552 0
0.2795814573764801 0.0043530631810426712 0
0.30030632019042969 0.0012780432589352131 0
0.0072731166146695614 0.064827814698219299 0.099219813942909241
0.023766027763485909 0.057975739240646362 0.08198363333940506
0.0588047094643116 0.046694781631231308 0.055976882576942444
0.097261868417263031 0.03748708963394165 0.030055280774831772
0.12894329428672791 0.03025348111987114 0.010124401189386845
0.15640357136726379 0.027920518070459366 0.0035202025901526213
0.18946976959705353 0.025513174012303352 0.00070135080022737384
0.22357197105884552 0.021329078823328018 0
0.25797930359840393 0.020101943984627724 0
0.29475003480911255 0.021411176770925522 0
0.33490532636642456 0.018975216895341873 0
0.37240353226661682 0.01587250642478466 0
0.41007569432258606 0.0091901738196611404 0
0.038008101284503937 0.15751051902770996 0.16637657582759857
0.073822304606437683 0.1499212384223938 0.14316099882125854
0.11523100733757019 0.13812172412872314 0.11429987847805023
0.15627087652683258 0.12635141611099243 0.085116244852542877
0.1976819634437561 0.11428143084049225 0.055959049612283707
0.23750218749046326 0.10322778671979904 0.02805074118077755
0.2739616334438324 0.09585590660572052 0.0096318265423178673
0.30566331744194031 0.092136979103088379 0.0026925778947770596
0.33361488580703735 0.090096026659011841 0.0013721541035920382
0.37266993522644043 0.088052175939083099 0.00044115851051174104
0.41171467304229736 0.084560379385948181 0
0.45272859930992126 0.079088039696216583 0
0.4968096911907196 0.072677522897720337 0
0.096902541816234589 0.25886577367782593 0.23155918717384338
0.13597816228866577 0.24929399788379669 0.20552103221416473
0.17676319181919098 0.23765026032924652 0.17646227777004242
0.21855629980564117 0.22637397050857544 0.14880326390266418
0.26208490133285522 0.21508127450942993 0.11982820928096771
0.30764353275299072 0.20304630696773529 0.087005108594894409
0.35857588052749634 0.19093358516693115 0.053316798061132431
0.40316095948219299 0.18221232295036316 0.03045043908059597
0.44028162956237793 0.17979364097118378 0.019492894411087036
0.47225737571716309 0.17632590234279633 0.010832169093191624
0.50478386878967285 0.17271654307842255 0.0041669062338769436
0.54315698146820068 0.16865216195583344 0.0028433406259864569
0.58465683460235596 0.16367770731449127 0.002032171469181776
0.1687723696231842 0.37537828087806702 0.31044036149978638
0.20984533429145813 0.36452841758728027 0.28210374712944031
0.25188532471656799 0.35292813181877136 0.25198650360107422
0.29475006461143494 0.34197911620140076 0.22347094118595123
0.33743137121200562 0.32816091179847717 0.19215041399002075
0.38273033499717712 0.31381911039352417 0.1578918844461441
0.43491509556770325 0.30263012647628784 0.12511780858039856
0.48783326148986816 0.29678887128829956 0.1009523868560791
0.53973311185836792 0.29787498712539673 0.085041463375091553
0.58207827806472778 0.2909427285194397 0.06368517130613327
0.62358158826828003 0.27913936972618103 0.036109954118728638
0.66083323955535889 0.27070233225822449 0.020446013659238815
0.68085372447967529 0.26130464673042297 0.017353760078549385
0.26500746607780457 0.51410520076751709 0.4081994891166687
0.30617189407348633 0.50385290384292603 0.3795170783996582
0.3493933379650116 0.49252504110336304 0.34976586699485779
0.39274254441261292 0.48189809918403625 0.31962096691131592
0.43555623292922974 0.46930414438247681 0.2868371307849884
0.48047855496406555 0.45381033420562744 0.25429221987724304
0.53272104263305664 0.44086560606956482 0.22188350558280945
0.58329731225967407 0.43169212341308594 0.19543445110321045
0.6309240460395813 0.42659172415733337 0.17271295189857483
0.66991794109344482 0.41505429148674011 0.14848412573337555
0.69425833225250244 0.39578154683113098 0.12816444039344788
0.7046196460723877 0.37687966227531433 0.12098665535449982
0.70607542991638184 0.35934272408485413 0.11902489513158798
