assets/lut/pixlsus whiter whites.cube
# Created by: G'MIC (https://gmic.eu)
TITLE "whiter_whites"
# LUT size
LUT_3D_SIZE 7
# Data domain
DOMAIN_MIN 0.0 0.0 0.0
DOMAIN_MAX 1.0 1.0 1.0
# LUT data points
0.036394529044628143 0.038725491613149643 0.039956111460924149
0.18927402794361115 0.03873482346534729 0.036061201244592667
0.34296974539756775 0.038725491613149643 0.040596142411231995
0.49411764740943909 0.038725491613149643 0.039165109395980835
0.64852941036224365 0.038725491613149643 0.033009637147188187
0.80294120311737061 0.038725491613149643 0.028293713927268982
0.9609265923500061 0.039847593754529953 0.032597441226243973
0.040491320192813873 0.18945504724979401 0.047181658446788788
0.18921568989753723 0.19098915159702301 0.036436028778553009
0.34043440222740173 0.1919579803943634 0.040968142449855804
0.49684047698974609 0.19313725829124451 0.043939255177974701
0.65242606401443481 0.19313725829124451 0.040532145649194717
0.80686277151107788 0.19313725829124451 0.038658380508422852
0.96127450466156006 0.19314192235469818 0.048375688493251801
0.042303316295146942 0.34754902124404907 0.049191523343324661
0.18730193376541138 0.34754902124404907 0.040155716240406036
0.34255725145339966 0.34724193811416626 0.036102741956710815
0.49931219220161438 0.34569981694221497 0.04285004734992981
0.65506553649902344 0.3436274528503418 0.045408613979816437
0.80687707662582397 0.34363213181495667 0.044367052614688873
0.96127450466156006 0.34754902124404907 0.067056469619274139
0.049963407218456268 0.50196081399917603 0.051605150103569031
0.18055607378482819 0.50196081399917603 0.050990041345357895
0.3398679792881012 0.50196081399917603 0.042813275009393692
0.50310415029525757 0.50196081399917603 0.047439664602279663
0.65776491165161133 0.50188529491424561 0.06801527738571167
0.80998480319976807 0.50086349248886108 0.074432089924812317
0.96127450466156006 0.50196081399917603 0.11596982181072235
0.088186018168926239 0.6563725471496582 0.073176443576812744
0.17880097031593323 0.6563725471496582 0.092987984418869019
0.32678166031837463 0.6563725471496582 0.085856854915618896
0.49502700567245483 0.6563725471496582 0.089577585458755493
0.65371614694595337 0.6563725471496582 0.13590553402900696
0.80801761150360107 0.6563725471496582 0.17436444759368896
0.96124494075775146 0.6563725471496582 0.21918810904026031
0.17940962314605713 0.81043678522109985 0.18021850287914276
0.2087090015411377 0.80809921026229858 0.2019122838973999
0.31749898195266724 0.80803012847900391 0.1998269259929657
0.47290295362472534 0.80974245071411133 0.20344571769237518
0.63956671953201294 0.81068474054336548 0.23601843416690826
0.80034410953521729 0.81061941385269165 0.28099772334098816
0.95645636320114136 0.80925565958023071 0.31876465678215027
0.3206794261932373 0.96127450466156006 0.32405334711074829
0.31069418787956238 0.96127450466156006 0.32898536324501038
0.35782423615455627 0.96127450466156006 0.3363804817199707
0.47852727770805359 0.96127450466156006 0.34554874897003174
0.63836675882339478 0.96127450466156006 0.3688017725944519
0.79989492893218994 0.96127450466156006 0.40414273738861084
0.95736908912658691 0.96127450466156006 0.43153819441795349
0.036134712398052216 0.037301786243915558 0.18655103445053101
0.19099061191082001 0.038725491613149643 0.18403133749961853
0.34413063526153564 0.038725491613149643 0.18921856582164764
0.49803921580314636 0.038725491613149643 0.18650579452514648
0.65162932872772217 0.038725491613149643 0.18002165853977203
0.80294120311737061 0.042487889528274536 0.17368164658546448
0.95735293626785278 0.044343072921037674 0.17311848700046539
0.039380151778459549 0.19044764339923859 0.19263416528701782
0.19106084108352661 0.19142024219036102 0.20588049292564392
0.34522894024848938 0.19313725829124451 0.18967670202255249
0.49807929992675781 0.19313725829124451 0.19085575640201569
0.65245097875595093 0.19313725829124451 0.18854117393493652
0.80686217546463013 0.19313725829124451 0.18408229947090149
0.95749968290328979 0.19650363922119141 0.18261782824993134
0.034482531249523163 0.34671258926391602 0.19242648780345917
0.18914590775966644 0.3465886116027832 0.18541814386844635
0.34472596645355225 0.3436284065246582 0.18222911655902863
0.50173437595367432 0.3436274528503418 0.19001118838787079
0.6563725471496582 0.3436274528503418 0.18944457173347473
0.80807352066040039 0.3436274528503418 0.1903311014175415
0.96126675605773926 0.34754902124404907 0.18661521375179291
0.036005627363920212 0.50196081399917603 0.18722718954086304
0.18464460968971252 0.5016513466835022 0.18792685866355896
0.34527215361595154 0.49806469678878784 0.18224234879016876
0.50324225425720215 0.49963691830635071 0.18431340157985687
0.66027170419692993 0.49997645616531372 0.18921099603176117
0.81119179725646973 0.49803921580314636 0.1876237541437149
0.9613226056098938 0.50196081399917603 0.18762888014316559
0.087552808225154877 0.6563725471496582 0.1734701544046402
0.19109137356281281 0.6563725471496582 0.18877935409545898
0.33586889505386353 0.6563725471496582 0.18808649480342865
0.49891576170921326 0.6563725471496582 0.18498736619949341
0.65993410348892212 0.6563725471496582 0.19957095384597778
0.81324762105941772 0.6563725471496582 0.21474723517894745
0.96179389953613281 0.6563725471496582 0.22453464567661285
0.18949277698993683 0.80999571084976196 0.22108456492424011
0.23343119025230408 0.80789804458618164 0.233334019780159
0.33339935541152954 0.80782026052474976 0.23508439958095551
0.48419499397277832 0.80905342102050781 0.23223724961280823
0.6520991325378418 0.80801713466644287 0.2417256087064743
0.80885356664657593 0.80753743648529053 0.27859017252922058
0.95949393510818481 0.8070063591003418 0.30031609535217285
0.3219015896320343 0.96127450466156006 0.31079983711242676
0.32180503010749817 0.96127450466156006 0.31376111507415771
0.37047433853149414 0.96127450466156006 0.32087725400924683
0.48928600549697876 0.96127450466156006 0.33496761322021484
0.6471562385559082 0.96127450466156006 0.36338678002357483
0.80591893196105957 0.96127450466156006 0.39570069313049316
0.95954364538192749 0.96127450466156006 0.40657493472099304
0.03800690546631813 0.034803923219442368 0.34939786791801453
0.18921568989753723 0.03481559082865715 0.34933096170425415
0.34363031387329102 0.038706820458173752 0.34928306937217712
0.49803921580314636 0.038725491613149643 0.34162220358848572
0.65245097875595093 0.0401931032538414 0.3374074399471283
0.80322182178497314 0.044412650167942047 0.33378073573112488
0.95735293626785278 0.04967314749956131 0.33225765824317932
0.038735602051019669 0.18921568989753723 0.35166293382644653
0.1931348592042923 0.19305482506752014 0.34494629502296448
0.34387668967247009 0.19082596898078918 0.33893406391143799
0.50112742185592651 0.19313725829124451 0.34209731221199036
0.65245097875595093 0.19313725829124451 0.34651529788970947
0.80673116445541382 0.19395832717418671 0.34283804893493652
0.95735293626785278 0.19958384335041046 0.33962041139602661
0.035014823079109192 0.3436274528503418 0.34804663062095642
0.1913762092590332 0.34661614894866943 0.33958879113197327
0.34054884314537048 0.34052550792694092 0.38835576176643372
0.50126612186431885 0.34693518280982971 0.34222060441970825
0.65601903200149536 0.3436274528503418 0.34726214408874512
0.80686753988265991 0.34386417269706726 0.34681090712547302
0.95976155996322632 0.34894314408302307 0.34339001774787903
0.042430128902196884 0.49803921580314636 0.34462052583694458
0.19062891602516174 0.50148814916610718 0.33618247509002686
0.34372988343238831 0.50052404403686523 0.34272411465644836
0.49978199601173401 0.49934130907058716 0.34726670384407043
0.65638798475265503 0.50076580047607422 0.34114792943000793
0.81078284978866577 0.49928218126296997 0.34423825144767761
0.96139085292816162 0.50196081399917603 0.3395175039768219
0.10244860500097275 0.65313869714736938 0.33128520846366882
0.20622964203357697 0.6563725471496582 0.33321273326873779
0.34121015667915344 0.6563725471496582 0.33346554636955261
0.49683281779289246 0.6563725471496582 0.33257949352264404
0.65806740522384644 0.6563725471496582 0.33832487463951111
0.81359732151031494 0.6563725471496582 0.33147338032722473
0.9628063440322876 0.65578359365463257 0.32760870456695557
0.20600266754627228 0.80686277151107788 0.32918471097946167
0.25041136145591736 0.80721014738082886 0.3309294581413269
0.34154254198074341 0.81014424562454224 0.33143734931945801
0.48759561777114868 0.81059026718139648 0.33296415209770203
0.65445786714553833 0.80984616279602051 0.33656632900238037
0.81094777584075928 0.80792462825775146 0.34660482406616211
0.96135169267654419 0.80686277151107788 0.34750351309776306
0.33073210716247559 0.96127450466156006 0.34969231486320496
0.32769355177879333 0.96127450466156006 0.35264673829078674
0.37361735105514526 0.96127450466156006 0.35764476656913757
0.49389922618865967 0.96127450466156006 0.37956547737121582
0.65103507041931152 0.96127450466156006 0.40181076526641846
0.80816763639450073 0.96127450466156006 0.41690731048583984
0.96127450466156006 0.96127450466156006 0.41601783037185669
0.037990197539329529 0.038318261504173279 0.51979225873947144
0.18921568989753723 0.038725491613149643 0.52251392602920532
0.34365940093994141 0.038725491613149643 0.51751279830932617
0.50154209136962891 0.038725491613149643 0.50323402881622314
0.65245097875595093 0.04244435578584671 0.49895450472831726
0.8035048246383667 0.049475096166133881 0.49887922406196594
0.95735293626785278 0.0571938157081604 0.49828416109085083
0.03582744300365448 0.19007547199726105 0.51814836263656616
0.18961015343666077 0.19299465417861938 0.51366531848907471
0.34385839104652405 0.19313725829124451 0.50880664587020874
0.50100159645080566 0.19313725829124451 0.5047461986541748
0.65262371301651001 0.19316326081752777 0.50629574060440063
0.80573576688766479 0.19805742800235748 0.50520861148834229
0.95735293626785278 0.20595225691795349 0.50347274541854858
0.034164983779191971 0.3436274528503418 0.50804680585861206
0.19231536984443665 0.3436274528503418 0.50160831212997437
0.34362888336181641 0.34470462799072266 0.49542751908302307
0.49851629137992859 0.34557417035102844 0.4965968132019043
0.65580278635025024 0.3436274528503418 0.50065070390701294
0.8068581223487854 0.3473772406578064 0.50299781560897827
0.95736157894134521 0.35368803143501282 0.50287520885467529
0.046151105314493179 0.49803921580314636 0.50143665075302124
0.19205045700073242 0.49828281998634338 0.49958601593971252
0.34429687261581421 0.50160384178161621 0.50053286552429199
0.49452289938926697 0.49455589056015015 0.57427793741226196
0.6563725471496582 0.49807986617088318 0.50382238626480103
0.80735909938812256 0.5015140175819397 0.49593472480773926
0.96101832389831543 0.50295794010162354 0.49850228428840637
0.10717912763357162 0.65245097875595093 0.49981832504272461
0.20764321088790894 0.6556706428527832 0.49910435080528259
0.34195393323898315 0.6563725471496582 0.48970133066177368
0.49668851494789124 0.65614980459213257 0.50411158800125122
0.65619724988937378 0.65627223253250122 0.50707167387008667
0.81070917844772339 0.6563725471496582 0.48941195011138916
0.96127450466156006 0.65612280368804932 0.4927656352519989
0.20663131773471832 0.80686277151107788 0.48919320106506348
0.24499642848968506 0.81016063690185547 0.48914828896522522
0.33340159058570862 0.81078433990478516 0.48701772093772888
0.48559433221817017 0.80979049205780029 0.48472246527671814
0.6519920825958252 0.81027531623840332 0.49174749851226807
0.80962282419204712 0.8095163106918335 0.48944231867790222
0.96055823564529419 0.80686277151107788 0.48979476094245911
0.31781849265098572 0.96127450466156006 0.48037105798721313
0.314473956823349 0.96139383316040039 0.4855307936668396
0.35979956388473511 0.96207404136657715 0.49341872334480286
0.48853909969329834 0.96127450466156006 0.49818271398544312
0.64843940734863281 0.96127450466156006 0.50599080324172974
0.80686277151107788 0.96127450466156006 0.50594162940979004
0.96098726987838745 0.96127450466156006 0.49568000435829163
0.036965120583772659 0.038725491613149643 0.66155081987380981
0.18931621313095093 0.038725491613149643 0.67089027166366577
0.3464776873588562 0.038725491613149643 0.67631947994232178
0.50154232978820801 0.039078492671251297 0.66904497146606445
0.65245097875595093 0.046835191547870636 0.66201305389404297
0.80321353673934937 0.057674005627632141 0.66241133213043213
0.95735293626785278 0.067834310233592987 0.6636766791343689
0.033546298742294312 0.19313725829124451 0.66860175132751465
0.19158454239368439 0.19313725829124451 0.67635184526443481
0.34754902124404907 0.19313725829124451 0.672646164894104
0.50196081399917603 0.19313725829124451 0.66534501314163208
0.65446412563323975 0.19654105603694916 0.66405880451202393
0.80514705181121826 0.20539061725139618 0.66635012626647949
0.95735293626785278 0.21539849042892456 0.66656923294067383
0.026282815262675285 0.34736794233322144 0.66922450065612793
0.1852773129940033 0.34708556532859802 0.67310410737991333
0.34626278281211853 0.34748762845993042 0.65938252210617065
0.50196081399917603 0.3475152850151062 0.64569056034088135
0.65533089637756348 0.34700113534927368 0.65188717842102051
0.80594360828399658 0.35262283682823181 0.66107189655303955
0.95735293626785278 0.36073821783065796 0.66188108921051025
0.027635745704174042 0.50164568424224854 0.66061568260192871
0.1769268661737442 0.50155234336853027 0.66823810338973999
0.34195113182067871 0.50192105770111084 0.65802043676376343
0.50025397539138794 0.50068920850753784 0.65603417158126831
0.65395361185073853 0.49808943271636963 0.66103523969650269
0.80686277151107788 0.50240272283554077 0.65673911571502686
0.95755565166473389 0.50782710313796997 0.6563725471496582
0.085400164127349854 0.65624654293060303 0.65695405006408691
0.19140486419200897 0.6563725471496582 0.6615944504737854
0.33955618739128113 0.6563725471496582 0.65348178148269653
0.5021095871925354 0.65343970060348511 0.66138237714767456
0.65316241979598999 0.65247780084609985 0.70948302745819092
0.80687373876571655 0.65635150671005249 0.66850429773330688
0.95970779657363892 0.65692496299743652 0.65651619434356689
0.18807271122932434 0.80929255485534668 0.65207618474960327
0.23402079939842224 0.81078433990478516 0.65630453824996948
0.33415001630783081 0.80979454517364502 0.65475386381149292
0.49157992005348206 0.80686277151107788 0.64846032857894897
0.65435159206390381 0.80686277151107788 0.66668915748596191
0.80697083473205566 0.80739927291870117 0.66577798128128052
0.9577597975730896 0.80992776155471802 0.65282356739044189
0.30266305804252625 0.96128314733505249 0.64697873592376709
0.30597606301307678 0.96515953540802002 0.65307027101516724
0.35851746797561646 0.96284395456314087 0.65653938055038452
0.48833376169204712 0.96127450466156006 0.65020912885665894
0.64894473552703857 0.96127450466156006 0.65204286575317383
0.80686277151107788 0.96127450466156006 0.65311676263809204
0.95923036336898804 0.96127450466156006 0.64550095796585083
0.03439413383603096 0.039188563823699951 0.73467183113098145
0.18865935504436493 0.038725491613149643 0.75740069150924683
0.34463304281234741 0.038725491613149643 0.78231614828109741
0.49857434630393982 0.042331933975219727 0.79791724681854248
0.65243929624557495 0.053157776594161987 0.80394405126571655
0.80294120311737061 0.067628525197505951 0.81350880861282349
0.95735293626785278 0.080049164593219757 0.82142764329910278
0.031253889203071594 0.19314970076084137 0.76763236522674561
0.19242894649505615 0.19313725829124451 0.78892821073532104
0.3496684730052948 0.19068647921085358 0.79179477691650391
0.50196081399917603 0.19333174824714661 0.80072188377380371
0.65383875370025635 0.20183379948139191 0.80957376956939697
0.80564200878143311 0.2144310474395752 0.81700271368026733
0.95735293626785278 0.22638052701950073 0.82209736108779907
0.024475935846567154 0.34754902124404907 0.81026309728622437
0.18382957577705383 0.34754902124404907 0.82393735647201538
0.34567871689796448 0.3436274528503418 0.81239873170852661
0.50196081399917603 0.34554234147071838 0.805897057056427
0.65558689832687378 0.35086065530776978 0.80464178323745728
0.80683666467666626 0.35979577898979187 0.80951929092407227
0.95735293626785278 0.36958932876586914 0.81351208686828613
0.024687344208359718 0.50196081399917603 0.82642138004302979
0.1670907735824585 0.50196081399917603 0.8283381462097168
0.3360142707824707 0.50006270408630371 0.81833875179290771
0.50023043155670166 0.50184279680252075 0.80292379856109619
0.65448325872421265 0.50203150510787964 0.79821497201919556
0.80686277151107788 0.50693380832672119 0.80321425199508667
0.95751416683197021 0.51382231712341309 0.80566710233688354
0.074642881751060486 0.6563725471496582 0.80995821952819824
0.17961728572845459 0.6563725471496582 0.81497782468795776
0.33473128080368042 0.65624040365219116 0.81475692987442017
0.50075656175613403 0.6563725471496582 0.80367201566696167
0.6540798544883728 0.655262291431427 0.8234061598777771
0.80686277151107788 0.6555371880531311 0.82550972700119019
0.95794898271560669 0.66054552793502808 0.80848199129104614
0.18596066534519196 0.81078356504440308 0.80519956350326538
0.23612801730632782 0.81078433990478516 0.8105083703994751
0.34079921245574951 0.80686873197555542 0.81171679496765137
0.49504521489143372 0.80686277151107788 0.8053210973739624
0.65403443574905396 0.80686277151107788 0.8241228461265564
0.80606555938720703 0.80523401498794556 0.84362530708312988
0.95734715461730957 0.81013745069503784 0.81635838747024536
0.3134925365447998 0.96137541532516479 0.80807101726531982
0.31656727194786072 0.96188896894454956 0.81078433990478516
0.36466681957244873 0.96127450466156006 0.81080222129821777
0.48829981684684753 0.96127450466156006 0.80453717708587646
0.65182256698608398 0.96127450466156006 0.80658549070358276
0.80859607458114624 0.96127450466156006 0.8194459080696106
0.95805859565734863 0.96127450466156006 0.81367892026901245
0.034361895173788071 0.038865692913532257 0.77027595043182373
0.18529412150382996 0.038725491613149643 0.79431325197219849
0.3415076732635498 0.038806390017271042 0.82356935739517212
0.49763470888137817 0.045578464865684509 0.87287676334381104
0.65163338184356689 0.058780565857887268 0.91420519351959229
0.8043484091758728 0.075437791645526886 0.94393736124038696
0.96016234159469604 0.089877814054489136 0.964496910572052
0.033483259379863739 0.19313725829124451 0.81331032514572144
0.18794827163219452 0.19313725829124451 0.83524990081787109
0.34450018405914307 0.1894908994436264 0.84753501415252686
0.49947690963745117 0.19495198130607605 0.89762657880783081
0.65245097875595093 0.20663353800773621 0.93356883525848389
0.80686205625534058 0.22186225652694702 0.95264112949371338
0.95969206094741821 0.2348988801240921 0.96487849950790405
0.032647810876369476 0.34713751077651978 0.89397281408309937
0.18297064304351807 0.34474474191665649 0.90998810529708862
0.34241637587547302 0.3436274528503418 0.92129498720169067
0.50082361698150635 0.34454190731048584 0.9496452808380127
0.65593385696411133 0.35393592715263367 0.95215648412704468
0.80686277151107788 0.36590266227722168 0.95258587598800659
0.96027988195419312 0.37656831741333008 0.95729273557662964
0.047719873487949371 0.49803921580314636 0.95755523443222046
0.17801596224308014 0.49805536866188049 0.95558696985244751
0.33601319789886475 0.49803921580314636 0.95794284343719482
0.4980526864528656 0.49876159429550171 0.96221649646759033
0.6563725471496582 0.50438302755355835 0.95393460988998413
0.8091437816619873 0.51135653257369995 0.94812959432601929
0.96112513542175293 0.5191575288772583 0.94925886392593384
0.1060471311211586 0.6537964940071106 0.95467907190322876
0.20024789869785309 0.65465867519378662 0.95894151926040649
0.33869904279708862 0.65245097875595093 0.96200358867645264
0.49887886643409729 0.65631413459777832 0.95883727073669434
0.65683501958847046 0.6563725471496582 0.95809662342071533
0.81078433990478516 0.6586233377456665 0.95484298467636108
0.96057301759719849 0.66372573375701904 0.95123195648193359
0.21698147058486938 0.80709624290466309 0.95257103443145752
0.25998833775520325 0.80739378929138184 0.95802265405654907
0.34882482886314392 0.80686277151107788 0.96143001317977905
0.49555468559265137 0.8081287145614624 0.96127450466156006
0.65764832496643066 0.80736255645751953 0.96596509218215942
0.80942553281784058 0.80708855390548706 0.97462683916091919
0.95742529630661011 0.8106226921081543 0.96495646238327026
0.35050296783447266 0.96127450466156006 0.96049779653549194
0.3411591649055481 0.96127450466156006 0.96226745843887329
0.36788955330848694 0.96127450466156006 0.96217364072799683
0.4859311580657959 0.96127450466156006 0.96017265319824219
0.65442276000976562 0.96127450466156006 0.95975089073181152
0.81067866086959839 0.96127450466156006 0.96911013126373291
0.95862495899200439 0.96127450466156006 0.96563708782196045
