assets/lut/pixlsus newspaper.cube
# Created by: G'MIC (https://gmic.eu)
TITLE "newspaper"
# LUT size
LUT_3D_SIZE 7
# Data domain
DOMAIN_MIN 0.0 0.0 0.0
DOMAIN_MAX 1.0 1.0 1.0
# LUT data points
0.14035384356975555 0.11351071298122406 0.12708736956119537
0.25294896960258484 0.10137626528739929 0.12435449659824371
0.35441103577613831 0.11272874474525452 0.14994809031486511
0.46440675854682922 0.13376910984516144 0.18744531273841858
0.53966021537780762 0.14146792888641357 0.20906989276409149
0.62137770652770996 0.16221310198307037 0.23851682245731354
0.69187593460083008 0.16565638780593872 0.25710725784301758
0.10559297353029251 0.16761884093284607 0.088547155261039734
0.25436863303184509 0.2426990270614624 0.12109202891588211
0.48337617516517639 0.33040064573287964 0.20401358604431152
0.59685778617858887 0.33177280426025391 0.24230949580669403
0.64052492380142212 0.30183303356170654 0.24937616288661957
0.69592034816741943 0.29070138931274414 0.26486018300056458
0.76002496480941772 0.28820687532424927 0.28405359387397766
0.14120484888553619 0.27903351187705994 0.12413955479860306
0.34079641103744507 0.36902037262916565 0.16064397990703583
0.38236480951309204 0.37410628795623779 0.16182786226272583
0.57811832427978516 0.46001061797142029 0.23149490356445312
0.71382999420166016 0.4786580502986908 0.28139808773994446
0.77676922082901001 0.45604607462882996 0.29367080330848694
0.82745993137359619 0.43645977973937988 0.30642682313919067
0.18044468760490417 0.40059682726860046 0.1617879718542099
0.37131798267364502 0.47044891119003296 0.18963074684143066
0.4887213408946991 0.49439004063606262 0.19943635165691376
0.5077894926071167 0.50099366903305054 0.20235075056552887
0.64341652393341064 0.54566687345504761 0.24953556060791016
0.77087128162384033 0.56638473272323608 0.29367503523826599
0.87504845857620239 0.57730942964553833 0.32580721378326416
0.2086341381072998 0.48298311233520508 0.19078277051448822
0.36162766814231873 0.53062039613723755 0.20593135058879852
0.53852635622024536 0.58434605598449707 0.22818736732006073
0.57181775569915771 0.57674634456634521 0.2239481657743454
0.58193886280059814 0.57586455345153809 0.22373348474502563
0.70792198181152344 0.62599200010299683 0.26956480741500854
0.82537674903869629 0.65051209926605225 0.31049776077270508
0.22376316785812378 0.55204945802688599 0.208354651927948
0.37219518423080444 0.59665656089782715 0.229615718126297
0.54238390922546387 0.64647042751312256 0.24948446452617645
0.63607066869735718 0.66232585906982422 0.25754621624946594
0.64934086799621582 0.65473872423171997 0.2525850236415863
0.65958666801452637 0.653175950050354 0.24930506944656372
0.77118480205535889 0.7064623236656189 0.28583717346191406
0.2486291229724884 0.62840116024017334 0.23194676637649536
0.38824883103370667 0.66291201114654541 0.24863433837890625
0.54360091686248779 0.70909345149993896 0.26696136593818665
0.67705726623535156 0.73898905515670776 0.28077542781829834
0.72779762744903564 0.73392689228057861 0.27222791314125061
0.72564989328384399 0.72605246305465698 0.26965880393981934
0.73532146215438843 0.73106831312179565 0.27047908306121826
0.17283248901367188 0.11999525129795074 0.2602044939994812
0.32464912533760071 0.13102228939533234 0.31526243686676025
0.42635434865951538 0.1422211080789566 0.31713539361953735
0.52939623594284058 0.16973038017749786 0.33111637830734253
0.58631628751754761 0.15527458488941193 0.32026228308677673
0.65306276082992554 0.16323250532150269 0.33142808079719543
0.71934980154037476 0.17192794382572174 0.34650418162345886
0.15979719161987305 0.25200742483139038 0.25417903065681458
0.34018713235855103 0.32106798887252808 0.32801729440689087
0.56058841943740845 0.38035598397254944 0.41288238763809204
0.65772140026092529 0.36220124363899231 0.40721377730369568
0.68932908773422241 0.32516464591026306 0.37837380170822144
0.73816591501235962 0.31119635701179504 0.37465494871139526
0.78545868396759033 0.31023436784744263 0.38035726547241211
0.17645251750946045 0.3490879237651825 0.25772225856781006
0.40810075402259827 0.43682876229286194 0.32147678732872009
0.45182338356971741 0.44399145245552063 0.32553344964981079
0.63851833343505859 0.50572127103805542 0.39339530467987061
0.75958389043807983 0.50313180685043335 0.41984295845031738
0.81737244129180908 0.48153257369995117 0.41652211546897888
0.8598027229309082 0.45985555648803711 0.41337242722511292
0.21956664323806763 0.46290037035942078 0.29069530963897705
0.42293649911880493 0.5322614312171936 0.33158999681472778
0.54236370325088501 0.55114006996154785 0.3403327465057373
0.56394803524017334 0.55837136507034302 0.34006449580192566
0.68509572744369507 0.58108723163604736 0.37793028354644775
0.80432575941085815 0.59158480167388916 0.41435533761978149
0.90706521272659302 0.59613597393035889 0.4418347179889679
0.2282060980796814 0.52745497226715088 0.29257604479789734
0.39897143840789795 0.5758354663848877 0.31875944137573242
0.57447093725204468 0.62732553482055664 0.3451082706451416
0.61013251543045044 0.62327629327774048 0.34754449129104614
0.63233101367950439 0.62665921449661255 0.34502899646759033
0.74270111322402954 0.65704268217086792 0.38099166750907898
0.85583198070526123 0.67391633987426758 0.41537746787071228
0.24096891283988953 0.59129327535629272 0.29953411221504211
0.39844977855682373 0.63314950466156006 0.32085886597633362
0.56583660840988159 0.67964237928390503 0.35016736388206482
0.66472733020782471 0.69759339094161987 0.35932150483131409
0.68999409675598145 0.69187384843826294 0.3507099449634552
0.69756489992141724 0.69252598285675049 0.3513922393321991
0.80228406190872192 0.73218047618865967 0.38720473647117615
0.27542346715927124 0.66190451383590698 0.31717365980148315
0.40530475974082947 0.69243985414505005 0.33525553345680237
0.56577861309051514 0.73685979843139648 0.36210089921951294
0.70018333196640015 0.76540124416351318 0.37498599290847778
0.74775803089141846 0.76240044832229614 0.3681502640247345
0.75849646329879761 0.7587248682975769 0.36577782034873962
0.76688331365585327 0.76494061946868896 0.36733272671699524
0.20459532737731934 0.13820171356201172 0.36863434314727783
0.43359196186065674 0.19125567376613617 0.44888186454772949
0.4416898787021637 0.13831381499767303 0.43595963716506958
0.54494106769561768 0.15573705732822418 0.4632028341293335
0.62158328294754028 0.16709636151790619 0.44717046618461609
0.6848684549331665 0.17849989235401154 0.44234937429428101
0.74783825874328613 0.18447014689445496 0.44619449973106384
0.26544460654258728 0.35647231340408325 0.49211311340332031
0.56799739599227905 0.45321309566497803 0.58117449283599854
0.59187597036361694 0.39754301309585571 0.58598214387893677
0.6810947060585022 0.37480452656745911 0.58591467142105103
0.71926313638687134 0.34282094240188599 0.51921582221984863
0.76858377456665039 0.32533448934555054 0.49988898634910583
0.81520736217498779 0.31856226921081543 0.48651605844497681
0.20389673113822937 0.37948548793792725 0.37965479493141174
0.45541542768478394 0.47074320912361145 0.46875929832458496
0.46696710586547852 0.45713710784912109 0.4620119035243988
0.66180908679962158 0.5239453911781311 0.56099015474319458
0.79149550199508667 0.52732366323471069 0.56792348623275757
0.85032802820205688 0.50363874435424805 0.55269604921340942
0.89071148633956909 0.46653333306312561 0.5314868688583374
0.2359347939491272 0.48352482914924622 0.41138383746147156
0.45318377017974854 0.55404949188232422 0.46920809149742126
0.572520911693573 0.57719653844833374 0.48882487416267395
0.58883851766586304 0.58326709270477295 0.4870210587978363
0.71322083473205566 0.608542799949646 0.51345479488372803
0.83382159471511841 0.61806094646453857 0.53930413722991943
0.92623740434646606 0.61700230836868286 0.5552070140838623
0.25321310758590698 0.55542099475860596 0.40927189588546753
0.43161293864250183 0.61254030466079712 0.45198842883110046
0.61805319786071777 0.66377639770507812 0.48069325089454651
0.65518438816070557 0.65815448760986328 0.47716587781906128
0.66758555173873901 0.66129666566848755 0.47143679857254028
0.77406913042068481 0.69045913219451904 0.50031989812850952
0.87988871335983276 0.69632339477539062 0.5252031683921814
0.26251059770584106 0.62341552972793579 0.40459373593330383
0.42930176854133606 0.66868990659713745 0.4420434832572937
0.60530728101730347 0.71904909610748291 0.46949630975723267
0.71014928817749023 0.73110973834991455 0.47603794932365417
0.72646439075469971 0.72826224565505981 0.47242054343223572
0.73222321271896362 0.72866922616958618 0.4719994068145752
0.83310258388519287 0.76324939727783203 0.49672091007232666
0.29096269607543945 0.69215971231460571 0.41448879241943359
0.42530721426010132 0.72667300701141357 0.44151905179023743
0.59042036533355713 0.76745206117630005 0.46849933266639709
0.73351371288299561 0.79868680238723755 0.47836348414421082
0.77999907732009888 0.79173469543457031 0.47512072324752808
0.78449058532714844 0.7864719033241272 0.47107282280921936
0.80493783950805664 0.8006712794303894 0.47668164968490601
0.23927149176597595 0.15093120932579041 0.46826654672622681
0.46907389163970947 0.21081648766994476 0.54637306928634644
0.5582115650177002 0.19672545790672302 0.56064945459365845
0.56653863191604614 0.16135634481906891 0.56408250331878662
0.62940073013305664 0.17135113477706909 0.56447792053222656
0.70494252443313599 0.18451903760433197 0.55300718545913696
0.77721679210662842 0.19017675518989563 0.5533415675163269
0.30556201934814453 0.35047894716262817 0.59431308507919312
0.58278608322143555 0.44100478291511536 0.67713022232055664
0.6894075870513916 0.44055438041687012 0.69467610120773315
0.69937121868133545 0.38466882705688477 0.69314229488372803
0.73068749904632568 0.34603092074394226 0.66292279958724976
0.78639578819274902 0.32786598801612854 0.62497818470001221
0.84053236246109009 0.31936672329902649 0.59962934255599976
0.30582717061042786 0.49258151650428772 0.58757966756820679
0.56730717420578003 0.5908389687538147 0.65951865911483765
0.67324429750442505 0.58528488874435425 0.67468953132629395
0.68222391605377197 0.53856170177459717 0.67894548177719116
0.78467839956283569 0.53059929609298706 0.71802288293838501
0.85385680198669434 0.50216591358184814 0.68227857351303101
0.91185718774795532 0.47825607657432556 0.65323054790496826
0.25341376662254333 0.50463628768920898 0.50530380010604858
0.48694297671318054 0.57963335514068604 0.57823681831359863
0.60139983892440796 0.60136908292770386 0.60073405504226685
0.59733766317367554 0.59144985675811768 0.59444797039031982
0.71607798337936401 0.61465394496917725 0.65038752555847168
0.84019595384597778 0.62691795825958252 0.6694939136505127
0.95628184080123901 0.63316422700881958 0.68311506509780884
0.26046848297119141 0.56014448404312134 0.51129496097564697
0.45182943344116211 0.61942398548126221 0.5633004903793335
0.63590472936630249 0.66180408000946045 0.60606586933135986
0.65784084796905518 0.6601371169090271 0.60003077983856201
0.66942578554153442 0.66508477926254272 0.59600198268890381
0.78290861845016479 0.69919192790985107 0.62086743116378784
0.8980373740196228 0.71507471799850464 0.64302152395248413
0.28281459212303162 0.64009124040603638 0.5074923038482666
0.44075345993041992 0.68171197175979614 0.5487983226776123
0.62652468681335449 0.72725832462310791 0.58466416597366333
0.7317543625831604 0.74663883447647095 0.59442055225372314
0.73811978101730347 0.74055832624435425 0.58867728710174561
0.74431389570236206 0.73959386348724365 0.58454060554504395
0.84719556570053101 0.78397804498672485 0.60930353403091431
0.28791022300720215 0.71426558494567871 0.50785458087921143
0.43475663661956787 0.74995452165603638 0.54052501916885376
0.60439932346343994 0.78818291425704956 0.569874107837677
0.75691407918930054 0.81681102514266968 0.58651578426361084
0.81475484371185303 0.82059592008590698 0.58503693342208862
0.81297403573989868 0.81298112869262695 0.58150917291641235
0.82536226511001587 0.82331687211990356 0.5826338529586792
0.27009463310241699 0.16258138418197632 0.54908353090286255
0.45936423540115356 0.2065189927816391 0.6066277027130127
0.62603634595870972 0.23523607850074768 0.64481449127197266
0.63458395004272461 0.20129071176052094 0.63849824666976929
0.63684761524200439 0.16694582998752594 0.63402366638183594
0.70585113763809204 0.17618241906166077 0.66152310371398926
0.77890437841415405 0.19356057047843933 0.65522527694702148
0.31743478775024414 0.32164475321769714 0.64467769861221313
0.52890855073928833 0.38083827495574951 0.70111584663391113
0.72822070121765137 0.42754319310188293 0.74577170610427856
0.73399537801742554 0.38733351230621338 0.74028003215789795
0.73718303442001343 0.33983445167541504 0.73010683059692383
0.79202568531036377 0.33268627524375916 0.74000036716461182
0.84506165981292725 0.32510820031166077 0.71205300092697144
0.35179552435874939 0.49993622303009033 0.7098534107208252
0.5747298002243042 0.57454657554626465 0.76056426763534546
0.79706907272338867 0.63111650943756104 0.81484353542327881
0.7992405891418457 0.57365471124649048 0.80312299728393555
0.82222241163253784 0.53561669588088989 0.8172031044960022
0.86110085248947144 0.50451534986495972 0.80792689323425293
0.91425353288650513 0.48110327124595642 0.77282953262329102
0.31608325242996216 0.56301069259643555 0.63509905338287354
0.51954817771911621 0.64990431070327759 0.69275718927383423
0.73108083009719849 0.71352088451385498 0.74346750974655151
0.73224371671676636 0.66224545240402222 0.73446840047836304
0.74427610635757446 0.62954723834991455 0.7423863410949707
0.85068672895431519 0.63098102807998657 0.79866153001785278
0.95986819267272949 0.63627821207046509 0.80976223945617676
0.27748334407806396 0.58206671476364136 0.58178716897964478
0.47156396508216858 0.63873070478439331 0.63857489824295044
0.67208999395370483 0.6884458065032959 0.68854767084121704
0.68024736642837524 0.68036037683486938 0.67935395240783691
0.6786150336265564 0.67439556121826172 0.67706608772277832
0.78687071800231934 0.70476073026657104 0.74251472949981689
0.90974509716033936 0.72018086910247803 0.76949667930603027
0.2917444109916687 0.64327061176300049 0.60404384136199951
0.45607855916023254 0.68805646896362305 0.64788317680358887
0.64577722549438477 0.73060113191604614 0.69294148683547974
0.74181866645812988 0.74627375602722168 0.7042115330696106
0.73761075735092163 0.73858022689819336 0.69398438930511475
0.74517476558685303 0.74276304244995117 0.69290661811828613
0.85802680253982544 0.78742367029190063 0.72108304500579834
0.30332836508750916 0.71934235095977783 0.60699599981307983
0.45350015163421631 0.75143629312515259 0.64263540506362915
0.62390673160552979 0.79496610164642334 0.66960000991821289
0.7821231484413147 0.82547777891159058 0.69852477312088013
0.81935393810272217 0.82215452194213867 0.69230800867080688
0.80893337726593018 0.80869907140731812 0.68581956624984741
0.82762163877487183 0.82472622394561768 0.68903124332427979
0.29366776347160339 0.17444698512554169 0.61643904447555542
0.45498901605606079 0.21128541231155396 0.66520273685455322
0.63608181476593018 0.2456468939781189 0.7074769139289856
0.71250170469284058 0.24051780998706818 0.71987617015838623
0.71741920709609985 0.21171644330024719 0.71871775388717651
0.71909743547439575 0.18115569651126862 0.71496647596359253
0.78488063812255859 0.19100509583950043 0.7458605170249939
0.3394639790058136 0.31528294086456299 0.6992495059967041
0.50952386856079102 0.35984498262405396 0.74382925033569336
0.71290528774261475 0.40896975994110107 0.79016691446304321
0.78121984004974365 0.39346054196357727 0.79759371280670166
0.79400277137756348 0.36111292243003845 0.79703909158706665
0.79965853691101074 0.32999983429908752 0.79283899068832397
0.8485335111618042 0.32650068402290344 0.80858200788497925
0.3749668300151825 0.48600897192955017 0.77581101655960083
0.56302213668823242 0.54006552696228027 0.82334548234939575
0.78678292036056519 0.59908205270767212 0.87087225914001465
0.86380106210708618 0.58551877737045288 0.87846368551254272
0.87307274341583252 0.54760622978210449 0.87477391958236694
0.87690931558609009 0.50601589679718018 0.871784508228302
0.91495126485824585 0.47743022441864014 0.87956726551055908
0.36501792073249817 0.58963829278945923 0.75858384370803833
0.55711978673934937 0.65443909168243408 0.8087841272354126
0.77396672964096069 0.72220695018768311 0.85769796371459961
0.86244648694992065 0.71497035026550293 0.87172865867614746
0.86406415700912476 0.67137229442596436 0.86500662565231323
0.86977565288543701 0.63879942893981934 0.86837959289550781
0.95617055892944336 0.63324010372161865 0.92469030618667603
0.34308204054832458 0.65103888511657715 0.70119619369506836
0.51898181438446045 0.71695125102996826 0.75029051303863525
0.72570341825485229 0.78489643335342407 0.7997434139251709
0.80780220031738281 0.78725212812423706 0.81065362691879272
0.79476028680801392 0.7446972131729126 0.7949984073638916
0.80335837602615356 0.71315813064575195 0.80219411849975586
0.91373598575592041 0.72307848930358887 0.88046544790267944
0.31050235033035278 0.65954428911209106 0.65965884923934937
0.47970548272132874 0.70764505863189697 0.70850330591201782
0.67533344030380249 0.75286763906478882 0.75216996669769287
0.76212340593338013 0.76458287239074707 0.76409316062927246
0.75674855709075928 0.75628310441970825 0.75604677200317383
0.75525730848312378 0.75221866369247437 0.75433087348937988
0.86398094892501831 0.78957760334014893 0.83426523208618164
0.32135996222496033 0.72031235694885254 0.69346338510513306
0.47303506731987 0.75726240873336792 0.72930896282196045
0.64024537801742554 0.79677706956863403 0.76788556575775146
0.8015514612197876 0.82654815912246704 0.79838603734970093
0.82162356376647949 0.8218567967414856 0.79374855756759644
0.81475687026977539 0.81467211246490479 0.78590267896652222
0.82600349187850952 0.8236197829246521 0.79271453619003296
0.3214104175567627 0.18637309968471527 0.68895334005355835
0.46226370334625244 0.21532003581523895 0.71227550506591797
0.63942563533782959 0.25139322876930237 0.76279920339584351
0.78475028276443481 0.27832239866256714 0.79951751232147217
0.80011296272277832 0.258443683385849 0.80017036199569702
0.7949109673500061 0.22449164092540741 0.79426103830337524
0.79479098320007324 0.19444842636585236 0.79283779859542847
0.35339057445526123 0.31212779879570007 0.75454968214035034
0.50603419542312622 0.35093024373054504 0.78722858428955078
0.68636173009872437 0.39158493280410767 0.82021701335906982
0.84757202863693237 0.42413651943206787 0.86324977874755859
0.85873860120773315 0.3896884024143219 0.86058139801025391
0.85502815246582031 0.3513786792755127 0.85443484783172607
0.85838961601257324 0.33180356025695801 0.85783308744430542
0.38783043622970581 0.46396932005882263 0.82271206378936768
0.55742579698562622 0.51084482669830322 0.86687785387039185
0.74689197540283203 0.55873757600784302 0.90398848056793213
0.91367292404174805 0.58926212787628174 0.93207520246505737
0.92295658588409424 0.54949367046356201 0.92537885904312134
0.92386579513549805 0.51036638021469116 0.92349517345428467
0.91960626840591431 0.48200473189353943 0.9191206693649292
0.41015717387199402 0.60771316289901733 0.86418604850769043
0.58946126699447632 0.66148084402084351 0.91143274307250977
0.78714299201965332 0.71785199642181396 0.95055896043777466
0.95879578590393066 0.750629723072052 0.97564929723739624
0.96349906921386719 0.70592379570007324 0.96545398235321045
0.96577697992324829 0.67206346988677979 0.96559357643127441
0.97796636819839478 0.63969641923904419 0.97666054964065552
0.39553669095039368 0.6825789213180542 0.82324987649917603
0.55781501531600952 0.73757046461105347 0.85515302419662476
0.74833303689956665 0.79860609769821167 0.90191376209259033
0.91834759712219238 0.838917076587677 0.93123400211334229
0.91912984848022461 0.79632186889648438 0.91999471187591553
0.91540729999542236 0.75774186849594116 0.915485680103302
0.92647284269332886 0.72897255420684814 0.92629897594451904
0.36009427905082703 0.73323720693588257 0.77369630336761475
0.52794528007507324 0.78880661725997925 0.81052666902542114
0.70990675687789917 0.84463405609130859 0.85280811786651611
0.86666929721832275 0.87430053949356079 0.87775254249572754
0.87611287832260132 0.86197066307067871 0.87629550695419312
0.86215180158615112 0.82437020540237427 0.86215180158615112
0.87591540813446045 0.79812687635421753 0.87563198804855347
0.33628714084625244 0.73132789134979248 0.73151522874832153
0.49714928865432739 0.77783191204071045 0.7779044508934021
0.66738706827163696 0.81603860855102539 0.81600821018218994
0.82826274633407593 0.84125620126724243 0.84122586250305176
0.84162443876266479 0.84154170751571655 0.84107667207717896
0.8285832405090332 0.82848548889160156 0.82803231477737427
0.82746976613998413 0.8250693678855896 0.82702732086181641
