assets/lut/pixlsus expired 69.cube
# Created by: G'MIC (https://gmic.eu)
TITLE "expired_69"
# LUT size
LUT_3D_SIZE 7
# Data domain
DOMAIN_MIN 0.0 0.0 0.0
DOMAIN_MAX 1.0 1.0 1.0
# LUT data points
0.035047419369220734 0.040115192532539368 0.043806098401546478
0.15018938481807709 0.064023323357105255 0.082729503512382507
0.27207952737808228 0.10023945569992065 0.14298912882804871
0.40769600868225098 0.13368961215019226 0.1891179233789444
0.56387066841125488 0.14048774540424347 0.16264720261096954
0.72688591480255127 0.13325676321983337 0.11386583745479584
0.88081783056259155 0.12241973727941513 0.095817714929580688
0.070929661393165588 0.17926408350467682 0.10075019299983978
0.17830203473567963 0.19225521385669708 0.11715900152921677
0.29088547825813293 0.21745730936527252 0.15743386745452881
0.41589292883872986 0.24360144138336182 0.19547396898269653
0.5668342113494873 0.25646516680717468 0.16982188820838928
0.72839558124542236 0.25443702936172485 0.112137570977211
0.88641548156738281 0.24617727100849152 0.098221749067306519
0.11414080113172531 0.32739531993865967 0.17368400096893311
0.21734060347080231 0.33268773555755615 0.17784674465656281
0.32382577657699585 0.34580335021018982 0.1947970986366272
0.43921679258346558 0.3643418550491333 0.21892836689949036
0.58036917448043823 0.37877443432807922 0.18768647313117981
0.73666417598724365 0.38264721632003784 0.1239001527428627
0.89538168907165527 0.37694525718688965 0.1061309352517128
0.15105791389942169 0.47833529114723206 0.23207338154315948
0.25135120749473572 0.47891297936439514 0.23243026435375214
0.35977047681808472 0.48683968186378479 0.23693974316120148
0.47260138392448425 0.50046169757843018 0.24875451624393463
0.60464662313461304 0.51428318023681641 0.21451123058795929
0.75392156839370728 0.52188116312026978 0.13676492869853973
0.9110906720161438 0.51851803064346313 0.12816011905670166
0.15448352694511414 0.63284313678741455 0.19792097806930542
0.26597604155540466 0.63284313678741455 0.20398992300033569
0.38789406418800354 0.6370469331741333 0.20700532197952271
0.5090179443359375 0.64562481641769409 0.21874198317527771
0.63644057512283325 0.65597891807556152 0.22601830959320068
0.77805531024932861 0.66299700736999512 0.19975125789642334
0.92943185567855835 0.66252678632736206 0.21926231682300568
0.20498745143413544 0.7872549295425415 0.2070067822933197
0.29551288485527039 0.7872549295425415 0.2091204822063446
0.4115576446056366 0.78983515501022339 0.2031291127204895
0.53836745023727417 0.79313486814498901 0.21093915402889252
0.66833829879760742 0.79952800273895264 0.23885847628116608
0.8031611442565918 0.80507755279541016 0.2724548876285553
0.94512647390365601 0.80682897567749023 0.31439617276191711
0.33023837208747864 0.93916839361190796 0.32756707072257996
0.35237401723861694 0.93900859355926514 0.32940369844436646
0.43488842248916626 0.93908232450485229 0.32032319903373718
0.56411153078079224 0.94126838445663452 0.31933635473251343
0.698536217212677 0.94478785991668701 0.34022313356399536
0.83075237274169922 0.94922369718551636 0.37755373120307922
0.9659188985824585 0.95161324739456177 0.42863470315933228
0.037912376224994659 0.049463532865047455 0.16579411923885345
0.15230834484100342 0.072159305214881897 0.19193889200687408
0.27480390667915344 0.10424541682004929 0.24255400896072388
0.41005182266235352 0.1326041966676712 0.28797745704650879
0.56323415040969849 0.14047901332378387 0.2779029905796051
0.72494471073150635 0.13308426737785339 0.22479341924190521
0.88335114717483521 0.12428960204124451 0.13182558119297028
0.071524947881698608 0.18457615375518799 0.20887574553489685
0.17853035032749176 0.19584959745407104 0.22065669298171997
0.29157859086990356 0.21776434779167175 0.25499844551086426
0.41984802484512329 0.24354128539562225 0.29409956932067871
0.56884366273880005 0.25628551840782166 0.28628614544868469
0.72975099086761475 0.25462615489959717 0.22962914407253265
0.88978248834609985 0.24859224259853363 0.15256333351135254
0.11375591903924942 0.3295343816280365 0.2684270441532135
0.21833500266075134 0.33297166228294373 0.27341008186340332
0.32508578896522522 0.34471610188484192 0.28652846813201904
0.4426993727684021 0.36388128995895386 0.31575736403465271
0.58216530084609985 0.37851637601852417 0.3033948540687561
0.73873353004455566 0.38310948014259338 0.23788750171661377
0.89873939752578735 0.37926366925239563 0.15544514358043671
0.15160049498081207 0.4778076708316803 0.33021116256713867
0.25485086441040039 0.47878247499465942 0.32806196808815002
0.36359840631484985 0.48599469661712646 0.33282962441444397
0.47472241520881653 0.49927699565887451 0.35026603937149048
0.60481315851211548 0.51315712928771973 0.33129402995109558
0.75420135259628296 0.52062869071960449 0.24783332645893097
0.91238546371459961 0.51830178499221802 0.15949006378650665
0.16681753098964691 0.63284313678741455 0.31055364012718201
0.27322721481323242 0.63284313678741455 0.30732828378677368
0.39179143309593201 0.63656938076019287 0.30943542718887329
0.50915169715881348 0.64440071582794189 0.32948446273803711
0.63529473543167114 0.65516841411590576 0.33142721652984619
0.77709132432937622 0.66250550746917725 0.27594646811485291
0.92935860157012939 0.66290855407714844 0.22588202357292175
0.22072608768939972 0.7872549295425415 0.2901749312877655
0.30656528472900391 0.7872549295425415 0.28017780184745789
0.41951140761375427 0.78799057006835938 0.27693498134613037
0.54225510358810425 0.79231399297714233 0.29057803750038147
0.67202270030975342 0.79927968978881836 0.28913593292236328
0.80510133504867554 0.80566698312759399 0.30247214436531067
0.9463508129119873 0.80834794044494629 0.30954372882843018
0.33141142129898071 0.93948888778686523 0.33142951130867004
0.37255692481994629 0.93946737051010132 0.33136641979217529
0.45593571662902832 0.939117431640625 0.33402702212333679
0.57646405696868896 0.94075125455856323 0.35063165426254272
0.70780003070831299 0.94440251588821411 0.36474266648292542
0.83556133508682251 0.950095534324646 0.3757757842540741
0.96660053730010986 0.95358830690383911 0.42346298694610596
0.043775804340839386 0.058868080377578735 0.29219573736190796
0.15855966508388519 0.079243600368499756 0.31150877475738525
0.28205925226211548 0.10467768460512161 0.34908914566040039
0.41669026017189026 0.12562626600265503 0.38899046182632446
0.56623262166976929 0.13443179428577423 0.39492863416671753
0.72540402412414551 0.13186955451965332 0.35132524371147156
0.88641911745071411 0.12531077861785889 0.25612309575080872
0.074331231415271759 0.19032131135463715 0.32581782341003418
0.18239125609397888 0.20224557816982269 0.3352150022983551
0.29701393842697144 0.22129477560520172 0.36189135909080505
0.42623770236968994 0.24115520715713501 0.39857697486877441
0.5728486180305481 0.25285908579826355 0.40562605857849121
0.73168516159057617 0.25421133637428284 0.35808199644088745
0.89302307367324829 0.2505054771900177 0.26354807615280151
0.11310826987028122 0.3309321403503418 0.37443968653678894
0.21987542510032654 0.33625105023384094 0.37641146779060364
0.32485157251358032 0.34790444374084473 0.38845890760421753
0.44607660174369812 0.36379498243331909 0.41712623834609985
0.58532768487930298 0.37698036432266235 0.41913935542106628
0.74074876308441162 0.38278910517692566 0.36833742260932922
0.90120583772659302 0.38114103674888611 0.27095982432365417
0.14112135767936707 0.47846332192420959 0.42752328515052795
0.25167363882064819 0.48131081461906433 0.43074598908424377
0.36327928304672241 0.4877941906452179 0.43812191486358643
0.47553983330726624 0.49909427762031555 0.44669309258460999
0.60489165782928467 0.51102292537689209 0.43827208876609802
0.7543906569480896 0.51939266920089722 0.38023486733436584
0.91280877590179443 0.51949292421340942 0.27990460395812988
0.15779715776443481 0.63284313678741455 0.43335768580436707
0.26418769359588623 0.63284313678741455 0.43339216709136963
0.38633480668067932 0.63656783103942871 0.43399083614349365
0.50650936365127563 0.6435580849647522 0.44163128733634949
0.63274198770523071 0.65390050411224365 0.44553601741790771
0.7744782567024231 0.66218405961990356 0.40125003457069397
0.92965686321258545 0.66402369737625122 0.29966312646865845
0.2128269225358963 0.7872549295425415 0.39748960733413696
0.29516205191612244 0.7872549295425415 0.39555245637893677
0.4110884964466095 0.78727525472640991 0.39313480257987976
0.53886497020721436 0.79178249835968018 0.39610013365745544
0.66878825426101685 0.79956358671188354 0.40310823917388916
0.80246531963348389 0.80694460868835449 0.4022563099861145
0.94912678003311157 0.80972188711166382 0.34136435389518738
0.33521068096160889 0.93811166286468506 0.35968518257141113
0.37340477108955383 0.93848037719726562 0.37309116125106812
0.45953801274299622 0.93853330612182617 0.37907811999320984
0.58128803968429565 0.94125109910964966 0.38086852431297302
0.71189683675765991 0.94532305002212524 0.38052216172218323
0.83962255716323853 0.95116519927978516 0.39196634292602539
0.9691004753112793 0.95509546995162964 0.43868452310562134
0.049337469041347504 0.067179284989833832 0.42322990298271179
0.16511167585849762 0.083572298288345337 0.4402109682559967
0.29098424315452576 0.1040145605802536 0.46882724761962891
0.42584130167961121 0.12208117544651031 0.5013192892074585
0.5715179443359375 0.13255420327186584 0.51109057664871216
0.72820508480072021 0.13374251127243042 0.47091138362884521
0.89032697677612305 0.12955275177955627 0.38413557410240173
0.071236103773117065 0.19600038230419159 0.45299780368804932
0.18416507542133331 0.20718713104724884 0.46201238036155701
0.30512037873268127 0.22412560880184174 0.48289710283279419
0.43560394644737244 0.24084794521331787 0.51248800754547119
0.57916545867919922 0.25212958455085754 0.5204959511756897
0.73498046398162842 0.25555711984634399 0.47784355282783508
0.89696043729782104 0.25325143337249756 0.38952574133872986
0.10214702785015106 0.33519542217254639 0.49066197872161865
0.21517282724380493 0.34111285209655762 0.4937172532081604
0.33037319779396057 0.35228842496871948 0.50737625360488892
0.4538942277431488 0.3656083345413208 0.52866280078887939
0.59137088060379028 0.37708568572998047 0.53057104349136353
0.74398517608642578 0.38281875848770142 0.48603719472885132
0.90434783697128296 0.38263580203056335 0.39869675040245056
0.12706169486045837 0.48254376649856567 0.53332120180130005
0.24216260015964508 0.48483973741531372 0.53893935680389404
0.36166960000991821 0.49111777544021606 0.54716169834136963
0.47998803853988647 0.50076472759246826 0.55522793531417847
0.60921144485473633 0.51153093576431274 0.5493626594543457
0.75688284635543823 0.51970511674880981 0.50189369916915894
0.91474348306655884 0.52140682935714722 0.41254016757011414
0.14720451831817627 0.63487392663955688 0.55219537019729614
0.25613725185394287 0.63485527038574219 0.55828362703323364
0.38544133305549622 0.63744336366653442 0.56048977375030518
0.50754350423812866 0.64461672306060791 0.56450998783111572
0.63365042209625244 0.65453344583511353 0.5694153904914856
0.77559411525726318 0.6633419394493103 0.52898788452148438
0.93056213855743408 0.66612321138381958 0.4277912974357605
0.2021675705909729 0.7872549295425415 0.51839983463287354
0.27997726202011108 0.7872549295425415 0.52473539113998413
0.40319973230361938 0.78760349750518799 0.5211065411567688
0.53586649894714355 0.79266512393951416 0.51923227310180664
0.66577088832855225 0.80049633979797363 0.53545546531677246
0.80117905139923096 0.80813890695571899 0.53433811664581299
0.94923198223114014 0.8115696907043457 0.4563126266002655
0.32826799154281616 0.93874835968017578 0.4451775848865509
0.35387730598449707 0.93996483087539673 0.46498164534568787
0.44958785176277161 0.94060498476028442 0.46289914846420288
0.57924109697341919 0.94200760126113892 0.44646206498146057
0.71088337898254395 0.94694483280181885 0.44949397444725037
0.84069204330444336 0.95215100049972534 0.46568423509597778
0.97314774990081787 0.95594298839569092 0.4900529682636261
0.061019957065582275 0.079714350402355194 0.5497276782989502
0.17853699624538422 0.091660834848880768 0.56316131353378296
0.30676394701004028 0.10714121907949448 0.5832255482673645
0.44094720482826233 0.12203102558851242 0.60990697145462036
0.58128601312637329 0.13379731774330139 0.62712687253952026
0.73212367296218872 0.13882739841938019 0.60042482614517212
0.89407634735107422 0.13550771772861481 0.51810675859451294
0.07228127121925354 0.20589344203472137 0.57619041204452515
0.1900753378868103 0.21491450071334839 0.583507239818573
0.31783345341682434 0.22894816100597382 0.59799349308013916
0.45046386122703552 0.2427556961774826 0.62061595916748047
0.59008604288101196 0.25394377112388611 0.63202106952667236
0.74048089981079102 0.25893345475196838 0.60027062892913818
0.90097570419311523 0.25670906901359558 0.52112108469009399
0.095373742282390594 0.34450539946556091 0.60333335399627686
0.21195609867572784 0.34920305013656616 0.60755407810211182
0.3375103771686554 0.3584786057472229 0.61728978157043457
0.4667847752571106 0.36937430500984192 0.63369649648666382
0.60240507125854492 0.37959501147270203 0.63885313272476196
0.74957913160324097 0.38540151715278625 0.60593962669372559
0.90840727090835571 0.38459527492523193 0.52794754505157471
0.12077187746763229 0.48981216549873352 0.63583219051361084
0.23696687817573547 0.49175646901130676 0.64068490266799927
0.36365962028503418 0.4972262978553772 0.64604008197784424
0.48913672566413879 0.50533133745193481 0.65712791681289673
0.61876702308654785 0.51487463712692261 0.65794539451599121
0.76204138994216919 0.52282428741455078 0.62122642993927002
0.9173431396484375 0.52508139610290527 0.54413396120071411
0.15426972508430481 0.63870501518249512 0.65858572721481323
0.26285865902900696 0.63895666599273682 0.66814255714416504
0.39518505334854126 0.64174997806549072 0.67420691251754761
0.51470506191253662 0.64847695827484131 0.67839819192886353
0.63951742649078369 0.65662652254104614 0.68555891513824463
0.78065568208694458 0.66563236713409424 0.64448732137680054
0.93410950899124146 0.66945892572402954 0.56119769811630249
0.21864902973175049 0.79008281230926514 0.64239197969436646
0.29013413190841675 0.79006624221801758 0.65161114931106567
0.41053119301795959 0.79118227958679199 0.65421795845031738
0.53990989923477173 0.79548829793930054 0.65530085563659668
0.66813236474990845 0.80200845003128052 0.66754287481307983
0.80322736501693726 0.80887520313262939 0.66260010004043579
0.95095157623291016 0.81302738189697266 0.59431344270706177
0.32710900902748108 0.94166666269302368 0.58390378952026367
0.35582676529884338 0.94166666269302368 0.58780401945114136
0.44925025105476379 0.94175642728805542 0.5844733715057373
0.57857280969619751 0.9454534649848938 0.57759678363800049
0.71078485250473022 0.94953352212905884 0.5810394287109375
0.84063911437988281 0.95326471328735352 0.59735989570617676
0.97440642118453979 0.95696359872817993 0.59816604852676392
0.087129317224025726 0.10133983939886093 0.65996670722961426
0.20501543581485748 0.10682427138090134 0.66719156503677368
0.33300310373306274 0.11433038115501404 0.67746764421463013
0.46627503633499146 0.12331657856702805 0.69513499736785889
0.60148721933364868 0.13398167490959167 0.71678560972213745
0.74204283952713013 0.14224407076835632 0.71592456102371216
0.89584702253341675 0.14204999804496765 0.65904778242111206
0.091728359460830688 0.22741676867008209 0.67890375852584839
0.21068726480007172 0.23090320825576782 0.68259638547897339
0.34093070030212402 0.23730987310409546 0.6894763708114624
0.47484609484672546 0.2455262690782547 0.70460611581802368
0.60995244979858398 0.25531339645385742 0.72065746784210205
0.75118374824523926 0.26261007785797119 0.71127462387084961
0.90386426448822021 0.26345378160476685 0.65732288360595703
0.10405493527650833 0.36130478978157043 0.69689327478408813
0.22375833988189697 0.36246687173843384 0.69801110029220581
0.35480132699012756 0.36689293384552002 0.70223462581634521
0.48811110854148865 0.37341192364692688 0.71377444267272949
0.62112808227539062 0.38206550478935242 0.72615838050842285
0.75836288928985596 0.39021554589271545 0.72029858827590942
0.91019672155380249 0.39165452122688293 0.66598021984100342
0.12401935458183289 0.5016254186630249 0.71972370147705078
0.24338404834270477 0.50203597545623779 0.72093826532363892
0.37419900298118591 0.50540828704833984 0.7219664454460144
0.50555509328842163 0.51064467430114746 0.72991019487380981
0.63569676876068115 0.51786547899246216 0.73898017406463623
0.77011442184448242 0.52694952487945557 0.73500555753707886
0.91814887523651123 0.53173613548278809 0.68453419208526611
0.16027779877185822 0.64652907848358154 0.74572384357452393
0.27073529362678528 0.64669418334960938 0.75057166814804077
0.40026086568832397 0.6496729850769043 0.75322926044464111
0.52694487571716309 0.65464991331100464 0.75531697273254395
0.65319657325744629 0.66063714027404785 0.76073634624481201
0.78904467821121216 0.66742956638336182 0.75143039226531982
0.93751078844070435 0.67376339435577393 0.69209015369415283
0.23465391993522644 0.79356479644775391 0.76035714149475098
0.30302384495735168 0.79456144571304321 0.76168948411941528
0.42345169186592102 0.7969089150428772 0.77027219533920288
0.55071818828582764 0.8002314567565918 0.77274268865585327
0.67766112089157104 0.80535286664962769 0.77421700954437256
0.80945926904678345 0.81025534868240356 0.77302330732345581
0.95559513568878174 0.81569778919219971 0.71572613716125488
0.3464198112487793 0.94534552097320557 0.72033059597015381
0.36559903621673584 0.94549298286437988 0.71685409545898438
0.4543764591217041 0.94573801755905151 0.71597385406494141
0.58401763439178467 0.94913744926452637 0.7208130955696106
0.71643680334091187 0.95354545116424561 0.71767348051071167
0.84478902816772461 0.95577728748321533 0.72764319181442261
0.97655385732650757 0.95947462320327759 0.71415096521377563
0.12477818131446838 0.12428126484155655 0.7541203498840332
0.24101853370666504 0.12347166985273361 0.75289320945739746
0.36739861965179443 0.1227467879652977 0.75230294466018677
0.5003739595413208 0.12471599131822586 0.75577265024185181
0.63493543863296509 0.13025932013988495 0.76419728994369507
0.76705443859100342 0.14000041782855988 0.78160065412521362
0.90608662366867065 0.14630503952503204 0.77360200881958008
0.12359767407178879 0.2500910758972168 0.76413810253143311
0.24291642010211945 0.24868187308311462 0.76163262128829956
0.3734307587146759 0.24733898043632507 0.75986385345458984
0.50785571336746216 0.24897468090057373 0.76469355821609497
0.64063233137130737 0.25535422563552856 0.77736175060272217
0.77306246757507324 0.2646118700504303 0.78857129812240601
0.91340011358261108 0.27038052678108215 0.77353501319885254
0.12787599861621857 0.3797033429145813 0.77262884378433228
0.25026386976242065 0.3779548704624176 0.76923155784606934
0.38391587138175964 0.3765924870967865 0.7670518159866333
0.51938974857330322 0.37751495838165283 0.77104151248931885
0.65095847845077515 0.38335955142974854 0.78308480978012085
0.78090929985046387 0.39263767004013062 0.79643619060516357
0.9196850061416626 0.39962288737297058 0.7820354700088501
0.13999040424823761 0.51602011919021606 0.78445827960968018
0.26587104797363281 0.51441699266433716 0.78230959177017212
0.4002358615398407 0.51427507400512695 0.77953386306762695
0.53369009494781494 0.51564401388168335 0.78043454885482788
0.665516197681427 0.51907473802566528 0.78692430257797241
0.79502850770950317 0.52674227952957153 0.80075472593307495
0.92901420593261719 0.53661918640136719 0.79703432321548462
0.16463515162467957 0.65794980525970459 0.80021506547927856
0.29216888546943665 0.65655064582824707 0.80331599712371826
0.42181748151779175 0.65838932991027832 0.80193233489990234
0.55121403932571411 0.66056007146835327 0.80070304870605469
0.68053025007247925 0.6634596586227417 0.80436033010482788
0.8101266622543335 0.66919505596160889 0.81805211305618286
0.94281834363937378 0.67829036712646484 0.8168405294418335
0.23509533703327179 0.80279314517974854 0.82261103391647339
0.31518363952636719 0.80319631099700928 0.82438665628433228
0.43979883193969727 0.80573374032974243 0.8265756368637085
0.57009780406951904 0.80732089281082153 0.82768875360488892
0.69859528541564941 0.81035822629928589 0.82804793119430542
0.82977956533432007 0.81327533721923828 0.83489012718200684
0.96166884899139404 0.82004600763320923 0.83236002922058105
0.35561919212341309 0.94982093572616577 0.83166259527206421
0.36655125021934509 0.94959676265716553 0.83543473482131958
0.46731925010681152 0.95171219110488892 0.83474838733673096
0.59560054540634155 0.95295721292495728 0.83751481771469116
0.72279691696166992 0.95496350526809692 0.84268277883529663
0.85495191812515259 0.96072548627853394 0.84380418062210083
0.97644364833831787 0.96335494518280029 0.8421514630317688
