assets/lut/pixlsus delicatessen.cube
# Created by: G'MIC (https://gmic.eu)
TITLE "delicatessen"
# LUT size
LUT_3D_SIZE 7
# Data domain
DOMAIN_MIN 0.0 0.0 0.0
DOMAIN_MAX 1.0 1.0 1.0
# LUT data points
0.055500268936157227 0.059990692883729935 0.055707205086946487
0.15491883456707001 0.092222951352596283 0.085008330643177032
0.27861177921295166 0.10045298933982849 0.10769645869731903
0.44986739754676819 0.083080247044563293 0.10193531960248947
0.64122211933135986 0.06643204391002655 0.10870374739170074
0.79610365629196167 0.060092370957136154 0.13504171371459961
0.91324633359909058 0.05318119004368782 0.1502050906419754
0.08453071117401123 0.15461714565753937 0.084480777382850647
0.16468961536884308 0.167253777384758 0.068491019308567047
0.31093320250511169 0.16951940953731537 0.065226972103118896
0.48266276717185974 0.16361552476882935 0.05041256919503212
0.65968269109725952 0.16316966712474823 0.079427517950534821
0.81115621328353882 0.15902218222618103 0.12517473101615906
0.91496133804321289 0.16047407686710358 0.14886267483234406
0.13702169060707092 0.27293252944946289 0.098996259272098541
0.1990569531917572 0.29252898693084717 0.066910825669765472
0.31683409214019775 0.31592819094657898 0.047182794660329819
0.49639484286308289 0.31218305230140686 0.045955687761306763
0.66240477561950684 0.3103906512260437 0.048856519162654877
0.7967795729637146 0.31200715899467468 0.097921796143054962
0.88074088096618652 0.31343486905097961 0.12832456827163696
0.19904685020446777 0.39650693535804749 0.091420039534568787
0.27278789877891541 0.41017505526542664 0.073566481471061707
0.34313568472862244 0.44899865984916687 0.058896470814943314
0.48814576864242554 0.486063152551651 0.041519764810800552
0.66520565748214722 0.49133127927780151 0.052578255534172058
0.80755460262298584 0.48350867629051208 0.067126721143722534
0.88944321870803833 0.50479495525360107 0.098077200353145599
0.23906552791595459 0.51881980895996094 0.075465165078639984
0.31532472372055054 0.51491343975067139 0.079630620777606964
0.40710145235061646 0.54245376586914062 0.069890238344669342
0.52511823177337646 0.59613233804702759 0.066426761448383331
0.68081420660018921 0.61960327625274658 0.063001431524753571
0.83755111694335938 0.64708185195922852 0.050503838807344437
0.91370844841003418 0.67070871591567993 0.089003093540668488
0.23814813792705536 0.62078899145126343 0.075074680149555206
0.3222028911113739 0.61622732877731323 0.076477125287055969
0.42515060305595398 0.61905783414840698 0.078027896583080292
0.54093444347381592 0.64316630363464355 0.084792986512184143
0.69001162052154541 0.67471885681152344 0.091074533760547638
0.83737951517105103 0.70853787660598755 0.090317323803901672
0.93819266557693481 0.76591706275939941 0.15202620625495911
0.22458824515342712 0.73091548681259155 0.064639195799827576
0.31852620840072632 0.70827257633209229 0.076564565300941467
0.4239165186882019 0.70833486318588257 0.081441529095172882
0.54558479785919189 0.72116273641586304 0.086869530379772186
0.68954527378082275 0.74640536308288574 0.099690109491348267
0.83069777488708496 0.78372782468795776 0.11412914842367172
0.94324105978012085 0.8330845832824707 0.16584588587284088
0.079142972826957703 0.10490276664495468 0.15386691689491272
0.17570333182811737 0.11342813819646835 0.17470917105674744
0.29846078157424927 0.10502612590789795 0.1901727020740509
0.4624800980091095 0.084319233894348145 0.19032004475593567
0.64066463708877563 0.079091452062129974 0.18529312312602997
0.80962467193603516 0.069937221705913544 0.18421769142150879
0.92653137445449829 0.060171522200107574 0.19145633280277252
0.074094094336032867 0.16061213612556458 0.16083787381649017
0.17791794240474701 0.17562797665596008 0.17697367072105408
0.31497779488563538 0.17130489647388458 0.18030105531215668
0.48195275664329529 0.16632340848445892 0.17949557304382324
0.65599387884140015 0.16333098709583282 0.17688663303852081
0.8233952522277832 0.15440303087234497 0.17825300991535187
0.94625365734100342 0.15621079504489899 0.19455848634243011
0.11134782433509827 0.28067627549171448 0.18789249658584595
0.18237671256065369 0.30313819646835327 0.18356367945671082
0.31721210479736328 0.31524381041526794 0.17615808546543121
0.4826464056968689 0.31416749954223633 0.17608021199703217
0.65148389339447021 0.31416842341423035 0.17911773920059204
0.8177068829536438 0.31089287996292114 0.18076895177364349
0.92788636684417725 0.30769330263137817 0.20330609381198883
0.17715531587600708 0.39472204446792603 0.19668422639369965
0.25704595446586609 0.41431286931037903 0.19406120479106903
0.33938086032867432 0.4506804347038269 0.1794806569814682
0.4844839870929718 0.48988041281700134 0.16968326270580292
0.6643633246421814 0.49504449963569641 0.17212459444999695
0.82563775777816772 0.49577200412750244 0.17264798283576965
0.92422878742218018 0.50511294603347778 0.18866018950939178
0.22341707348823547 0.50229901075363159 0.20038284361362457
0.304878830909729 0.5095294713973999 0.19723914563655853
0.4010787308216095 0.54035085439682007 0.18512336909770966
0.52042466402053833 0.59106981754302979 0.17082184553146362
0.68716585636138916 0.63315039873123169 0.16905876994132996
0.84342700242996216 0.67645823955535889 0.16090461611747742
0.93400603532791138 0.68938088417053223 0.17783792316913605
0.22676524519920349 0.60882019996643066 0.19456908106803894
0.31805995106697083 0.59979820251464844 0.19392290711402893
0.42508992552757263 0.61319917440414429 0.18925300240516663
0.54097795486450195 0.64151197671890259 0.18579535186290741
0.69594669342041016 0.68596994876861572 0.18468408286571503
0.83593106269836426 0.73724651336669922 0.19622986018657684
0.95325881242752075 0.80516338348388672 0.21005266904830933
0.21322792768478394 0.72064071893692017 0.19046762585639954
0.31202849745750427 0.69989275932312012 0.18815723061561584
0.41994613409042358 0.69952636957168579 0.18678209185600281
0.54501277208328247 0.7150808572769165 0.19166120886802673
0.69452285766601562 0.74761956930160522 0.20426927506923676
0.83074402809143066 0.79141664505004883 0.22344380617141724
0.94609278440475464 0.84713578224182129 0.25657922029495239
0.092392988502979279 0.14738015830516815 0.2735251784324646
0.18680159747600555 0.14924663305282593 0.29431232810020447
0.31952789425849915 0.13473571836948395 0.30168619751930237
0.48965483903884888 0.11495443433523178 0.30476725101470947
0.65147924423217773 0.11833272874355316 0.30791750550270081
0.80266207456588745 0.11644489318132401 0.28876811265945435
0.92136263847351074 0.131039097905159 0.27569520473480225
0.085584960877895355 0.18156872689723969 0.28538250923156738
0.17786458134651184 0.18152083456516266 0.30767697095870972
0.3142838180065155 0.17807640135288239 0.31245309114456177
0.48465731739997864 0.1689206063747406 0.31907844543457031
0.66095602512359619 0.17557968199253082 0.31842526793479919
0.82055097818374634 0.17779973149299622 0.30735552310943604
0.93656033277511597 0.18446382880210876 0.29463213682174683
0.083896726369857788 0.30172345042228699 0.31548348069190979
0.18311741948127747 0.3149293065071106 0.3204420804977417
0.31700974702835083 0.31271225214004517 0.31669497489929199
0.47919288277626038 0.31518304347991943 0.31888565421104431
0.65386176109313965 0.31162533164024353 0.32067668437957764
0.82498228549957275 0.30546456575393677 0.32229974865913391
0.95655804872512817 0.3007483184337616 0.32339015603065491
0.15905316174030304 0.39988282322883606 0.33192098140716553
0.24314145743846893 0.42445763945579529 0.32963088154792786
0.34102970361709595 0.45419946312904358 0.32528671622276306
0.48077967762947083 0.49243283271789551 0.31607732176780701
0.66950201988220215 0.49677267670631409 0.31395125389099121
0.82977956533432007 0.49662366509437561 0.31931081414222717
0.95719552040100098 0.50055783987045288 0.32004335522651672
0.20580698549747467 0.49838000535964966 0.33784794807434082
0.28778767585754395 0.50903487205505371 0.33593478798866272
0.39132630825042725 0.53886723518371582 0.33195093274116516
0.51904875040054321 0.59414565563201904 0.31547817587852478
0.68799328804016113 0.65434062480926514 0.31066793203353882
0.84498602151870728 0.68900734186172485 0.31526738405227661
0.95654302835464478 0.69439965486526489 0.33520996570587158
0.21240262687206268 0.60291844606399536 0.33957883715629578
0.30364859104156494 0.59827315807342529 0.33593672513961792
0.41140028834342957 0.61302030086517334 0.33268016576766968
0.54073482751846313 0.64459335803985596 0.32468482851982117
0.70272964239120483 0.69943666458129883 0.32125428318977356
0.84496778249740601 0.77226012945175171 0.34380745887756348
0.95723789930343628 0.83744043111801147 0.35934710502624512
0.19905957579612732 0.71243733167648315 0.33888980746269226
0.29890349507331848 0.69980639219284058 0.33225643634796143
0.4085853099822998 0.70055109262466431 0.33017823100090027
0.54846274852752686 0.71202963590621948 0.32684212923049927
0.70366394519805908 0.75679260492324829 0.33269521594047546
0.83969700336456299 0.81295007467269897 0.35570523142814636
0.95643937587738037 0.87855744361877441 0.38398519158363342
0.084170922636985779 0.19242256879806519 0.42648938298225403
0.17791986465454102 0.19839780032634735 0.42926093935966492
0.31428667902946472 0.19226595759391785 0.42420759797096252
0.47845706343650818 0.17217209935188293 0.42595669627189636
0.63620531558990479 0.16790381073951721 0.40788325667381287
0.77992886304855347 0.17296124994754791 0.38196158409118652
0.90650314092636108 0.17783741652965546 0.37588909268379211
0.078317441046237946 0.22566525638103485 0.4396471381187439
0.17296706140041351 0.23846819996833801 0.4455668032169342
0.31139808893203735 0.25099816918373108 0.43839576840400696
0.48139020800590515 0.23053573071956635 0.43681421875953674
0.65028148889541626 0.21790947020053864 0.43639859557151794
0.7913053035736084 0.23876515030860901 0.39821973443031311
0.91142851114273071 0.24604666233062744 0.38821741938591003
0.075510613620281219 0.30942133069038391 0.47439634799957275
0.18359723687171936 0.31881117820739746 0.47516635060310364
0.31694242358207703 0.33126875758171082 0.46626606583595276
0.48366644978523254 0.33341202139854431 0.45640325546264648
0.65772908926010132 0.32497745752334595 0.45812895894050598
0.81012564897537231 0.3353005051612854 0.44151237607002258
0.92895567417144775 0.34772869944572449 0.42230263352394104
0.13587573170661926 0.4242110550403595 0.49571162462234497
0.22713105380535126 0.44845250248908997 0.49310865998268127
0.34233644604682922 0.47099724411964417 0.48743262887001038
0.49137851595878601 0.48405680060386658 0.47694125771522522
0.66631484031677246 0.49637359380722046 0.46232849359512329
0.82777327299118042 0.50632452964782715 0.46493381261825562
0.95640093088150024 0.51138228178024292 0.47474545240402222
0.18006108701229095 0.50771939754486084 0.5040740966796875
0.26454797387123108 0.51921778917312622 0.50000101327896118
0.37749987840652466 0.55436772108078003 0.50266021490097046
0.51456981897354126 0.58983582258224487 0.4965040385723114
0.69433337450027466 0.64748293161392212 0.49120849370956421
0.8465082049369812 0.69600945711135864 0.5068555474281311
0.96447563171386719 0.70155888795852661 0.51863855123519897
0.19666977226734161 0.59957104921340942 0.50607603788375854
0.2805752158164978 0.60028988122940063 0.49108874797821045
0.38879507780075073 0.61663150787353516 0.49844548106193542
0.53636550903320312 0.64914023876190186 0.4970855712890625
0.69989043474197388 0.70742535591125488 0.49394229054450989
0.84740513563156128 0.78598427772521973 0.52122646570205688
0.96552896499633789 0.84692931175231934 0.54197925329208374
0.17531514167785645 0.70137715339660645 0.50655114650726318
0.27667915821075439 0.69497048854827881 0.49822691082954407
0.38727903366088867 0.70449399948120117 0.49721139669418335
0.5347408652305603 0.72637331485748291 0.49314656853675842
0.69735324382781982 0.76826947927474976 0.49171781539916992
0.84343767166137695 0.82851022481918335 0.51878279447555542
0.9650580883026123 0.92728209495544434 0.54349195957183838
0.081955946981906891 0.22371593117713928 0.56654518842697144
0.18141958117485046 0.23319457471370697 0.55985444784164429
0.31129372119903564 0.23166376352310181 0.54529625177383423
0.46165788173675537 0.21705013513565063 0.52460598945617676
0.61760860681533813 0.20220045745372772 0.49799135327339172
0.75603586435317993 0.20036086440086365 0.48021644353866577
0.88627773523330688 0.2040301114320755 0.46969562768936157
0.10630039870738983 0.28675708174705505 0.57777446508407593
0.18413713574409485 0.30486840009689331 0.56911790370941162
0.30794265866279602 0.30962559580802917 0.54755979776382446
0.45997437834739685 0.29547744989395142 0.52677804231643677
0.62352281808853149 0.27322441339492798 0.49816760420799255
0.75972789525985718 0.27572900056838989 0.4835146963596344
0.8860245943069458 0.2812940776348114 0.47466528415679932
0.08690788596868515 0.34085693955421448 0.62239181995391846
0.19151809811592102 0.37837445735931396 0.60207325220108032
0.31649091839790344 0.3871302604675293 0.58042335510253906
0.46929159760475159 0.39418748021125793 0.54036122560501099
0.63025295734405518 0.3925158679485321 0.52170717716217041
0.77631300687789917 0.39617902040481567 0.50611686706542969
0.90001416206359863 0.39793366193771362 0.49370953440666199
0.12330940365791321 0.45258867740631104 0.65360909700393677
0.21153013408184052 0.47166919708251953 0.6494828462600708
0.33438855409622192 0.49871858954429626 0.63676649332046509
0.47571980953216553 0.52554851770401001 0.59048944711685181
0.63979589939117432 0.53855669498443604 0.55334562063217163
0.79640626907348633 0.54947859048843384 0.53384929895401001
0.91705399751663208 0.55896806716918945 0.53819799423217773
0.16338899731636047 0.52008199691772461 0.66385966539382935
0.24626938998699188 0.53982937335968018 0.65853416919708252
0.36173778772354126 0.57359021902084351 0.65671622753143311
0.51031726598739624 0.61741453409194946 0.63747453689575195
0.67456865310668945 0.66238760948181152 0.62195044755935669
0.82477158308029175 0.70565629005432129 0.60746723413467407
0.93697154521942139 0.71722644567489624 0.60871565341949463
0.16680200397968292 0.59869235754013062 0.6631702184677124
0.25572490692138672 0.60852473974227905 0.64890933036804199
0.36746898293495178 0.62603843212127686 0.65051728487014771
0.51908636093139648 0.66724467277526855 0.64288103580474854
0.67887365818023682 0.72326135635375977 0.64223456382751465
0.83332067728042603 0.79365688562393188 0.66386067867279053
0.96025031805038452 0.84869712591171265 0.68716037273406982
0.15094326436519623 0.69622135162353516 0.65887165069580078
0.25164419412612915 0.69604432582855225 0.65050631761550903
0.36511296033859253 0.7070271372795105 0.64930438995361328
0.52067267894744873 0.743938148021698 0.6443474292755127
0.67961609363555908 0.78610330820083618 0.65248274803161621
0.83340609073638916 0.84001994132995605 0.67236965894699097
0.96305167675018311 0.93819659948348999 0.70463907718658447
0.08763517439365387 0.23921304941177368 0.67687797546386719
0.18847563862800598 0.25280210375785828 0.66967427730560303
0.31544709205627441 0.24779346585273743 0.65162986516952515
0.4625602662563324 0.22660544514656067 0.6157526969909668
0.61139035224914551 0.21022062003612518 0.58680373430252075
0.74693816900253296 0.20786941051483154 0.57605600357055664
0.87583404779434204 0.20430129766464233 0.57294279336929321
0.1285204291343689 0.32098907232284546 0.68398928642272949
0.19097045063972473 0.33828175067901611 0.67968559265136719
0.3111722469329834 0.33571213483810425 0.65169715881347656
0.45665189623832703 0.3145822286605835 0.61603361368179321
0.60989212989807129 0.2971358597278595 0.58738952875137329
0.7506721019744873 0.28896737098693848 0.56698012351989746
0.87313270568847656 0.29195505380630493 0.56850099563598633
0.13621164858341217 0.39405465126037598 0.71741628646850586
0.19716016948223114 0.41523835062980652 0.71048754453659058
0.32065871357917786 0.42416241765022278 0.67947572469711304
0.45140257477760315 0.42002835869789124 0.64193403720855713
0.610798180103302 0.41474407911300659 0.61449635028839111
0.7581220269203186 0.41692289710044861 0.58965981006622314
0.88667958974838257 0.41303011775016785 0.57876724004745483
0.11805611103773117 0.46914485096931458 0.76841503381729126
0.21533532440662384 0.48363575339317322 0.74855703115463257
0.33855226635932922 0.52936089038848877 0.73665183782577515
0.46800914406776428 0.54551857709884644 0.70362132787704468
0.62720316648483276 0.55282449722290039 0.6556084156036377
0.77744424343109131 0.56083124876022339 0.62508171796798706
0.9017520546913147 0.56287652254104614 0.60998505353927612
0.14090955257415771 0.52506053447723389 0.76897674798965454
0.23294569551944733 0.54665994644165039 0.76232409477233887
0.35417833924293518 0.58926677703857422 0.76797086000442505
0.4964730441570282 0.63212013244628906 0.75668233633041382
0.65747654438018799 0.67088639736175537 0.71319317817687988
0.80190539360046387 0.69966310262680054 0.67959785461425781
0.91950398683547974 0.71969509124755859 0.66499036550521851
0.14605313539505005 0.59944432973861694 0.77320587635040283
0.24206271767616272 0.61619120836257935 0.76452678442001343
0.35693380236625671 0.63691467046737671 0.76317667961120605
0.5032193660736084 0.6803734302520752 0.75596678256988525
0.66825324296951294 0.74347859621047974 0.7436484694480896
0.81208503246307373 0.79967832565307617 0.73716992139816284
0.93817555904388428 0.84423947334289551 0.73162651062011719
0.13585907220840454 0.69812804460525513 0.77588295936584473
0.23788025975227356 0.70270591974258423 0.76775604486465454
0.35317176580429077 0.71122294664382935 0.76497924327850342
0.50558018684387207 0.75259232521057129 0.75754475593566895
0.66637730598449707 0.80612528324127197 0.75257903337478638
0.81470733880996704 0.85682970285415649 0.75547689199447632
0.95432668924331665 0.94398730993270874 0.80381029844284058
0.079862229526042938 0.22525002062320709 0.77222216129302979
0.19015324115753174 0.24621313810348511 0.77316462993621826
0.31601384282112122 0.24339810013771057 0.75249332189559937
0.45672565698623657 0.21414312720298767 0.7205355167388916
0.60354852676391602 0.20062658190727234 0.69079709053039551
0.75212013721466064 0.18738341331481934 0.67900413274765015
0.88151174783706665 0.1801798939704895 0.6904599666595459
0.088665828108787537 0.31441423296928406 0.76279383897781372
0.19008642435073853 0.33877316117286682 0.76124840974807739
0.31508365273475647 0.33948349952697754 0.74630880355834961
0.45430976152420044 0.32203271985054016 0.71152740716934204
0.60400456190109253 0.30279859900474548 0.684722900390625
0.75258886814117432 0.28478047251701355 0.67319554090499878
0.88125753402709961 0.2844509482383728 0.67859208583831787
0.10789384692907333 0.39791786670684814 0.77826148271560669
0.20112980902194977 0.42346760630607605 0.77251005172729492
0.32238578796386719 0.43630000948905945 0.76229745149612427
0.45450234413146973 0.43045631051063538 0.73001128435134888
0.60958671569824219 0.42259180545806885 0.70263320207595825
0.75692015886306763 0.41727057099342346 0.68402254581451416
0.88468849658966064 0.41995924711227417 0.6816290020942688
0.12391430884599686 0.47219070792198181 0.80685633420944214
0.22347961366176605 0.49689444899559021 0.79481667280197144
0.34050333499908447 0.52521014213562012 0.79013961553573608
0.47053492069244385 0.54498326778411865 0.76675504446029663
0.62197363376617432 0.5506904125213623 0.73435813188552856
0.77170145511627197 0.55084627866744995 0.71668356657028198
0.90289419889450073 0.56189608573913574 0.70394366979598999
0.14880850911140442 0.53752517700195312 0.81925910711288452
0.22795981168746948 0.55452239513397217 0.81847310066223145
0.35208150744438171 0.59443217515945435 0.81217849254608154
0.49471068382263184 0.63368171453475952 0.80023330450057983
0.65023744106292725 0.67266356945037842 0.78323972225189209
0.79172736406326294 0.68886691331863403 0.75480192899703979
0.91273850202560425 0.71303123235702515 0.73703294992446899
0.14330671727657318 0.60980558395385742 0.83683562278747559
0.23755306005477905 0.62615311145782471 0.82656502723693848
0.35271066427230835 0.64905416965484619 0.82126444578170776
0.49369040131568909 0.69151097536087036 0.81790810823440552
0.66264307498931885 0.75664931535720825 0.81679040193557739
0.8099706768989563 0.80420339107513428 0.80189919471740723
0.93063145875930786 0.8389546275138855 0.78651577234268188
0.12557762861251831 0.70836120843887329 0.85261273384094238
0.23352792859077454 0.71519380807876587 0.84429687261581421
0.35285907983779907 0.72652024030685425 0.83618974685668945
0.49395519495010376 0.76521050930023193 0.83234000205993652
0.66397058963775635 0.81964713335037231 0.8247789740562439
0.81235665082931519 0.87447679042816162 0.82414823770523071
0.94334417581558228 0.93591523170471191 0.83267670869827271
