assets/lut/pixlsus progressen.cube
# Created by: G'MIC (https://gmic.eu)
TITLE "progressen"
# LUT size
LUT_3D_SIZE 7
# Data domain
DOMAIN_MIN 0.0 0.0 0.0
DOMAIN_MAX 1.0 1.0 1.0
# LUT data points
0.019312584772706032 0.019229933619499207 0.02245819941163063
0.084524728357791901 0.037092320621013641 0.035335436463356018
0.20069108903408051 0.031914476305246353 0.043181579560041428
0.39648851752281189 0.011748848482966423 0.029586507007479668
0.62533658742904663 0.0088487360626459122 0.036681726574897766
0.80010616779327393 0.014477748423814774 0.072432033717632294
0.91041499376296997 0.0087526654824614525 0.093126006424427032
0.034882906824350357 0.068984463810920715 0.039103340357542038
0.080353185534477234 0.089450553059577942 0.020886261016130447
0.22733891010284424 0.10777738690376282 0.010922255925834179
0.42488381266593933 0.11016926169395447 0.0078145796433091164
0.63384300470352173 0.10601549595594406 0.014315167441964149
0.79744535684585571 0.1011403426527977 0.050597801804542542
0.90201258659362793 0.086944028735160828 0.078425265848636627
0.075179018080234528 0.18029977381229401 0.062671616673469543
0.093451768159866333 0.17862492799758911 0.050879728049039841
0.21994979679584503 0.24605545401573181 0.011970235966145992
0.43176749348640442 0.26899299025535583 0.0038970648311078548
0.61667239665985107 0.25576800107955933 0.0062095341272652149
0.76846915483474731 0.2562468945980072 0.021769355982542038
0.86276346445083618 0.2584177553653717 0.049858737736940384
0.12005890160799026 0.31803601980209351 0.06210639700293541
0.16426067054271698 0.31822466850280762 0.059272047132253647
0.19337759912014008 0.33678680658340454 0.057776745408773422
0.39904952049255371 0.44554585218429565 0.0077071245759725571
0.63745838403701782 0.47942438721656799 0.0039215688593685627
0.77644699811935425 0.45725813508033752 0.0092065697535872459
0.86679518222808838 0.46656271815299988 0.021948346868157387
0.15780337154865265 0.45680323243141174 0.057023860514163971
0.22052948176860809 0.44822782278060913 0.052849415689706802
0.28288024663925171 0.46013990044593811 0.05236155167222023
0.39128789305686951 0.52997976541519165 0.022305132821202278
0.63548123836517334 0.62677925825119019 0.013297750614583492
0.83143150806427002 0.6655583381652832 0.0071525275707244873
0.91551703214645386 0.69357061386108398 0.012237668968737125
0.1682082861661911 0.57715904712677002 0.06055716797709465
0.23981882631778717 0.56177490949630737 0.054307166486978531
0.32498067617416382 0.56687390804290771 0.046066224575042725
0.45088395476341248 0.60348868370056152 0.038164369761943817
0.64195376634597778 0.66821926832199097 0.036556556820869446
0.83315056562423706 0.73000150918960571 0.0285924281924963
0.94119811058044434 0.79456853866577148 0.049481678754091263
0.1573488712310791 0.69502925872802734 0.048576220870018005
0.24318349361419678 0.66792994737625122 0.053043529391288757
0.34107816219329834 0.66271495819091797 0.038835160434246063
0.46824654936790466 0.68880146741867065 0.03252970427274704
0.65522754192352295 0.74732804298400879 0.039785780012607574
0.83212178945541382 0.80315804481506348 0.050226651132106781
0.94843798875808716 0.8675503134727478 0.089765332639217377
0.035597961395978928 0.050700947642326355 0.085064023733139038
0.10971686989068985 0.055939424782991409 0.11368728429079056
0.23159040510654449 0.026029430329799652 0.13122658431529999
0.42567074298858643 0.004253133200109005 0.12700384855270386
0.6476173996925354 0.011675621382892132 0.10585283488035202
0.80535691976547241 0.014038115739822388 0.11445669829845428
0.92993777990341187 0.0081407586112618446 0.12474055588245392
0.037931494414806366 0.085008777678012848 0.088876105844974518
0.10434651374816895 0.10195517539978027 0.10609889030456543
0.24599173665046692 0.089328736066818237 0.1051899790763855
0.4410567581653595 0.077820613980293274 0.099188484251499176
0.64748185873031616 0.082040838897228241 0.089061513543128967
0.81423658132553101 0.065219655632972717 0.10035711526870728
0.94111019372940063 0.052025485783815384 0.12202263623476028
0.069398246705532074 0.18253208696842194 0.12543399631977081
0.11030997335910797 0.18475909531116486 0.13053993880748749
0.22793169319629669 0.24236460030078888 0.089128918945789337
0.42830616235733032 0.25244811177253723 0.051388490945100784
0.6228022575378418 0.23822864890098572 0.054681651294231415
0.78825312852859497 0.23791691660881042 0.058653440326452255
0.92009878158569336 0.24869467318058014 0.1093892976641655
0.12264217436313629 0.31177467107772827 0.14855621755123138
0.17630928754806519 0.31504964828491211 0.15151673555374146
0.20928084850311279 0.32945823669433594 0.14668241143226624
0.40595057606697083 0.44431015849113464 0.05890362337231636
0.64437186717987061 0.47835221886634827 0.012785414233803749
0.77589136362075806 0.42681926488876343 0.014115890488028526
0.88517433404922485 0.44698387384414673 0.035060778260231018
0.16087512671947479 0.44133040308952332 0.16199797391891479
0.22344605624675751 0.44219619035720825 0.16067667305469513
0.28948625922203064 0.46076127886772156 0.14858949184417725
0.39659228920936584 0.52485448122024536 0.10717080533504486
0.64530813694000244 0.64070135354995728 0.047211606055498123
0.84704411029815674 0.7083054780960083 0.013699804432690144
0.93354767560958862 0.71015673875808716 0.028615450486540794
0.16729730367660522 0.56458991765975952 0.16661573946475983
0.24242663383483887 0.55856198072433472 0.16482925415039062
0.33261549472808838 0.56179994344711304 0.14361722767353058
0.45690461993217468 0.60240703821182251 0.11789721250534058
0.66303902864456177 0.68935298919677734 0.096681647002696991
0.83823132514953613 0.76915824413299561 0.10795991122722626
0.96065914630889893 0.85592454671859741 0.092151015996932983
0.15516705811023712 0.68429553508758545 0.16281592845916748
0.24322420358657837 0.66141456365585327 0.16571056842803955
0.34541934728622437 0.6589961051940918 0.14255747199058533
0.489350825548172 0.69160878658294678 0.12982900440692902
0.67007267475128174 0.75605314970016479 0.13317938148975372
0.82623839378356934 0.8110281229019165 0.17177475988864899
0.95076572895050049 0.88263767957687378 0.18517495691776276
0.053046192973852158 0.10073821246623993 0.19851402938365936
0.1242397353053093 0.099785193800926208 0.23405754566192627
0.27311521768569946 0.073945768177509308 0.26159894466400146
0.50136727094650269 0.026204532012343407 0.30061209201812744
0.66961401700973511 0.03056417778134346 0.27832269668579102
0.80782002210617065 0.05380554124712944 0.24422724545001984
0.92141634225845337 0.070084862411022186 0.23479607701301575
0.046460695564746857 0.12472459673881531 0.19424693286418915
0.11074741184711456 0.12907902896404266 0.23558154702186584
0.26122182607650757 0.11549025774002075 0.26838713884353638
0.50550836324691772 0.064298577606678009 0.30916118621826172
0.68007552623748779 0.061128683388233185 0.28969085216522217
0.82210612297058105 0.092966563999652863 0.26685604453086853
0.94250333309173584 0.082547254860401154 0.26893532276153564
0.07328236848115921 0.21320672333240509 0.22677184641361237
0.13703760504722595 0.22575515508651733 0.23650375008583069
0.2614799439907074 0.25414028763771057 0.25921964645385742
0.45669052004814148 0.2453136146068573 0.25630739331245422
0.64980453252792358 0.23330938816070557 0.2546895444393158
0.81286263465881348 0.24269695580005646 0.25927531719207764
0.95155686140060425 0.25344902276992798 0.27365416288375854
0.128758504986763 0.32764390110969543 0.26084205508232117
0.19280298054218292 0.33700889348983765 0.2642633318901062
0.25938239693641663 0.34615415334701538 0.27247026562690735
0.41622775793075562 0.43484199047088623 0.24194334447383881
0.63304233551025391 0.44231125712394714 0.20118506252765656
0.78160709142684937 0.42418020963668823 0.19686838984489441
0.92733824253082275 0.44103464484214783 0.21300631761550903
0.16538220643997192 0.43735510110855103 0.2829819917678833
0.23078387975692749 0.44558057188987732 0.28357169032096863
0.30479893088340759 0.45555320382118225 0.27908343076705933
0.41516926884651184 0.52165377140045166 0.26651695370674133
0.63555032014846802 0.64349150657653809 0.24301724135875702
0.84767740964889526 0.7154076099395752 0.22092081606388092
0.94572645425796509 0.69306963682174683 0.21504540741443634
0.17259517312049866 0.55165010690689087 0.29944619536399841
0.24402043223381042 0.55425149202346802 0.29556494951248169
0.33489015698432922 0.56407171487808228 0.28411370515823364
0.46300444006919861 0.59857815504074097 0.27467784285545349
0.66860532760620117 0.69494163990020752 0.27195638418197632
0.83595430850982666 0.80390763282775879 0.3002573549747467
0.95929068326950073 0.87956076860427856 0.31904697418212891
0.15984019637107849 0.67018353939056396 0.30252385139465332
0.24631157517433167 0.66140574216842651 0.29781326651573181
0.35211056470870972 0.65824419260025024 0.28967180848121643
0.49131777882575989 0.68747740983963013 0.28190630674362183
0.67524242401123047 0.75836181640625 0.2908446192741394
0.82626771926879883 0.83374321460723877 0.32738128304481506
0.93455964326858521 0.90690958499908447 0.35620230436325073
0.070231325924396515 0.15682907402515411 0.3407934308052063
0.14466898143291473 0.1625373512506485 0.3683161735534668
0.28719392418861389 0.1469816118478775 0.38922372460365295
0.49972295761108398 0.098700203001499176 0.42505189776420593
0.67031049728393555 0.093654990196228027 0.41983065009117126
0.79016155004501343 0.11593611538410187 0.37211146950721741
0.9083254337310791 0.13476231694221497 0.35503402352333069
0.05838114395737648 0.19786740839481354 0.3589196503162384
0.12846465408802032 0.20463331043720245 0.37682393193244934
0.27048477530479431 0.21210713684558868 0.38988250494003296
0.49374383687973022 0.17301890254020691 0.43913906812667847
0.68927264213562012 0.16148355603218079 0.45881512761116028
0.80266737937927246 0.1906244158744812 0.38299328088760376
0.91264134645462036 0.20184385776519775 0.36832442879676819
0.085568174719810486 0.26564490795135498 0.38934308290481567
0.15854814648628235 0.27392372488975525 0.39097023010253906
0.27203094959259033 0.2962925136089325 0.4120272696018219
0.48405459523200989 0.3045867383480072 0.45075979828834534
0.68882352113723755 0.30723121762275696 0.47741594910621643
0.81841552257537842 0.31000307202339172 0.4279499351978302
0.93029844760894775 0.32374581694602966 0.39998897910118103
0.14738622307777405 0.35810407996177673 0.40635186433792114
0.21111175417900085 0.37463453412055969 0.40225058794021606
0.30334615707397461 0.40041071176528931 0.41769465804100037
0.45682546496391296 0.44851979613304138 0.43633094429969788
0.63168710470199585 0.4529089629650116 0.40858444571495056
0.79795628786087036 0.45807525515556335 0.40658658742904663
0.93686974048614502 0.47353479266166687 0.43062925338745117
0.18197064101696014 0.45391747355461121 0.43347108364105225
0.24892979860305786 0.4604535698890686 0.42997753620147705
0.33490502834320068 0.48061728477478027 0.43061143159866333
0.46208256483078003 0.53130584955215454 0.44067224860191345
0.67442864179611206 0.64569598436355591 0.45068007707595825
0.82917732000350952 0.68706387281417847 0.44839519262313843
0.93836325407028198 0.66238594055175781 0.44075343012809753
0.19272971153259277 0.5584748387336731 0.45190298557281494
0.25891509652137756 0.55206573009490967 0.44435182213783264
0.35148853063583374 0.56222689151763916 0.44267836213111877
0.48556786775588989 0.6046452522277832 0.44488370418548584
0.68061715364456177 0.69991779327392578 0.46650233864784241
0.84385126829147339 0.81125617027282715 0.50836372375488281
0.96096009016036987 0.87553715705871582 0.52852934598922729
0.16949190199375153 0.66653674840927124 0.44857266545295715
0.25263667106628418 0.65753424167633057 0.4442082941532135
0.35561558604240417 0.65904498100280762 0.44850337505340576
0.49719744920730591 0.695423424243927 0.44532641768455505
0.68363600969314575 0.76271998882293701 0.47378408908843994
0.82827544212341309 0.83807867765426636 0.5139581561088562
0.92878425121307373 0.94342488050460815 0.54650461673736572
0.093476481735706329 0.20897610485553741 0.5023500919342041
0.17757034301757812 0.21445341408252716 0.50086712837219238
0.30101001262664795 0.20247974991798401 0.49762740731239319
0.47877970337867737 0.17038050293922424 0.50595182180404663
0.64447182416915894 0.16486489772796631 0.49291950464248657
0.76557463407516479 0.16395874321460724 0.47039169073104858
0.88293838500976562 0.17838187515735626 0.45341426134109497
0.10560943186283112 0.27353259921073914 0.51066875457763672
0.18416886031627655 0.27894717454910278 0.50463730096817017
0.29672485589981079 0.28402283787727356 0.49707543849945068
0.47526454925537109 0.25749507546424866 0.5019611120223999
0.64713037014007568 0.24258236587047577 0.49949151277542114
0.77358871698379517 0.25207686424255371 0.47838518023490906
0.88637548685073853 0.25385016202926636 0.45389378070831299
0.13713157176971436 0.33305290341377258 0.54532080888748169
0.20901522040367126 0.35312804579734802 0.52002131938934326
0.30479106307029724 0.3629724383354187 0.51211297512054443
0.46053943037986755 0.36488550901412964 0.50824272632598877
0.63281399011611938 0.36171814799308777 0.50323575735092163
0.77555936574935913 0.36021441221237183 0.47560006380081177
0.89156603813171387 0.37076032161712646 0.46398189663887024
0.19589398801326752 0.41258475184440613 0.55382376909255981
0.24865515530109406 0.42663848400115967 0.54588836431503296
0.33605748414993286 0.45152726769447327 0.54408031702041626
0.4561493992805481 0.47865989804267883 0.53158801794052124
0.61939412355422974 0.51405429840087891 0.51247453689575195
0.77076762914657593 0.51054710149765015 0.48348310589790344
0.89124709367752075 0.52404427528381348 0.48544061183929443
0.21545837819576263 0.48985093832015991 0.58520060777664185
0.27550685405731201 0.49485591053962708 0.57164454460144043
0.35711848735809326 0.51154583692550659 0.56487810611724854
0.48050457239151001 0.55947887897491455 0.56837701797485352
0.66027528047561646 0.63907170295715332 0.57050704956054688
0.81157499551773071 0.69174933433532715 0.56533354520797729
0.91860383749008179 0.69176733493804932 0.56131118535995483
0.20611891150474548 0.57345223426818848 0.59762513637542725
0.27637246251106262 0.57190388441085815 0.58566838502883911
0.36273929476737976 0.58003240823745728 0.58100473880767822
0.49680858850479126 0.62749069929122925 0.58610028028488159
0.68291336297988892 0.71880978345870972 0.60499298572540283
0.83810722827911377 0.80889880657196045 0.64898145198822021
0.96012872457504272 0.86041218042373657 0.67800414562225342
0.18451753258705139 0.67187178134918213 0.60072076320648193
0.26508763432502747 0.66522616147994995 0.5907357931137085
0.36326023936271667 0.67010253667831421 0.59144902229309082
0.50165098905563354 0.71402662992477417 0.59661185741424561
0.67778021097183228 0.77959471940994263 0.61919170618057251
0.83094668388366699 0.84946030378341675 0.66039198637008667
0.9408116340637207 0.95203208923339844 0.70569950342178345
0.1165243536233902 0.23351037502288818 0.62445789575576782
0.20715898275375366 0.23735015094280243 0.61945503950119019
0.32121506333351135 0.22533726692199707 0.6076781153678894
0.46520331501960754 0.20083782076835632 0.59567320346832275
0.62273287773132324 0.17736905813217163 0.57212847471237183
0.74623787403106689 0.18729583919048309 0.55950307846069336
0.86968648433685303 0.18826381862163544 0.55738568305969238
0.15652193129062653 0.31590554118156433 0.62258529663085938
0.21999502182006836 0.32127198576927185 0.61930108070373535
0.32059535384178162 0.31074288487434387 0.60217541456222534
0.45880717039108276 0.28830540180206299 0.58617168664932251
0.62346071004867554 0.27046799659729004 0.5743480920791626
0.74931877851486206 0.27864959836006165 0.55347567796707153
0.86925143003463745 0.27281114459037781 0.55084693431854248
0.18704952299594879 0.38942167162895203 0.64238280057907104
0.24961210787296295 0.4072318971157074 0.63987940549850464
0.33400395512580872 0.39901807904243469 0.61013364791870117
0.45626100897789001 0.39097926020622253 0.58825469017028809
0.609996497631073 0.3885377049446106 0.57378166913986206
0.75560265779495239 0.38416031002998352 0.55383491516113281
0.87600141763687134 0.38831731677055359 0.54779541492462158
0.24222485721111298 0.46482557058334351 0.68316233158111572
0.28842326998710632 0.47899836301803589 0.67902040481567383
0.36119213700294495 0.48857215046882629 0.64238882064819336
0.47514533996582031 0.50413089990615845 0.62707734107971191
0.62003570795059204 0.52231913805007935 0.60435402393341064
0.76302105188369751 0.53586328029632568 0.5834776759147644
0.88368159532546997 0.53484570980072021 0.56677007675170898
0.23387329280376434 0.51481610536575317 0.69257980585098267
0.29674464464187622 0.5255807638168335 0.68500858545303345
0.38102725148200989 0.55271703004837036 0.6787407398223877
0.49695244431495667 0.60068309307098389 0.68224966526031494
0.65228128433227539 0.65201222896575928 0.66552245616912842
0.79546988010406494 0.69467198848724365 0.64902681112289429
0.90913397073745728 0.70932275056838989 0.63484770059585571
0.21497675776481628 0.58822202682495117 0.70322436094284058
0.28395384550094604 0.59463584423065186 0.69297629594802856
0.37922462821006775 0.60472416877746582 0.6889946460723877
0.50396120548248291 0.65387910604476929 0.693980872631073
0.66994839906692505 0.74009096622467041 0.70829224586486816
0.81891047954559326 0.81393283605575562 0.72581130266189575
0.93094170093536377 0.85471272468566895 0.72954410314559937
0.18546319007873535 0.68685531616210938 0.718555748462677
0.27219101786613464 0.68167191743850708 0.70705372095108032
0.37210234999656677 0.6829230785369873 0.70110136270523071
0.50863897800445557 0.73413527011871338 0.70756644010543823
0.67232394218444824 0.80208051204681396 0.72430622577667236
0.81596803665161133 0.86412209272384644 0.75127542018890381
0.93971127271652222 0.95443952083587646 0.8096315860748291
0.11832665652036667 0.22654873132705688 0.72348332405090332
0.22153323888778687 0.23970156908035278 0.73182547092437744
0.32928922772407532 0.22428417205810547 0.71809649467468262
0.45875236392021179 0.19513262808322906 0.69817441701889038
0.61451917886734009 0.16971965134143829 0.6757623553276062
0.74256056547164917 0.17436937987804413 0.66672182083129883
0.87563943862915039 0.1608806848526001 0.67700833082199097
0.14321373403072357 0.316060870885849 0.70867180824279785
0.23204663395881653 0.33324939012527466 0.70113980770111084
0.3344821035861969 0.32148385047912598 0.69423210620880127
0.46057948470115662 0.29322719573974609 0.67846745252609253
0.61232495307922363 0.27050036191940308 0.66880959272384644
0.74272292852401733 0.27467396855354309 0.65514624118804932
0.87442713975906372 0.26602399349212646 0.66087496280670166
0.20899510383605957 0.40660074353218079 0.70608240365982056
0.25689685344696045 0.42138022184371948 0.71573770046234131
0.34951278567314148 0.41791671514511108 0.68964099884033203
0.46778163313865662 0.40329056978225708 0.67932248115539551
0.60997456312179565 0.39783552289009094 0.66481590270996094
0.75084275007247925 0.38973531126976013 0.65929627418518066
0.8766515851020813 0.38966977596282959 0.65777993202209473
0.2200002521276474 0.47274699807167053 0.73659700155258179
0.2788139283657074 0.48540166020393372 0.73428767919540405
0.37042155861854553 0.50161945819854736 0.7112499475479126
0.47596734762191772 0.51894873380661011 0.70284777879714966
0.62091678380966187 0.52632808685302734 0.68677800893783569
0.76518869400024414 0.54096478223800659 0.68446886539459229
0.88957875967025757 0.54948121309280396 0.67399346828460693
0.21986015141010284 0.5308113694190979 0.75209343433380127
0.29270964860916138 0.54398322105407715 0.74386358261108398
0.38096892833709717 0.56539040803909302 0.73320996761322021
0.50546371936798096 0.61119979619979858 0.7381935715675354
0.64652615785598755 0.65636521577835083 0.73727065324783325
0.78835338354110718 0.68821179866790771 0.73164063692092896
0.9058983325958252 0.70575368404388428 0.71625375747680664
0.20501610636711121 0.60231339931488037 0.77441340684890747
0.28738319873809814 0.61216115951538086 0.76010984182357788
0.37970453500747681 0.62567049264907837 0.7536998987197876
0.50300818681716919 0.66810733079910278 0.75826597213745117
0.66491943597793579 0.747344970703125 0.77796125411987305
0.80369585752487183 0.80756276845932007 0.78751593828201294
0.91957873106002808 0.84426212310791016 0.7802354097366333
0.17950469255447388 0.69814115762710571 0.80093252658843994
0.27026629447937012 0.70013070106506348 0.78924453258514404
0.37297356128692627 0.70510727167129517 0.77790528535842896
0.50640618801116943 0.74805426597595215 0.78141868114471436
0.66783100366592407 0.8141942024230957 0.79594326019287109
0.80814772844314575 0.87497818470001221 0.80859088897705078
0.92845070362091064 0.94093698263168335 0.83176195621490479
