assets/lut/pixlsus fadedlook.cube
# Created by: G'MIC (https://gmic.eu)
TITLE "fadedlook"
# LUT size
LUT_3D_SIZE 7
# Data domain
DOMAIN_MIN 0.0 0.0 0.0
DOMAIN_MAX 1.0 1.0 1.0
# LUT data points
0.035687822848558426 0.034873362630605698 0.037100862711668015
0.15434154868125916 0.056532375514507294 0.051942653954029083
0.28254210948944092 0.10521043092012405 0.088676169514656067
0.39269125461578369 0.17901912331581116 0.14068566262722015
0.52611744403839111 0.23498454689979553 0.17597314715385437
0.66370934247970581 0.29357549548149109 0.22121694684028625
0.79493927955627441 0.35429686307907104 0.27510511875152588
0.10624755918979645 0.17738835513591766 0.09828021377325058
0.18726123869419098 0.18731962144374847 0.096503302454948425
0.30933231115341187 0.20767159759998322 0.12266797572374344
0.42029294371604919 0.25091978907585144 0.16530174016952515
0.54561322927474976 0.29199033975601196 0.19512841105461121
0.67840838432312012 0.34076386690139771 0.23477576673030853
0.80684906244277954 0.38935133814811707 0.28022557497024536
0.21148227155208588 0.32456573843955994 0.17191952466964722
0.25942906737327576 0.33113589882850647 0.16740167140960693
0.35263508558273315 0.34066835045814514 0.18273350596427917
0.45996078848838806 0.35855400562286377 0.21136537194252014
0.57537007331848145 0.38489705324172974 0.23155508935451508
0.69814091920852661 0.42060330510139465 0.26147934794425964
0.82065647840499878 0.46073442697525024 0.29730838537216187
0.33159556984901428 0.47074264287948608 0.2430974543094635
0.36953231692314148 0.47135612368583679 0.23698273301124573
0.43301692605018616 0.47718939185142517 0.24560590088367462
0.52033549547195435 0.48782068490982056 0.26643222570419312
0.62055873870849609 0.50587993860244751 0.28310072422027588
0.72973763942718506 0.53049314022064209 0.30543449521064758
0.8436846137046814 0.55814027786254883 0.32880482077598572
0.47242316603660583 0.60689538717269897 0.31222972273826599
0.50516897439956665 0.60467082262039185 0.31265959143638611
0.54020720720291138 0.61004525423049927 0.31071770191192627
0.59598404169082642 0.62186777591705322 0.32061174511909485
0.67967396974563599 0.63774126768112183 0.34258595108985901
0.77603495121002197 0.65551650524139404 0.36204269528388977
0.87821537256240845 0.67017138004302979 0.36978158354759216
0.62915557622909546 0.72458785772323608 0.37656417489051819
0.64817535877227783 0.7277909517288208 0.38141724467277527
0.65589076280593872 0.73716354370117188 0.37117868661880493
0.67653828859329224 0.75672918558120728 0.36919891834259033
0.74924862384796143 0.77231782674789429 0.40341636538505554
0.83240765333175659 0.78571164608001709 0.42195957899093628
0.92265719175338745 0.78539615869522095 0.40897396206855774
0.78433150053024292 0.8340153694152832 0.41921776533126831
0.80426037311553955 0.83266937732696533 0.45240241289138794
0.78567516803741455 0.85292667150497437 0.44141536951065063
0.76107960939407349 0.89046269655227661 0.41434812545776367
0.82062321901321411 0.90749603509902954 0.45637321472167969
0.89364355802536011 0.91545093059539795 0.47766903042793274
0.97490835189819336 0.89829427003860474 0.44977930188179016
0.037582188844680786 0.042652685195207596 0.13764095306396484
0.14371310174465179 0.068910308182239532 0.14965012669563293
0.26923581957817078 0.12433882802724838 0.17455236613750458
0.39399343729019165 0.19273251295089722 0.20114850997924805
0.53469949960708618 0.24196821451187134 0.22491773962974548
0.67027419805526733 0.29832258820533752 0.26140910387039185
0.79682320356369019 0.35619840025901794 0.30744728446006775
0.1056223139166832 0.17755952477455139 0.17372006177902222
0.18850997090339661 0.18869554996490479 0.18627685308456421
0.30073738098144531 0.214696004986763 0.20447720587253571
0.41879045963287354 0.25820302963256836 0.22363473474979401
0.55021053552627563 0.29971441626548767 0.24411608278751373
0.68268322944641113 0.34507676959037781 0.27578249573707581
0.80903828144073486 0.39307436347007751 0.31714090704917908
0.20753292739391327 0.32756724953651428 0.22661277651786804
0.26378113031387329 0.33172157406806946 0.23850449919700623
0.35288950800895691 0.3425121009349823 0.24741756916046143
0.45946455001831055 0.36247080564498901 0.25869247317314148
0.57687592506408691 0.38963332772254944 0.27137324213981628
0.70020139217376709 0.42346036434173584 0.29807955026626587
0.82225394248962402 0.46120589971542358 0.33348110318183899
0.33434700965881348 0.47276991605758667 0.29020446538925171
0.37408873438835144 0.47438913583755493 0.2936311662197113
0.43555951118469238 0.47999057173728943 0.29438313841819763
0.52111011743545532 0.49017056822776794 0.30188894271850586
0.62153536081314087 0.50784420967102051 0.3127116858959198
0.73140007257461548 0.53246909379959106 0.33533915877342224
0.845020592212677 0.55947327613830566 0.36081555485725403
0.47439044713973999 0.60744005441665649 0.34080356359481812
0.50201559066772461 0.60828697681427002 0.34149646759033203
0.5392146110534668 0.61296933889389038 0.33788213133811951
0.59885114431381226 0.62260550260543823 0.34486359357833862
0.68244320154190063 0.63767385482788086 0.36603602766990662
0.77840447425842285 0.65704560279846191 0.3878147304058075
0.88095659017562866 0.67373138666152954 0.39939036965370178
0.62592267990112305 0.72534322738647461 0.38128247857093811
0.64740687608718872 0.72728812694549561 0.38285437226295471
0.65903645753860474 0.73497867584228516 0.37172442674636841
0.68247437477111816 0.75358861684799194 0.37641927599906921
0.75559824705123901 0.77009838819503784 0.42067858576774597
0.83816814422607422 0.78699171543121338 0.44216173887252808
0.92894047498703003 0.79043745994567871 0.43295910954475403
0.7896086573600769 0.82736235857009888 0.41981855034828186
0.8080979585647583 0.82777971029281616 0.42533978819847107
0.77915036678314209 0.85007482767105103 0.38896638154983521
0.75908082723617554 0.88787764310836792 0.3976251482963562
0.82575047016143799 0.90558665990829468 0.46820029616355896
0.90027880668640137 0.91838520765304565 0.49151518940925598
0.98212909698486328 0.90202814340591431 0.45585477352142334
0.041157785803079605 0.058190874755382538 0.26783540844917297
0.14706702530384064 0.082460679113864899 0.26711785793304443
0.27205222845077515 0.13602744042873383 0.27047038078308105
0.40137958526611328 0.19683472812175751 0.2793649435043335
0.53829860687255859 0.2459801584482193 0.2976326048374176
0.6709519624710083 0.30015414953231812 0.32577842473983765
0.7956850528717041 0.35673344135284424 0.3621213436126709
0.1093091145157814 0.17985470592975616 0.28899767994880676
0.19477811455726624 0.1914023756980896 0.29059270024299622
0.30641007423400879 0.22269408404827118 0.2946624755859375
0.4266798198223114 0.26478436589241028 0.30102527141571045
0.5551685094833374 0.30428645014762878 0.3164028525352478
0.68457043170928955 0.34868037700653076 0.3418366014957428
0.80887681245803833 0.39572891592979431 0.37552401423454285
0.20992912352085114 0.32694876194000244 0.31773921847343445
0.2683442234992981 0.33319512009620667 0.32104849815368652
0.35987433791160583 0.34723162651062012 0.32473012804985046
0.46662074327468872 0.36797305941581726 0.32782107591629028
0.58245319128036499 0.39438581466674805 0.33858713507652283
0.70310479402542114 0.42760053277015686 0.36165213584899902
0.82287979125976562 0.46487081050872803 0.39080780744552612
0.34051048755645752 0.4734891951084137 0.35509607195854187
0.37468308210372925 0.47806143760681152 0.35865074396133423
0.43876689672470093 0.48400944471359253 0.35958999395370483
0.525127112865448 0.49406850337982178 0.36099091172218323
0.62535184621810913 0.51134383678436279 0.37026140093803406
0.73401188850402832 0.53601467609405518 0.39117839932441711
0.84584128856658936 0.56324106454849243 0.41240987181663513
0.47897729277610779 0.61026620864868164 0.39085105061531067
0.49855124950408936 0.61206388473510742 0.39126035571098328
0.53731608390808105 0.61748719215393066 0.3899751603603363
0.59877771139144897 0.62640756368637085 0.39618316292762756
0.68320673704147339 0.63922524452209473 0.41180288791656494
0.77973783016204834 0.65839195251464844 0.4313730001449585
0.88130569458007812 0.67713242769241333 0.4417414665222168
0.62998652458190918 0.73063898086547852 0.42233023047447205
0.65229880809783936 0.72498130798339844 0.41544559597969055
0.64610522985458374 0.74271911382675171 0.41232416033744812
0.67723870277404785 0.75763177871704102 0.42594915628433228
0.75214904546737671 0.76904630661010742 0.45580923557281494
0.83689713478088379 0.78344041109085083 0.47239717841148376
0.93046790361404419 0.79131782054901123 0.46984565258026123
0.79239827394485474 0.82971334457397461 0.44551050662994385
0.80195146799087524 0.8318474292755127 0.44456833600997925
0.75567185878753662 0.85932594537734985 0.41229656338691711
0.75932121276855469 0.88790738582611084 0.45365026593208313
0.82503318786621094 0.90192526578903198 0.50359523296356201
0.89874982833862305 0.91152065992355347 0.51516413688659668
0.98074311017990112 0.89741402864456177 0.48536142706871033
0.051531128585338593 0.081834010779857635 0.40472522377967834
0.15604788064956665 0.10739491879940033 0.38601315021514893
0.28220385313034058 0.15958525240421295 0.36790317296981812
0.4093325138092041 0.20600205659866333 0.3732750415802002
0.53934431076049805 0.24814960360527039 0.3930031955242157
0.6693727970123291 0.29996135830879211 0.41570770740509033
0.79461902379989624 0.3545343279838562 0.44336691498756409
0.12269856780767441 0.18996530771255493 0.41334828734397888
0.20670366287231445 0.20410893857479095 0.4007246196269989
0.31709414720535278 0.23701760172843933 0.38850393891334534
0.43464544415473938 0.27136480808258057 0.39378881454467773
0.55798131227493286 0.30576980113983154 0.41128483414649963
0.68456250429153442 0.35009482502937317 0.43123051524162292
0.80811035633087158 0.39857569336891174 0.45515695214271545
0.2245938628911972 0.3296838104724884 0.4236234724521637
0.28072726726531982 0.33817094564437866 0.41768357157707214
0.36964493989944458 0.35406291484832764 0.40908795595169067
0.47370794415473938 0.37235471606254578 0.41433903574943542
0.58706492185592651 0.3970109224319458 0.42822819948196411
0.70576220750808716 0.43077120184898376 0.44829079508781433
0.82414215803146362 0.46908968687057495 0.46856141090393066
0.34965208172798157 0.47573950886726379 0.44410750269889832
0.38218563795089722 0.48032745718955994 0.4434361457824707
0.44429433345794678 0.48710578680038452 0.4395294189453125
0.53001797199249268 0.49736505746841431 0.44140270352363586
0.6302870512008667 0.51454824209213257 0.45210939645767212
0.7386702299118042 0.53968781232833862 0.47165530920028687
0.84791809320449829 0.56750774383544922 0.4860609769821167
0.48566094040870667 0.61281520128250122 0.46600446105003357
0.50230646133422852 0.61390095949172974 0.46490457653999329
0.53849607706069946 0.6204296350479126 0.46537423133850098
0.59924173355102539 0.63029587268829346 0.47235152125358582
0.68611818552017212 0.64330142736434937 0.48549795150756836
0.78333491086959839 0.66260087490081787 0.50393331050872803
0.88133454322814941 0.68061333894729614 0.50365746021270752
0.63798171281814575 0.73404526710510254 0.48167061805725098
0.64341384172439575 0.73435020446777344 0.47711050510406494
0.63591498136520386 0.75140410661697388 0.48434916138648987
0.67448717355728149 0.76372319459915161 0.5033271312713623
0.75151664018630981 0.77377331256866455 0.52444899082183838
0.83847212791442871 0.78790110349655151 0.5381280779838562
0.9297822117805481 0.7918238639831543 0.5182376503944397
0.78907352685928345 0.83808326721191406 0.49069866538047791
0.78367406129837036 0.84363877773284912 0.48120671510696411
0.73281311988830566 0.87797534465789795 0.49468237161636353
0.75638163089752197 0.89570349454879761 0.53466755151748657
0.8246580958366394 0.90570133924484253 0.56784957647323608
0.90117692947387695 0.91378116607666016 0.57511794567108154
0.98152512311935425 0.90489757061004639 0.54214727878570557
0.091169841587543488 0.12363350391387939 0.5107269287109375
0.18780174851417542 0.14382030069828033 0.4866020679473877
0.29981976747512817 0.17940044403076172 0.47454965114593506
0.41851204633712769 0.21434947848320007 0.48309722542762756
0.5433393120765686 0.25491249561309814 0.49970889091491699
0.67121696472167969 0.30559542775154114 0.51779544353485107
0.79622894525527954 0.35949897766113281 0.53833258152008057
0.16151154041290283 0.21548596024513245 0.51307874917984009
0.23661155998706818 0.22779984772205353 0.49840319156646729
0.33326998353004456 0.25242286920547485 0.49053686857223511
0.44238126277923584 0.2786618173122406 0.50024908781051636
0.56159317493438721 0.31192338466644287 0.51590228080749512
0.68621933460235596 0.35639595985412598 0.53157204389572144
0.8091927170753479 0.4051969051361084 0.5480690598487854
0.25722262263298035 0.3401278555393219 0.51927441358566284
0.309713214635849 0.34701177477836609 0.51113671064376831
0.38565501570701599 0.36049443483352661 0.50635308027267456
0.48101022839546204 0.37714371085166931 0.51526552438735962
0.5909416675567627 0.40159761905670166 0.53002578020095825
0.70861274003982544 0.43536868691444397 0.54616415500640869
0.82624650001525879 0.47418913245201111 0.55997288227081299
0.36428120732307434 0.48036867380142212 0.54000335931777954
0.40025344491004944 0.48428753018379211 0.53594768047332764
0.45751079916954041 0.48998230695724487 0.53277349472045898
0.53688788414001465 0.49995410442352295 0.53751206398010254
0.63519400358200073 0.51745975017547607 0.54909884929656982
0.74372941255569458 0.5421602725982666 0.56584829092025757
0.8529096245765686 0.57010823488235474 0.57565641403198242
0.48704200983047485 0.61587166786193848 0.55491471290588379
0.5013357400894165 0.62225842475891113 0.56027323007583618
0.54050952196121216 0.62637597322463989 0.56081283092498779
0.60532742738723755 0.63351154327392578 0.56598889827728271
0.69162499904632568 0.64673805236816406 0.57723605632781982
0.79019147157669067 0.6651034951210022 0.59302389621734619
0.89050883054733276 0.68243062496185303 0.59121966361999512
0.61734688282012939 0.74299883842468262 0.56268388032913208
0.61165058612823486 0.75172460079193115 0.56974226236343384
0.62687391042709351 0.76022624969482422 0.58112770318984985
0.68047016859054565 0.76835834980010986 0.59497153759002686
0.75684720277786255 0.77927976846694946 0.61163425445556641
0.84562212228775024 0.79209339618682861 0.62052607536315918
0.93877899646759033 0.79566329717636108 0.59853595495223999
0.75476330518722534 0.85778927803039551 0.56042331457138062
0.72302764654159546 0.87021225690841675 0.56318920850753784
0.72049629688262939 0.88932019472122192 0.59142529964447021
0.76085549592971802 0.90265297889709473 0.62391042709350586
0.82870107889175415 0.9130779504776001 0.64970880746841431
0.90844005346298218 0.92212873697280884 0.65915995836257935
0.98830586671829224 0.91617500782012939 0.62834560871124268
0.16841918230056763 0.17279919981956482 0.57513457536697388
0.24024195969104767 0.18131694197654724 0.5750582218170166
0.32755956053733826 0.19908174872398376 0.58393567800521851
0.43270272016525269 0.22740192711353302 0.59778153896331787
0.55205905437469482 0.26925092935562134 0.61078923940658569
0.67773652076721191 0.32027545571327209 0.62491971254348755
0.80204075574874878 0.37404051423072815 0.64104419946670532
0.21781986951828003 0.24478960037231445 0.59524238109588623
0.27826219797134399 0.25235116481781006 0.59177350997924805
0.35413223505020142 0.26696988940238953 0.59928327798843384
0.4522210955619812 0.29018121957778931 0.61246770620346069
0.56775575876235962 0.32533895969390869 0.62470972537994385
0.69091135263442993 0.36869251728057861 0.63670074939727783
0.81303924322128296 0.41587099432945251 0.64920628070831299
0.29795542359352112 0.35155722498893738 0.60869097709655762
0.33984073996543884 0.35619056224822998 0.6086462140083313
0.40044873952865601 0.3668181300163269 0.61448609828948975
0.48780190944671631 0.3839358389377594 0.6251603364944458
0.59535974264144897 0.40981483459472656 0.63727462291717529
0.71246826648712158 0.44231721758842468 0.64920312166213989
0.82952612638473511 0.47962185740470886 0.65887033939361572
0.38882330060005188 0.48412737250328064 0.63141584396362305
0.41977488994598389 0.48758944869041443 0.63249021768569946
0.46904709935188293 0.49304622411727905 0.6353951096534729
0.54367494583129883 0.50350075960159302 0.64285916090011597
0.63984042406082153 0.52127707004547119 0.65370488166809082
0.74788516759872437 0.54509890079498291 0.66561907529830933
0.85805600881576538 0.57267826795578003 0.67128884792327881
0.48506456613540649 0.6221306324005127 0.65647745132446289
0.50688320398330688 0.627674400806427 0.66054725646972656
0.54879051446914673 0.63050031661987305 0.66211968660354614
0.61368721723556519 0.63625550270080566 0.66722172498703003
0.69749981164932251 0.64888787269592285 0.67672139406204224
0.79527407884597778 0.66671419143676758 0.68665367364883423
0.89937031269073486 0.68475824594497681 0.68566799163818359
0.5874936580657959 0.75691729784011841 0.67340493202209473
0.60181283950805664 0.76226663589477539 0.68097341060638428
0.63510036468505859 0.76634114980697632 0.68816345930099487
0.69355553388595581 0.77118915319442749 0.69496613740921021
0.76452696323394775 0.78204703330993652 0.70491540431976318
0.85053437948226929 0.79616576433181763 0.71157056093215942
0.95041120052337646 0.80437719821929932 0.70254135131835938
0.69122898578643799 0.88909637928009033 0.68644660711288452
0.70225435495376587 0.89038592576980591 0.68967300653457642
0.72557967901229858 0.89906418323516846 0.70700287818908691
0.77421277761459351 0.90723544359207153 0.72357165813446045
0.83920609951019287 0.91664355993270874 0.73833602666854858
0.91562879085540771 0.92626392841339111 0.74438601732254028
0.99209713935852051 0.92881971597671509 0.73218214511871338
0.22276857495307922 0.20330777764320374 0.69317531585693359
0.28504687547683716 0.2099616676568985 0.68849796056747437
0.35871031880378723 0.2242329865694046 0.69753748178482056
0.45355367660522461 0.25092387199401855 0.71010243892669678
0.56621605157852173 0.29111108183860779 0.72211474180221558
0.68848711252212524 0.34139356017112732 0.73463219404220581
0.81145167350769043 0.39580619335174561 0.74863815307617188
0.26004070043563843 0.26385539770126343 0.701984703540802
0.31359365582466125 0.27320602536201477 0.70150357484817505
0.37760457396507263 0.28720632195472717 0.71193951368331909
0.46794205904006958 0.31090822815895081 0.72392970323562622
0.579639732837677 0.34564262628555298 0.7343859076499939
0.69990670680999756 0.38711667060852051 0.74447083473205566
0.81976461410522461 0.43194341659545898 0.75512248277664185
0.32454961538314819 0.36200052499771118 0.71482139825820923
0.36402678489685059 0.36768439412117004 0.71673530340194702
0.41558760404586792 0.37842509150505066 0.72644698619842529
0.49918866157531738 0.3977641761302948 0.73655605316162109
0.60550862550735474 0.42463874816894531 0.74602329730987549
0.72004604339599609 0.45546886324882507 0.75511056184768677
0.83479207754135132 0.48937281966209412 0.76296651363372803
0.40704861283302307 0.48959836363792419 0.73482596874237061
0.43747001886367798 0.49283477663993835 0.7360234260559082
0.48228573799133301 0.49988949298858643 0.74213600158691406
0.55466300249099731 0.5120856761932373 0.75046324729919434
0.64922881126403809 0.53042137622833252 0.75957435369491577
0.75505226850509644 0.55378949642181396 0.76835143566131592
0.86350935697555542 0.58177047967910767 0.77380186319351196
0.4972633421421051 0.62642717361450195 0.75985109806060791
0.52224195003509521 0.63058382272720337 0.76113414764404297
0.56204807758331299 0.63570821285247803 0.76373648643493652
0.62570959329605103 0.64198273420333862 0.77015191316604614
0.70729941129684448 0.65442156791687012 0.77791470289230347
0.80306035280227661 0.67290759086608887 0.78581327199935913
0.90469872951507568 0.69395905733108521 0.78873354196548462
0.59684109687805176 0.76323902606964111 0.78369235992431641
0.61736100912094116 0.76771670579910278 0.78927934169769287
0.65166980028152466 0.77195918560028076 0.7931516170501709
0.70644235610961914 0.77643018960952759 0.79618662595748901
0.77547746896743774 0.78563493490219116 0.80134278535842896
0.86142927408218384 0.80106395483016968 0.80816894769668579
0.95410585403442383 0.81646460294723511 0.81009906530380249
0.7011680006980896 0.89941114187240601 0.80779951810836792
0.71667098999023438 0.90266776084899902 0.81332540512084961
0.74383467435836792 0.90765082836151123 0.82110530138015747
0.79098552465438843 0.9125823974609375 0.82661241292953491
0.85406762361526489 0.91995424032211304 0.83268213272094727
0.9336622953414917 0.93075418472290039 0.83822250366210938
0.99279522895812988 0.94199842214584351 0.83898943662643433
