assets/lut/pixlsus modern film.cube
# Created by: G'MIC (https://gmic.eu)
TITLE "modern_film"
# LUT size
LUT_3D_SIZE 5
# Data domain
DOMAIN_MIN 0.0 0.0 0.0
DOMAIN_MAX 1.0 1.0 1.0
# LUT data points
0.03982582688331604 0.037006542086601257 0.037714641541242599
0.23893699049949646 0.060934297740459442 0.058335427194833755
0.4216158390045166 0.10920179635286331 0.10314036160707474
0.7023894190788269 0.049536775797605515 0.040099125355482101
0.96408003568649292 0.031852617859840393 0.017234234139323235
0.1162458211183548 0.25455757975578308 0.091545075178146362
0.27633002400398254 0.26062354445457458 0.10406035184860229
0.46504288911819458 0.2668212354183197 0.15166448056697845
0.72590255737304688 0.24052262306213379 0.077393539249897003
0.96911066770553589 0.23965844511985779 0.040009353309869766
0.24045561254024506 0.46688377857208252 0.20028035342693329
0.35964187979698181 0.47374480962753296 0.18876518309116364
0.53910177946090698 0.47839778661727905 0.20762686431407928
0.75905263423919678 0.47677627205848694 0.11053668707609177
0.97117000818252563 0.47940945625305176 0.12835046648979187
0.20663869380950928 0.7141948938369751 0.15713967382907867
0.32133874297142029 0.7181670069694519 0.15244948863983154
0.52593404054641724 0.72183036804199219 0.1547713428735733
0.77878290414810181 0.7145501971244812 0.20576629042625427
0.98259782791137695 0.71753257513046265 0.25496214628219604
0.31656357645988464 0.96087992191314697 0.31437128782272339
0.28425738215446472 0.96565788984298706 0.32995593547821045
0.41670605540275574 0.97093558311462402 0.34912270307540894
0.70281344652175903 0.96397727727890015 0.39301374554634094
0.96296697854995728 0.95992487668991089 0.4351046085357666
0.064587041735649109 0.055426891893148422 0.19313783943653107
0.24147768318653107 0.071391165256500244 0.20570513606071472
0.42619132995605469 0.11073122173547745 0.20244520902633667
0.70162171125411987 0.052487436681985855 0.18548895418643951
0.9650762677192688 0.032522134482860565 0.21165546774864197
0.12482676655054092 0.25735181570053101 0.23531651496887207
0.27721205353736877 0.26635614037513733 0.24993926286697388
0.47300276160240173 0.26848143339157104 0.24064026772975922
0.72630763053894043 0.2419477254152298 0.19718959927558899
0.97140306234359741 0.23729828000068665 0.20191308856010437
0.24405243992805481 0.47047162055969238 0.28405189514160156
0.35966163873672485 0.478364497423172 0.27348178625106812
0.54139798879623413 0.48044055700302124 0.29650470614433289
0.76259571313858032 0.47819226980209351 0.22392064332962036
0.97622084617614746 0.48105880618095398 0.2228253185749054
0.18502411246299744 0.71574753522872925 0.21954509615898132
0.32807737588882446 0.72011035680770874 0.21394802629947662
0.5359729528427124 0.72304028272628784 0.22467531263828278
0.77792620658874512 0.71720755100250244 0.25248581171035767
0.97803175449371338 0.72133868932723999 0.25651544332504272
0.29955551028251648 0.96127450466156006 0.28484800457954407
0.30528783798217773 0.96403253078460693 0.31570178270339966
0.43425995111465454 0.96763437986373901 0.34456360340118408
0.69742614030838013 0.9681282639503479 0.38415300846099854
0.95744317770004272 0.96450513601303101 0.43560642004013062
0.12998606264591217 0.090217620134353638 0.31685197353363037
0.26074907183647156 0.10564792156219482 0.33279916644096375
0.44849422574043274 0.11238958686590195 0.35202926397323608
0.69978624582290649 0.081267595291137695 0.38483858108520508
0.96167010068893433 0.039819814264774323 0.46442559361457825
0.18507413566112518 0.26380676031112671 0.37250006198883057
0.30552184581756592 0.27174293994903564 0.37400165200233459
0.48300361633300781 0.27700698375701904 0.38388922810554504
0.72739678621292114 0.25171059370040894 0.41220590472221375
0.96920263767242432 0.23554399609565735 0.46214175224304199
0.24424375593662262 0.47841891646385193 0.43396666646003723
0.37497380375862122 0.48324689269065857 0.42357179522514343
0.53081929683685303 0.49314990639686584 0.46540737152099609
0.76262432336807251 0.48114386200904846 0.4356854259967804
0.9763416051864624 0.47699183225631714 0.46309742331504822
0.18230444192886353 0.71878349781036377 0.43859809637069702
0.32404175400733948 0.7230643630027771 0.41674333810806274
0.5288015604019165 0.72556948661804199 0.42076870799064636
0.78083986043930054 0.71892654895782471 0.44185316562652588
0.98617327213287354 0.72082436084747314 0.42073258757591248
0.33011868596076965 0.96127450466156006 0.40984582901000977
0.31969177722930908 0.96488887071609497 0.42261338233947754
0.41991546750068665 0.97319567203521729 0.39990326762199402
0.70088547468185425 0.96789717674255371 0.44082912802696228
0.97118902206420898 0.96057283878326416 0.44072258472442627
0.11874864995479584 0.073893576860427856 0.62470090389251709
0.28594478964805603 0.079827703535556793 0.62580674886703491
0.4851309061050415 0.081422947347164154 0.61219710111618042
0.71677428483963013 0.07595304399728775 0.61325287818908691
0.96305227279663086 0.042853470891714096 0.68839740753173828
0.14244027435779572 0.2645881175994873 0.64040851593017578
0.29706102609634399 0.27367755770683289 0.62376052141189575
0.50000864267349243 0.2758939266204834 0.61690497398376465
0.73743754625320435 0.25672757625579834 0.62745654582977295
0.97241222858428955 0.23741702735424042 0.67979031801223755
0.15096846222877502 0.49116343259811401 0.65129804611206055
0.31211355328559875 0.5012785792350769 0.63483041524887085
0.52688217163085938 0.50061076879501343 0.62739628553390503
0.76059615612030029 0.48512136936187744 0.64514482021331787
0.97337579727172852 0.47841539978981018 0.68974512815475464
0.18972787261009216 0.72537052631378174 0.64866197109222412
0.30385106801986694 0.72754579782485962 0.62951093912124634
0.53439021110534668 0.73062998056411743 0.63286906480789185
0.76087421178817749 0.72646534442901611 0.68187844753265381
0.97848159074783325 0.72518128156661987 0.67341291904449463
0.33828368782997131 0.96171563863754272 0.64938807487487793
0.33000627160072327 0.96661269664764404 0.64084082841873169
0.41833502054214478 0.97388797998428345 0.63549667596817017
0.70244884490966797 0.97039860486984253 0.64656317234039307
0.96703082323074341 0.96127450466156006 0.66260397434234619
0.046328045427799225 0.04792022705078125 0.77052372694015503
0.24331098794937134 0.072293959558010101 0.80163097381591797
0.45675447583198547 0.099932141602039337 0.85157358646392822
0.72057777643203735 0.068233296275138855 0.93183630704879761
0.96633529663085938 0.077384263277053833 0.93483173847198486
0.058004237711429596 0.2657712996006012 0.84709137678146362
0.24384501576423645 0.28108370304107666 0.86788260936737061
0.46424347162246704 0.29733431339263916 0.90226608514785767
0.72135072946548462 0.28191348910331726 0.92798459529876709
0.97483664751052856 0.26128309965133667 0.92750102281570435
0.073061071336269379 0.49448028206825256 0.93729758262634277
0.24051102995872498 0.51008296012878418 0.92787909507751465
0.45548197627067566 0.52155524492263794 0.913798987865448
0.72143131494522095 0.50842761993408203 0.92787718772888184
0.97946131229400635 0.48378312587738037 0.92616122961044312
0.16469109058380127 0.73323053121566772 0.90957391262054443
0.24837912619113922 0.74280601739883423 0.89727216958999634
0.43790432810783386 0.75186973810195923 0.88622713088989258
0.71299660205841064 0.74311333894729614 0.90254759788513184
0.97335857152938843 0.73037898540496826 0.91654127836227417
0.35780274868011475 0.9659157395362854 0.89082163572311401
0.36353269219398499 0.97060441970825195 0.87652868032455444
0.41770035028457642 0.97672021389007568 0.8757135272026062
0.69876021146774292 0.97378355264663696 0.88046258687973022
0.96205180883407593 0.96387511491775513 0.91985172033309937
