assets/lut/pixlsus sweet gelatto.cube
# Created by: G'MIC (https://gmic.eu)
TITLE "sweet_gelatto"
# LUT size
LUT_3D_SIZE 7
# Data domain
DOMAIN_MIN 0.0 0.0 0.0
DOMAIN_MAX 1.0 1.0 1.0
# LUT data points
0.069751784205436707 0.004213250707834959 0.066818192601203918
0.32331669330596924 0.01071644201874733 0.066142484545707703
0.61274510622024536 0.020169785246253014 0.072036877274513245
0.9206501841545105 0.024317303672432899 0.061057612299919128
0.98167163133621216 0.026600033044815063 0.062881499528884888
0.99612200260162354 0.030312975868582726 0.060015540570020676
1 0.02829609252512455 0.055870503187179565
0.073490604758262634 0.040807146579027176 0.064440436661243439
0.32632553577423096 0.067291915416717529 0.067811824381351471
0.61294209957122803 0.088364802300930023 0.070144876837730408
0.9190218448638916 0.097761757671833038 0.056260500103235245
0.98182326555252075 0.12587124109268188 0.05967114120721817
0.99620097875595093 0.13604001700878143 0.058223199099302292
1 0.13047578930854797 0.053449206054210663
0.070682570338249207 0.14685837924480438 0.056646384298801422
0.32202327251434326 0.1877908855676651 0.054424960166215897
0.61291468143463135 0.23471760749816895 0.063554607331752777
0.91724121570587158 0.27368533611297607 0.059180974960327148
0.98169451951980591 0.29185137152671814 0.057668261229991913
0.99644619226455688 0.30214059352874756 0.053682036697864532
1 0.31001919507980347 0.04182109609246254
0.073678649961948395 0.40684723854064941 0.048801615834236145
0.31873366236686707 0.46860751509666443 0.04586956650018692
0.61139768362045288 0.51827478408813477 0.049599844962358475
0.92188328504562378 0.58201706409454346 0.033433262258768082
0.98261368274688721 0.61452299356460571 0.049897540360689163
0.99900412559509277 0.61026620864868164 0.058704808354377747
1 0.62650096416473389 0.028959266841411591
0.080964617431163788 0.70334774255752563 0.035680703818798065
0.32015648484230042 0.73545747995376587 0.038204941898584366
0.60532009601593018 0.77157360315322876 0.03398406133055687
0.91738760471343994 0.81351935863494873 0.021607208997011185
0.97938024997711182 0.83271247148513794 0.029129715636372566
0.99927598237991333 0.85001194477081299 0.035075169056653976
1 0.85534167289733887 0.019390704110264778
0.081230491399765015 0.87559604644775391 0.028129981830716133
0.32238978147506714 0.89261323213577271 0.030044136568903923
0.6011807918548584 0.91351151466369629 0.021635975688695908
0.91805779933929443 0.93739140033721924 0.01537456177175045
0.97994768619537354 0.94256263971328735 0.019554078578948975
0.99922901391983032 0.95087021589279175 0.020893275737762451
1 0.95512223243713379 0.011885025538504124
0.079948678612709045 0.973979651927948 0.022697778418660164
0.32392638921737671 0.97570168972015381 0.022865265607833862
0.60357922315597534 0.9817044734954834 0.015618626959621906
0.91755807399749756 0.98632627725601196 0.012541214004158974
0.98216962814331055 0.98777288198471069 0.01182244997471571
0.99608308076858521 0.99026501178741455 0.010504105128347874
1 0.99130570888519287 0.0078823911026120186
0.09209480881690979 0.0072153126820921898 0.30666470527648926
0.32412135601043701 0.013511328957974911 0.29039376974105835
0.61831402778625488 0.024056289345026016 0.27452513575553894
0.92219007015228271 0.021394049748778343 0.25213634967803955
0.9779742956161499 0.029274854809045792 0.24712793529033661
0.9982374906539917 0.031410787254571915 0.24577304720878601
1 0.036865562200546265 0.23621894419193268
0.075118139386177063 0.045281756669282913 0.28327235579490662
0.32166957855224609 0.065105274319648743 0.26705896854400635
0.61327189207077026 0.095182798802852631 0.24742206931114197
0.92320674657821655 0.10199332237243652 0.22732073068618774
0.97992366552352905 0.1262068897485733 0.2276114821434021
0.99610722064971924 0.13974352180957794 0.22115552425384521
1 0.13835623860359192 0.209249347448349
0.073229752480983734 0.15811340510845184 0.2482353150844574
0.3196689784526825 0.19396887719631195 0.22920368611812592
0.6087641716003418 0.23336866497993469 0.21277783811092377
0.91800045967102051 0.27728253602981567 0.19038115441799164
0.98122137784957886 0.30322608351707458 0.18882414698600769
0.99657630920410156 0.32230126857757568 0.17555674910545349
1 0.32540059089660645 0.16984866559505463
0.071175053715705872 0.42353010177612305 0.19781245291233063
0.31778985261917114 0.48421770334243774 0.17669090628623962
0.60824042558670044 0.54442292451858521 0.15636485815048218
0.91873610019683838 0.60045725107192993 0.1329772025346756
0.98486864566802979 0.62536925077438354 0.12504325807094574
0.99931985139846802 0.62864226102828979 0.1171741858124733
1 0.64510858058929443 0.11377979069948196
0.10822655260562897 0.71580535173416138 0.14874278008937836
0.32561323046684265 0.73488336801528931 0.13456214964389801
0.60694003105163574 0.78555649518966675 0.11108142882585526
0.9149361252784729 0.82403254508972168 0.090068206191062927
0.98105061054229736 0.84119510650634766 0.083093397319316864
0.99775403738021851 0.85160672664642334 0.076256498694419861
1 0.86080324649810791 0.072510980069637299
0.11542744189500809 0.87668371200561523 0.11674438416957855
0.32629656791687012 0.89180189371109009 0.10439407080411911
0.60325455665588379 0.91686946153640747 0.082474716007709503
0.9122999906539917 0.93785637617111206 0.061066392809152603
0.97982728481292725 0.94557392597198486 0.057139169424772263
0.99625289440155029 0.95013940334320068 0.049532901495695114
1 0.95673173666000366 0.045389782637357712
0.11025170981884003 0.96923190355300903 0.094868555665016174
0.32776942849159241 0.97183138132095337 0.081440657377243042
0.60567504167556763 0.98042362928390503 0.063033372163772583
0.92005413770675659 0.98815238475799561 0.042963739484548569
0.97690331935882568 0.98528242111206055 0.043883845210075378
0.99386352300643921 0.98678135871887207 0.038912080228328705
0.99997663497924805 0.99106204509735107 0.032066464424133301
0.10420560836791992 0.013183100149035454 0.57867878675460815
0.32524174451828003 0.021326102316379547 0.5325005054473877
0.6135668158531189 0.027710843831300735 0.50077790021896362
0.92281109094619751 0.024023856967687607 0.47067093849182129
0.97931325435638428 0.029976325109601021 0.45379140973091125
0.99855023622512817 0.028855402022600174 0.44869709014892578
1 0.035929795354604721 0.44552832841873169
0.10206376761198044 0.060598082840442657 0.52340543270111084
0.32386583089828491 0.079268947243690491 0.49129626154899597
0.60601913928985596 0.098041564226150513 0.45901691913604736
0.9213375449180603 0.10928461700677872 0.42771491408348083
0.98046070337295532 0.1240575909614563 0.41131362318992615
0.99608850479125977 0.13237488269805908 0.40244176983833313
1 0.13718433678150177 0.40101209282875061
0.085834398865699768 0.17500029504299164 0.45828515291213989
0.32010132074356079 0.20601499080657959 0.42992040514945984
0.60588622093200684 0.24534554779529572 0.39543768763542175
0.92098480463027954 0.28826084733009338 0.35780572891235352
0.98433452844619751 0.32285323739051819 0.33992230892181396
0.99703264236450195 0.33594107627868652 0.32889345288276672
1 0.33898541331291199 0.32482677698135376
0.070659101009368896 0.43920180201530457 0.37167114019393921
0.31769540905952454 0.49534553289413452 0.33425241708755493
0.60887271165847778 0.55693352222442627 0.29525899887084961
0.92122513055801392 0.60217177867889404 0.25970256328582764
0.98785829544067383 0.62449920177459717 0.24022947251796722
0.99936741590499878 0.65047329664230347 0.22590303421020508
1 0.65822094678878784 0.21972720324993134
0.11798521876335144 0.72048139572143555 0.28311941027641296
0.3246370255947113 0.75580519437789917 0.25050055980682373
0.6035313606262207 0.7919917106628418 0.21739731729030609
0.91870206594467163 0.83244216442108154 0.1778484582901001
0.98499369621276855 0.84975135326385498 0.15865162014961243
0.99716371297836304 0.86293178796768188 0.14882634580135345
1 0.87379777431488037 0.14176705479621887
0.11767661571502686 0.88384264707565308 0.22349107265472412
0.32672581076622009 0.90238821506500244 0.1924898624420166
0.60801368951797485 0.91836374998092651 0.15886801481246948
0.91156327724456787 0.93800133466720581 0.12537115812301636
0.98410367965698242 0.95103853940963745 0.10813431441783905
0.99482089281082153 0.94829899072647095 0.10712314397096634
0.99935233592987061 0.95886796712875366 0.10581403225660324
0.10989589244127274 0.97534632682800293 0.18288539350032806
0.32637712359428406 0.97554886341094971 0.15780973434448242
0.60893195867538452 0.98124855756759644 0.12491150200366974
0.92043966054916382 0.98858141899108887 0.087616816163063049
0.97710323333740234 0.98370116949081421 0.086799174547195435
0.99151790142059326 0.98532736301422119 0.081804461777210236
0.99846816062927246 0.99169212579727173 0.073462136089801788
0.075215071439743042 0.010544930584728718 0.84138685464859009
0.31961989402770996 0.01825459860265255 0.80185991525650024
0.60532110929489136 0.020889731124043465 0.75900334119796753
0.9197506308555603 0.02185853011906147 0.71474504470825195
0.9813542366027832 0.027668088674545288 0.68927234411239624
0.99785983562469482 0.025068813934922218 0.68586695194244385
1 0.027510415762662888 0.68178063631057739
0.081278540194034576 0.06036955863237381 0.78670269250869751
0.3205740749835968 0.07956492155790329 0.73526346683502197
0.60577815771102905 0.09618416428565979 0.69574213027954102
0.92229700088500977 0.11212557554244995 0.64994412660598755
0.98053658008575439 0.12843650579452515 0.6166725754737854
0.99796599149703979 0.1353524774312973 0.60940778255462646
1 0.13470086455345154 0.60370075702667236
0.077317990362644196 0.18440443277359009 0.69310611486434937
0.3223273754119873 0.22055499255657196 0.64449316263198853
0.60972064733505249 0.25731384754180908 0.59660083055496216
0.92331123352050781 0.29757878184318542 0.54845017194747925
0.98417860269546509 0.32794907689094543 0.52591723203659058
0.99768352508544922 0.34632962942123413 0.50575536489486694
1 0.34614291787147522 0.49023711681365967
0.071059465408325195 0.44452399015426636 0.57039725780487061
0.31766489148139954 0.51357924938201904 0.51589334011077881
0.60935920476913452 0.56648582220077515 0.46733987331390381
0.92650115489959717 0.61882835626602173 0.40873903036117554
0.98809117078781128 0.64971768856048584 0.38564017415046692
0.99993085861206055 0.67191547155380249 0.36931586265563965
1 0.68046689033508301 0.35294064879417419
0.082738332450389862 0.73927026987075806 0.44310683012008667
0.32511162757873535 0.7693706750869751 0.40230882167816162
0.60853683948516846 0.80136382579803467 0.36422637104988098
0.92139774560928345 0.84198683500289917 0.29599729180335999
0.98704725503921509 0.86531645059585571 0.26736977696418762
0.99923169612884521 0.87470018863677979 0.27439993619918823
1 0.88345235586166382 0.26862427592277527
0.084763273596763611 0.89231503009796143 0.36007529497146606
0.32814708352088928 0.90047085285186768 0.31846871972084045
0.60890835523605347 0.92023420333862305 0.26807591319084167
0.92165321111679077 0.94876432418823242 0.21404314041137695
0.98430413007736206 0.95239216089248657 0.21090303361415863
0.99603581428527832 0.95407223701477051 0.2232770174741745
0.99975067377090454 0.96589100360870361 0.20441678166389465
0.077708825469017029 0.97785443067550659 0.30048537254333496
0.32037895917892456 0.97927802801132202 0.25650012493133545
0.60902971029281616 0.98087131977081299 0.22099576890468597
0.91988754272460938 0.99090659618377686 0.18129634857177734
0.9811251163482666 0.99146169424057007 0.15640963613986969
0.99417728185653687 0.99126178026199341 0.15062683820724487
0.99912434816360474 0.99337482452392578 0.13729701936244965
0.10031656175851822 0.023939859122037888 0.91673731803894043
0.32720857858657837 0.044141042977571487 0.87436103820800781
0.6121794581413269 0.039135172963142395 0.84954899549484253
0.92266052961349487 0.022620122879743576 0.83677780628204346
0.97550487518310547 0.035652488470077515 0.81628674268722534
0.9906572699546814 0.039781637489795685 0.80142778158187866
0.99977201223373413 0.03442363440990448 0.80002391338348389
0.095476038753986359 0.075129985809326172 0.87328535318374634
0.32110151648521423 0.083713173866271973 0.84499698877334595
0.60434937477111816 0.10482513159513474 0.81464546918869019
0.91975092887878418 0.11558010429143906 0.78903728723526001
0.97631943225860596 0.13917919993400574 0.76522767543792725
0.99477189779281616 0.16077770292758942 0.7477799654006958
1 0.16773812472820282 0.73828697204589844
0.077621966600418091 0.19514487683773041 0.81982934474945068
0.32147637009620667 0.22947336733341217 0.7851104736328125
0.60501563549041748 0.27392622828483582 0.74550563097000122
0.91647779941558838 0.31130048632621765 0.71471983194351196
0.98048269748687744 0.33345505595207214 0.69630181789398193
0.99991309642791748 0.3473961353302002 0.67770540714263916
1 0.36083877086639404 0.65888911485671997
0.074709348380565643 0.47142225503921509 0.72730523347854614
0.32066673040390015 0.53967779874801636 0.68644219636917114
0.60796248912811279 0.59986674785614014 0.64848065376281738
0.92837822437286377 0.63951253890991211 0.61232048273086548
0.98769277334213257 0.6684572696685791 0.59341651201248169
1 0.68639612197875977 0.58106499910354614
1 0.69799762964248657 0.57065695524215698
0.085442580282688141 0.7516595721244812 0.6274559497833252
0.32352522015571594 0.78142070770263672 0.6000402569770813
0.61073964834213257 0.81986004114151001 0.57323020696640015
0.92286002635955811 0.85605794191360474 0.53416907787322998
0.98773086071014404 0.87398773431777954 0.51409465074539185
0.99921500682830811 0.88512510061264038 0.50316876173019409
1 0.89291316270828247 0.49276599287986755
0.087970510125160217 0.8912011981010437 0.57302802801132202
0.3340088427066803 0.90684247016906738 0.53673946857452393
0.60988312959671021 0.92746162414550781 0.50205034017562866
0.9230266809463501 0.9543454647064209 0.47867494821548462
0.98354870080947876 0.95916604995727539 0.46703165769577026
0.99565267562866211 0.96429902315139771 0.45530173182487488
1 0.97150713205337524 0.4354853630065918
0.096880219876766205 0.97575372457504272 0.53693932294845581
0.32343652844429016 0.97451716661453247 0.4851955771446228
0.6131708025932312 0.97534859180450439 0.4569489061832428
0.91970497369766235 0.99113547801971436 0.44708982110023499
0.98045808076858521 0.98938208818435669 0.44090044498443604
0.99363487958908081 0.98846650123596191 0.42634293437004089
0.99929392337799072 0.99349284172058105 0.38823720812797546
0.1122046560049057 0.028893938288092613 0.94536668062210083
0.32890704274177551 0.059334564954042435 0.9262089729309082
0.61735087633132935 0.050988409668207169 0.91961914300918579
0.91984033584594727 0.027620038017630577 0.91356164216995239
0.96992844343185425 0.042063124477863312 0.9067310094833374
0.98481100797653198 0.049407646059989929 0.90197527408599854
0.99791193008422852 0.041491132229566574 0.90262359380722046
0.10970011353492737 0.086991332471370697 0.92760461568832397
0.32348823547363281 0.093786098062992096 0.92217093706130981
0.60802221298217773 0.11567071825265884 0.90641897916793823
0.91438382863998413 0.12547342479228973 0.88807469606399536
0.97181588411331177 0.15549688041210175 0.876941978931427
0.9905707836151123 0.17770808935165405 0.87311053276062012
0.99999171495437622 0.19097153842449188 0.86661320924758911
0.081603571772575378 0.20747062563896179 0.90398526191711426
0.32400819659233093 0.23932816088199615 0.88649493455886841
0.6054261326789856 0.28901731967926025 0.86630165576934814
0.91539919376373291 0.32138156890869141 0.84531533718109131
0.98095101118087769 0.35487809777259827 0.83286434412002563
0.99787318706512451 0.35828828811645508 0.82679086923599243
1 0.36924296617507935 0.8240547776222229
0.082373648881912231 0.48420646786689758 0.85308170318603516
0.32399550080299377 0.5536268949508667 0.83019363880157471
0.60725420713424683 0.61547386646270752 0.80819219350814819
0.92418307065963745 0.65980470180511475 0.78909742832183838
0.98762595653533936 0.67716401815414429 0.77786493301391602
0.99958950281143188 0.70219779014587402 0.77108174562454224
1 0.71206164360046387 0.76833003759384155
0.10424458980560303 0.76604223251342773 0.80080515146255493
0.32647585868835449 0.78703683614730835 0.78436464071273804
0.6082763671875 0.83004939556121826 0.76670122146606445
0.92633825540542603 0.86885309219360352 0.74760085344314575
0.98695701360702515 0.88680368661880493 0.73686593770980835
0.99873822927474976 0.8965458869934082 0.73080474138259888
1 0.90878975391387939 0.72438681125640869
0.083138391375541687 0.8983643651008606 0.76893150806427002
0.33782443404197693 0.91010719537734985 0.74678546190261841
0.61750656366348267 0.93012094497680664 0.73558998107910156
0.92762351036071777 0.96103763580322266 0.72045660018920898
0.98399049043655396 0.96188348531723022 0.71420884132385254
0.99487751722335815 0.97024989128112793 0.70729744434356689
1 0.97699415683746338 0.70070827007293701
0.16508670151233673 0.97386658191680908 0.74754893779754639
0.32840371131896973 0.97880244255065918 0.73468267917633057
0.62057691812515259 0.97750222682952881 0.70820128917694092
0.92238342761993408 0.99313724040985107 0.70255470275878906
0.97888368368148804 0.99137550592422485 0.69691461324691772
0.99354499578475952 0.99058246612548828 0.69484353065490723
0.99955660104751587 0.99444580078125 0.68713593482971191
0.080667637288570404 0.022379422560334206 0.98533439636230469
0.32984361052513123 0.04818001389503479 0.97600150108337402
0.61370325088500977 0.050004728138446808 0.97524583339691162
0.9193693995475769 0.028361242264509201 0.97938662767410278
0.97261720895767212 0.04267570748925209 0.97356182336807251
0.98614495992660522 0.049497026950120926 0.97172588109970093
0.99817478656768799 0.037318885326385498 0.97614628076553345
0.089447766542434692 0.089681543409824371 0.97978121042251587
0.32632249593734741 0.11824152618646622 0.96171897649765015
0.60704046487808228 0.13943372666835785 0.96791225671768188
0.91739898920059204 0.13058565557003021 0.97122013568878174
0.97372114658355713 0.15144900977611542 0.96716398000717163
0.99251365661621094 0.16023574769496918 0.97092622518539429
1 0.17662797868251801 0.96560859680175781
0.078251108527183533 0.21113912761211395 0.97271239757537842
0.32305711507797241 0.25005483627319336 0.95460450649261475
0.60957586765289307 0.2843874990940094 0.96728032827377319
0.91567951440811157 0.32633516192436218 0.95819956064224243
0.98017585277557373 0.35402035713195801 0.95472890138626099
0.99746024608612061 0.3629365861415863 0.95783084630966187
1 0.37165528535842896 0.95672965049743652
0.080095909535884857 0.50005161762237549 0.96389788389205933
0.31797358393669128 0.55298894643783569 0.95513606071472168
0.60744976997375488 0.60697966814041138 0.95752012729644775
0.92508107423782349 0.66291999816894531 0.95336234569549561
0.98697102069854736 0.69501280784606934 0.95014530420303345
0.99940824508666992 0.71054518222808838 0.94994831085205078
1 0.72694569826126099 0.94815587997436523
0.080680489540100098 0.76609081029891968 0.94971615076065063
0.31859111785888672 0.79976320266723633 0.95103752613067627
0.60864591598510742 0.8411145806312561 0.94737672805786133
0.92717921733856201 0.8784562349319458 0.94462817907333374
0.986491858959198 0.89698916673660278 0.94132053852081299
0.99966412782669067 0.9073607325553894 0.94000321626663208
1 0.91544175148010254 0.93814325332641602
0.076311416923999786 0.90589916706085205 0.94679933786392212
0.32319909334182739 0.92216616868972778 0.94143927097320557
0.61114346981048584 0.94286191463470459 0.93957608938217163
0.92827689647674561 0.96568828821182251 0.93845224380493164
0.98758643865585327 0.97382372617721558 0.93707764148712158
0.99914067983627319 0.97905480861663818 0.93628787994384766
1 0.98280555009841919 0.93397730588912964
0.086512953042984009 0.98058629035949707 0.94140040874481201
0.32116732001304626 0.98173636198043823 0.93973183631896973
0.61282390356063843 0.98809212446212769 0.93513971567153931
0.92893815040588379 0.99526840448379517 0.9366377592086792
0.98702782392501831 0.99687165021896362 0.93385571241378784
0.9986339807510376 0.99789291620254517 0.93052089214324951
1 0.99950021505355835 0.93237960338592529
