assets/lut/pixlsus magenta yellow.cube
# Created by: G'MIC (https://gmic.eu)
TITLE "magenta_yellow"
# LUT size
LUT_3D_SIZE 7
# Data domain
DOMAIN_MIN 0.0 0.0 0.0
DOMAIN_MAX 1.0 1.0 1.0
# LUT data points
0.097288556396961212 0.070831656455993652 0.09713822603225708
0.2538067102432251 0.026504261419177055 0.049642257392406464
0.37428206205368042 0.027233198285102844 0.041175529360771179
0.50768882036209106 0.033801224082708359 0.039122801274061203
0.65237993001937866 0.053438898175954819 0.037268619984388351
0.80409902334213257 0.086519606411457062 0.034492924809455872
0.96071875095367432 0.12786073982715607 0.030401222407817841
0.054884426295757294 0.22431831061840057 0.052208274602890015
0.24432767927646637 0.20802026987075806 0.04532482847571373
0.37303376197814941 0.17851909995079041 0.037520658224821091
0.50268542766571045 0.17353680729866028 0.035263676196336746
0.64727437496185303 0.19659630954265594 0.034372590482234955
0.80048239231109619 0.23838534951210022 0.031151222065091133
0.95735293626785278 0.28518086671829224 0.027611929923295975
0.04428514838218689 0.34497550129890442 0.04103420302271843
0.22044411301612854 0.34175419807434082 0.033357225358486176
0.36465358734130859 0.32694917917251587 0.030297612771391869
0.50027340650558472 0.31892099976539612 0.031336721032857895
0.64533889293670654 0.34332078695297241 0.030401341617107391
0.79934239387512207 0.38740456104278564 0.028397608548402786
0.95735293626785278 0.43828967213630676 0.025686601176857948
0.042839769273996353 0.47466391324996948 0.035154171288013458
0.20892581343650818 0.47858050465583801 0.025847550481557846
0.35953631997108459 0.48149943351745605 0.024577511474490166
0.50280815362930298 0.48272857069969177 0.025862107053399086
0.64939391613006592 0.500282883644104 0.027042567729949951
0.80294120311737061 0.53869462013244629 0.026694757863879204
0.95788544416427612 0.58886986970901489 0.025192350149154663
0.042337827384471893 0.64986240863800049 0.030664287507534027
0.20777823030948639 0.64958798885345459 0.023937540128827095
0.36174404621124268 0.65389925241470337 0.021507352590560913
0.5086371898651123 0.65328389406204224 0.021629229187965393
0.65558987855911255 0.65894013643264771 0.023327367380261421
0.80686277151107788 0.68929272890090942 0.024854622781276703
0.96127450466156006 0.74023252725601196 0.023902444168925285
0.043359015136957169 0.81859910488128662 0.030296415090560913
0.2089097797870636 0.81863105297088623 0.023478774353861809
0.36540955305099487 0.81885820627212524 0.018349921330809593
0.51502513885498047 0.81544440984725952 0.016239704564213753
0.66206610202789307 0.80941659212112427 0.015690209344029427
0.81017762422561646 0.81624084711074829 0.017223194241523743
0.96127450466156006 0.89382630586624146 0.017621763050556183
0.043349485844373703 0.96616435050964355 0.029856318607926369
0.20918525755405426 0.97022765874862671 0.021781442686915398
0.36715686321258545 0.96989589929580688 0.015183916315436363
0.52026379108428955 0.96513181924819946 0.011440321803092957
0.66875720024108887 0.95340842008590698 0.0096408920362591743
0.81626206636428833 0.9457133412361145 0.0091240527108311653
0.9620814323425293 0.97882384061813354 0.018921077251434326
0.054549947381019592 0.021684100851416588 0.26323536038398743
0.24166740477085114 0.010586682707071304 0.23682133853435516
0.37165918946266174 0.014297635294497013 0.20669688284397125
0.50564956665039062 0.023969821631908417 0.19439435005187988
0.64999550580978394 0.04716428741812706 0.18747453391551971
0.80294120311737061 0.085097357630729675 0.18191960453987122
0.957466721534729 0.12808944284915924 0.1763092577457428
0.054389804601669312 0.21332192420959473 0.24754126369953156
0.24316962063312531 0.16705244779586792 0.23635736107826233
0.37453740835189819 0.15921376645565033 0.2050449550151825
0.50386768579483032 0.16579699516296387 0.18742521107196808
0.64676642417907715 0.19326615333557129 0.1800171434879303
0.79902565479278564 0.23881222307682037 0.17426612973213196
0.95735293626785278 0.29067853093147278 0.16821803152561188
0.044435866177082062 0.34775471687316895 0.21685943007469177
0.22123192250728607 0.32727566361427307 0.20818574726581573
0.36810657382011414 0.31052279472351074 0.1942046582698822
0.50183987617492676 0.31099677085876465 0.17958599328994751
0.6454397439956665 0.34110555052757263 0.17234262824058533
0.79959285259246826 0.39086911082267761 0.16700795292854309
0.95736849308013916 0.44892600178718567 0.16065460443496704
0.038290359079837799 0.47871741652488708 0.19400744140148163
0.20377056300640106 0.46700188517570496 0.18085989356040955
0.35804623365402222 0.46781343221664429 0.17807085812091827
0.50039935111999512 0.4689640998840332 0.17381945252418518
0.64851933717727661 0.49522325396537781 0.16953301429748535
0.80294120311737061 0.54171240329742432 0.16429248452186584
0.96036350727081299 0.60023564100265503 0.15673588216304779
0.037683330476284027 0.64518928527832031 0.18374939262866974
0.2021336704492569 0.64439523220062256 0.17323301732540131
0.35909959673881531 0.64966189861297607 0.17008045315742493
0.50614970922470093 0.64576870203018188 0.16917374730110168
0.65330606698989868 0.65299743413925171 0.16850055754184723
0.80686277151107788 0.69034880399703979 0.16363826394081116
0.96127450466156006 0.75039064884185791 0.15253537893295288
0.039807472378015518 0.8139154314994812 0.18017531931400299
0.20472712814807892 0.81676626205444336 0.17012238502502441
0.36310842633247375 0.81859505176544189 0.16365720331668854
0.51338040828704834 0.81476467847824097 0.16070850193500519
0.66017156839370728 0.80606186389923096 0.16148608922958374
0.80825275182723999 0.82169008255004883 0.15944211184978485
0.96127450466156006 0.90337103605270386 0.1457940936088562
0.040719453245401382 0.96482449769973755 0.17683745920658112
0.20617654919624329 0.96815294027328491 0.16553926467895508
0.36602544784545898 0.97066640853881836 0.1560896635055542
0.52010041475296021 0.96974748373031616 0.15053659677505493
0.66885071992874146 0.96329563856124878 0.14884679019451141
0.81610256433486938 0.95671075582504272 0.14843174815177917
0.96175587177276611 0.97369825839996338 0.15136365592479706
0.039159256964921951 0.012407594360411167 0.38456133008003235
0.21732103824615479 0.011721247807145119 0.37418302893638611
0.36368492245674133 0.012368191033601761 0.35690054297447205
0.50475805997848511 0.018331728875637054 0.34380751848220825
0.65131247043609619 0.040462478995323181 0.33593416213989258
0.80294120311737061 0.078758254647254944 0.32939237356185913
0.95735293626785278 0.12364520132541656 0.32242363691329956
0.048277508467435837 0.18217718601226807 0.37507101893424988
0.22303247451782227 0.16464261710643768 0.37345850467681885
0.36822113394737244 0.14596302807331085 0.35843062400817871
0.50475668907165527 0.15479926764965057 0.33793345093727112
0.64885985851287842 0.1875329464673996 0.32692739367485046
0.80294120311737061 0.23585844039916992 0.31946489214897156
0.95741397142410278 0.29141727089881897 0.31128808856010437
0.045195963233709335 0.33476027846336365 0.35995912551879883
0.21956159174442291 0.31702810525894165 0.35892757773399353
0.37093028426170349 0.27932465076446533 0.35507196187973022
0.50474566221237183 0.29245781898498535 0.32992181181907654
0.64886915683746338 0.33729517459869385 0.31677186489105225
0.80295866727828979 0.39434754848480225 0.3095632791519165
0.96101552248001099 0.45957395434379578 0.29926764965057373
0.038521695882081985 0.4815041720867157 0.34292760491371155
0.20653702318668365 0.47082749009132385 0.33569085597991943
0.36081588268280029 0.45045304298400879 0.33188489079475403
0.5010109543800354 0.44690153002738953 0.32237657904624939
0.65033966302871704 0.49140620231628418 0.31393992900848389
0.80642729997634888 0.55113154649734497 0.30592811107635498
0.96127450466156006 0.61714297533035278 0.29479151964187622
0.035532992333173752 0.64731216430664062 0.33277863264083862
0.20061841607093811 0.64634901285171509 0.3238258957862854
0.3592134416103363 0.64078438282012939 0.31953740119934082
0.5079420804977417 0.63920509815216064 0.31643357872962952
0.65512216091156006 0.6558912992477417 0.31383511424064636
0.80695629119873047 0.70515334606170654 0.30691307783126831
0.96131759881973267 0.76494747400283813 0.29566770792007446
0.036344535648822784 0.81078433990478516 0.32707855105400085
0.20049424469470978 0.81469100713729858 0.31679168343544006
0.36165869235992432 0.81474804878234863 0.31027388572692871
0.51650881767272949 0.81488049030303955 0.30681887269020081
0.6622435450553894 0.80722630023956299 0.3064696192741394
0.80964738130569458 0.82300126552581787 0.30611947178840637
0.96156191825866699 0.91999536752700806 0.29651346802711487
0.037002444267272949 0.96130609512329102 0.32127466797828674
0.20155100524425507 0.96210575103759766 0.30926498770713806
0.36416530609130859 0.96665662527084351 0.30013355612754822
0.52289223670959473 0.97216796875 0.29508575797080994
0.67259395122528076 0.96920680999755859 0.29437488317489624
0.81809496879577637 0.95856362581253052 0.29696375131607056
0.96189367771148682 0.97151029109954834 0.29635748267173767
0.035870000720024109 0.014412554912269115 0.50020807981491089
0.20626461505889893 0.017004873603582382 0.49686288833618164
0.35816481709480286 0.017460482195019722 0.49236413836479187
0.50470662117004395 0.02076110802590847 0.48847606778144836
0.65266126394271851 0.037732936441898346 0.48537945747375488
0.80484551191329956 0.071548044681549072 0.47987285256385803
0.95912212133407593 0.11546953767538071 0.47229057550430298
0.044797517359256744 0.16946031153202057 0.48843270540237427
0.21078003942966461 0.1677543967962265 0.48964160680770874
0.35840114951133728 0.15810096263885498 0.48600292205810547
0.50385588407516479 0.15743823349475861 0.48277491331100464
0.65229344367980957 0.18256969749927521 0.47909381985664368
0.80294120311737061 0.22841131687164307 0.47204294800758362
0.95943468809127808 0.28414720296859741 0.46236473321914673
0.044485863298177719 0.32263350486755371 0.48813745379447937
0.21194484829902649 0.31581750512123108 0.48717755079269409
0.36137619614601135 0.29343080520629883 0.48419225215911865
0.50474268198013306 0.28821286559104919 0.47709527611732483
0.65263950824737549 0.33156618475914001 0.47063130140304565
0.80677050352096558 0.39125233888626099 0.46243798732757568
0.96127450466156006 0.45918360352516174 0.45083692669868469
0.040277667343616486 0.4808402955532074 0.48669260740280151
0.20718947052955627 0.47372770309448242 0.48374605178833008
0.36237761378288269 0.44985607266426086 0.47952941060066223
0.50202286243438721 0.42587223649024963 0.466146320104599
0.65519529581069946 0.48877221345901489 0.46183529496192932
0.80800199508666992 0.56087076663970947 0.45358458161354065
0.96127450466156006 0.63794314861297607 0.44197750091552734
0.036848090589046478 0.65007287263870239 0.48263853788375854
0.2018735408782959 0.64994114637374878 0.47711065411567688
0.36251866817474365 0.6378893256187439 0.4722326397895813
0.51445740461349487 0.638286292552948 0.46288144588470459
0.65910172462463379 0.65869522094726562 0.45609191060066223
0.81070137023925781 0.72585183382034302 0.44946247339248657
0.96127450466156006 0.79576271772384644 0.43891260027885437
0.036395292729139328 0.80998796224594116 0.47679373621940613
0.2003810703754425 0.81450647115707397 0.46843883395195007
0.36519542336463928 0.81416177749633789 0.46136021614074707
0.52479273080825806 0.81853967905044556 0.45292669534683228
0.66886240243911743 0.81332218647003174 0.44708812236785889
0.80911070108413696 0.82370883226394653 0.44838577508926392
0.96131330728530884 0.94135934114456177 0.44146165251731873
0.036832667887210846 0.96127462387084961 0.46897655725479126
0.20154266059398651 0.96495586633682251 0.45822593569755554
0.36728930473327637 0.96877115964889526 0.44867664575576782
0.53007620573043823 0.96991920471191406 0.44010248780250549
0.68051141500473022 0.97023111581802368 0.43596312403678894
0.82100915908813477 0.96017897129058838 0.44007241725921631
0.96145462989807129 0.97033429145812988 0.43740850687026978
0.038021925836801529 0.034212853759527206 0.63053715229034424
0.20582567155361176 0.03692220151424408 0.6284710168838501
0.35969603061676025 0.036675203591585159 0.62987649440765381
0.50876343250274658 0.036664985120296478 0.63276898860931396
0.65685796737670898 0.046457640826702118 0.63424533605575562
0.80698192119598389 0.071465358138084412 0.63129156827926636
0.96127450466156006 0.10861306637525558 0.62421101331710815
0.04521453008055687 0.19056372344493866 0.62198549509048462
0.2092287689447403 0.19097363948822021 0.62103688716888428
0.36164239048957825 0.18711851537227631 0.62317937612533569
0.50892645120620728 0.18204408884048462 0.62802451848983765
0.65608125925064087 0.19172424077987671 0.63235622644424438
0.80686277151107788 0.2255081981420517 0.62695765495300293
0.96127450466156006 0.27432060241699219 0.61758047342300415
0.045656509697437286 0.34198278188705444 0.62548410892486572
0.2108595222234726 0.34173098206520081 0.62335550785064697
0.36497402191162109 0.33691436052322388 0.62226688861846924
0.5122143030166626 0.33054032921791077 0.62233340740203857
0.65706717967987061 0.34220588207244873 0.62554788589477539
0.80691266059875488 0.38768264651298523 0.61834245920181274
0.96127450466156006 0.44827523827552795 0.60807108879089355
0.042676154524087906 0.49940729141235352 0.63199418783187866
0.20857778191566467 0.49759101867675781 0.62968146800994873
0.36763304471969604 0.49466988444328308 0.62483656406402588
0.51709365844726562 0.49177306890487671 0.61424529552459717
0.6579737663269043 0.5006830096244812 0.61019057035446167
0.80744236707687378 0.56173515319824219 0.60409635305404663
0.96127450466156006 0.63680398464202881 0.59479916095733643
0.040137361735105515 0.65663164854049683 0.63382446765899658
0.20432950556278229 0.65572941303253174 0.63084065914154053
0.36661788821220398 0.65262448787689209 0.62501561641693115
0.51929670572280884 0.65097594261169434 0.61318647861480713
0.65913021564483643 0.65527188777923584 0.59958887100219727
0.80872982740402222 0.74051618576049805 0.59179604053497314
0.96130251884460449 0.83025491237640381 0.57922589778900146
0.038762111216783524 0.80690354108810425 0.62988108396530151
0.20187382400035858 0.80865567922592163 0.62495684623718262
0.36812946200370789 0.81102001667022705 0.61750966310501099
0.52736765146255493 0.80607962608337402 0.6049157977104187
0.67303216457366943 0.80767351388931274 0.58946424722671509
0.80957227945327759 0.82471382617950439 0.58776360750198364
0.961234450340271 0.95739108324050903 0.57589632272720337
0.039396293461322784 0.96279704570770264 0.6202126145362854
0.20287510752677917 0.96955579519271851 0.61265426874160767
0.3700219988822937 0.97194463014602661 0.60389471054077148
0.53399842977523804 0.9670601487159729 0.59089493751525879
0.6857416033744812 0.96746319532394409 0.57953023910522461
0.82452964782714844 0.96127110719680786 0.57896161079406738
0.96053379774093628 0.97738409042358398 0.57477498054504395
0.042702693492174149 0.0777755007147789 0.77292335033416748
0.20998857915401459 0.079399168491363525 0.7709229588508606
0.3654058575630188 0.07566235214471817 0.77309691905975342
0.51480209827423096 0.070940501987934113 0.77773720026016235
0.66268342733383179 0.071777299046516418 0.78114837408065796
0.81100142002105713 0.084957718849182129 0.78007835149765015
0.96127450466156006 0.11103487014770508 0.77505302429199219
0.047879267483949661 0.23424927890300751 0.76777052879333496
0.21350440382957458 0.23572303354740143 0.76532149314880371
0.36856755614280701 0.23372630774974823 0.76748538017272949
0.51742666959762573 0.22784574329853058 0.77276110649108887
0.6637500524520874 0.22668670117855072 0.77747994661331177
0.81124407052993774 0.24146649241447449 0.77653694152832031
0.96127450466156006 0.27415817975997925 0.77049928903579712
0.047296531498432159 0.3856951892375946 0.77160179615020752
0.21312406659126282 0.38984525203704834 0.76772254705429077
0.37101101875305176 0.39252796769142151 0.76579254865646362
0.52140218019485474 0.39212751388549805 0.76610583066940308
0.66631889343261719 0.39014068245887756 0.76906073093414307
0.81172448396682739 0.40544366836547852 0.76840043067932129
0.96127450466156006 0.44470062851905823 0.76272112131118774
0.043955080211162567 0.53843826055526733 0.77925699949264526
0.20966137945652008 0.54383903741836548 0.77361112833023071
0.37104377150535583 0.55183476209640503 0.7669907808303833
0.52553892135620117 0.56352370977401733 0.75830197334289551
0.66937661170959473 0.56417649984359741 0.75493687391281128
0.81180793046951294 0.57903444766998291 0.75462287664413452
0.96127450466156006 0.63420850038528442 0.74866622686386108
0.040908258408308029 0.6929667592048645 0.78252542018890381
0.20407193899154663 0.69847661256790161 0.77757114171981812
0.36821505427360535 0.70733457803726196 0.76955604553222656
0.5258832573890686 0.72409075498580933 0.75847548246383667
0.67309945821762085 0.74046778678894043 0.74510598182678223
0.80936884880065918 0.75209325551986694 0.74103367328643799
0.96127450466156006 0.83704078197479248 0.73036098480224609
0.039953388273715973 0.82141596078872681 0.78165441751480103
0.20081526041030884 0.8242916464805603 0.77827346324920654
0.36757951974868774 0.82185786962509155 0.76960861682891846
0.52898883819580078 0.82468932867050171 0.75875073671340942
0.67326664924621582 0.82075506448745728 0.74062043428421021
0.8107597827911377 0.82967108488082886 0.72395390272140503
0.96127063035964966 0.96291309595108032 0.71388435363769531
0.040904566645622253 0.96344894170761108 0.77218019962310791
0.20241731405258179 0.96095246076583862 0.76724499464035034
0.36763516068458557 0.96306091547012329 0.76102620363235474
0.53324699401855469 0.96100682020187378 0.74817222356796265
0.6842120885848999 0.95899403095245361 0.73088425397872925
0.82619243860244751 0.95484238862991333 0.71534258127212524
0.96158963441848755 0.97268331050872803 0.70987749099731445
0.045314054936170578 0.12714235484600067 0.9206387996673584
0.21222911775112152 0.12782612442970276 0.91832703351974487
0.36878383159637451 0.12282101809978485 0.91982734203338623
0.51964855194091797 0.11596155911684036 0.92339867353439331
0.66752499341964722 0.11097396910190582 0.92658358812332153
0.81468003988265991 0.11311613768339157 0.92695176601409912
0.96226519346237183 0.1268840879201889 0.92349922657012939
0.049622628837823868 0.28472542762756348 0.91740816831588745
0.2161753922700882 0.28930294513702393 0.91414564847946167
0.37307175993919373 0.28868141770362854 0.91413038969039917
0.52426701784133911 0.28427672386169434 0.91703927516937256
0.67103677988052368 0.2779405415058136 0.9208177924156189
0.81632030010223389 0.27740764617919922 0.92253822088241577
0.96279358863830566 0.29228070378303528 0.9200434684753418
0.047416131943464279 0.43677571415901184 0.91971534490585327
0.21443212032318115 0.44568163156509399 0.91442322731018066
0.37480133771896362 0.45398387312889099 0.91090220212936401
0.52835333347320557 0.45912572741508484 0.90931230783462524
0.6754378080368042 0.45549687743186951 0.91140902042388916
0.81800919771194458 0.44908982515335083 0.91464108228683472
0.96202766895294189 0.46060618758201599 0.91421985626220703
0.043472200632095337 0.58676713705062866 0.92496758699417114
0.20910285413265228 0.59902346134185791 0.91767829656600952
0.37085482478141785 0.61617237329483032 0.91003298759460449
0.53132486343383789 0.63730138540267944 0.90129917860031128
0.68161916732788086 0.64615368843078613 0.89807260036468506
0.82053518295288086 0.63613927364349365 0.90119212865829468
0.96147972345352173 0.64314883947372437 0.90262329578399658
0.040347591042518616 0.73661059141159058 0.92582637071609497
0.20389688014984131 0.74937736988067627 0.91965562105178833
0.36580434441566467 0.76876568794250488 0.91167831420898438
0.53282743692398071 0.79638189077377319 0.89942002296447754
0.68581521511077881 0.83446699380874634 0.8881409764289856
0.82355612516403198 0.83682870864868164 0.88537216186523438
0.96197032928466797 0.84094685316085815 0.88348215818405151
0.039651580154895782 0.89433306455612183 0.92470210790634155
0.20244474709033966 0.90175902843475342 0.92096066474914551
0.36728566884994507 0.9224008321762085 0.91271519660949707
0.53365832567214966 0.9421963095664978 0.90204423666000366
0.68418484926223755 0.95666074752807617 0.88597553968429565
0.82661944627761841 0.96499621868133545 0.86772853136062622
0.96249020099639893 0.97436606884002686 0.86214399337768555
0.040993049740791321 0.97666794061660767 0.92400294542312622
0.2006087452173233 0.97573012113571167 0.92028695344924927
0.36495158076286316 0.97423523664474487 0.91178256273269653
0.5332450270652771 0.97382664680480957 0.90041184425354004
0.68580567836761475 0.98008328676223755 0.88128435611724854
0.82839113473892212 0.9721992015838623 0.86183983087539673
0.96421277523040771 0.98213940858840942 0.84262454509735107
