assets/lut/pixlsus whiter whites.cube
# Created by: G'MIC (https://gmic.eu)
TITLE "whiter_whites"
# LUT size
LUT_3D_SIZE 13
# Data domain
DOMAIN_MIN 0.0 0.0 0.0
DOMAIN_MAX 1.0 1.0 1.0
# LUT data points
0.036394529044628143 0.038725491613149643 0.039956111460924149
0.11200980097055435 0.03880716860294342 0.037512790411710739
0.18927402794361115 0.03873482346534729 0.036061201244592667
0.26642155647277832 0.038725491613149643 0.038928475230932236
0.34296974539756775 0.038725491613149643 0.040596142411231995
0.41761857271194458 0.038725491613149643 0.040865294635295868
0.49411764740943909 0.038725491613149643 0.039165109395980835
0.57132351398468018 0.038725491613149643 0.036256454885005951
0.64852941036224365 0.038725491613149643 0.033009637147188187
0.72573530673980713 0.038725491613149643 0.03006959892809391
0.80294120311737061 0.038725491613149643 0.028293713927268982
0.88116264343261719 0.038886334747076035 0.028567923232913017
0.9609265923500061 0.039847593754529953 0.032597441226243973
0.038584675639867783 0.11358059197664261 0.046762697398662567
0.11222006380558014 0.11414592713117599 0.043185785412788391
0.18921801447868347 0.11550891399383545 0.036258548498153687
0.26640230417251587 0.11593136936426163 0.037626963108778
0.3420560359954834 0.11593136936426163 0.041678052395582199
0.41758087277412415 0.11593136936426163 0.04362913966178894
0.49474421143531799 0.11593136936426163 0.04237041249871254
0.57240241765975952 0.11593136936426163 0.039796296507120132
0.64982378482818604 0.11593136936426163 0.037142541259527206
0.7267601490020752 0.11593136936426163 0.034706819802522659
0.80376744270324707 0.11593136936426163 0.033667217940092087
0.88218438625335693 0.11593855172395706 0.034863848239183426
0.96115565299987793 0.11668439209461212 0.040144946426153183
0.040491320192813873 0.18945504724979401 0.047181658446788788
0.11340206116437912 0.18989337980747223 0.042636945843696594
0.18921568989753723 0.19098915159702301 0.036436028778553009
0.26609990000724792 0.19110517203807831 0.035851050168275833
0.34043440222740173 0.1919579803943634 0.040968142449855804
0.41777923703193665 0.19313725829124451 0.043984625488519669
0.49684047698974609 0.19313725829124451 0.043939255177974701
0.57497984170913696 0.19313725829124451 0.042375735938549042
0.65242606401443481 0.19313725829124451 0.040532145649194717
0.7296331524848938 0.19313725829124451 0.038934461772441864
0.80686277151107788 0.19313725829124451 0.038658380508422852
0.88406860828399658 0.19313725829124451 0.041380070149898529
0.96127450466156006 0.19314192235469818 0.048375688493251801
0.041699010878801346 0.27013251185417175 0.047791112214326859
0.1136406809091568 0.2703431248664856 0.043033119291067123
0.18921568989753723 0.2703431248664856 0.037680473178625107
0.26569190621376038 0.27017611265182495 0.034892603754997253
0.34175834059715271 0.27013835310935974 0.03796139732003212
0.42006048560142517 0.2703431248664856 0.041712202131748199
0.4980129599571228 0.27033343911170959 0.043457958847284317
0.57529520988464355 0.2696201503276825 0.043894238770008087
0.65248489379882812 0.26788833737373352 0.042901236563920975
0.7296568751335144 0.26749047636985779 0.041921652853488922
0.80686277151107788 0.26879674196243286 0.042350050061941147
0.88406860828399658 0.27030611038208008 0.047021426260471344
0.96127450466156006 0.2703431248664856 0.057157300412654877
0.042303316295146942 0.34754902124404907 0.049191523343324661
0.11235781013965607 0.34754902124404907 0.044868573546409607
0.18730193376541138 0.34754902124404907 0.040155716240406036
0.2641139030456543 0.34754902124404907 0.036250080913305283
0.34255725145339966 0.34724193811416626 0.036102741956710815
0.42090407013893127 0.3465065062046051 0.039320386946201324
0.49931219220161438 0.34569981694221497 0.04285004734992981
0.57786935567855835 0.34406289458274841 0.044918928295373917
0.65506553649902344 0.3436274528503418 0.045408613979816437
0.73081666231155396 0.3436274528503418 0.044268753379583359
0.80687707662582397 0.34363213181495667 0.044367052614688873
0.88406860828399658 0.34588143229484558 0.051934320479631424
0.96127450466156006 0.34754902124404907 0.067056469619274139
0.043872669339179993 0.42475488781929016 0.050302751362323761
0.11027860641479492 0.42475488781929016 0.047095518559217453
0.18412502110004425 0.42475488781929016 0.044332735240459442
0.26195961236953735 0.42475488781929016 0.040518920868635178
0.34194821119308472 0.42457735538482666 0.037982791662216187
0.42213955521583557 0.42405802011489868 0.038966923952102661
0.50175845623016357 0.42380461096763611 0.043326523154973984
0.57945770025253296 0.42333492636680603 0.048913754522800446
0.65644484758377075 0.42192327976226807 0.052024271339178085
0.73332655429840088 0.42103597521781921 0.05132586881518364
0.80799496173858643 0.42088505625724792 0.050238471478223801
0.88406860828399658 0.42258965969085693 0.061254255473613739
0.96127450466156006 0.42475488781929016 0.083708852529525757
0.049963407218456268 0.50196081399917603 0.051605150103569031
0.11020223796367645 0.50196081399917603 0.051290862262248993
0.18055607378482819 0.50196081399917603 0.050990041345357895
0.25795361399650574 0.50196081399917603 0.048056073486804962
0.3398679792881012 0.50196081399917603 0.042813275009393692
0.42260375618934631 0.50196081399917603 0.041010163724422455
0.50310415029525757 0.50196081399917603 0.047439664602279663
0.58125048875808716 0.50196081399917603 0.05874926969408989
0.65776491165161133 0.50188529491424561 0.06801527738571167
0.73367446660995483 0.50134789943695068 0.072071492671966553
0.80998480319976807 0.50086349248886108 0.074432089924812317
0.88432860374450684 0.50163388252258301 0.089395023882389069
0.96127450466156006 0.50196081399917603 0.11596982181072235
0.063901893794536591 0.57916665077209473 0.055917315185070038
0.11488038301467896 0.57916665077209473 0.06035880371928215
0.17802122235298157 0.57916665077209473 0.06478436291217804
0.25262725353240967 0.57916665077209473 0.063051469624042511
0.33509185910224915 0.57916665077209473 0.055571239441633224
0.42043492197990417 0.57916665077209473 0.050496973097324371
0.50205314159393311 0.57916665077209473 0.059673849493265152
0.58015841245651245 0.57916665077209473 0.078629329800605774
0.65735846757888794 0.57916665077209473 0.096987046301364899
0.73371422290802002 0.57916665077209473 0.11031600087881088
0.81012117862701416 0.57916665077209473 0.12123793363571167
0.88478696346282959 0.57916665077209473 0.13943438231945038
0.96127450466156006 0.57916665077209473 0.16583104431629181
0.088186018168926239 0.6563725471496582 0.073176443576812744
0.12669582664966583 0.6563725471496582 0.083683863282203674
0.17880097031593323 0.6563725471496582 0.092987984418869019
0.24654622375965118 0.6563725471496582 0.093250691890716553
0.32678166031837463 0.6563725471496582 0.085856854915618896
0.41229534149169922 0.6563725471496582 0.079976744949817657
0.49502700567245483 0.6563725471496582 0.089577585458755493
0.57468420267105103 0.6563725471496582 0.11141288280487061
0.65371614694595337 0.6563725471496582 0.13590553402900696
0.73165559768676758 0.6563725471496582 0.15727800130844116
0.80801761150360107 0.6563725471496582 0.17436444759368896
0.88411474227905273 0.6563725471496582 0.19467805325984955
0.96124494075775146 0.6563725471496582 0.21918810904026031
0.12590081989765167 0.73357844352722168 0.11567830294370651
0.14937932789325714 0.73357844352722168 0.12876231968402863
0.18656885623931885 0.73357844352722168 0.14019843935966492
0.2442929744720459 0.73357844352722168 0.1416584849357605
0.31821879744529724 0.73357844352722168 0.13630452752113342
0.39984607696533203 0.73357844352722168 0.13326069712638855
0.48296749591827393 0.73357844352722168 0.14027030766010284
0.56541609764099121 0.73357844352722168 0.15809707343578339
0.64692407846450806 0.73357844352722168 0.18146684765815735
0.72664833068847656 0.73357844352722168 0.20513537526130676
0.80451560020446777 0.73357844352722168 0.22634424269199371
0.88136261701583862 0.73357844352722168 0.24749267101287842
0.95802009105682373 0.73357844352722168 0.2681955099105835
0.17940962314605713 0.81043678522109985 0.18021850287914276
0.18791407346725464 0.80960673093795776 0.19160813093185425
0.2087090015411377 0.80809921026229858 0.2019122838973999
0.25408032536506653 0.8074755072593689 0.20306950807571411
0.31749898195266724 0.80803012847900391 0.1998269259929657
0.39182183146476746 0.80892801284790039 0.19843100011348724
0.47290295362472534 0.80974245071411133 0.20344571769237518
0.55634033679962158 0.81041324138641357 0.21653471887111664
0.63956671953201294 0.81068474054336548 0.23601843416690826
0.72109305858612061 0.8107115626335144 0.25880205631256104
0.80034410953521729 0.81061941385269165 0.28099772334098816
0.87826704978942871 0.81013840436935425 0.30144450068473816
0.95645636320114136 0.80925565958023071 0.31876465678215027
0.24729493260383606 0.88406860828399658 0.25281992554664612
0.24562810361385345 0.88406860828399658 0.25992238521575928
0.25374400615692139 0.88406860828399658 0.26600420475006104
0.28241145610809326 0.88406860828399658 0.26820653676986694
0.33051729202270508 0.88406860828399658 0.26841339468955994
0.39415302872657776 0.88406860828399658 0.26972681283950806
0.46998906135559082 0.88406860828399658 0.27375367283821106
0.55207860469818115 0.88407933712005615 0.28384518623352051
0.63563168048858643 0.88429749011993408 0.30023050308227539
0.71779358386993408 0.88434243202209473 0.3207002580165863
0.79820996522903442 0.88419485092163086 0.34119904041290283
0.87622547149658203 0.88406860828399658 0.35927274823188782
0.95417952537536621 0.88406860828399658 0.37407833337783813
0.3206794261932373 0.96127450466156006 0.32405334711074829
0.31249305605888367 0.96127450466156006 0.32650506496429443
0.31069418787956238 0.96127450466156006 0.32898536324501038
0.32519856095314026 0.96127450466156006 0.33205202221870422
0.35782423615455627 0.96127450466156006 0.3363804817199707
0.40941661596298218 0.96127450466156006 0.34105342626571655
0.47852727770805359 0.96127450466156006 0.34554874897003174
0.55687260627746582 0.96127450466156006 0.35434448719024658
0.63836675882339478 0.96127450466156006 0.3688017725944519
0.71969383955001831 0.96127450466156006 0.38666296005249023
0.79989492893218994 0.96127450466156006 0.40414273738861084
0.87828594446182251 0.96127450466156006 0.41919884085655212
0.95736908912658691 0.96127450466156006 0.43153819441795349
0.035785242915153503 0.038555324077606201 0.11323385685682297
0.11200980097055435 0.038942135870456696 0.11064845323562622
0.19173151254653931 0.038779359310865402 0.11038107424974442
0.26829296350479126 0.038725491613149643 0.11290308833122253
0.34363535046577454 0.038725491613149643 0.11422298848628998
0.42074087262153625 0.038725491613149643 0.11391757428646088
0.4968641996383667 0.038725491613149643 0.11155930906534195
0.57291972637176514 0.038725491613149643 0.10807076096534729
0.64919275045394897 0.038725491613149643 0.10432296246290207
0.72579973936080933 0.038725491613149643 0.10082322359085083
0.80294120311737061 0.039841253310441971 0.098037958145141602
0.88014703989028931 0.042274802923202515 0.096997998654842377
0.95787566900253296 0.042647060006856918 0.099441185593605042
0.037325121462345123 0.11207166314125061 0.1179477646946907
0.11200996488332748 0.11312085390090942 0.12083707004785538
0.19225212931632996 0.11502661556005478 0.11563111841678619
0.26803046464920044 0.11593136936426163 0.11210056394338608
0.34362679719924927 0.11593136936426163 0.11533514410257339
0.42082267999649048 0.11593136936426163 0.11636140197515488
0.49801337718963623 0.11593136936426163 0.11469385772943497
0.57521927356719971 0.11593136936426163 0.11176101118326187
0.65225088596343994 0.11593136936426163 0.10856544971466064
0.72879797220230103 0.11593136936426163 0.10545188933610916
0.8044624924659729 0.11598070710897446 0.10304849594831467
0.88032740354537964 0.11765666306018829 0.10247214883565903
0.95797818899154663 0.11972786486148834 0.10505269467830658
0.039284352213144302 0.18969035148620605 0.11750702559947968
0.11280100047588348 0.1905425488948822 0.11844903975725174
0.19077613949775696 0.1917029470205307 0.11586969345808029
0.26698926091194153 0.19254773855209351 0.10939694941043854
0.34360328316688538 0.19286167621612549 0.11474890261888504
0.42081841826438904 0.19313725829124451 0.11662627756595612
0.49803921580314636 0.19313725829124451 0.11598765105009079
0.57524508237838745 0.19313725829124451 0.11403653025627136
0.65245097875595093 0.19313725829124451 0.11179809272289276
0.7296568751335144 0.19313725829124451 0.10938512533903122
0.80686277151107788 0.19313725829124451 0.1077459454536438
0.88365131616592407 0.1931566447019577 0.10765764117240906
0.95966887474060059 0.19466879963874817 0.11097249388694763
0.039440888911485672 0.27023890614509583 0.11766562610864639
0.11317188292741776 0.2703431248664856 0.11466138064861298
0.18951673805713654 0.27018219232559204 0.11119680851697922
0.26642155647277832 0.26911675930023193 0.10565897822380066
0.3436274528503418 0.26993504166603088 0.10867843776941299
0.42083331942558289 0.27030125260353088 0.11360169947147369
0.49844616651535034 0.26996749639511108 0.11548291146755219
0.57663261890411377 0.26899725198745728 0.11468438804149628
0.6536138653755188 0.2674095630645752 0.11272550374269485
0.72982072830200195 0.26682770252227783 0.11198386549949646
0.80686277151107788 0.26791363954544067 0.11110431700944901
0.88406860828399658 0.27008169889450073 0.1109577864408493
0.96123385429382324 0.27034953236579895 0.11581533402204514
0.037410557270050049 0.34754902124404907 0.1177530363202095
0.11101201176643372 0.34754902124404907 0.11416228115558624
0.18880224227905273 0.34752103686332703 0.10963278263807297
0.26641282439231873 0.34555849432945251 0.10419193655252457
0.34379962086677551 0.34382566809654236 0.10406769067049026
0.42241042852401733 0.34386500716209412 0.10846493393182755
0.50159889459609985 0.34370559453964233 0.11221610009670258
0.57915925979614258 0.3436274528503418 0.11326923966407776
0.65635675191879272 0.3436274528503418 0.1128443107008934
0.73289954662322998 0.3436274528503418 0.11160334944725037
0.80745559930801392 0.3436274528503418 0.11018205434083939
0.88406860828399658 0.34490984678268433 0.11135132610797882
0.96127450466156006 0.34754902124404907 0.11929766833782196
0.036746755242347717 0.42475488781929016 0.11638877540826797
0.1076146587729454 0.42475488781929016 0.11377294361591339
0.18532037734985352 0.42475488781929016 0.11179976910352707
0.26529204845428467 0.42298451066017151 0.10801490396261215
0.34486740827560425 0.42111530900001526 0.10430795699357986
0.42461282014846802 0.42088651657104492 0.10507073253393173
0.5026252269744873 0.42093959450721741 0.10921331495046616
0.58096277713775635 0.42092931270599365 0.11292441934347153
0.65760689973831177 0.42083555459976196 0.11374373733997345
0.73362833261489868 0.42083331942558289 0.11096017807722092
0.81017327308654785 0.42083331942558289 0.10730293393135071
0.88433486223220825 0.42106768488883972 0.11152110248804092
0.96127450466156006 0.42475488781929016 0.12469503283500671
0.041779745370149612 0.50196081399917603 0.11215552687644958
0.10665926337242126 0.50196081399917603 0.11249039322137833
0.18167148530483246 0.50196081399917603 0.11371397227048874
0.26164257526397705 0.50143617391586304 0.11141516268253326
0.34333473443984985 0.50028872489929199 0.10511434078216553
0.42491835355758667 0.50035965442657471 0.10239694267511368
0.50567793846130371 0.50110393762588501 0.1073010042309761
0.583088219165802 0.50135636329650879 0.11490844935178757
0.6602628231048584 0.50061601400375366 0.11988848447799683
0.73573005199432373 0.49923861026763916 0.12008161097764969
0.81082439422607422 0.49851518869400024 0.11799720674753189
0.88622045516967773 0.49983078241348267 0.12422531843185425
0.96127450466156006 0.50196081399917603 0.13984072208404541
0.057261001318693161 0.57916665077209473 0.10671937465667725
0.11270739883184433 0.57916665077209473 0.11213809996843338
0.18001912534236908 0.57916665077209473 0.11749406903982162
0.25649181008338928 0.57916665077209473 0.11684384942054749
0.33915457129478455 0.57916665077209473 0.10967645049095154
0.42363995313644409 0.57916665077209473 0.10356214642524719
0.50513297319412231 0.57916665077209473 0.1095949187874794
0.58299028873443604 0.57916665077209473 0.12303747981786728
0.66027826070785522 0.57916665077209473 0.13517268002033234
0.73698282241821289 0.57916319370269775 0.14287272095680237
0.81127762794494629 0.57903987169265747 0.1477254331111908
0.88723427057266235 0.57913899421691895 0.15655571222305298
0.96127450466156006 0.57916665077209473 0.1707141250371933
0.084962554275989532 0.6563725471496582 0.10991544276475906
0.12747316062450409 0.6563725471496582 0.12211281061172485
0.18314497172832489 0.6563725471496582 0.13240790367126465
0.25203034281730652 0.6563725471496582 0.13386331498622894
0.33182677626609802 0.6563725471496582 0.12694326043128967
0.41645070910453796 0.6563725471496582 0.12024583667516708
0.49874088168144226 0.6563725471496582 0.12607014179229736
0.57867240905761719 0.6563725471496582 0.14159619808197021
0.65779060125350952 0.6563725471496582 0.15849392116069794
0.73512536287307739 0.6563725471496582 0.17343182861804962
0.81084579229354858 0.6563725471496582 0.18560861051082611
0.88624662160873413 0.6563725471496582 0.19815728068351746
0.96127450466156006 0.6563725471496582 0.21320720016956329
0.12659060955047607 0.73357844352722168 0.13950224220752716
0.15380038321018219 0.73357844352722168 0.15278507769107819
0.19443801045417786 0.73357844352722168 0.16447301208972931
0.25205478072166443 0.73357844352722168 0.16712689399719238
0.32439976930618286 0.73357844352722168 0.16243757307529449
0.40505525469779968 0.73357844352722168 0.15784983336925507
0.48795801401138306 0.73357844352722168 0.16128869354724884
0.5707322359085083 0.73357844352722168 0.17311373353004456
0.65225815773010254 0.73357844352722168 0.1897769570350647
0.73150527477264404 0.73357844352722168 0.20886126160621643
0.80838817358016968 0.73357844352722168 0.22689126431941986
0.88404858112335205 0.73357844352722168 0.24258993566036224
0.95987182855606079 0.73357844352722168 0.25801625847816467
0.18206842243671417 0.81066679954528809 0.19240587949752808
0.19498273730278015 0.81000113487243652 0.20181277394294739
0.21948777139186859 0.80833429098129272 0.21091742813587189
0.26310914754867554 0.8074755072593689 0.21357376873493195
0.32429468631744385 0.80777221918106079 0.21117119491100311
0.39772123098373413 0.80849826335906982 0.20898784697055817
0.47834107279777527 0.80912292003631592 0.21079623699188232
0.5623200535774231 0.8093869686126709 0.21893760561943054
0.64577674865722656 0.80935144424438477 0.23404949903488159
0.7265474796295166 0.80928021669387817 0.25481820106506348
0.80453717708587646 0.8092646598815918 0.27530452609062195
0.88102930784225464 0.80881035327911377 0.29213297367095947
0.95744150876998901 0.8083726167678833 0.30655008554458618
0.24906472861766815 0.88409644365310669 0.25357875227928162
0.25089046359062195 0.88406860828399658 0.2587619423866272
0.26158431172370911 0.88406860828399658 0.26409721374511719
0.28964444994926453 0.88406860828399658 0.2669556736946106
0.33678218722343445 0.88406860828399658 0.26755028963088989
0.39995834231376648 0.88406860828399658 0.26797634363174438
0.47533223032951355 0.88406860828399658 0.27128708362579346
0.55757838487625122 0.88406860828399658 0.27939692139625549
0.64107263088226318 0.88406860828399658 0.2944273054599762
0.72276920080184937 0.88406860828399658 0.31465351581573486
0.80157804489135742 0.88406860828399658 0.33388769626617432
0.87917333841323853 0.88406860828399658 0.34883469343185425
0.95688754320144653 0.88406860828399658 0.36064878106117249
0.31976518034934998 0.96127450466156006 0.31479677557945251
0.31469535827636719 0.96127450466156006 0.31671890616416931
0.31476780772209167 0.96127450466156006 0.31918454170227051
0.32960802316665649 0.96127450466156006 0.32220542430877686
0.36281207203865051 0.96127450466156006 0.32609051465988159
0.41480642557144165 0.96127450466156006 0.33087113499641418
0.4827844500541687 0.96127450466156006 0.33697456121444702
0.56062400341033936 0.96127450466156006 0.34720104932785034
0.64192777872085571 0.96127450466156006 0.36332464218139648
0.72315132617950439 0.96127450466156006 0.38217568397521973
0.80227124691009521 0.96127450466156006 0.39806228876113892
0.88008350133895874 0.96127450466156006 0.40915581583976746
0.9578821063041687 0.96127450466156006 0.41798746585845947
0.036134712398052216 0.037301786243915558 0.18655103445053101
0.11200980097055435 0.038723696023225784 0.1830272376537323
0.19099061191082001 0.038725491613149643 0.18403133749961853
0.26927119493484497 0.038725491613149643 0.1880442351102829
0.34413063526153564 0.038725491613149643 0.18921856582164764
0.42083331942558289 0.038725491613149643 0.18899773061275482
0.49803921580314636 0.038725491613149643 0.18650579452514648
0.5751805305480957 0.038725491613149643 0.18349190056324005
0.65162932872772217 0.038725491613149643 0.18002165853977203
0.72681337594985962 0.039785705506801605 0.17644625902175903
0.80294120311737061 0.042487889528274536 0.17368164658546448
0.88014703989028931 0.042707931250333786 0.17196738719940186
0.95735293626785278 0.044343072921037674 0.17311848700046539
0.038150157779455185 0.11205566674470901 0.19013220071792603
0.11266859620809555 0.11293653398752213 0.18849806487560272
0.19251002371311188 0.11420962959527969 0.19044382870197296
0.27032190561294556 0.11592553555965424 0.18862429261207581
0.34545814990997314 0.11593136936426163 0.18909509479999542
0.42083331942558289 0.11593136936426163 0.19011805951595306
0.49803921580314636 0.11593136936426163 0.18931536376476288
0.57524508237838745 0.11593136936426163 0.1874232143163681
0.65245097875595093 0.11593136936426163 0.18458770215511322
0.7296212911605835 0.11594018340110779 0.18167546391487122
0.80511963367462158 0.11703862249851227 0.17898538708686829
0.88024479150772095 0.11951519548892975 0.17697185277938843
0.95735293626785278 0.12012112140655518 0.17786020040512085
0.039380151778459549 0.19044764339923859 0.19263416528701782
0.11409521847963333 0.19213470816612244 0.19126765429973602
0.19106084108352661 0.19142024219036102 0.20588049292564392
0.26976081728935242 0.19210349023342133 0.19457347691059113
0.34522894024848938 0.19313725829124451 0.18967670202255249
0.42083331942558289 0.19313725829124451 0.19195361435413361
0.49807929992675781 0.19313725829124451 0.19085575640201569
0.57537806034088135 0.19313725829124451 0.18927709758281708
0.65245097875595093 0.19313725829124451 0.18854117393493652
0.7296568751335144 0.19313725829124451 0.18643464148044586
0.80686217546463013 0.19313725829124451 0.18408229947090149
0.88288456201553345 0.19373075664043427 0.18234458565711975
0.95749968290328979 0.19650363922119141 0.18261782824993134
0.038170713931322098 0.26931631565093994 0.19261892139911652
0.11276070028543472 0.2703431248664856 0.1889462023973465
0.1892189234495163 0.26829731464385986 0.1954655647277832
0.26676088571548462 0.26669809222221375 0.19337500631809235
0.34381711483001709 0.26867207884788513 0.1875041276216507
0.42083331942558289 0.2696891725063324 0.19071002304553986
0.50001484155654907 0.26978000998497009 0.19254481792449951
0.5786367654800415 0.26909077167510986 0.19113695621490479
0.65485501289367676 0.26712813973426819 0.18960407376289368
0.73007047176361084 0.26660540699958801 0.18950772285461426
0.80686277151107788 0.26755228638648987 0.1887219250202179
0.88406753540039062 0.26999941468238831 0.18608266115188599
0.96002566814422607 0.27085810899734497 0.18589068949222565
0.034482531249523163 0.34671258926391602 0.19242648780345917
0.11035314947366714 0.34754902124404907 0.18822762370109558
0.18914590775966644 0.3465886116027832 0.18541814386844635
0.26684635877609253 0.34363165497779846 0.18449525535106659
0.34472596645355225 0.3436284065246582 0.18222911655902863
0.42227256298065186 0.34364283084869385 0.18616411089897156
