assets/lut/pixlsus newspaper.cube
# Created by: G'MIC (https://gmic.eu)
TITLE "newspaper"
# LUT size
LUT_3D_SIZE 5
# Data domain
DOMAIN_MIN 0.0 0.0 0.0
DOMAIN_MAX 1.0 1.0 1.0
# LUT data points
0.14035384356975555 0.11351071298122406 0.12708736956119537
0.30196210741996765 0.11018126457929611 0.1375519186258316
0.46440675854682922 0.13376910984516144 0.18744531273841858
0.57646745443344116 0.14867162704467773 0.22144544124603271
0.69187593460083008 0.16565638780593872 0.25710725784301758
0.12344855815172195 0.2189657986164093 0.10527439415454865
0.31321772933006287 0.30390751361846924 0.13974300026893616
0.62299859523773193 0.41686365008354187 0.25101041793823242
0.71764051914215088 0.39116230607032776 0.2802790105342865
0.79310327768325806 0.36136403679847717 0.2969307005405426
0.18044468760490417 0.40059682726860046 0.1617879718542099
0.45384633541107178 0.49403709173202515 0.19774095714092255
0.5077894926071167 0.50099366903305054 0.20235075056552887
0.70939713716506958 0.55814802646636963 0.2714838981628418
0.87504845857620239 0.57730942964553833 0.32580721378326416
0.21064724028110504 0.51404476165771484 0.19683355093002319
0.45728537440299988 0.59222185611724854 0.23112392425537109
0.61039787530899048 0.62087935209274292 0.23822367191314697
0.62688690423965454 0.61843413114547729 0.24036431312561035
0.79949051141738892 0.68160045146942139 0.29638418555259705
0.2486291229724884 0.62840116024017334 0.23194676637649536
0.46435254812240601 0.68560194969177246 0.25604972243309021
0.67705726623535156 0.73898905515670776 0.28077542781829834
0.72757047414779663 0.72939383983612061 0.27168416976928711
0.73532146215438843 0.73106831312179565 0.27047908306121826
0.18311786651611328 0.12721391022205353 0.30736872553825378
0.38876298069953918 0.14368739724159241 0.38132390379905701
0.54350185394287109 0.16521549224853516 0.3983989953994751
0.64003849029541016 0.16775371134281158 0.38591688871383667
0.7337459921836853 0.17517778277397156 0.39459916949272156
0.17541849613189697 0.30689871311187744 0.30726847052574158
0.39621511101722717 0.38445159792900085 0.38889047503471375
0.70822572708129883 0.47392758727073669 0.51461750268936157
0.77761876583099365 0.42261764407157898 0.47219610214233398
0.83860844373703003 0.38946178555488586 0.45069372653961182
0.22630706429481506 0.48412522673606873 0.35397478938102722
0.53846925497055054 0.57760435342788696 0.4187016487121582
0.58943575620651245 0.58181023597717285 0.41639339923858643
0.76520216464996338 0.60332977771759033 0.45871612429618835
0.91680210828781128 0.60767465829849243 0.49812522530555725
0.23759090900421143 0.57587450742721558 0.34943884611129761
0.51009684801101685 0.65210610628128052 0.39869791269302368
0.66548597812652588 0.67967528104782104 0.41322469711303711
0.68931496143341064 0.6836470365524292 0.40926387906074524
0.84273439645767212 0.71699690818786621 0.45581024885177612
0.28709673881530762 0.68198037147521973 0.36675763130187988
0.49903324246406555 0.73157542943954468 0.40339592099189758
0.71774059534072876 0.78218370676040649 0.42565146088600159
0.76809251308441162 0.77414292097091675 0.41876393556594849
0.78838229179382324 0.78648382425308228 0.42143693566322327
0.23927149176597595 0.15093120932579041 0.46826654672622681
0.55410349369049072 0.21736782789230347 0.56838822364807129
0.56653863191604614 0.16135634481906891 0.56408250331878662
0.66548740863800049 0.17898431420326233 0.5555119514465332
0.77721679210662842 0.19017675518989563 0.5533415675163269
0.31608837842941284 0.44599097967147827 0.62612038850784302
0.71388047933578491 0.56685096025466919 0.72955536842346191
0.72736817598342896 0.48337265849113464 0.72314512729644775
0.79631912708282471 0.42573636770248413 0.68066072463989258
0.87710773944854736 0.39111924171447754 0.62529516220092773
0.25341376662254333 0.50463628768920898 0.50530380010604858
0.5881272554397583 0.60382980108261108 0.60340344905853271
0.59733766317367554 0.59144985675811768 0.59444797039031982
0.7775995135307312 0.62134712934494019 0.66143262386322021
0.95628184080123901 0.63316422700881958 0.68311506509780884
0.27277067303657532 0.59984147548675537 0.50694578886032104
0.54843103885650635 0.67504113912582397 0.579631507396698
0.69947004318237305 0.70489311218261719 0.59697014093399048
0.70898318290710449 0.7043910026550293 0.58864361047744751
0.87290912866592407 0.75055831670761108 0.62557768821716309
0.28791022300720215 0.71426558494567871 0.50785458087921143
0.51243644952774048 0.77321946620941162 0.55353838205337524
0.75691407918930054 0.81681102514266968 0.58651578426361084
0.81570196151733398 0.81630128622055054 0.58335345983505249
0.82536226511001587 0.82331687211990356 0.5826338529586792
0.27973297238349915 0.1662919670343399 0.58212947845458984
0.54924499988555908 0.22864806652069092 0.65962493419647217
0.67282509803771973 0.22034329175949097 0.67941343784332275
0.67894375324249268 0.17361363768577576 0.67678815126419067
0.78323656320571899 0.19500134885311127 0.70648771524429321
0.35119536519050598 0.41159319877624512 0.71705478429794312
0.65958583354949951 0.49319246411323547 0.78907287120819092
0.80394256114959717 0.48742178082466125 0.81318837404251099
0.81080514192581177 0.42260089516639709 0.80570566654205322
0.88286256790161133 0.39814212918281555 0.7948412299156189
0.34009265899658203 0.57624632120132446 0.69527566432952881
0.65086954832077026 0.68994772434234619 0.77914035320281982
0.80032896995544434 0.68946915864944458 0.80635237693786621
0.81579738855361938 0.63521754741668701 0.8129342794418335
0.95594465732574463 0.63334566354751587 0.86706721782684326
0.2941226065158844 0.61914169788360596 0.619118332862854
0.57743048667907715 0.70096135139465332 0.70112735033035278
0.72365128993988037 0.72396522760391235 0.72281539440155029
0.71795415878295898 0.71473598480224609 0.71594464778900146
0.8852657675743103 0.75492119789123535 0.80258983373641968
0.30971038341522217 0.72041308879852295 0.65183365345001221
0.54420441389083862 0.77236020565032959 0.70588815212249756
0.79219365119934082 0.82487154006958008 0.75134491920471191
0.81515300273895264 0.8149530291557312 0.74101704359054565
0.82576292753219604 0.8242497444152832 0.74080181121826172
0.3214104175567627 0.18637309968471527 0.68895334005355835
0.54911947250366211 0.23310068249702454 0.74136745929718018
0.78475028276443481 0.27832239866256714 0.79951751232147217
0.79754382371902466 0.24344250559806824 0.79747790098190308
0.79479098320007324 0.19444842636585236 0.79283779859542847
0.36838763952255249 0.37927436828613281 0.79095327854156494
0.61647576093673706 0.44639617204666138 0.84871977567672729
0.88538855314254761 0.50408965349197388 0.89992856979370117
0.8913348913192749 0.44295370578765869 0.8917115330696106
0.88573789596557617 0.40258646011352539 0.88478845357894897
0.41015717387199402 0.60771316289901733 0.86418604850769043
0.68634450435638428 0.69068276882171631 0.92954874038696289
0.95879578590393066 0.750629723072052 0.97564929723739624
0.9652106761932373 0.68843764066696167 0.96543985605239868
0.97796636819839478 0.63969641923904419 0.97666054964065552
0.37660014629364014 0.70942777395248413 0.79742765426635742
0.63022172451019287 0.79846155643463135 0.8548704981803894
0.89061790704727173 0.86947178840637207 0.90179890394210815
0.8887779712677002 0.81158792972564697 0.88887131214141846
0.90497475862503052 0.76594674587249756 0.90483129024505615
0.33628714084625244 0.73132789134979248 0.73151522874832153
0.57847148180007935 0.79796081781387329 0.79807007312774658
0.82826274633407593 0.84125620126724243 0.84122586250305176
0.83663809299468994 0.83645510673522949 0.83582609891891479
0.82746976613998413 0.8250693678855896 0.82702732086181641
