assets/lut/pixlsus progressen.cube
# Created by: G'MIC (https://gmic.eu)
TITLE "progressen"
# LUT size
LUT_3D_SIZE 13
# Data domain
DOMAIN_MIN 0.0 0.0 0.0
DOMAIN_MAX 1.0 1.0 1.0
# LUT data points
0.019312584772706032 0.019229933619499207 0.02245819941163063
0.042809788137674332 0.032108187675476074 0.027212884277105331
0.084524728357791901 0.037092320621013641 0.035335436463356018
0.13561046123504639 0.03612498939037323 0.040744811296463013
0.20069108903408051 0.031914476305246353 0.043181579560041428
0.28791606426239014 0.024385144934058189 0.040565580129623413
0.39648851752281189 0.011748848482966423 0.029586507007479668
0.52089273929595947 0.0035853816661983728 0.021653717383742332
0.62533658742904663 0.0088487360626459122 0.036681726574897766
0.71575456857681274 0.013986146077513695 0.055300123989582062
0.80010616779327393 0.014477748423814774 0.072432033717632294
0.8722575306892395 0.010981705971062183 0.088058307766914368
0.91041499376296997 0.0087526654824614525 0.093126006424427032
0.023986950516700745 0.035813618451356888 0.027613891288638115
0.039428681135177612 0.04322337731719017 0.0246303491294384
0.081789828836917877 0.053430549800395966 0.025439109653234482
0.1380799412727356 0.059016656130552292 0.026217008009552956
0.2130298912525177 0.059751175343990326 0.021568687632679939
0.31182992458343506 0.056404367089271545 0.020550476387143135
0.42966499924659729 0.04198189452290535 0.01102498359978199
0.54164421558380127 0.039089832454919815 0.0082702040672302246
0.63512593507766724 0.046689484268426895 0.021504346281290054
0.71961981058120728 0.053873997181653976 0.042696621268987656
0.80078089237213135 0.051598165184259415 0.061926014721393585
0.86808526515960693 0.040795914828777313 0.078829370439052582
0.91537195444107056 0.031644470989704132 0.091159403324127197
0.034882906824350357 0.068984463810920715 0.039103340357542038
0.047107979655265808 0.07284323126077652 0.034456588327884674
0.080353185534477234 0.089450553059577942 0.020886261016130447
0.14691248536109924 0.10582689940929413 0.01388860959559679
0.22733891010284424 0.10777738690376282 0.010922255925834179
0.32321053743362427 0.10849603265523911 0.0080622509121894836
0.42488381266593933 0.11016926169395447 0.0078145796433091164
0.532295823097229 0.10738594084978104 0.0078643802553415298
0.63384300470352173 0.10601549595594406 0.014315167441964149
0.72016632556915283 0.10860387980937958 0.030913872644305229
0.79744535684585571 0.1011403426527977 0.050597801804542542
0.85776299238204956 0.089844599366188049 0.066345453262329102
0.90201258659362793 0.086944028735160828 0.078425265848636627
0.052208621054887772 0.12138077616691589 0.054583381861448288
0.05529225617647171 0.1150609627366066 0.052447687834501266
0.074730440974235535 0.12826704978942871 0.033132530748844147
0.14067164063453674 0.15855099260807037 0.012803066521883011
0.23787708580493927 0.17779557406902313 0.0066362270154058933
0.32966321706771851 0.17988067865371704 0.0050297006964683533
0.42307433485984802 0.18129876255989075 0.0055995415896177292
0.525077223777771 0.17953561246395111 0.0073081073351204395
0.62649649381637573 0.17749026417732239 0.009320397861301899
0.71558475494384766 0.17907154560089111 0.019683269783854485
0.78570741415023804 0.17192621529102325 0.036694366484880447
0.83700495958328247 0.16721795499324799 0.050402563065290451
0.88083302974700928 0.16704156994819641 0.06303831934928894
0.075179018080234528 0.18029977381229401 0.062671616673469543
0.083103343844413757 0.17361421883106232 0.059728465974330902
0.093451768159866333 0.17862492799758911 0.050879728049039841
0.12635922431945801 0.20460224151611328 0.030719008296728134
0.21994979679584503 0.24605545401573181 0.011970235966145992
0.3346782922744751 0.27340063452720642 0.0041821198537945747
0.43176749348640442 0.26899299025535583 0.0038970648311078548
0.52153754234313965 0.25720730423927307 0.004211036954075098
0.61667239665985107 0.25576800107955933 0.0062095341272652149
0.70697265863418579 0.25868949294090271 0.0093465317040681839
0.76846915483474731 0.2562468945980072 0.021769355982542038
0.81536144018173218 0.25523650646209717 0.034994836896657944
0.86276346445083618 0.2584177553653717 0.049858737736940384
0.099384933710098267 0.2456299215555191 0.066427625715732574
0.11311306059360504 0.24153277277946472 0.062540315091609955
0.12889772653579712 0.24559362232685089 0.059419922530651093
0.14070679247379303 0.25815936923027039 0.051875051110982895
0.18704460561275482 0.28730481863021851 0.036499306559562683
0.30388596653938293 0.34305784106254578 0.011120710521936417
0.43752902746200562 0.3764859139919281 0.0041657392866909504
0.53964459896087646 0.3662111759185791 0.0039215688593685627
0.62001639604568481 0.35372975468635559 0.0039500514976680279
0.70273858308792114 0.34977689385414124 0.0052480059675872326
0.76063066720962524 0.34286403656005859 0.013352637179195881
0.81147068738937378 0.35000407695770264 0.023853735998272896
0.85505533218383789 0.35543397068977356 0.033936519175767899
0.12005890160799026 0.31803601980209351 0.06210639700293541
0.1387094110250473 0.31617605686187744 0.060644142329692841
0.16426067054271698 0.31822466850280762 0.059272047132253647
0.18012604117393494 0.32465413212776184 0.05602722242474556
0.19337759912014008 0.33678680658340454 0.057776745408773422
0.2613518238067627 0.38239777088165283 0.028632460162043571
0.39904952049255371 0.44554585218429565 0.0077071245759725571
0.53962153196334839 0.47912514209747314 0.0039757820777595043
0.63745838403701782 0.47942438721656799 0.0039215688593685627
0.71240246295928955 0.46350768208503723 0.0044002905488014221
0.77644699811935425 0.45725813508033752 0.0092065697535872459
0.82910048961639404 0.46624088287353516 0.016315430402755737
0.86679518222808838 0.46656271815299988 0.021948346868157387
0.14024391770362854 0.39132055640220642 0.055854812264442444
0.16635449230670929 0.39002209901809692 0.058670807629823685
0.19527365267276764 0.38901665806770325 0.057815507054328918
0.22140009701251984 0.3912200927734375 0.056386895477771759
0.23861481249332428 0.39937499165534973 0.058333288878202438
0.28249841928482056 0.43260073661804199 0.043590020388364792
0.35727432370185852 0.48421066999435425 0.01750367134809494
0.49650782346725464 0.54696106910705566 0.0059068119153380394
0.63576388359069824 0.58704680204391479 0.0043295617215335369
0.73624122142791748 0.58917075395584106 0.0039297365583479404
0.81188517808914185 0.58872878551483154 0.0052535412833094597
0.86383998394012451 0.59627360105514526 0.0090346839278936386
0.88961601257324219 0.5925978422164917 0.010764552280306816
0.15780337154865265 0.45680323243141174 0.057023860514163971
0.18943317234516144 0.4517802894115448 0.055771127343177795
0.22052948176860809 0.44822782278060913 0.052849415689706802
0.25259310007095337 0.45275589823722839 0.053926147520542145
0.28288024663925171 0.46013990044593811 0.05236155167222023
0.3228156566619873 0.48497620224952698 0.040032271295785904
0.39128789305686951 0.52997976541519165 0.022305132821202278
0.49634554982185364 0.57926815748214722 0.015197679400444031
0.63548123836517334 0.62677925825119019 0.013297750614583492
0.74587523937225342 0.65245813131332397 0.0094069391489028931
0.83143150806427002 0.6655583381652832 0.0071525275707244873
0.89325511455535889 0.69409054517745972 0.0089540369808673859
0.91551703214645386 0.69357061386108398 0.012237668968737125
0.16654445230960846 0.51740163564682007 0.060733973979949951
0.20044249296188354 0.5110619068145752 0.057022649794816971
0.23734718561172485 0.50572532415390015 0.050119660794734955
0.27576112747192383 0.50930190086364746 0.0490555539727211
0.31244423985481262 0.51585137844085693 0.047376222908496857
0.35857465863227844 0.53085607290267944 0.03693057969212532
0.43163907527923584 0.56561100482940674 0.031985249370336533
0.5226823091506958 0.60424691438674927 0.032484870404005051
0.6393430233001709 0.64377474784851074 0.027168544009327888
0.74447250366210938 0.67400538921356201 0.019939182326197624
0.83392876386642456 0.69868671894073486 0.014537377282977104
0.89604902267456055 0.73304235935211182 0.02041308768093586
0.93357479572296143 0.75158613920211792 0.026785891503095627
0.1682082861661911 0.57715904712677002 0.06055716797709465
0.20031079649925232 0.56994432210922241 0.057460051029920578
0.23981882631778717 0.56177490949630737 0.054307166486978531
0.28357058763504028 0.56120544672012329 0.049787603318691254
0.32498067617416382 0.56687390804290771 0.046066224575042725
0.37738358974456787 0.57721877098083496 0.039814535528421402
0.45088395476341248 0.60348868370056152 0.038164369761943817
0.53945982456207275 0.63548266887664795 0.041420400142669678
0.64195376634597778 0.66821926832199097 0.036556556820869446
0.74350744485855103 0.69885623455047607 0.032286714762449265
0.83315056562423706 0.73000150918960571 0.0285924281924963
0.89669477939605713 0.76528722047805786 0.037075955420732498
0.94119811058044434 0.79456853866577148 0.049481678754091263
0.16383205354213715 0.63762956857681274 0.056189876049757004
0.19838099181652069 0.62805056571960449 0.056261863559484482
0.24149623513221741 0.61752700805664062 0.055361863225698471
0.28746229410171509 0.61250203847885132 0.049755636602640152
0.33366638422012329 0.61647778749465942 0.044521063566207886
0.38849440217018127 0.62533962726593018 0.040964972227811813
0.46007269620895386 0.64717507362365723 0.035905994474887848
0.55182367563247681 0.67841684818267822 0.036330070346593857
0.65032309293746948 0.70918083190917969 0.038140434771776199
0.74543768167495728 0.73709589242935181 0.040918312966823578
0.83321470022201538 0.76854181289672852 0.041647862643003464
0.90041399002075195 0.80464750528335571 0.057050921022891998
0.94768816232681274 0.83867818117141724 0.077319487929344177
0.1573488712310791 0.69502925872802734 0.048576220870018005
0.19748774170875549 0.67992210388183594 0.053218498826026917
0.24318349361419678 0.66792994737625122 0.053043529391288757
0.29082491993904114 0.66155403852462769 0.046635482460260391
0.34107816219329834 0.66271495819091797 0.038835160434246063
0.39656874537467957 0.66959327459335327 0.036691240966320038
0.46824654936790466 0.68880146741867065 0.03252970427274704
0.5605541467666626 0.71951055526733398 0.032600987702608109
0.65522754192352295 0.74732804298400879 0.039785780012607574
0.74685806035995483 0.77317601442337036 0.04605725035071373
0.83212178945541382 0.80315804481506348 0.050226651132106781
0.89575481414794922 0.83456140756607056 0.069698438048362732
0.94843798875808716 0.8675503134727478 0.089765332639217377
0.02778187207877636 0.0346817746758461 0.049599636346101761
0.055015400052070618 0.044454328715801239 0.058381833136081696
0.098191581666469574 0.047066304832696915 0.070642359554767609
0.14953683316707611 0.04047851637005806 0.076467923820018768
0.2122088223695755 0.023795632645487785 0.078211374580860138
0.29389554262161255 0.01094843540340662 0.075757570564746857
0.40131843090057373 0.0051009682938456535 0.064989857375621796
0.5272291898727417 0.0024462980218231678 0.050265923142433167
0.6385732889175415 0.0070813498459756374 0.047095771878957748
0.72217905521392822 0.011560417711734772 0.065104417502880096
0.80220180749893188 0.013431309722363949 0.086065478622913361
0.87784230709075928 0.010819154791533947 0.10193493217229843
0.91875982284545898 0.0093843499198555946 0.1085876002907753
0.032083816826343536 0.051329053938388824 0.053623482584953308
0.055421296507120132 0.057445347309112549 0.057321719825267792
0.095020860433578491 0.059824131429195404 0.060846921056509018
0.1518104076385498 0.059233512729406357 0.06389801949262619
0.2252018004655838 0.05024261400103569 0.061120547354221344
0.32101559638977051 0.03957284614443779 0.053363397717475891
0.43166851997375488 0.03293139860033989 0.043450314551591873
0.5438922643661499 0.036496389657258987 0.036696683615446091
0.64093363285064697 0.046592652797698975 0.036831457167863846
0.72445118427276611 0.046162504702806473 0.053035106509923935
0.80560421943664551 0.036855883896350861 0.07133832573890686
0.87881273031234741 0.029110508039593697 0.088561005890369415
0.92496901750564575 0.02405465766787529 0.10560000687837601
0.038985054939985275 0.077109061181545258 0.061318043619394302
0.057385746389627457 0.082905516028404236 0.06302933394908905
0.090642772614955902 0.092831797897815704 0.056224972009658813
0.15313410758972168 0.10172213613986969 0.046779394149780273
0.23292875289916992 0.10060324519872665 0.040181417018175125
0.32653951644897461 0.09501253068447113 0.031527649611234665
0.42981031537055969 0.096877060830593109 0.031118011102080345
0.53725087642669678 0.098294243216514587 0.027262205258011818
0.63790357112884521 0.099490955471992493 0.022197319194674492
0.72443771362304688 0.095151402056217194 0.035404577851295471
0.80622589588165283 0.078260935842990875 0.054643098264932632
0.87295973300933838 0.066780298948287964 0.070636346936225891
0.91538089513778687 0.068933986127376556 0.092374630272388458
0.052316911518573761 0.12023605406284332 0.074907027184963226
0.062766745686531067 0.11971389502286911 0.076828978955745697
0.084876611828804016 0.13010156154632568 0.068909712135791779
0.14578238129615784 0.15884204208850861 0.040896158665418625
0.24068258702754974 0.17499087750911713 0.022815734148025513
0.32851964235305786 0.17339858412742615 0.020337378606200218
0.4194871187210083 0.17097215354442596 0.018223198130726814
0.52780663967132568 0.17186355590820312 0.015828181058168411
0.63044071197509766 0.16893437504768372 0.013658291660249233
0.71738570928573608 0.16526484489440918 0.023229336366057396
0.7943311333656311 0.15415135025978088 0.042910616844892502
0.85540652275085449 0.1499316543340683 0.059890132397413254
0.89964711666107178 0.15369443595409393 0.082778006792068481
0.075774967670440674 0.17833277583122253 0.09031270444393158
0.087536737322807312 0.17294099926948547 0.088880948722362518
0.097412914037704468 0.17539228498935699 0.0865645632147789
0.1279778778553009 0.19968312978744507 0.070476964116096497
0.22140315175056458 0.24481929838657379 0.029294990003108978
0.33898445963859558 0.27208992838859558 0.010474544949829578
0.42796230316162109 0.26384732127189636 0.007058506365865469
0.52428245544433594 0.25132223963737488 0.0078357774764299393
0.6193234920501709 0.24912881851196289 0.012256891466677189
0.7060239315032959 0.24876208603382111 0.016297314316034317
0.77658373117446899 0.24585835635662079 0.029418392106890678
0.83617627620697021 0.24717867374420166 0.048230383545160294
0.88895827531814575 0.25284299254417419 0.076157107949256897
0.10058354586362839 0.24070736765861511 0.099715262651443481
0.11594565957784653 0.23646643757820129 0.097879953682422638
0.12921738624572754 0.24078768491744995 0.096531465649604797
0.14004909992218018 0.25124523043632507 0.093745030462741852
0.18812847137451172 0.28636667132377625 0.068209491670131683
0.30595684051513672 0.34389320015907288 0.021975977346301079
0.44447880983352661 0.37890774011611938 0.0064931833185255527
0.54227417707443237 0.36337172985076904 0.0041783801279962063
0.61603236198425293 0.34234747290611267 0.0062802331522107124
0.69577974081039429 0.33374345302581787 0.0085692163556814194
0.76442223787307739 0.33357131481170654 0.0162937231361866
0.82730823755264282 0.3399713933467865 0.028526650741696358
0.87610572576522827 0.34904778003692627 0.04884256049990654
0.12268389761447906 0.31267052888870239 0.10196362435817719
0.1434137225151062 0.31046393513679504 0.10181563347578049
0.16630972921848297 0.31530764698982239 0.10132975876331329
0.18039584159851074 0.32038968801498413 0.10059307515621185
0.19800907373428345 0.33415746688842773 0.096302434802055359
0.26060965657234192 0.38050615787506104 0.064304590225219727
0.39631465077400208 0.44547796249389648 0.020547844469547272
0.55371010303497314 0.48710417747497559 0.0049584782682359219
0.64280396699905396 0.48270758986473083 0.0039294674061238766
0.71219652891159058 0.45605546236038208 0.0039393855258822441
0.77256220579147339 0.43865367770195007 0.0074947732500731945
0.83421903848648071 0.45191687345504761 0.015981173142790794
0.87303727865219116 0.45905220508575439 0.024556044489145279
0.1438329666852951 0.38537067174911499 0.10446334630250931
0.17073611915111542 0.38505911827087402 0.10423492640256882
0.19951127469539642 0.38544943928718567 0.10402348637580872
0.22062598168849945 0.38709136843681335 0.10465708374977112
0.23793978989124298 0.39863982796669006 0.10007892549037933
0.28249865770339966 0.4324895441532135 0.082059480249881744
0.35539180040359497 0.48522982001304626 0.042629450559616089
0.49677428603172302 0.54916882514953613 0.011396385729312897
0.64663374423980713 0.59757846593856812 0.0054154340177774429
0.74673521518707275 0.60097295045852661 0.0039289738051593304
0.81213968992233276 0.58087223768234253 0.0052510430105030537
0.86581897735595703 0.58826959133148193 0.0089989155530929565
0.89199978113174438 0.59099221229553223 0.013849071227014065
0.16077300906181335 0.45043835043907166 0.10835680365562439
0.19022594392299652 0.44613835215568542 0.10582064092159271
0.22225160896778107 0.44479343295097351 0.10421242564916611
0.25290247797966003 0.45053297281265259 0.10344142466783524
0.28379696607589722 0.46126750111579895 0.096573010087013245
0.32517048716545105 0.4836520254611969 0.081438906490802765
0.3901313841342926 0.53000158071517944 0.047547746449708939
0.48969033360481262 0.58188390731811523 0.023355206474661827
0.6429176926612854 0.63963937759399414 0.019219955429434776
0.76086598634719849 0.67632830142974854 0.010826724581420422
0.83922332525253296 0.67758357524871826 0.0095547698438167572
0.89433324337005615 0.69281226396560669 0.011483106762170792
0.9222220778465271 0.70236355066299438 0.016770994290709496
0.16785365343093872 0.51124143600463867 0.11070170998573303
0.19976416230201721 0.50538760423660278 0.10856561362743378
0.23658309876918793 0.50398653745651245 0.10684072226285934
0.27668881416320801 0.50777733325958252 0.10067431628704071
0.31525155901908875 0.5162353515625 0.09372132271528244
0.36016649007797241 0.5310666561126709 0.080433830618858337
0.42726805806159973 0.56272280216217041 0.056080296635627747
0.521656334400177 0.60557889938354492 0.040427636355161667
0.64728200435638428 0.6536516547203064 0.039362888783216476
0.75679671764373779 0.69467860460281372 0.033252909779548645
0.84026777744293213 0.71877056360244751 0.027545060962438583
0.90496194362640381 0.75007647275924683 0.024738475680351257
0.94303601980209351 0.77428817749023438 0.030702224001288414
0.16800583899021149 0.5718422532081604 0.11028322577476501
0.19976316392421722 0.56575930118560791 0.10864216089248657
0.24078536033630371 0.56027191877365112 0.10604336112737656
0.28632500767707825 0.56054472923278809 0.097369402647018433
0.3301292359828949 0.56447035074234009 0.089920565485954285
0.38111424446105957 0.57645201683044434 0.079330563545227051
0.45074483752250671 0.60283100605010986 0.061075307428836823
0.53740662336349487 0.63470256328582764 0.054262947291135788
0.64698362350463867 0.67490631341934204 0.057856243103742599
0.74975264072418213 0.71282672882080078 0.058547511696815491
0.83538061380386353 0.74737763404846191 0.051549110561609268
0.90436840057373047 0.78223520517349243 0.048782810568809509
0.94940918684005737 0.81775873899459839 0.064373016357421875
0.16298432648181915 0.63243669271469116 0.10688569396734238
0.19778726994991302 0.62454730272293091 0.10668574273586273
0.24203357100486755 0.61583864688873291 0.1053231954574585
0.28955987095832825 0.61307168006896973 0.097499698400497437
0.33762776851654053 0.61418312788009644 0.087565116584300995
0.3927341103553772 0.62217479944229126 0.081479169428348541
0.46761733293533325 0.64674901962280273 0.070873841643333435
0.55726104974746704 0.67931598424911499 0.06707395613193512
0.65493714809417725 0.71280092000961304 0.073055490851402283
0.7487412691116333 0.74525564908981323 0.076284818351268768
0.83265984058380127 0.77579063177108765 0.077289298176765442
0.90033179521560669 0.80886530876159668 0.085346683859825134
0.95034933090209961 0.84745919704437256 0.10334458947181702
0.15599513053894043 0.6889725923538208 0.10185602307319641
0.19700311124324799 0.67526161670684814 0.10429729521274567
0.24295343458652496 0.66413205862045288 0.10460352897644043
0.29148107767105103 0.65865868330001831 0.098629727959632874
0.34288683533668518 0.65915632247924805 0.087545178830623627
0.39955684542655945 0.66641736030578613 0.081817343831062317
0.47887682914733887 0.68864816427230835 0.077503964304924011
0.57110708951950073 0.71980667114257812 0.07678704708814621
0.66283714771270752 0.74947446584701538 0.084509097039699554
0.75029337406158447 0.77688878774642944 0.093321889638900757
0.83003252744674683 0.80572617053985596 0.10172795504331589
0.89568132162094116 0.83796387910842896 0.11372540146112442
0.94708079099655151 0.87020635604858398 0.13213925063610077
0.035597961395978928 0.050700947642326355 0.085064023733139038
0.066599108278751373 0.058939449489116669 0.10042340308427811
0.10971686989068985 0.055939424782991409 0.11368728429079056
0.1647421270608902 0.043886296451091766 0.12332555651664734
0.23159040510654449 0.026029430329799652 0.13122658431529999
0.32160231471061707 0.010666537098586559 0.13407352566719055
0.42567074298858643 0.004253133200109005 0.12700384855270386
0.54901623725891113 0.0051948996260762215 0.11459634453058243
0.6476173996925354 0.011675621382892132 0.10585283488035202
0.72646743059158325 0.015068248845636845 0.10788211971521378
0.80535691976547241 0.014038115739822388 0.11445669829845428
0.88508695363998413 0.01000264473259449 0.12036514282226562
0.92993777990341187 0.0081407586112618446 0.12474055588245392
0.036367557942867279 0.061074845492839813 0.082959182560443878
0.06619764119386673 0.070279501378536224 0.097944073379039764
0.1040501594543457 0.068782523274421692 0.10797840356826782
0.16287805140018463 0.061096325516700745 0.11747094243764877
0.2416657954454422 0.041514676064252853 0.12309202551841736
0.33642151951789856 0.022697703912854195 0.12117800116539001
0.43891614675521851 0.025395980104804039 0.11462501436471939
0.55444943904876709 0.032976638525724411 0.10497242212295532
0.64907479286193848 0.040251504629850388 0.10081367939710617
0.72952395677566528 0.039990220218896866 0.10472207516431808
0.81017661094665527 0.030911434441804886 0.10864821821451187
0.88812100887298584 0.024107854813337326 0.11328421533107758
0.94122791290283203 0.013385308906435966 0.12611167132854462
0.037931494414806366 0.085008777678012848 0.088876105844974518
0.065309174358844757 0.095692850649356842 0.10132051259279251
0.10434651374816895 0.10195517539978027 0.10609889030456543
0.16392098367214203 0.10201843827962875 0.10669944435358047
0.24599173665046692 0.089328736066818237 0.1051899790763855
0.33900904655456543 0.075116999447345734 0.098728016018867493
0.4410567581653595 0.077820613980293274 0.099188484251499176
0.54945170879364014 0.077607683837413788 0.095795169472694397
0.64748185873031616 0.082040838897228241 0.089061513543128967
0.73146486282348633 0.083090685307979584 0.094016849994659424
0.81423658132553101 0.065219655632972717 0.10035711526870728
0.88912850618362427 0.055818565189838409 0.10481376200914383
0.94111019372940063 0.052025485783815384 0.12202263623476028
0.047866102308034897 0.12603875994682312 0.10356822609901428
0.068724595010280609 0.13268421590328217 0.11185995489358902
0.1011764258146286 0.14154408872127533 0.11373911798000336
0.15651769936084747 0.15914136171340942 0.10222604870796204
0.24339559674263 0.16563998162746429 0.085203297436237335
0.33271831274032593 0.15968708693981171 0.079390555620193481
0.43094801902770996 0.15531688928604126 0.078518509864807129
0.54056650400161743 0.15142527222633362 0.07348913699388504
0.63824313879013062 0.14980098605155945 0.07222391664981842
0.72352582216262817 0.15308819711208344 0.07694600522518158
0.80370604991912842 0.14333917200565338 0.084169246256351471
0.87698853015899658 0.1431247740983963 0.096675992012023926
0.92965388298034668 0.1473514586687088 0.11848041415214539
