assets/lut/pixlsus faded print.cube
# Created by: G'MIC (https://gmic.eu)
TITLE "faded_print"
# LUT size
LUT_3D_SIZE 5
# Data domain
DOMAIN_MIN 0.0 0.0 0.0
DOMAIN_MAX 1.0 1.0 1.0
# LUT data points
0.15779986977577209 0.010977277532219887 0.096720166504383087
0.39010187983512878 0 0.00058432185323908925
0.52111649513244629 0.0027399100363254547 0.00073548860382288694
0.67673701047897339 0.083186879754066467 0.060708198696374893
0.8274616003036499 0.21747873723506927 0.14132976531982422
0.10124500095844269 0.2658698558807373 0.017391983419656754
0.40243178606033325 0.20401231944561005 0.0017594281816855073
0.55162709951400757 0.21814839541912079 0.00893402099609375
0.68814718723297119 0.27942860126495361 0.076860494911670685
0.82914531230926514 0.37663471698760986 0.13855473697185516
0.10406827926635742 0.49180728197097778 0.044213224202394485
0.33578783273696899 0.48852261900901794 0.049081224948167801
0.55999821424484253 0.47722148895263672 0.045567996799945831
0.71862149238586426 0.50240671634674072 0.10316553711891174
0.84620571136474609 0.56115394830703735 0.1504979282617569
0.19516056776046753 0.71383941173553467 0.14632232487201691
0.35723382234573364 0.71462142467498779 0.13345494866371155
0.55504727363586426 0.71204972267150879 0.14167775213718414
0.73803764581680298 0.72336351871490479 0.18798111379146576
0.87488400936126709 0.76098692417144775 0.2670043408870697
0.33952465653419495 0.93170958757400513 0.32752937078475952
0.40980565547943115 0.93410193920135498 0.32599014043807983
0.56069451570510864 0.93835830688476562 0.34555119276046753
0.74170494079589844 0.94679397344589233 0.3852120041847229
0.91155016422271729 0.9648444652557373 0.43301618099212646
0.085989587008953094 0 0.37077614665031433
0.36392068862915039 9.0296125563327223e-05 0.27722969651222229
0.52521264553070068 0.0014985776506364346 0.20728735625743866
0.68054306507110596 0.08916059136390686 0.18844057619571686
0.8316272497177124 0.21930645406246185 0.20579592883586884
0.10178614407777786 0.25092989206314087 0.36474001407623291
0.3899293839931488 0.20254501700401306 0.30837345123291016
0.55367964506149292 0.21986447274684906 0.23071499168872833
0.69529831409454346 0.28482493758201599 0.20589599013328552
0.82986366748809814 0.38088697195053101 0.21288192272186279
0.094332627952098846 0.49411764740943909 0.25769197940826416
0.33540630340576172 0.48851278424263 0.26022806763648987
0.55504417419433594 0.4774322509765625 0.24438273906707764
0.72316646575927734 0.50121760368347168 0.23193353414535522
0.8444637656211853 0.56376582384109497 0.21465420722961426
0.18706251680850983 0.71571820974349976 0.27109828591346741
0.35425212979316711 0.71603679656982422 0.25789085030555725
0.55468404293060303 0.71396976709365845 0.24880616366863251
0.74698859453201294 0.72324937582015991 0.25908017158508301
0.88209468126296997 0.76183748245239258 0.29288843274116516
0.33085191249847412 0.93469727039337158 0.33326002955436707
0.39256107807159424 0.93656086921691895 0.34825146198272705
0.55747896432876587 0.94079983234405518 0.34232673048973083
0.74535804986953735 0.94950562715530396 0.38604772090911865
0.9135776162147522 0.96872144937515259 0.4266209602355957
0.075757883489131927 0.0077818180434405804 0.48876222968101501
0.30092385411262512 0.020309088751673698 0.46960115432739258
0.51380819082260132 0.038625530898571014 0.44681549072265625
0.68656271696090698 0.095163591206073761 0.42788338661193848
0.83616429567337036 0.20896600186824799 0.40679237246513367
0.095765523612499237 0.25564709305763245 0.51743793487548828
0.32743099331855774 0.24098680913448334 0.50176852941513062
0.54602086544036865 0.23302571475505829 0.47742006182670593
0.69789528846740723 0.28970524668693542 0.42927384376525879
0.83357447385787964 0.3815249502658844 0.41236856579780579
0.097866639494895935 0.49019607901573181 0.49580591917037964
0.32931965589523315 0.48958906531333923 0.49723118543624878
0.55426490306854248 0.48076534271240234 0.48514324426651001
0.72337758541107178 0.50513643026351929 0.45132547616958618
0.84783816337585449 0.56829988956451416 0.42860373854637146
0.18753693997859955 0.71647441387176514 0.47003912925720215
0.35899129509925842 0.71902179718017578 0.47935879230499268
0.55675023794174194 0.71820062398910522 0.47130981087684631
0.74713599681854248 0.72750461101531982 0.48190966248512268
0.88428586721420288 0.76638877391815186 0.45946875214576721
0.3414866030216217 0.93582838773727417 0.45232641696929932
0.42908355593681335 0.93871110677719116 0.46859392523765564
0.57479512691497803 0.9428863525390625 0.46189704537391663
0.75415796041488647 0.9502449631690979 0.4914383590221405
0.91542285680770874 0.97018492221832275 0.51669961214065552
0.097931072115898132 0.078208833932876587 0.59468215703964233
0.29612648487091064 0.092287249863147736 0.5927090048789978
0.49582216143608093 0.099557690322399139 0.60231423377990723
0.68416374921798706 0.13318391144275665 0.60533630847930908
0.84445488452911377 0.22109492123126984 0.59356945753097534
0.11106658726930618 0.28230765461921692 0.61518645286560059
0.30907079577445984 0.28572967648506165 0.61493158340454102
0.50525486469268799 0.28383377194404602 0.61780881881713867
0.69735449552536011 0.30279341340065002 0.61766093969345093
0.84191197156906128 0.39398601651191711 0.58916562795639038
0.12855914235115051 0.49996313452720642 0.64524549245834351
0.32747212052345276 0.50181734561920166 0.64344644546508789
0.52838134765625 0.50355464220046997 0.64195293188095093
0.72037976980209351 0.5125727653503418 0.64090490341186523
0.85774701833724976 0.56904900074005127 0.60696542263031006
0.179953932762146 0.71932399272918701 0.66457319259643555
0.35837706923484802 0.72225028276443481 0.66233080625534058
0.55520552396774292 0.7250669002532959 0.66024839878082275
0.74789977073669434 0.73175442218780518 0.66967099905014038
0.88530474901199341 0.77095496654510498 0.63305062055587769
0.33221784234046936 0.93665271997451782 0.65331017971038818
0.43004429340362549 0.94020253419876099 0.65839254856109619
0.58607667684555054 0.94526785612106323 0.66033369302749634
0.75590991973876953 0.95573675632476807 0.66576331853866577
0.91541808843612671 0.97185057401657104 0.67203199863433838
0.13267183303833008 0.17600907385349274 0.69450974464416504
0.30330869555473328 0.17660468816757202 0.69358521699905396
0.4755556583404541 0.18933646380901337 0.70879733562469482
0.66352635622024536 0.21463215351104736 0.73393577337265015
0.85064059495925903 0.25437450408935547 0.75923341512680054
0.13527020812034607 0.34166944026947021 0.70372503995895386
0.30405589938163757 0.34289795160293579 0.69963306188583374
0.46900343894958496 0.35131773352622986 0.70932602882385254
0.66159266233444214 0.37308049201965332 0.73428869247436523
0.84508436918258667 0.41648995876312256 0.75327712297439575
0.14448253810405731 0.52958321571350098 0.72420018911361694
0.31834405660629272 0.5318911075592041 0.72182893753051758
0.48943451046943665 0.54060417413711548 0.73278379440307617
0.67546790838241577 0.55319666862487793 0.7491564154624939
0.8589593768119812 0.58556503057479858 0.77094954252243042
0.19297054409980774 0.73280352354049683 0.76119452714920044
0.34756261110305786 0.73662263154983521 0.76868993043899536
0.52789157629013062 0.74499982595443726 0.77938377857208252
0.71170145273208618 0.75555282831192017 0.78711557388305664
0.88954621553421021 0.77805739641189575 0.79925274848937988
0.36085617542266846 0.94549471139907837 0.80444705486297607
0.40259513258934021 0.94983553886413574 0.81035363674163818
0.5741773247718811 0.95429575443267822 0.81885772943496704
0.74714112281799316 0.96370786428451538 0.81809765100479126
0.92500859498977661 0.97619259357452393 0.83564585447311401
