assets/lut/pixlsus warm vintage.cube
# Created by: G'MIC (https://gmic.eu)
TITLE "warm_vintage"
# LUT size
LUT_3D_SIZE 13
# Data domain
DOMAIN_MIN 0.0 0.0 0.0
DOMAIN_MAX 1.0 1.0 1.0
# LUT data points
0.073510535061359406 0.070058055222034454 0.067882195115089417
0.12734328210353851 0.045605842024087906 0.053261313587427139
0.16899734735488892 0.035020716488361359 0.040273241698741913
0.2189251035451889 0.030605494976043701 0.0321059450507164
0.2766927182674408 0.032381035387516022 0.02972869947552681
0.34055858850479126 0.034366756677627563 0.03141644224524498
0.4119378924369812 0.037375088781118393 0.032216764986515045
0.49039360880851746 0.036917340010404587 0.030626842752099037
0.56797313690185547 0.038716588169336319 0.030199777334928513
0.64270639419555664 0.040765978395938873 0.030659515410661697
0.71342349052429199 0.044616550207138062 0.031907070428133011
0.78826701641082764 0.048936177045106888 0.034293483942747116
0.85976779460906982 0.045756127685308456 0.032274030148983002
0.071804255247116089 0.16077159345149994 0.065051496028900146
0.14483359456062317 0.14335356652736664 0.055529035627841949
0.15352456271648407 0.097687982022762299 0.036730267107486725
0.18881675601005554 0.081010304391384125 0.027082391083240509
0.24963399767875671 0.080366723239421844 0.027281114831566811
0.31887331604957581 0.083737649023532867 0.02915058471262455
0.39663559198379517 0.085708066821098328 0.030683001503348351
0.48034164309501648 0.086887851357460022 0.029185261577367783
0.55767309665679932 0.09086482971906662 0.029732827097177505
0.6313481330871582 0.095998115837574005 0.030888337641954422
0.70514762401580811 0.102339968085289 0.035681303590536118
0.77892988920211792 0.1058318167924881 0.039000298827886581
0.84919971227645874 0.10723767429590225 0.04239857941865921
0.054106589406728745 0.19542987644672394 0.047782164067029953
0.13566678762435913 0.19656728208065033 0.044001545757055283
0.18317991495132446 0.18076832592487335 0.038594849407672882
0.20456410944461823 0.15076959133148193 0.032457642257213593
0.24028009176254272 0.13465501368045807 0.027172807604074478
0.29804942011833191 0.1317274421453476 0.026860300451517105
0.37678182125091553 0.13580609858036041 0.0252964086830616
0.4616333544254303 0.14214101433753967 0.024910092353820801
0.54147261381149292 0.14893236756324768 0.027330001816153526
0.61533647775650024 0.15495418012142181 0.028629841282963753
0.69305926561355591 0.16228094696998596 0.034676138311624527
0.76802676916122437 0.16776639223098755 0.036726575344800949
0.83795273303985596 0.1713310182094574 0.039130669087171555
0.047166384756565094 0.23734664916992188 0.039275839924812317
0.11668489873409271 0.23864349722862244 0.034383781254291534
0.18333452939987183 0.2379724383354187 0.034130141139030457
0.23152333498001099 0.22827446460723877 0.035775188356637955
0.26551330089569092 0.20753857493400574 0.030404288321733475
0.30819270014762878 0.19585958123207092 0.031831823289394379
0.36471790075302124 0.19071049988269806 0.027634264901280403
0.44418898224830627 0.19606207311153412 0.026602262631058693
0.52550387382507324 0.2033580094575882 0.029311925172805786
0.60426396131515503 0.21184881031513214 0.031707555055618286
0.68209433555603027 0.22018212080001831 0.034370794892311096
0.75717031955718994 0.22653780877590179 0.033354036509990692
0.82818317413330078 0.23061870038509369 0.026890594512224197
0.047506026923656464 0.29176238179206848 0.040218666195869446
0.10957027971744537 0.29206380248069763 0.034658350050449371
0.17672133445739746 0.29247415065765381 0.036758825182914734
0.23593759536743164 0.2896733283996582 0.035403188318014145
0.28764164447784424 0.28388312458992004 0.030888022854924202
0.33100908994674683 0.27041918039321899 0.033272776752710342
0.38266709446907043 0.25870338082313538 0.02887440100312233
0.45412179827690125 0.26154449582099915 0.029210962355136871
0.52063703536987305 0.26231738924980164 0.029172170907258987
0.59255450963973999 0.26651352643966675 0.031142590567469597
0.67009079456329346 0.27522704005241394 0.033054158091545105
0.74682056903839111 0.28323662281036377 0.033510830253362656
0.81803667545318604 0.29002159833908081 0.028705433011054993
0.048702750355005264 0.35021296143531799 0.037595964968204498
0.10523545742034912 0.35051539540290833 0.035022135823965073
0.16849645972251892 0.35035565495491028 0.036623187363147736
0.23221631348133087 0.35031428933143616 0.032122097909450531
0.29330343008041382 0.34949797391891479 0.029574150219559669
0.35052946209907532 0.34465977549552917 0.027162723243236542
0.40745726227760315 0.33268043398857117 0.02816854789853096
0.47020742297172546 0.32829582691192627 0.029408009722828865
0.53049099445343018 0.32837799191474915 0.028660343959927559
0.59721177816390991 0.33222711086273193 0.029559655115008354
0.66342735290527344 0.33595162630081177 0.029907749965786934
0.73882597684860229 0.34295102953910828 0.033052138984203339
0.80949103832244873 0.35055083036422729 0.031203459948301315
0.050237290561199188 0.4160313606262207 0.035754617303609848
0.10298246145248413 0.41631525754928589 0.034115586429834366
0.16595369577407837 0.41655495762825012 0.03544190526008606
0.22908377647399902 0.41543751955032349 0.033009279519319534
0.2916826605796814 0.41485577821731567 0.032764837145805359
0.35584148764610291 0.41663536429405212 0.032531589269638062
0.42092403769493103 0.41517424583435059 0.030392052605748177
0.48386725783348083 0.40589970350265503 0.029930908232927322
0.54572045803070068 0.40627646446228027 0.028787305578589439
0.61107945442199707 0.40984976291656494 0.028745509684085846
0.67368036508560181 0.41219669580459595 0.029243588447570801
0.74355828762054443 0.41616785526275635 0.033131290227174759
0.80800974369049072 0.41793018579483032 0.030693158507347107
0.047516603022813797 0.49678406119346619 0.038723200559616089
0.10570116341114044 0.49735990166664124 0.0380287766456604
0.16869357228279114 0.49794688820838928 0.037789423018693924
0.23187810182571411 0.49675837159156799 0.036391552537679672
0.29514232277870178 0.49619406461715698 0.036305073648691177
0.36139261722564697 0.49487155675888062 0.036449804902076721
0.43179062008857727 0.49657326936721802 0.03391018882393837
0.50178337097167969 0.49462246894836426 0.031770862638950348
0.56139886379241943 0.49069222807884216 0.031465925276279449
0.62338048219680786 0.48946121335029602 0.031028926372528076
0.68578362464904785 0.49046877026557922 0.031312245875597
0.75281310081481934 0.49308088421821594 0.033726576715707779
0.81511765718460083 0.49443048238754272 0.033358242362737656
0.045708466321229935 0.57091259956359863 0.039653375744819641
0.10783175379037857 0.57260674238204956 0.040597625076770782
0.17166389524936676 0.57388138771057129 0.04119669646024704
0.23575837910175323 0.57306689023971558 0.039372432976961136
0.30044883489608765 0.57255780696868896 0.038977351039648056
0.3656388521194458 0.56997025012969971 0.039940614253282547
0.43591037392616272 0.57053667306900024 0.038859453052282333
0.51074236631393433 0.57083618640899658 0.037096373736858368
0.57525193691253662 0.56903308629989624 0.035338606685400009
0.63751190900802612 0.56868076324462891 0.035998787730932236
0.69723504781723022 0.56596082448959351 0.032304607331752777
0.76408219337463379 0.5689847469329834 0.03329671174287796
0.82612574100494385 0.57064855098724365 0.031702287495136261
0.057284172624349594 0.6435205340385437 0.038291573524475098
0.1125928983092308 0.64448738098144531 0.03885999321937561
0.17541505396366119 0.64710021018981934 0.041185535490512848
0.23979201912879944 0.64644145965576172 0.043172139674425125
0.30424869060516357 0.64265549182891846 0.039906848222017288
0.37150770425796509 0.64370608329772949 0.041788063943386078
0.44290027022361755 0.64491134881973267 0.043617710471153259
0.51492404937744141 0.64429467916488647 0.042440902441740036
0.58292818069458008 0.64129102230072021 0.037341848015785217
0.64873164892196655 0.64506006240844727 0.039128649979829788
0.71141451597213745 0.64660364389419556 0.037898749113082886
0.77703142166137695 0.64754348993301392 0.036930069327354431
0.83796536922454834 0.64654755592346191 0.031001446768641472
0.073546528816223145 0.72157782316207886 0.041008219122886658
0.11936808377504349 0.71863174438476562 0.037613574415445328
0.17818355560302734 0.7184823751449585 0.038935746997594833
0.24557089805603027 0.72108423709869385 0.044135283678770065
0.3105921745300293 0.7209358811378479 0.044147416949272156
0.37654176354408264 0.72056049108505249 0.043002724647521973
0.44756254553794861 0.72008061408996582 0.042381167411804199
0.51930463314056396 0.71889775991439819 0.043444119393825531
0.59145236015319824 0.71848577260971069 0.042519677430391312
0.66056245565414429 0.72216695547103882 0.04238007590174675
0.72573941946029663 0.72484886646270752 0.042723905295133591
0.7900536060333252 0.72470355033874512 0.041337240487337112
0.84769511222839355 0.72064203023910522 0.033085603266954422
0.067681662738323212 0.79606902599334717 0.03880932554602623
0.11741825193166733 0.79552727937698364 0.03833383321762085
0.18070192635059357 0.79638975858688354 0.038361553102731705
0.24826107919216156 0.798023521900177 0.042125221341848373
0.31485247611999512 0.79835647344589233 0.043570991605520248
0.37913221120834351 0.79554945230484009 0.039112765341997147
0.44879183173179626 0.7930680513381958 0.035630784928798676
0.52365827560424805 0.79484158754348755 0.041080489754676819
0.59848594665527344 0.79593151807785034 0.041946634650230408
0.66888618469238281 0.79814201593399048 0.039886534214019775
0.73456168174743652 0.79870885610580444 0.039185002446174622
0.79865366220474243 0.79755812883377075 0.038058187812566757
0.85707122087478638 0.79534274339675903 0.032064341008663177
0.052581172436475754 0.8656926155090332 0.032484255731105804
0.11277922242879868 0.86623698472976685 0.03644045814871788
0.17848718166351318 0.86912077665328979 0.030482333153486252
0.2469005286693573 0.8696478009223938 0.032623633742332458
0.31661266088485718 0.86744344234466553 0.037540197372436523
0.38297736644744873 0.86877381801605225 0.033614035695791245
0.45231282711029053 0.86908411979675293 0.029579581692814827
0.52786707878112793 0.86624860763549805 0.035836491733789444
0.60209858417510986 0.86666357517242432 0.035463146865367889
0.67229765653610229 0.87008869647979736 0.029567478224635124
0.73890000581741333 0.86792963743209839 0.029029622673988342
0.8030087947845459 0.86654651165008545 0.029419349506497383
0.86654341220855713 0.86649203300476074 0.02907085046172142
0.061181221157312393 0.046849716454744339 0.1258159875869751
0.16014900803565979 0.049651186913251877 0.13114778697490692
0.26687067747116089 0.057844918221235275 0.14866067469120026
0.33318671584129333 0.053961046040058136 0.14125356078147888
0.37778612971305847 0.047326166182756424 0.1235945001244545
0.42221733927726746 0.052140988409519196 0.11171973496675491
0.47842669486999512 0.059719324111938477 0.10517430305480957
0.54920077323913574 0.047488704323768616 0.099090754985809326
0.61918759346008301 0.051549933850765228 0.096680015325546265
0.68471115827560425 0.071038328111171722 0.099709741771221161
0.75188153982162476 0.075089521706104279 0.10102477669715881
0.82280910015106201 0.072663389146327972 0.097978867590427399
0.89295148849487305 0.068566173315048218 0.094504274427890778
0.079055070877075195 0.17469459772109985 0.14313885569572449
0.18465238809585571 0.17252655327320099 0.13372425734996796
0.25157108902931213 0.16005752980709076 0.13330034911632538
0.30471503734588623 0.13926452398300171 0.12504139542579651
0.34947645664215088 0.12007314711809158 0.11353530734777451
0.40080741047859192 0.11037973314523697 0.10112232714891434
0.46642717719078064 0.10628359764814377 0.096128232777118683
0.53736889362335205 0.10135193169116974 0.092123143374919891
0.60792356729507446 0.10376015305519104 0.091586858034133911
0.67465925216674805 0.11359043419361115 0.09140198677778244
0.74352693557739258 0.11791456490755081 0.092687301337718964
0.81461167335510254 0.11753909289836884 0.093996070325374603
0.88437581062316895 0.11500471830368042 0.094197459518909454
0.086601316928863525 0.29312938451766968 0.16358931362628937
0.21232406795024872 0.29312539100646973 0.15652452409267426
0.29322513937950134 0.28316274285316467 0.1514313668012619
0.32115435600280762 0.24311718344688416 0.13360461592674255
0.3401486873626709 0.1969267874956131 0.10993945598602295
0.38143801689147949 0.17464566230773926 0.09690074622631073
0.44648551940917969 0.16575536131858826 0.089369833469390869
0.52019190788269043 0.1644568145275116 0.085058785974979401
0.59199905395507812 0.167154461145401 0.087350480258464813
0.6616700291633606 0.1697600781917572 0.087764009833335876
0.73211324214935303 0.17527458071708679 0.090199939906597137
0.80305343866348267 0.18023748695850372 0.090977177023887634
0.87337440252304077 0.18220101296901703 0.090152010321617126
0.079330310225486755 0.35538843274116516 0.15309281647205353
0.18846595287322998 0.35635548830032349 0.14829874038696289
0.28982239961624146 0.35620579123497009 0.14711065590381622
0.3492889404296875 0.34189343452453613 0.14123977720737457
0.36813029646873474 0.29495507478713989 0.12178304046392441
0.39465558528900146 0.2578960657119751 0.11039858311414719
0.43566480278968811 0.23303981125354767 0.092262610793113708
0.50340163707733154 0.22775782644748688 0.088880591094493866
0.57657068967819214 0.22917014360427856 0.091301925480365753
0.64923244714736938 0.23302482068538666 0.092375628650188446
0.72070550918579102 0.23771622776985168 0.092947989702224731
0.79183214902877808 0.24259588122367859 0.092309810221195221
0.86220246553421021 0.24570699036121368 0.087348312139511108
0.070615880191326141 0.39686274528503418 0.14196692407131195
0.16052168607711792 0.39544829726219177 0.13030675053596497
0.2528749406337738 0.39683020114898682 0.13624612987041473
0.33490097522735596 0.39484497904777527 0.13266143202781677
0.38840508460998535 0.38344410061836243 0.12502555549144745
0.41654384136199951 0.34653136134147644 0.11643598973751068
0.4546419084072113 0.31301164627075195 0.098554499447345734
0.51434266567230225 0.30151775479316711 0.092028610408306122
0.57560253143310547 0.29565787315368652 0.093991465866565704
0.64093226194381714 0.29442664980888367 0.095285780727863312
0.7105754017829895 0.29815268516540527 0.096097521483898163
0.78241288661956787 0.30376791954040527 0.094965212047100067
0.8526684045791626 0.30908837914466858 0.089398749172687531
0.075298696756362915 0.43743550777435303 0.12868295609951019
0.13964210450649261 0.43638706207275391 0.11758355796337128
0.22241418063640594 0.43763202428817749 0.12487205117940903
0.30023995041847229 0.43813848495483398 0.11455611884593964
0.37325611710548401 0.43671086430549622 0.11507613211870193
0.4300854504108429 0.42447885870933533 0.10867305099964142
0.47730764746665955 0.39464008808135986 0.096176639199256897
0.53097820281982422 0.37665903568267822 0.092147350311279297
0.58611994981765747 0.36792159080505371 0.091933637857437134
0.64575886726379395 0.36392271518707275 0.091157220304012299
0.70860940217971802 0.36305519938468933 0.095425941050052643
0.77752995491027832 0.36606761813163757 0.0952887162566185
0.84501367807388306 0.37124896049499512 0.091902606189250946
0.085373267531394958 0.49110579490661621 0.11710523813962936
0.12927486002445221 0.49278444051742554 0.10981615632772446
0.20419155061244965 0.49405345320701599 0.1138489693403244
0.27679798007011414 0.49410867691040039 0.10902953892946243
0.34995028376579285 0.49220263957977295 0.11256039142608643
0.42172521352767944 0.48948600888252258 0.10997616499662399
0.48916724324226379 0.48413726687431335 0.10197116434574127
0.54605025053024292 0.46567291021347046 0.097597397863864899
0.60004305839538574 0.45031532645225525 0.091043911874294281
0.65555918216705322 0.43978196382522583 0.086296051740646362
0.71494930982589722 0.43656042218208313 0.09196491539478302
0.77795946598052979 0.43658772110939026 0.094847708940505981
0.83955603837966919 0.43766528367996216 0.093228735029697418
0.073484279215335846 0.55913418531417847 0.12534020841121674
0.13084320724010468 0.5621037483215332 0.12275537103414536
0.20012064278125763 0.56386613845825195 0.11843592673540115
0.26819637417793274 0.5631604790687561 0.10976520925760269
0.33750909566879272 0.55971896648406982 0.11259642988443375
0.41226458549499512 0.55555415153503418 0.11825889348983765
0.48795843124389648 0.55665141344070435 0.11150635033845901
0.56104809045791626 0.5559576153755188 0.10281454026699066
0.61647683382034302 0.54121613502502441 0.10006299614906311
0.66861474514007568 0.52437204122543335 0.095611080527305603
0.72510099411010742 0.51843100786209106 0.095814287662506104
0.78601205348968506 0.5161852240562439 0.095735363662242889
0.84562170505523682 0.5157926082611084 0.092226997017860413
0.066025242209434509 0.62689483165740967 0.12745667994022369
0.12973342835903168 0.63084721565246582 0.12924523651599884
0.19774468243122101 0.63055264949798584 0.12539489567279816
0.26626884937286377 0.62884622812271118 0.11828073114156723
0.33547961711883545 0.62618815898895264 0.12081701308488846
0.40780320763587952 0.62324196100234985 0.12656284868717194
0.48541611433029175 0.62463253736495972 0.11953135579824448
0.56309902667999268 0.62598061561584473 0.11143719404935837
0.6271781325340271 0.62184756994247437 0.11154237389564514
0.68289047479629517 0.61342799663543701 0.11106196045875549
0.73909115791320801 0.60584908723831177 0.10563155263662338
0.79927295446395874 0.59994548559188843 0.097063891589641571
0.85895580053329468 0.59758675098419189 0.090092755854129791
0.06752961128950119 0.69064080715179443 0.11791051179170609
0.1281181275844574 0.69455289840698242 0.12339447438716888
0.19885629415512085 0.6971248984336853 0.12486554682254791
0.2657279372215271 0.69391065835952759 0.12362685799598694
0.33473628759384155 0.6909058690071106 0.12578542530536652
0.40807968378067017 0.69071471691131592 0.12826059758663177
0.4867149293422699 0.69202560186386108 0.12402327358722687
0.55990117788314819 0.69037711620330811 0.11992514878511429
0.62906503677368164 0.68840533494949341 0.11832472681999207
0.69150114059448242 0.69023776054382324 0.1150214672088623
0.75201237201690674 0.69004911184310913 0.10934887826442719
0.81318491697311401 0.68485599756240845 0.10154679417610168
0.87272363901138306 0.67885333299636841 0.091787882149219513
0.081705488264560699 0.76001298427581787 0.11026826500892639
0.12984775006771088 0.76178359985351562 0.114958755671978
0.19812896847724915 0.76275008916854858 0.11915353685617447
0.26643022894859314 0.76117110252380371 0.11996559053659439
0.33398377895355225 0.75987565517425537 0.12020865082740784
0.40817719697952271 0.7627219557762146 0.12436468154191971
0.48797997832298279 0.76377266645431519 0.12338795512914658
0.55691570043563843 0.75740009546279907 0.11896473169326782
0.62581032514572144 0.75439369678497314 0.11455598473548889
0.69637244939804077 0.76063859462738037 0.11165113002061844
0.76372605562210083 0.76610749959945679 0.1101892963051796
0.82598978281021118 0.76352113485336304 0.10667561739683151
0.88027811050415039 0.75657540559768677 0.098811253905296326
0.086252890527248383 0.8315352201461792 0.10360107570886612
0.12843507528305054 0.83206641674041748 0.10632742941379547
0.19530363380908966 0.8329882025718689 0.10974064469337463
0.26542428135871887 0.83231687545776367 0.11187784373760223
0.33333101868629456 0.83142930269241333 0.1128917932510376
0.40499785542488098 0.83300936222076416 0.11491487920284271
0.48272231221199036 0.83185559511184692 0.11404541879892349
0.55320185422897339 0.82685315608978271 0.11101824045181274
0.62627345323562622 0.82586574554443359 0.10954458266496658
0.70152688026428223 0.83225119113922119 0.10697576403617859
0.77082395553588867 0.83621758222579956 0.10444633662700653
0.8335568904876709 0.83491599559783936 0.10153051465749741
0.88969063758850098 0.83200812339782715 0.097101278603076935
0.086356267333030701 0.8984723687171936 0.09583987295627594
0.12085997313261032 0.90120029449462891 0.097070835530757904
0.18962281942367554 0.89953851699829102 0.098145537078380585
0.26180067658424377 0.89881855249404907 0.1006757840514183
0.33283138275146484 0.89768344163894653 0.10467014461755753
0.40377262234687805 0.89853054285049438 0.10301955044269562
0.48032897710800171 0.89815139770507812 0.10101266205310822
0.5538628101348877 0.89428973197937012 0.10255338251590729
0.62815707921981812 0.89350652694702148 0.10232258588075638
0.70266270637512207 0.89673393964767456 0.0989571213722229
0.77349698543548584 0.89953279495239258 0.095586694777011871
0.83886981010437012 0.9020230770111084 0.091713875532150269
0.90278679132461548 0.90306776762008667 0.091282986104488373
0.056611109524965286 0.039017830044031143 0.19615755975246429
0.14560887217521667 0.039434649050235748 0.19613091647624969
0.23526409268379211 0.044474657624959946 0.20481254160404205
0.33891052007675171 0.049952041357755661 0.22078502178192139
0.43238657712936401 0.0553397536277771 0.23045587539672852
0.49704176187515259 0.058725558221340179 0.22432850301265717
0.55086064338684082 0.058634426444768906 0.21001052856445312
0.60806882381439209 0.05690416693687439 0.19600705802440643
0.66905945539474487 0.062948055565357208 0.18776296079158783
0.7311522364616394 0.08659769594669342 0.18603941798210144
0.7948451042175293 0.09273470938205719 0.18259468674659729
0.86291491985321045 0.081240877509117126 0.17883072793483734
0.92940235137939453 0.069204248487949371 0.17514246702194214
0.058394741266965866 0.12449568510055542 0.18065828084945679
0.14585848152637482 0.12423267960548401 0.1690606027841568
0.21911582350730896 0.12614351511001587 0.17110258340835571
0.31132063269615173 0.13470704853534698 0.19007998704910278
0.40558725595474243 0.14099398255348206 0.2108265608549118
0.47070172429084778 0.13383403420448303 0.20811712741851807
0.53040695190429688 0.12554772198200226 0.19418002665042877
0.59514462947845459 0.12066078931093216 0.18506750464439392
0.65962570905685425 0.12020197510719299 0.18126305937767029
0.72178858518600464 0.12561103701591492 0.17894992232322693
0.78507757186889648 0.12889997661113739 0.17496491968631744
0.85389965772628784 0.12859541177749634 0.17399561405181885
0.91975504159927368 0.12617750465869904 0.17240972816944122
0.072166696190834045 0.24314497411251068 0.21228410303592682
0.17658150196075439 0.24084442853927612 0.19538015127182007
0.26329350471496582 0.24270695447921753 0.19210892915725708
0.32722502946853638 0.24058184027671814 0.19808602333068848
0.40103280544281006 0.23333325982093811 0.2068977952003479
0.45569786429405212 0.21461986005306244 0.20084932446479797
0.5165284276008606 0.19998182356357574 0.18670943379402161
0.58100312948226929 0.19115465879440308 0.17647324502468109
0.64559561014175415 0.18951661884784698 0.17433454096317291
0.70802038908004761 0.19007872045040131 0.17252562940120697
0.77274554967880249 0.19164609909057617 0.17163316905498505
0.8420640230178833 0.19384482502937317 0.17113761603832245
0.90872085094451904 0.19452528655529022 0.16955137252807617
0.079136520624160767 0.35585007071495056 0.2317429780960083
0.19008451700210571 0.35627081990242004 0.22319142520427704
0.29813724756240845 0.35893112421035767 0.21722373366355896
0.36863186955451965 0.35681554675102234 0.21830290555953979
0.42379772663116455 0.34127423167228699 0.21839946508407593
0.46696221828460693 0.30973348021507263 0.20843079686164856
0.5108036994934082 0.28092825412750244 0.18958613276481628
0.56994819641113281 0.26601430773735046 0.17710331082344055
0.63223481178283691 0.25769662857055664 0.17091923952102661
0.69498938322067261 0.25621193647384644 0.16877542436122894
0.76093810796737671 0.25727728009223938 0.16972965002059937
0.82992148399353027 0.25959214568138123 0.17069083452224731
0.89713096618652344 0.26134636998176575 0.16884143650531769
0.076588965952396393 0.4486657977104187 0.24016778171062469
0.1842731237411499 0.44755417108535767 0.23449091613292694
0.29210773110389709 0.4490915834903717 0.23271964490413666
0.38964921236038208 0.4491843581199646 0.2315526008605957
