assets/lut/pixlsus delicatessen.cube
# Created by: G'MIC (https://gmic.eu)
TITLE "delicatessen"
# LUT size
LUT_3D_SIZE 13
# Data domain
DOMAIN_MIN 0.0 0.0 0.0
DOMAIN_MAX 1.0 1.0 1.0
# LUT data points
0.055500268936157227 0.059990692883729935 0.055707205086946487
0.099169380962848663 0.078109145164489746 0.070700705051422119
0.15491883456707001 0.092222951352596283 0.085008330643177032
0.21345169842243195 0.098214000463485718 0.098753519356250763
0.27861177921295166 0.10045298933982849 0.10769645869731903
0.35655498504638672 0.095751054584980011 0.10678079724311829
0.44986739754676819 0.083080247044563293 0.10193531960248947
0.55532193183898926 0.06752420961856842 0.098205894231796265
0.64122211933135986 0.06643204391002655 0.10870374739170074
0.71786624193191528 0.067000336945056915 0.12289247661828995
0.79610365629196167 0.060092370957136154 0.13504171371459961
0.87110555171966553 0.051666393876075745 0.14639830589294434
0.91324633359909058 0.05318119004368782 0.1502050906419754
0.067448742687702179 0.097312405705451965 0.067678205668926239
0.10237335413694382 0.1057041808962822 0.071339644491672516
0.15810762345790863 0.11716780066490173 0.078769952058792114
0.22294174134731293 0.12370181828737259 0.083068385720252991
0.29739660024642944 0.1247241273522377 0.082458406686782837
0.37861621379852295 0.12006078660488129 0.076450109481811523
0.47280827164649963 0.10840310156345367 0.065806351602077484
0.57152026891708374 0.10155745595693588 0.075995773077011108
0.65672242641448975 0.10105200111865997 0.097571447491645813
0.72921222448348999 0.10488514602184296 0.11668305099010468
0.80306100845336914 0.10559488832950592 0.13299301266670227
0.8733178973197937 0.10285606980323792 0.14559824764728546
0.91665530204772949 0.10204721987247467 0.1518581360578537
0.08453071117401123 0.15461714565753937 0.084480777382850647
0.11142561584711075 0.16009199619293213 0.072822451591491699
0.16468961536884308 0.167253777384758 0.068491019308567047
0.23361994326114655 0.16923350095748901 0.0679183229804039
0.31093320250511169 0.16951940953731537 0.065226972103118896
0.39315924048423767 0.16805283725261688 0.056586936116218567
0.48266276717185974 0.16361552476882935 0.05041256919503212
0.57347267866134644 0.16343005001544952 0.063347145915031433
0.65968269109725952 0.16316966712474823 0.079427517950534821
0.73505771160125732 0.16110917925834656 0.10210546106100082
0.81115621328353882 0.15902218222618103 0.12517473101615906
0.87612003087997437 0.15900607407093048 0.14217483997344971
0.91496133804321289 0.16047407686710358 0.14886267483234406
0.10375700145959854 0.21440352499485016 0.094259299337863922
0.12594611942768097 0.2217128723859787 0.074188902974128723
0.17205150425434113 0.22964674234390259 0.059302758425474167
0.23667539656162262 0.23653657734394073 0.052037753164768219
0.31742605566978455 0.23583965003490448 0.050580583512783051
0.40311446785926819 0.23315989971160889 0.047943219542503357
0.49482476711273193 0.23174196481704712 0.045922793447971344
0.58158004283905029 0.23210415244102478 0.052226617932319641
0.66133087873458862 0.23303626477718353 0.05809205025434494
0.73647993803024292 0.23145610094070435 0.081315748393535614
0.80686557292938232 0.23130220174789429 0.1114979162812233
0.86101770401000977 0.23131261765956879 0.13206769526004791
0.89696967601776123 0.23495028913021088 0.13916495442390442
0.13702169060707092 0.27293252944946289 0.098996259272098541
0.16170871257781982 0.28007447719573975 0.08254319429397583
0.1990569531917572 0.29252898693084717 0.066910825669765472
0.24581071734428406 0.30788502097129822 0.052605915814638138
0.31683409214019775 0.31592819094657898 0.047182794660329819
0.40288841724395752 0.31725922226905823 0.044987265020608902
0.49639484286308289 0.31218305230140686 0.045955687761306763
0.58165901899337769 0.31093505024909973 0.047003399580717087
0.66240477561950684 0.3103906512260437 0.048856519162654877
0.73475706577301025 0.30955880880355835 0.069946512579917908
0.7967795729637146 0.31200715899467468 0.097921796143054962
0.84342318773269653 0.31240108609199524 0.11624009162187576
0.88074088096618652 0.31343486905097961 0.12832456827163696
0.17081540822982788 0.33336418867111206 0.098205834627151489
0.20136751234531403 0.33955097198486328 0.086858324706554413
0.2354065477848053 0.35176342725753784 0.07281920313835144
0.27154001593589783 0.37045180797576904 0.062857247889041901
0.31997799873352051 0.39040940999984741 0.057942721992731094
0.39923280477523804 0.39874899387359619 0.045332156121730804
0.49153316020965576 0.39900672435760498 0.042753465473651886
0.57844620943069458 0.39861151576042175 0.046510793268680573
0.66234397888183594 0.39717426896095276 0.053696993738412857
0.74076962471008301 0.39143583178520203 0.065827794373035431
0.79910570383071899 0.39369338750839233 0.084476664662361145
0.84414201974868774 0.3989165723323822 0.10222489386796951
0.88059425354003906 0.40623775124549866 0.11617440730333328
0.19904685020446777 0.39650693535804749 0.091420039534568787
0.2340959757566452 0.40066498517990112 0.08432488888502121
0.27278789877891541 0.41017505526542664 0.073566481471061707
0.30890819430351257 0.42619994282722473 0.06686670333147049
0.34313568472862244 0.44899865984916687 0.058896470814943314
0.40156969428062439 0.46988117694854736 0.047802403569221497
0.48814576864242554 0.486063152551651 0.041519764810800552
0.5779229998588562 0.49198773503303528 0.045681416988372803
0.66520565748214722 0.49133127927780151 0.052578255534172058
0.74511528015136719 0.4841218888759613 0.058311671018600464
0.80755460262298584 0.48350867629051208 0.067126721143722534
0.85348027944564819 0.49489495158195496 0.085385292768478394
0.88944321870803833 0.50479495525360107 0.098077200353145599
0.22174693644046783 0.46112909913063049 0.080955296754837036
0.25743588805198669 0.46076607704162598 0.079358644783496857
0.29674938321113586 0.46250870823860168 0.075987599790096283
0.33791947364807129 0.47414675354957581 0.072043895721435547
0.37508738040924072 0.49536484479904175 0.066000953316688538
0.43167659640312195 0.52456855773925781 0.057204842567443848
0.50216525793075562 0.56228506565093994 0.050936035811901093
0.58534198999404907 0.57800626754760742 0.045787211507558823
0.67117702960968018 0.57992744445800781 0.047227732837200165
0.75489282608032227 0.57975822687149048 0.046580221503973007
0.82896405458450317 0.58414584398269653 0.044716149568557739
0.87383133172988892 0.59328794479370117 0.063635416328907013
0.90081882476806641 0.59988117218017578 0.079857543110847473
0.23906552791595459 0.51881980895996094 0.075465165078639984
0.2750970721244812 0.51493614912033081 0.079761892557144165
0.31532472372055054 0.51491343975067139 0.079630620777606964
0.36131018400192261 0.52308082580566406 0.07532539963722229
0.40710145235061646 0.54245376586914062 0.069890238344669342
0.46475595235824585 0.56949955224990845 0.068165197968482971
0.52511823177337646 0.59613233804702759 0.066426761448383331
0.59935218095779419 0.61251723766326904 0.063586995005607605
0.68081420660018921 0.61960327625274658 0.063001431524753571
0.76138526201248169 0.63035804033279419 0.057877663522958755
0.83755111694335938 0.64708185195922852 0.050503838807344437
0.89380073547363281 0.66965752840042114 0.056939758360385895
0.91370844841003418 0.67070871591567993 0.089003093540668488
0.24155180156230927 0.56899744272232056 0.075655899941921234
0.27952945232391357 0.5657767653465271 0.078371055424213409
0.32454195618629456 0.56715136766433716 0.079014003276824951
0.37497192621231079 0.57226210832595825 0.07522110641002655
0.42747637629508972 0.58136814832687378 0.073351375758647919
0.47969892621040344 0.59688442945480347 0.078225471079349518
0.53670334815979004 0.61525142192840576 0.079708531498908997
0.60961616039276123 0.63139885663986206 0.080825954675674438
0.68803948163986206 0.64441448450088501 0.080737307667732239
0.76565825939178467 0.65838146209716797 0.075341276824474335
0.8392946720123291 0.67753350734710693 0.070747539401054382
0.89660078287124634 0.70788270235061646 0.08989938348531723
0.92832010984420776 0.72352588176727295 0.11972538381814957
0.23814813792705536 0.62078899145126343 0.075074680149555206
0.27589517831802368 0.61699980497360229 0.076214991509914398
0.3222028911113739 0.61622732877731323 0.076477125287055969
0.37278726696968079 0.6165459156036377 0.076904296875
0.42515060305595398 0.61905783414840698 0.078027896583080292
0.47968834638595581 0.62711638212203979 0.0787062868475914
0.54093444347381592 0.64316630363464355 0.084792986512184143
0.61303853988647461 0.66006553173065186 0.090705707669258118
0.69001162052154541 0.67471885681152344 0.091074533760547638
0.76639288663864136 0.68912661075592041 0.086727797985076904
0.83737951517105103 0.70853787660598755 0.090317323803901672
0.89741462469100952 0.73959296941757202 0.12292851507663727
0.93819266557693481 0.76591706275939941 0.15202620625495911
0.23182034492492676 0.67655408382415771 0.071247577667236328
0.27145498991012573 0.670360267162323 0.073343075811862946
0.31979551911354065 0.66354268789291382 0.076966904103755951
0.37065160274505615 0.66137200593948364 0.079772010445594788
0.42277747392654419 0.66252517700195312 0.080120816826820374
0.47769179940223694 0.66567426919937134 0.077435947954654694
0.54342383146286011 0.67928779125213623 0.084477126598358154
0.61522358655929565 0.69783115386962891 0.09426899254322052
0.68837958574295044 0.71151691675186157 0.098064988851547241
0.76455402374267578 0.72709983587265015 0.097360529005527496
0.83357971906661987 0.74829959869384766 0.10602590441703796
0.89376556873321533 0.77512556314468384 0.13505734503269196
0.94051885604858398 0.80028963088989258 0.16006562113761902
0.22458824515342712 0.73091548681259155 0.064639195799827576
0.26891008019447327 0.71745675802230835 0.070539526641368866
0.31852620840072632 0.70827257633209229 0.076564565300941467
0.37033966183662415 0.70627230405807495 0.080450557172298431
0.4239165186882019 0.70833486318588257 0.081441529095172882
0.48205834627151489 0.71077531576156616 0.083242632448673248
0.54558479785919189 0.72116273641586304 0.086869530379772186
0.61671680212020874 0.7345883846282959 0.093642950057983398
0.68954527378082275 0.74640536308288574 0.099690109491348267
0.76338207721710205 0.76311987638473511 0.10225734114646912
0.83069777488708496 0.78372782468795776 0.11412914842367172
0.8893311619758606 0.80751252174377441 0.14194436371326447
0.94324105978012085 0.8330845832824707 0.16584588587284088
0.068221166729927063 0.085679270327091217 0.10277668386697769
0.11409173160791397 0.098324209451675415 0.11460224539041519
0.16466279327869415 0.10293801873922348 0.12387517094612122
0.22165551781654358 0.10422207415103912 0.13470393419265747
0.28200086951255798 0.10095115751028061 0.14034537971019745
0.35472241044044495 0.094855517148971558 0.14300212264060974
0.44386976957321167 0.083382628858089447 0.13876140117645264
0.55216795206069946 0.066869340837001801 0.13049344718456268
0.64368247985839844 0.067013144493103027 0.12936624884605408
0.72356754541397095 0.069796949625015259 0.13878843188285828
0.80122119188308716 0.065182626247406006 0.15334796905517578
0.87757712602615356 0.058649174869060516 0.16525933146476746
0.92020493745803833 0.058170020580291748 0.16992466151714325
0.067978322505950928 0.10490904003381729 0.1046648696064949
0.1160227432847023 0.11906564980745316 0.11632992327213287
0.16987527906894684 0.12652492523193359 0.1237783208489418
0.23138178884983063 0.12866906821727753 0.12711283564567566
0.30270320177078247 0.12646868824958801 0.12555038928985596
0.37967181205749512 0.12099992483854294 0.12496176362037659
0.47088074684143066 0.11236821860074997 0.12047340720891953
0.57331496477127075 0.10049369931221008 0.11299688369035721
0.66022640466690063 0.098517492413520813 0.11545200645923615
0.73391073942184448 0.10346036404371262 0.13435178995132446
0.80794847011566162 0.10553686320781708 0.15223605930805206
0.8782915472984314 0.1044064536690712 0.16432520747184753
0.92769181728363037 0.10262717306613922 0.17143695056438446
0.075642198324203491 0.15375176072120667 0.11475478857755661
0.11967489123344421 0.16559509932994843 0.11632110178470612
0.17366200685501099 0.17210011184215546 0.11950916796922684
0.237531378865242 0.17215874791145325 0.1182912215590477
0.31315195560455322 0.16968944668769836 0.11579553782939911
0.39525845646858215 0.16780568659305573 0.11476454138755798
0.48217278718948364 0.16627751290798187 0.11338955909013748
0.57502752542495728 0.16380380094051361 0.1111614778637886
0.65970170497894287 0.16164214909076691 0.11384070664644241
0.74045795202255249 0.1580062210559845 0.12634989619255066
0.81598997116088867 0.15659639239311218 0.14736649394035339
0.87913525104522705 0.15846261382102966 0.16195891797542572
0.92728078365325928 0.1599438339471817 0.16963526606559753
0.089760333299636841 0.21661940217018127 0.12643100321292877
0.12460189312696457 0.22532764077186584 0.12091399729251862
0.17211508750915527 0.2329585999250412 0.11846931278705597
0.23885071277618408 0.23775319755077362 0.11507660895586014
0.31599146127700806 0.23788569867610931 0.11197183281183243
0.4004109799861908 0.23584814369678497 0.1105099692940712
0.49055114388465881 0.23376850783824921 0.109416663646698
0.57582950592041016 0.23325307667255402 0.1097329705953598
0.65756529569625854 0.23276109993457794 0.11264599114656448
0.74043470621109009 0.23000717163085938 0.11829063296318054
0.81265401840209961 0.22996564209461212 0.13846059143543243
0.86717444658279419 0.23101229965686798 0.15675382316112518
0.91194897890090942 0.23330572247505188 0.16455601155757904
0.12427148222923279 0.27592790126800537 0.13632965087890625
0.15381312370300293 0.28483805060386658 0.13043908774852753
0.18913398683071136 0.2963927686214447 0.1224883571267128
0.24241504073143005 0.30782902240753174 0.11636000871658325
0.31618022918701172 0.31300088763237 0.11224495619535446
0.40117731690406799 0.31490591168403625 0.10886261612176895
0.48999583721160889 0.31259223818778992 0.10730571299791336
0.57346779108047485 0.31292113661766052 0.10938705503940582
0.65656137466430664 0.31257984042167664 0.11231997609138489
0.7402045726776123 0.31044507026672363 0.11480356752872467
0.81052917242050171 0.31081780791282654 0.12980489432811737
0.85953056812286377 0.31118249893188477 0.14975886046886444
0.9019588828086853 0.31080237030982971 0.16474230587482452
0.1595948338508606 0.33537113666534424 0.14131525158882141
0.18985337018966675 0.34350878000259399 0.13495112955570221
0.22543002665042877 0.35430523753166199 0.12752334773540497
0.26583567261695862 0.371663898229599 0.1208256259560585
0.31786412000656128 0.38972213864326477 0.11361198872327805
0.39716532826423645 0.3958621621131897 0.10880653560161591
0.48568037152290344 0.39762303233146667 0.10520234704017639
0.56982719898223877 0.39923927187919617 0.10814279317855835
0.65645748376846313 0.39713165163993835 0.11021347343921661
0.74438756704330444 0.39211258292198181 0.10894718766212463
0.81533163785934448 0.39183792471885681 0.11816505342721939
0.8623155951499939 0.39851221442222595 0.13913986086845398
0.89920222759246826 0.40523627400398254 0.15627536177635193
0.18853537738323212 0.39656254649162292 0.13779562711715698
0.2229345440864563 0.40091311931610107 0.13499711453914642
0.26367282867431641 0.41076970100402832 0.13151341676712036
0.30211344361305237 0.42704674601554871 0.12482067942619324
0.34084686636924744 0.45007702708244324 0.11651330441236496
0.39969390630722046 0.47315609455108643 0.10989044606685638
0.48418650031089783 0.48645293712615967 0.10358890891075134
0.57097715139389038 0.49184557795524597 0.10604168474674225
0.6620795726776123 0.49068310856819153 0.10682986676692963
0.75159138441085815 0.48319685459136963 0.10373487323522568
0.8233649730682373 0.48599720001220703 0.10724315047264099
0.87103807926177979 0.50017720460891724 0.12543337047100067
0.9028509259223938 0.50716441869735718 0.13991245627403259
0.21398025751113892 0.45627135038375854 0.13683222234249115
0.25009337067604065 0.45648372173309326 0.13525435328483582
0.29149404168128967 0.46081534028053284 0.13315939903259277
0.33234411478042603 0.47510123252868652 0.12807118892669678
0.37207892537117004 0.49768537282943726 0.12102901935577393
0.42606481909751892 0.5259711742401123 0.11356637626886368
0.49827116727828979 0.56180095672607422 0.10499756783246994
0.58457058668136597 0.57897043228149414 0.10354889184236526
0.67359435558319092 0.58129608631134033 0.10338246822357178
0.75862318277359009 0.58142316341400146 0.10032524913549423
0.83352690935134888 0.58362776041030884 0.10068313032388687
0.88662171363830566 0.59807389974594116 0.10975415259599686
0.91173911094665527 0.6029350757598877 0.12372641265392303
0.23309190571308136 0.51047050952911377 0.13651153445243835
0.26879554986953735 0.50874555110931396 0.13557271659374237
0.31032922863960266 0.51087313890457153 0.13429777324199677
0.3560817539691925 0.52203661203384399 0.13147641718387604
0.40233874320983887 0.54124003648757935 0.12489630281925201
0.45758709311485291 0.56419068574905396 0.11826462298631668
0.52315163612365723 0.59703004360198975 0.11327128857374191
0.59903073310852051 0.62293392419815063 0.11101376265287399
0.68433421850204468 0.62731939554214478 0.10936626046895981
0.76551705598831177 0.64225369691848755 0.10613853484392166
0.8416823148727417 0.65610009431838989 0.10264894366264343
0.90171164274215698 0.67589092254638672 0.10428658127784729
0.920238196849823 0.68200415372848511 0.11799688637256622
0.23679608106613159 0.56102073192596436 0.13319505751132965
0.27437683939933777 0.55784517526626587 0.13347753882408142
0.3201250433921814 0.55945891141891479 0.13339585065841675
0.37041583657264709 0.5656890869140625 0.13254983723163605
0.42231544852256775 0.57904398441314697 0.12802542746067047
0.47477281093597412 0.59511685371398926 0.12493090331554413
0.53504651784896851 0.61448627710342407 0.12463981658220291
0.61224615573883057 0.63691246509552002 0.12389162927865982
0.69199824333190918 0.65088313817977905 0.1245572417974472
0.76836568117141724 0.66843277215957642 0.12279260903596878
0.83927881717681885 0.69166725873947144 0.12173902988433838
0.9024345874786377 0.72051692008972168 0.1245531290769577
0.9338492751121521 0.73746669292449951 0.14053480327129364
0.23364219069480896 0.61393600702285767 0.12994524836540222
0.27211219072341919 0.60927605628967285 0.12974452972412109
0.31992682814598083 0.60702598094940186 0.1297498494386673
0.37203711271286011 0.60881775617599487 0.12989716231822968
0.42538243532180786 0.6152309775352478 0.12935684621334076
0.4785454273223877 0.62621611356735229 0.13007596135139465
0.54165053367614746 0.64254200458526611 0.13212308287620544
0.61581897735595703 0.66199833154678345 0.13270112872123718
0.69263410568237305 0.68082344532012939 0.13291393220424652
0.76707088947296143 0.69851422309875488 0.13430540263652802
0.83491247892379761 0.72119474411010742 0.14121916890144348
0.89991903305053711 0.74787145853042603 0.14912079274654388
0.94282376766204834 0.7746347188949585 0.16877532005310059
0.22773326933383942 0.6703333854675293 0.12683987617492676
0.26827836036682129 0.66297632455825806 0.12624306976795197
0.31801584362983704 0.65572929382324219 0.12619540095329285
0.37047547101974487 0.65483218431472778 0.12662655115127563
0.42396154999732971 0.65928202867507935 0.12756006419658661
0.47754570841789246 0.66489982604980469 0.13103479146957397
0.54290002584457397 0.67781013250350952 0.1350887268781662
0.61597591638565063 0.69614428281784058 0.13888542354106903
0.69115191698074341 0.71383178234100342 0.14083901047706604
0.76459676027297974 0.73277682065963745 0.14455927908420563
0.83209967613220215 0.75428599119186401 0.15366989374160767
0.89489066600799561 0.77893805503845215 0.16899055242538452
0.94114834070205688 0.80592805147171021 0.19042383134365082
0.22116263210773468 0.72230255603790283 0.12407036870718002
0.26484164595603943 0.71106177568435669 0.12334545701742172
0.31563553214073181 0.70303612947463989 0.12322717159986496
0.36912992596626282 0.70192193984985352 0.12248408049345016
0.42316877841949463 0.70500802993774414 0.12345482409000397
0.47891661524772644 0.70793288946151733 0.13105243444442749
0.54541313648223877 0.71702033281326294 0.1378747969865799
0.61816537380218506 0.73061114549636841 0.14261616766452789
0.69064724445343018 0.74543410539627075 0.14713896811008453
0.76342517137527466 0.76357823610305786 0.15319131314754486
0.82961678504943848 0.78562116622924805 0.16524140536785126
0.8904348611831665 0.80973494052886963 0.18555954098701477
0.94213354587554932 0.83691352605819702 0.20787893235683441
0.079142972826957703 0.10490276664495468 0.15386691689491272
0.12571480870246887 0.11452332884073257 0.16771440207958221
0.17570333182811737 0.11342813819646835 0.17470917105674744
0.23215992748737335 0.10916318744421005 0.18193547427654266
0.29846078157424927 0.10502612590789795 0.1901727020740509
0.37394097447395325 0.097429938614368439 0.19192968308925629
0.4624800980091095 0.084319233894348145 0.19032004475593567
0.5573689341545105 0.076216787099838257 0.18706046044826508
0.64066463708877563 0.079091452062129974 0.18529312312602997
0.72406893968582153 0.077628374099731445 0.18400697410106659
0.80962467193603516 0.069937221705913544 0.18421769142150879
0.89090061187744141 0.059425681829452515 0.1871543675661087
0.92653137445449829 0.060171522200107574 0.19145633280277252
0.077761903405189514 0.11934687197208405 0.15384024381637573
0.12602579593658447 0.13040615618228912 0.16769051551818848
0.17539922893047333 0.13081863522529602 0.1741243302822113
0.23646828532218933 0.12823225557804108 0.17922642827033997
0.30783540010452271 0.12449999153614044 0.18394246697425842
0.38826346397399902 0.12043280154466629 0.18296785652637482
0.47644776105880737 0.11273665726184845 0.18267336487770081
0.57060056924819946 0.10778892040252686 0.17870615422725677
0.65657347440719604 0.11137545853853226 0.17750811576843262
0.73564183712005615 0.11275015771389008 0.17928051948547363
0.81604409217834473 0.1094902902841568 0.18216608464717865
0.88792765140533447 0.10469529032707214 0.18786327540874481
0.94235843420028687 0.10203950107097626 0.19497665762901306
0.074094094336032867 0.16061213612556458 0.16083787381649017
0.12454967200756073 0.1724524199962616 0.17152070999145508
0.17791794240474701 0.17562797665596008 0.17697367072105408
0.2399236261844635 0.17410522699356079 0.17993162572383881
0.31497779488563538 0.17130489647388458 0.18030105531215668
0.39546135067939758 0.16841675341129303 0.18027383089065552
0.48195275664329529 0.16632340848445892 0.17949557304382324
0.56980711221694946 0.16511528193950653 0.17755502462387085
0.65599387884140015 0.16333098709583282 0.17688663303852081
0.74187517166137695 0.15861994028091431 0.1762797087430954
0.8233952522277832 0.15440303087234497 0.17825300991535187
0.88738352060317993 0.15609060227870941 0.1869034469127655
0.94625365734100342 0.15621079504489899 0.19455848634243011
0.081581935286521912 0.22145481407642365 0.17410759627819061
0.12451819330453873 0.23125196993350983 0.17720919847488403
0.17476341128349304 0.23728981614112854 0.17970819771289825
0.2398332804441452 0.23934139311313629 0.17985321581363678
0.31651124358177185 0.23984858393669128 0.17817191779613495
0.39877474308013916 0.23652909696102142 0.17821143567562103
0.48359763622283936 0.23596912622451782 0.17823858559131622
0.56762945652008057 0.23596698045730591 0.17853961884975433
0.65255641937255859 0.23393210768699646 0.17804268002510071
0.73970460891723633 0.2304488867521286 0.17683546245098114
0.82012689113616943 0.22868055105209351 0.18013039231300354
0.88149183988571167 0.22788150608539581 0.19015771150588989
0.9342808723449707 0.22956664860248566 0.19857361912727356
0.11134782433509827 0.28067627549171448 0.18789249658584595
0.14217522740364075 0.29395315051078796 0.18733847141265869
0.18237671256065369 0.30313819646835327 0.18356367945671082
0.2411559671163559 0.31015616655349731 0.18020951747894287
0.31721210479736328 0.31524381041526794 0.17615808546543121
0.40057450532913208 0.31557229161262512 0.17401756346225739
