assets/lut/pixlsus uzbek bukhara.cube
# Created by: G'MIC (https://gmic.eu)
TITLE "uzbek_bukhara"
# LUT size
LUT_3D_SIZE 7
# Data domain
DOMAIN_MIN 0.0 0.0 0.0
DOMAIN_MAX 1.0 1.0 1.0
# LUT data points
0.0020048252772539854 0.0025337967090308666 0.036193549633026123
0.029999870806932449 0.0028838063590228558 0.033088326454162598
0.13177098333835602 0.0030364990234375 0.035124160349369049
0.27922189235687256 0.0027304107788950205 0.036798708140850067
0.44874411821365356 0.002153793117031455 0.030935833230614662
0.64688736200332642 0 0.020216997712850571
0.8831864595413208 0 0.0047311224043369293
0.0040928861126303673 0.070095077157020569 0.033204171806573868
0.053152751177549362 0.075905099511146545 0.043435487896203995
0.17068718373775482 0.074597470462322235 0.055815573781728745
0.30890184640884399 0.046441636979579926 0.047597981989383698
0.48151949048042297 0.012346035800874233 0.036612357944250107
0.68177187442779541 0.0075593236833810806 0.025176702067255974
0.91948771476745605 0.00091588636860251427 0.0051517263054847717
0.0024641747586429119 0.20690630376338959 0.027005767449736595
0.025094544515013695 0.20813147723674774 0.036283351480960846
0.18219040334224701 0.21997670829296112 0.052355941385030746
0.35340040922164917 0.22579042613506317 0.069410540163516998
0.54443854093551636 0.18092544376850128 0.041200973093509674
0.75511199235916138 0.10094161331653595 0.014434126205742359
0.97290480136871338 0.028110399842262268 0.0057989084161818027
1.2925092050863896e-05 0.42267501354217529 0.011216571554541588
0.005192476324737072 0.41400200128555298 0.0094231702387332916
0.074397563934326172 0.43557697534561157 0.0072129042819142342
0.37448295950889587 0.46253028512001038 0.011325402185320854
0.64606064558029175 0.47757831215858459 0.01610126905143261
0.85437536239624023 0.44275066256523132 0.0092207062989473343
0.99315571784973145 0.40858271718025208 0.0011632433161139488
0 0.71901345252990723 0.0042398488149046898
0.0011010861489921808 0.72368836402893066 0.0024472104851156473
0.021817285567522049 0.73103892803192139 0.0015513101825490594
0.28275752067565918 0.7380717396736145 0.0044245999306440353
0.67077648639678955 0.75355058908462524 0.0051128012128174305
0.91276568174362183 0.7634844183921814 0.0029118256643414497
0.99113130569458008 0.73872637748718262 5.6008731917245314e-05
0.005171667318791151 0.96803492307662964 0.00098577758762985468
0.0072877472266554832 0.95657634735107422 0.0014455158961936831
0.049047209322452545 0.95840632915496826 0
0.33769938349723816 0.95852530002593994 0
0.69693762063980103 0.94671952724456787 0.001214255578815937
0.90585768222808838 0.94281947612762451 0.00099051976576447487
0.99290043115615845 0.9387662410736084 0
0.12940330803394318 0.99997198581695557 0.0025384640321135521
0.17305496335029602 0.99976646900177002 0.0033957387786358595
0.3425137996673584 0.99806749820709229 4.8229740059468895e-05
0.55297672748565674 0.99785226583480835 0
0.76407760381698608 0.99684464931488037 0
0.95707803964614868 0.99990379810333252 0
0.99572992324829102 0.99967759847640991 0.0014737148303538561
6.5343519963789731e-05 0.0016094282036647201 0.081402450799942017
0.027385830879211426 0.0010597826912999153 0.094994939863681793
0.14360803365707397 0.0029335920698940754 0.11817945539951324
0.28318539261817932 0.0017961389385163784 0.12311547994613647
0.45472782850265503 0.0015369190368801355 0.11858192831277847
0.65257656574249268 7.0010915806051344e-05 0.11420074105262756
0.89352321624755859 0 0.098876401782035828
0.0019871280528604984 0.064742021262645721 0.11867804080247879
0.041026558727025986 0.065195448696613312 0.12642717361450195
0.16516727209091187 0.070018932223320007 0.1410636305809021
0.3083859384059906 0.03639635443687439 0.13442613184452057
0.4851774275302887 0.0092279622331261635 0.12911795079708099
0.69486349821090698 0.0081494646146893501 0.12703850865364075
0.93109297752380371 0.00099002616479992867 0.10087702423334122
0.0018144495552405715 0.21422521770000458 0.13565285503864288
0.018860163167119026 0.21299034357070923 0.13724452257156372
0.18125087022781372 0.21700380742549896 0.15619611740112305
0.35621467232704163 0.21637329459190369 0.16630035638809204
0.54981160163879395 0.17218755185604095 0.14554859697818756
0.77029514312744141 0.081624649465084076 0.12573486566543579
0.97840321063995361 0.03390190377831459 0.092199750244617462
1.8490061847842298e-05 0.4356255829334259 0.088555954396724701
0.0036960376892238855 0.42964112758636475 0.10560756176710129
0.071073763072490692 0.4377765953540802 0.10396885871887207
0.38890069723129272 0.46386513113975525 0.1381136029958725
0.64993453025817871 0.46615144610404968 0.14387108385562897
0.85964703559875488 0.42964679002761841 0.1091340035200119
0.99429434537887573 0.39991515874862671 0.052982449531555176
0 0.75035965442657471 0.010812931694090366
0.00016910328122321516 0.73722869157791138 0.025192186236381531
0.027388762682676315 0.74297881126403809 0.015014618635177612
0.29567867517471313 0.74608474969863892 0.019248738884925842
0.68379729986190796 0.75364136695861816 0.053017530590295792
0.91668558120727539 0.7641335129737854 0.027536684647202492
0.99540144205093384 0.74088829755783081 0.022729702293872833
0.014819635078310966 0.96784454584121704 0.0040566837415099144
0.013558645732700825 0.96359777450561523 0.0040676938369870186
0.049357455223798752 0.95706832408905029 0.0027338813524693251
0.360973060131073 0.95605850219726562 0.0016327652847394347
0.70266669988632202 0.94506841897964478 0.0035231048241257668
0.9024391770362854 0.94086199998855591 0.0098845986649394035
0.99618434906005859 0.9419710636138916 0.013197102583944798
0.16142325103282928 0.99975711107254028 0.022267181426286697
0.17813819646835327 0.99712473154067993 0.018822599202394485
0.33950918912887573 0.99852412939071655 0.0034999623894691467
0.57308042049407959 0.99850273132324219 0.002126297214999795
0.78676396608352661 0.99975186586380005 0.0084333531558513641
0.96647524833679199 0.99953198432922363 0.0010696710087358952
0.99511551856994629 0.99815851449966431 0.015481552109122276
3.7339155824156478e-05 0.0043719573877751827 0.19658435881137848
0.0083869034424424171 0.0040487702935934067 0.21302062273025513
0.12293149530887604 0.0014508116291835904 0.24669836461544037
0.28086858987808228 0.0017229715595021844 0.25983640551567078
0.4629121720790863 0.0012873930390924215 0.25849747657775879
0.67669451236724854 0 0.25462436676025391
0.92159253358840942 0 0.24441294372081757
0 0.042996965348720551 0.2454511821269989
0.010290646925568581 0.047441132366657257 0.25425511598587036
0.1396857351064682 0.045381538569927216 0.26355582475662231
0.30791720747947693 0.033244654536247253 0.27054011821746826
0.49724230170249939 0.0088394014164805412 0.26874631643295288
0.71394848823547363 0.0035602794960141182 0.26471671462059021
0.94682317972183228 0.00011064118007197976 0.25106894969940186
0 0.21015994250774384 0.29925644397735596
0.0067371590994298458 0.20649820566177368 0.29394271969795227
0.15760262310504913 0.20165783166885376 0.29387858510017395
0.34520038962364197 0.20179614424705505 0.30006319284439087
0.55822062492370605 0.15027846395969391 0.28972434997558594
0.78388422727584839 0.08218403160572052 0.27319613099098206
0.98327046632766724 0.036159202456474304 0.25983893871307373
0 0.47213068604469299 0.29463019967079163
0.00093997130170464516 0.46192741394042969 0.29066276550292969
0.067266590893268585 0.44182512164115906 0.28341847658157349
0.39043822884559631 0.46167689561843872 0.30809348821640015
0.65487170219421387 0.45780432224273682 0.30786564946174622
0.86138373613357544 0.41066542267799377 0.27156144380569458
0.99393624067306519 0.37169170379638672 0.2328762412071228
0 0.77969568967819214 0.17723207175731659
0.00076835480285808444 0.7689099907875061 0.17312629520893097
0.043913673609495163 0.75803691148757935 0.18488815426826477
0.29454901814460754 0.74967324733734131 0.18709783256053925
0.69533711671829224 0.75409895181655884 0.2227834016084671
0.91947197914123535 0.75701045989990234 0.24041621387004852
0.99847757816314697 0.73572289943695068 0.17022316157817841
0.021255867555737495 0.98430150747299194 0.055307634174823761
0.025082921609282494 0.98115110397338867 0.056086134165525436
0.061389204114675522 0.96588337421417236 0.07124684751033783
0.37475648522377014 0.96077609062194824 0.043681740760803223
0.71484911441802979 0.9467969536781311 0.077989421784877777
0.91407877206802368 0.94094598293304443 0.14565932750701904
0.99697363376617432 0.94522196054458618 0.21799358725547791
0.23435832560062408 0.99993538856506348 0.077150605618953705
0.28017798066139221 0.99865835905075073 0.0732254758477211
0.39204314351081848 0.99874317646026611 0.050951506942510605
0.57270139455795288 0.99815881252288818 0.07041621208190918
0.79768854379653931 0.99681490659713745 0.13494990766048431
0.9696962833404541 0.99933183193206787 0.12336506694555283
0.99701833724975586 0.99956738948822021 0.23591527342796326
0.0015318627702072263 0.0016607994912192225 0.36716517806053162
0.0086306100711226463 0.00035941926762461662 0.37832805514335632
0.058327946811914444 0.00086553237633779645 0.39650782942771912
0.27350524067878723 0 0.43183332681655884
0.48040950298309326 0 0.42684781551361084
0.70847082138061523 0 0.43557333946228027
0.96362423896789551 0 0.42936637997627258
0 0.032952342182397842 0.41155579686164856
0.002750202314928174 0.032189853489398956 0.41592034697532654
0.08503221720457077 0.022972330451011658 0.43442380428314209
0.29512548446655273 0.015355966985225677 0.45213061571121216
0.51638144254684448 0.0052401372231543064 0.44284364581108093
0.74977827072143555 0.0002390842855675146 0.44529831409454346
0.97759902477264404 0 0.42950725555419922
0 0.17221640050411224 0.4473537802696228
0.0024057126138359308 0.17619459331035614 0.45013788342475891
0.10745855420827866 0.17435835301876068 0.46137651801109314
0.35298070311546326 0.16495545208454132 0.47228780388832092
0.58241981267929077 0.12149456143379211 0.46014770865440369
0.81617003679275513 0.064443536102771759 0.45506507158279419
0.99500095844268799 0.010513574816286564 0.43716588616371155
0 0.47916713356971741 0.50297117233276367
0 0.47838044166564941 0.49865818023681641
0.038798671215772629 0.45304253697395325 0.48722398281097412
0.39531376957893372 0.44305479526519775 0.47804084420204163
0.67239147424697876 0.44477072358131409 0.4675619900226593
0.89335685968399048 0.41396313905715942 0.44074219465255737
0.99446946382522583 0.35218533873558044 0.41990518569946289
0 0.83189982175827026 0.46228218078613281
0.0033621843904256821 0.82153785228729248 0.45437803864479065
0.031563583761453629 0.79576069116592407 0.43474426865577698
0.36398842930793762 0.76343095302581787 0.41964203119277954
0.72465044260025024 0.75540751218795776 0.44519504904747009
0.92562049627304077 0.74236875772476196 0.44173076748847961
0.99834680557250977 0.72804766893386841 0.40371701121330261
0.032070700079202652 0.99020153284072876 0.39981544017791748
0.074024960398674011 0.98290801048278809 0.36997202038764954
0.14258737862110138 0.9715036153793335 0.3568979799747467
0.42675521969795227 0.96090006828308105 0.33456391096115112
0.7335934042930603 0.94808375835418701 0.36755731701850891
0.91740411520004272 0.94084769487380981 0.40907314419746399
0.99442899227142334 0.93406307697296143 0.4447895884513855
0.3150239884853363 1 0.40290090441703796
0.33320820331573486 0.99925351142883301 0.39699548482894897
0.46011921763420105 0.99801963567733765 0.3809344470500946
0.62154752016067505 0.99840044975280762 0.36660215258598328
0.81271684169769287 0.99978947639465332 0.37684598565101624
0.97529619932174683 0.99919003248214722 0.42214113473892212
0.99792826175689697 0.99898910522460938 0.50346654653549194
0.00091720279306173325 0.0031522864010185003 0.55396103858947754
0.014380616135895252 0.004321663174778223 0.56343376636505127
0.033304326236248016 0.0032139348331838846 0.58178418874740601
0.23643188178539276 0.0020040774252265692 0.60833877325057983
0.52861982583999634 0.00017843807290773839 0.61842215061187744
0.763480544090271 0 0.61642473936080933
0.97047668695449829 0 0.61458331346511841
0 0.021435830742120743 0.60058373212814331
0.0056182262487709522 0.030120430514216423 0.60537683963775635
0.048277042806148529 0.010683366097509861 0.61978578567504883
0.28413200378417969 0.019896218553185463 0.63662832975387573
0.56560885906219482 0.0073510413058102131 0.63500165939331055
0.8057364821434021 0.00083902396727353334 0.62914443016052246
0.98399752378463745 0.00012640860222745687 0.62368470430374146
0 0.15347407758235931 0.64683347940444946
0.0026543261483311653 0.16646589338779449 0.65293389558792114
0.077888518571853638 0.15394924581050873 0.66229355335235596
0.34494954347610474 0.11464441567659378 0.66110050678253174
0.63030761480331421 0.077746495604515076 0.65584647655487061
0.86890161037445068 0.074199870228767395 0.64369320869445801
0.9904627799987793 0.047370761632919312 0.63497984409332275
0 0.42163234949111938 0.68537145853042603
7.180606644396903e-06 0.42943629622459412 0.68976742029190063
0.04407438263297081 0.43484735488891602 0.68637871742248535
0.40510594844818115 0.41534748673439026 0.68002885580062866
0.69912445545196533 0.40613549947738647 0.66349607706069946
0.92796486616134644 0.39695659279823303 0.64722728729248047
0.99397039413452148 0.36347991228103638 0.63278073072433472
7.3122508183587343e-05 0.82632613182067871 0.70615828037261963
0.00023658602731302381 0.82462131977081299 0.70380783081054688
0.037690076977014542 0.80871647596359253 0.69222456216812134
0.41832369565963745 0.77884536981582642 0.66851574182510376
0.74218088388442993 0.74024105072021484 0.64768558740615845
0.93755596876144409 0.72821182012557983 0.63631337881088257
0.99721723794937134 0.72169625759124756 0.62006741762161255
0.048951826989650726 0.9907524585723877 0.67497527599334717
0.10862939804792404 0.99136817455291748 0.67558193206787109
0.24436621367931366 0.98683983087539673 0.65397119522094727
0.53066784143447876 0.97288161516189575 0.63113385438919067
0.76035505533218384 0.95085281133651733 0.61478924751281738
0.92697656154632568 0.94028264284133911 0.63722199201583862
0.99567091464996338 0.93200629949569702 0.64801681041717529
0.46117997169494629 1 0.67088299989700317
0.48256823420524597 1 0.67590934038162231
0.55374455451965332 0.99936920404434204 0.66409403085708618
0.6961016058921814 0.99844878911972046 0.65011477470397949
0.85235887765884399 0.99963498115539551 0.63786762952804565
0.98087215423583984 0.999858558177948 0.64765673875808716
0.99788957834243774 0.99799889326095581 0.69878321886062622
0.0032842748332768679 0.0035312129184603691 0.74690848588943481
0.023752892389893532 0.0069005629047751427 0.75464153289794922
0.064733006060123444 0.0063332952558994293 0.77061372995376587
0.26790398359298706 0.0019530950812622905 0.78668797016143799
0.5633729100227356 3.3030792110366747e-05 0.8058961033821106
0.82749003171920776 0 0.80819964408874512
0.98730212450027466 0 0.8124384880065918
0.0023148180916905403 0.006990769412368536 0.79576462507247925
0.009252496063709259 0.024452822282910347 0.79874593019485474
0.05978170782327652 0.021528460085391998 0.80944955348968506
0.29985597729682922 0.013887951150536537 0.8167874813079834
0.60713356733322144 0.00442479457706213 0.81768208742141724
0.87340009212493896 5.3854550060350448e-05 0.81939041614532471
0.98046314716339111 0 0.81753396987915039
0 0.13473209738731384 0.85880076885223389
0.0038224763702601194 0.12870100140571594 0.85470622777938843
0.075966104865074158 0.11163503676652908 0.85271412134170532
0.36893495917320251 0.070866316556930542 0.85232913494110107
0.68124282360076904 0.043736971914768219 0.84202128648757935
0.93635398149490356 0.014101185835897923 0.84060519933700562
0.99391156435012817 0.034556251019239426 0.82723134756088257
2.1541820842685411e-06 0.42756170034408569 0.87837785482406616
0.007939058355987072 0.43406385183334351 0.87630748748779297
0.13160496950149536 0.4404451847076416 0.8758615255355835
0.46547344326972961 0.40448328852653503 0.86624026298522949
0.7521897554397583 0.35949552059173584 0.85107183456420898
0.96974283456802368 0.35625582933425903 0.84100472927093506
0.99805724620819092 0.38131445646286011 0.82671940326690674
0.0026637658011168242 0.77157175540924072 0.86041069030761719
0.014613357372581959 0.77921861410140991 0.86302387714385986
0.11941631883382797 0.76948720216751099 0.85759055614471436
0.49302241206169128 0.74488788843154907 0.84550189971923828
0.77507591247558594 0.71938812732696533 0.83328747749328613
0.95793938636779785 0.72072046995162964 0.82210046052932739
0.99688339233398438 0.7315366268157959 0.81037342548370361
0.20720003545284271 0.98594838380813599 0.84677320718765259
0.17791196703910828 0.98633027076721191 0.84848809242248535
0.36634200811386108 0.98390412330627441 0.84354209899902344
0.58631801605224609 0.97179841995239258 0.82921534776687622
0.78551191091537476 0.95851981639862061 0.81942868232727051
0.94783544540405273 0.93805414438247681 0.80712378025054932
0.99887120723724365 0.9304317831993103 0.80100399255752563
0.60713213682174683 1 0.84778273105621338
0.60944145917892456 1 0.84732097387313843
0.65994429588317871 1 0.84067612886428833
0.77166306972503662 1 0.83096349239349365
0.89813029766082764 1 0.81664752960205078
0.99221223592758179 0.99964225292205811 0.81079483032226562
1 0.99812394380569458 0.83838522434234619
0.0047682966105639935 0.0026220881845802069 0.93984943628311157
0.047146305441856384 0.0052138385362923145 0.92739343643188477
0.11245797574520111 0.0049551869742572308 0.94007760286331177
0.33024877309799194 0.00056523340754210949 0.95979493856430054
0.6325191855430603 0 0.94677138328552246
0.92063695192337036 0 0.97067427635192871
0.99378329515457153 0 0.97096866369247437
0.0057175727561116219 0.003673747880384326 0.96198451519012451
0.027107372879981995 0.017087465152144432 0.95082437992095947
0.10380277782678604 0.012955235317349434 0.95026743412017822
0.39115774631500244 0.0079729119315743446 0.96479588747024536
0.6792830228805542 0 0.96741479635238647
0.94403767585754395 0 0.9777296781539917
0.99218618869781494 2.5281718990299851e-05 0.97453677654266357
9.3347889560391195e-06 0.10259027034044266 0.98210054636001587
0.015592911280691624 0.082773454487323761 0.98908811807632446
0.17731697857379913 0.060647673904895782 0.98203903436660767
0.48352906107902527 0.051653992384672165 0.9801744818687439
0.75724536180496216 0.026974411681294441 0.97433644533157349
0.9791838526725769 0.011897441931068897 0.98651748895645142
0.99887698888778687 0.043138481676578522 0.97551143169403076
0.0096358051523566246 0.41220733523368835 0.98414671421051025
0.084337286651134491 0.43134114146232605 0.98707985877990723
0.32006436586380005 0.42233890295028687 0.99147504568099976
0.58749079704284668 0.40195977687835693 0.98759663105010986
0.83212840557098389 0.35260429978370667 0.98638761043548584
0.98036253452301025 0.34474548697471619 0.9822501540184021
1 0.37120383977890015 0.98257780075073242
0.1066184863448143 0.77161186933517456 0.97797608375549316
0.13779757916927338 0.77734380960464478 0.97788578271865845
0.33924409747123718 0.77491909265518188 0.983681321144104
0.62827372550964355 0.7572510838508606 0.98588293790817261
0.84134173393249512 0.73126250505447388 0.97754889726638794
0.98561614751815796 0.71604305505752563 0.964305579662323
1 0.73187857866287231 0.95207345485687256
0.43970227241516113 0.97932261228561401 0.93278586864471436
0.4483763575553894 0.97712963819503784 0.93266427516937256
0.53411179780960083 0.97445851564407349 0.92636638879776001
0.69675314426422119 0.96318382024765015 0.92833739519119263
0.85702270269393921 0.94540572166442871 0.92076659202575684
0.98622465133666992 0.92463630437850952 0.91311061382293701
1 0.93462508916854858 0.90121674537658691
0.74533390998840332 1 0.8967244029045105
0.75552225112915039 1 0.89597094058990479
0.79343593120574951 1 0.89409863948822021
0.87059503793716431 1 0.89128047227859497
0.95194661617279053 1 0.88856321573257446
0.99791496992111206 1 0.88610649108886719
1 1 0.88868033885955811
