assets/lut/pixlsus metropolis.cube
# Created by: G'MIC (https://gmic.eu)
TITLE "metropolis"
# LUT size
LUT_3D_SIZE 7
# Data domain
DOMAIN_MIN 0.0 0.0 0.0
DOMAIN_MAX 1.0 1.0 1.0
# LUT data points
0.0060221054591238499 0.12553656101226807 0.049667373299598694
0.095281057059764862 0.19361667335033417 0.052811268717050552
0.11305907368659973 0.36323505640029907 0.078186735510826111
0.19429178535938263 0.45357775688171387 0.088136769831180573
0.24417909979820251 0.51147586107254028 0.093148402869701385
0.20912130177021027 0.015309951268136501 0.032304216176271439
0.054270889610052109 0.049977350980043411 0.023814661428332329
0 0.16342750191688538 0.10373809188604355
0 0.46471318602561951 0.1454835832118988
1.9058526959270239e-05 0.83062082529067993 0.21017070114612579
0.00014540727715939283 0.84929454326629639 0.19358007609844208
0.069578938186168671 0.78050565719604492 0.1867954432964325
0.055353455245494843 0.16460549831390381 0.077805414795875549
0.22463177144527435 0.00024701288202777505 0.030161015689373016
0.0089744571596384048 0.1477695107460022 0.17101939022541046
0.0021349887829273939 0.42520728707313538 0.23180048167705536
0 0.89749938249588013 0.32928472757339478
0.015106260776519775 0.7274516224861145 0.29456949234008789
0.12757609784603119 0.73199194669723511 0.2928602397441864
0.077577866613864899 0.18687178194522858 0.17786633968353271
0.20698222517967224 0 0.04391518235206604
0.10873110592365265 0.10945024341344833 0.27370703220367432
0.15290576219558716 0.21742039918899536 0.31410330533981323
0.088318407535552979 0.77764654159545898 0.40721020102500916
0.098107248544692993 0.65229958295822144 0.39994931221008301
0.15023531019687653 0.74273991584777832 0.40943700075149536
0.10831417143344879 0.19676631689071655 0.30942842364311218
0.20627360045909882 0 0.23863396048545837
0.14312383532524109 0.21356754004955292 0.43933704495429993
0.1613524854183197 0.47771301865577698 0.48481056094169617
0.14610888063907623 0.89055287837982178 0.54062211513519287
0.14456219971179962 0.64240151643753052 0.51232606172561646
0.16620491445064545 0.74445474147796631 0.5321505069732666
0.13894347846508026 0.20169222354888916 0.45919686555862427
0.24221484363079071 0 0.62463492155075073
0.17968842387199402 0.34192359447479248 0.65189945697784424
0.18223868310451508 0.87507432699203491 0.81413853168487549
0.16692186892032623 0.99858230352401733 0.83060836791992188
0.16836494207382202 0.76359832286834717 0.62385517358779907
0.18007205426692963 0.78297770023345947 0.62294942140579224
0.15619204938411713 0.21698182821273804 0.59924775362014771
0.28478339314460754 0 0.9913945198059082
0.16681694984436035 0.43687635660171509 0.83500242233276367
0.1676439493894577 0.9922519326210022 0.99998599290847778
0.15278290212154388 1 1
0.16200695931911469 0.94791191816329956 0.90251964330673218
0.17443481087684631 0.83601677417755127 0.78584295511245728
0.125379279255867 0.20060639083385468 0.54796034097671509
0.1384398341178894 0.12316001206636429 0.59369456768035889
5.0563437980599701e-05 0.33417701721191406 0.10386338829994202
0 0.99220967292785645 0.13832291960716248
0 1 0.21172614395618439
0.068109177052974701 1 0.19504222273826599
0.010042496956884861 0.085602626204490662 0.020349016413092613
0 0.3574383556842804 0.075843885540962219
0.11901445686817169 0.31919315457344055 0.080216333270072937
0 0.39567497372627258 0.14368690550327301
0 0.99901443719863892 0.21513408422470093
0 1 0.38745689392089844
0.058532685041427612 1 0.37998703122138977
0.010840831324458122 0.14641471207141876 0.041653309017419815
0 0.8017534613609314 0.14857099950313568
0.12359285354614258 0.52654844522476196 0.12443543970584869
0.038383841514587402 0.30073380470275879 0.19785168766975403
0.027638394385576248 0.94810217618942261 0.25742393732070923
0.0061478111892938614 1 0.46084669232368469
0.13283507525920868 1 0.47149643301963806
0.05847414955496788 0.017062587663531303 0.10707777738571167
0 0.73211765289306641 0.22161813080310822
0.068037830293178558 0.68948602676391602 0.19982543587684631
0.16188892722129822 0.20049770176410675 0.31090852618217468
0.22888551652431488 0.66568058729171753 0.32281264662742615
0.18064320087432861 1 0.49171540141105652
0.20648758113384247 1 0.53270876407623291
0.13586902618408203 0.00029841403011232615 0.2646520733833313
0.015940932556986809 0.49016129970550537 0.39107590913772583
0.12870033085346222 0.60548156499862671 0.48931851983070374
0.22386898100376129 0.30444240570068359 0.43790924549102783
0.24853730201721191 0.8950265645980835 0.47422587871551514
0.23240409791469574 1 0.60469973087310791
0.23963594436645508 1 0.62524151802062988
0.20658965408802032 0.00020844703249167651 0.43719828128814697
0.17556342482566833 0.3914085328578949 0.72192847728729248
0.29947808384895325 0.47001194953918457 0.98135775327682495
0.26136595010757446 0.53548389673233032 0.65884292125701904
0.25930875539779663 0.99938005208969116 0.83610576391220093
0.24978053569793701 1 0.95023781061172485
0.26489496231079102 1 0.74615252017974854
0.25941342115402222 0.0011350893182680011 0.67041432857513428
0.35285186767578125 0.46848365664482117 0.99361401796340942
0.46005040407180786 0.56382757425308228 1
0.25653818249702454 0.83580178022384644 0.96869361400604248
0.2568516731262207 1 1
0.24030318856239319 1 1
0.24874866008758545 1 0.99216759204864502
0.19839127361774445 0.027610838413238525 0.5310559868812561
0.22071373462677002 0.20215950906276703 0.59122288227081299
0.24280530214309692 0.30758416652679443 0.60622835159301758
0.12986281514167786 0.26709723472595215 0.10288459807634354
0.074938617646694183 1 0.10081896185874939
0.06272251158952713 1 0.14762169122695923
0.2385929673910141 1 0.12690295279026031
0.16441875696182251 0 0.069068744778633118
0.014603514224290848 0.0023082657717168331 0.13469125330448151
0.16699157655239105 0.18688301742076874 0.098889686167240143
0.10427629202604294 0.43305307626724243 0.10932217538356781
0.049444563686847687 1 0.11681339144706726
0.040229752659797668 1 0.24599544703960419
0.22244593501091003 1 0.27200189232826233
0.12793342769145966 0.00027394015341997147 0.072910204529762268
0.021550901234149933 0.086934097111225128 0.15338578820228577
0.15893447399139404 0.21275414526462555 0.1076875701546669
0.14661790430545807 0.36146199703216553 0.12563903629779816
0.13575029373168945 0.99999713897705078 0.10348763316869736
0.14215461909770966 1 0.23776973783969879
0.27053707838058472 1 0.29543206095695496
0.2447526752948761 0 0.19149120151996613
0.077200181782245636 0.022287959232926369 0.21876400709152222
0.13008962571620941 0.52299940586090088 0.13268192112445831
0.2173197865486145 0.29902827739715576 0.32188624143600464
0.2351425439119339 0.9587475061416626 0.2209804505109787
0.25197523832321167 1 0.27675709128379822
0.3056122362613678 1 0.35707414150238037
0.29561331868171692 0 0.37340128421783447
0.19786976277828217 0.00025951908901333809 0.49970871210098267
0.24096854031085968 0.45503392815589905 0.50922501087188721
0.28220793604850769 0.23016513884067535 0.42331945896148682
0.27158722281455994 0.80083495378494263 0.35624164342880249
0.29498305916786194 1 0.43088838458061218
0.32217219471931458 1 0.52058714628219604
0.34053733944892883 0 0.55059432983398438
0.41131502389907837 9.57414272306778e-07 0.97681176662445068
0.50038337707519531 0.3068452775478363 1
0.34521856904029846 0.37683296203613281 0.57203549146652222
0.32559025287628174 0.71967160701751709 0.62901419401168823
0.34243342280387878 1 0.86827510595321655
0.35660946369171143 1 0.72058212757110596
0.42294365167617798 0 0.83119493722915649
0.64408677816390991 0.013526422902941704 1
0.67887437343597412 0.4203091561794281 1
0.36937639117240906 0.85040503740310669 0.98710960149765015
0.3677273690700531 1 1
0.36600148677825928 1 1
0.36322152614593506 1 0.98853927850723267
0.35194811224937439 0.0043619493953883648 0.4955478310585022
0.35760018229484558 0.19006787240505219 0.62763530015945435
0.36018884181976318 0.29029002785682678 0.61321461200714111
0.35914942622184753 0.20826169848442078 0.099292844533920288
0.33191677927970886 1 0.0064128651283681393
0.33588451147079468 1 8.6167283370741643e-06
0.42374733090400696 1 0.0089305955916643143
0.42278441786766052 0 0.1941649466753006
0.32539308071136475 0 0.26310446858406067
0.34295105934143066 0 0.18194720149040222
0.31390082836151123 0.43964263796806335 0.11364440619945526
0.29607218503952026 1 0.00050385418580844998
0.3149421215057373 1 0.00037626377888955176
0.41522327065467834 1 0.043663863092660904
0.41846513748168945 0 0.2824147641658783
0.34317299723625183 0 0.33985918760299683
0.35791033506393433 0 0.23127515614032745
0.32565715909004211 0.3896249532699585 0.13174879550933838
0.32325437664985657 0.99992436170578003 0
0.34798941016197205 1 0
0.418617844581604 1 0.042289331555366516
0.42466363310813904 0 0.45118439197540283
0.36820900440216064 0 0.48550954461097717
0.36899638175964355 0.016888383775949478 0.2687455415725708
0.37851974368095398 0.24495361745357513 0.35143706202507019
0.35267502069473267 0.80784302949905396 0.10592380911111832
0.38042864203453064 1 0.0046118940226733685
0.40964740514755249 1 0.091660924255847931
0.4275701642036438 0 0.63299202919006348
0.45507517457008362 0 0.8426094651222229
0.49894621968269348 0.00072577979881316423 0.69794386625289917
0.42476934194564819 0.061493460088968277 0.53999781608581543
0.35495978593826294 0.49139416217803955 0.42259702086448669
0.39027395844459534 1 0.26269310712814331
0.39082774519920349 1 0.33548897504806519
0.44619852304458618 0 0.74767011404037476
0.66029864549636841 0 1
0.77360004186630249 0 1
0.50682109594345093 0.15252545475959778 0.7053903341293335
0.45142596960067749 0.58140003681182861 0.77762269973754883
0.45437806844711304 1 0.89052218198776245
0.40411069989204407 1 0.72075819969177246
0.50273305177688599 0 0.86603909730911255
0.8371816873550415 0 1
0.88393616676330566 0.020864883437752724 1
0.54631370306015015 0.79351180791854858 0.99995797872543335
0.53297978639602661 1 1
0.51140999794006348 1 1
0.4373241662979126 1 0.99272507429122925
0.43305221199989319 4.6673944780195598e-06 0.45808815956115723
0.50614899396896362 0.10753083974123001 0.63602375984191895
0.51222538948059082 0.2295222133398056 0.63990706205368042
0.53965210914611816 0.53618532419204712 0.13573133945465088
0.53926873207092285 1 0.00043017818825319409
0.53958457708358765 1 0
0.56042706966400146 1 0.0004585714777931571
0.56456047296524048 0 0.32215788960456848
0.54460853338241577 0 0.4355567991733551
0.54127633571624756 0 0.33190831542015076
0.49688446521759033 0.58021992444992065 0.20169685781002045
0.50012648105621338 1 0.0014654421247541904
0.51553201675415039 1 0
0.54847729206085205 1 0.0044896742329001427
0.56070482730865479 0 0.4587664008140564
0.57263118028640747 0 0.65219008922576904
0.6085125207901001 0 0.56394988298416138
0.49526438117027283 0.46793720126152039 0.25744530558586121
0.50288814306259155 1 0.0073320725932717323
0.52542507648468018 1 0
0.55199766159057617 1 0.0034580903593450785
0.56958937644958496 0 0.67512261867523193
0.62278503179550171 0 0.94799900054931641
0.71048617362976074 0 0.87310415506362915
0.57264947891235352 0.27896732091903687 0.39404559135437012
0.54731941223144531 0.77659451961517334 0.15519231557846069
0.56178414821624756 1 0
0.56238085031509399 1 0.00086885341443121433
0.58655023574829102 0 0.91106635332107544
0.73835241794586182 0 1
0.89787763357162476 0 1
0.65975821018218994 0.0035713943652808666 0.57868319749832153
0.56072580814361572 0.21274398267269135 0.48134759068489075
0.575164794921875 0.99897915124893188 0.20761938393115997
0.53449451923370361 1 0.11880341917276382
0.60485231876373291 0 0.94003951549530029
0.93197965621948242 0 1
0.99975347518920898 0 1
0.7537161111831665 0.13663399219512939 0.91632091999053955
0.66514891386032104 0.8849526047706604 0.98640269041061401
0.63322418928146362 1 0.97258341312408447
0.48457741737365723 1 0.75463253259658813
0.72677463293075562 6.0676124121528119e-05 0.86031210422515869
0.99924135208129883 0 1
1 0 1
0.77870857715606689 0.826518714427948 1
0.7557830810546875 1 1
0.68435364961624146 1 1
0.4842456579208374 1 0.99961006641387939
0.50640565156936646 0.00017736098379828036 0.45039591193199158
0.64474594593048096 0.088703349232673645 0.66482293605804443
0.66585516929626465 0.17072227597236633 0.66977578401565552
0.67603468894958496 0.71413731575012207 0.18919822573661804
0.68457525968551636 1 0.016888651996850967
0.67555743455886841 1 0
0.66386741399765015 1 0.0029100156389176846
0.66998499631881714 0 0.33684837818145752
0.68972480297088623 0 0.49479842185974121
0.69692128896713257 0 0.41088327765464783
0.63773900270462036 0.61595219373703003 0.28901618719100952
0.64072829484939575 1 0.057819187641143799
0.64399456977844238 1 0
0.64313971996307373 1 0.014570572413504124
0.66487091779708862 0 0.49002110958099365
0.74623203277587891 0 0.82325142621994019
0.83125633001327515 0 0.84106087684631348
0.61550641059875488 0.34999504685401917 0.38271132111549377
0.61812025308609009 0.98768502473831177 0.14336049556732178
0.64112788438796997 1 0
0.64472538232803345 1 0.01175345666706562
0.67549782991409302 0 0.72567915916442871
0.84222614765167236 0 1
0.98755711317062378 0 1
0.66674089431762695 0.29581767320632935 0.49127236008644104
0.68195176124572754 0.8453298807144165 0.3024088442325592
0.69881296157836914 1 0.0041791279800236225
0.66923457384109497 1 0.020945664495229721
0.70995026826858521 0 0.91639572381973267
0.97654598951339722 0 1
1 0 1
0.82942241430282593 0.22757768630981445 0.64548349380493164
0.79899436235427856 0.89883404970169067 0.59370380640029907
0.78879553079605103 1 0.29594635963439941
0.73256343603134155 1 0.17813436686992645
0.78174835443496704 0 0.96357393264770508
1 0 1
1 0 1
0.97909426689147949 0.44745692610740662 0.97304797172546387
0.94109165668487549 0.99996411800384521 1
0.88703399896621704 1 0.99030685424804688
0.7590254545211792 1 0.70505142211914062
0.82720828056335449 0 0.97378736734390259
1 0 1
1 0 1
0.97635191679000854 0.84709954261779785 1
0.96733027696609497 1 1
0.88956683874130249 1 1
0.69835251569747925 1 1
0.61859393119812012 5.2897135901730508e-05 0.48056074976921082
0.76145106554031372 0.086438104510307312 0.68503022193908691
0.77912300825119019 0.16494472324848175 0.68620681762695312
0.74428147077560425 0.67150354385375977 0.1891486644744873
0.76256906986236572 1 0.0500652976334095
0.76167726516723633 1 0
0.75940001010894775 1 0.0086569245904684067
0.77197086811065674 0 0.29592230916023254
0.78153848648071289 0 0.42475342750549316
0.76759988069534302 0.011601780541241169 0.33923232555389404
0.71579486131668091 0.58913284540176392 0.3051263689994812
0.72459644079208374 1 0.15242186188697815
0.73280978202819824 1 0.0008640513988211751
0.73827016353607178 1 0.042328253388404846
0.76778429746627808 0 0.46360841393470764
0.87055033445358276 0 0.81121289730072021
0.95651149749755859 0 0.89070343971252441
0.69429081678390503 0.34157273173332214 0.40953826904296875
0.68825274705886841 0.90593838691711426 0.29296332597732544
0.71873122453689575 1 0.038802832365036011
0.73288571834564209 1 0.083248734474182129
0.77783322334289551 0 0.67223453521728516
0.982413649559021 0 1
1 0 1
0.74437052011489868 0.31496208906173706 0.50994575023651123
0.75482439994812012 0.89623475074768066 0.42694035172462463
0.7761494517326355 1 0.16469600796699524
0.75877755880355835 1 0.21259692311286926
0.82061135768890381 0 0.84241122007369995
1 0 1
1 0 1
0.90400701761245728 0.54320019483566284 0.64908319711685181
0.91819250583648682 1 0.66892987489700317
0.89838194847106934 1 0.44688013195991516
0.81704741716384888 1 0.35924005508422852
0.91571605205535889 0 0.94901734590530396
1 0 1
1 0 1
1 0.71936118602752686 0.89729988574981689
1 1 0.9999961256980896
0.99706482887268066 1 0.98445999622344971
0.90273374319076538 1 0.62302637100219727
0.98559492826461792 0 0.99162954092025757
1 0 1
1 5.0563439799589105e-06 1
0.97552865743637085 0.72906398773193359 0.97822737693786621
0.96037322282791138 1 1
0.9072420597076416 1 1
0.86269813776016235 1 0.99853909015655518
0.81214028596878052 0.028276825323700905 0.66397273540496826
0.83507043123245239 0.12109375 0.68234997987747192
0.82554501295089722 0.24880596995353699 0.67901146411895752
