assets/lut/pixlsus faded print.cube
# Created by: G'MIC (https://gmic.eu)
TITLE "faded_print"
# LUT size
LUT_3D_SIZE 13
# Data domain
DOMAIN_MIN 0.0 0.0 0.0
DOMAIN_MAX 1.0 1.0 1.0
# LUT data points
0.15779986977577209 0.010977277532219887 0.096720166504383087
0.28472751379013062 0.00052765489090234041 0.017199797555804253
0.34388294816017151 0 0.0030220032203942537
0.39010187983512878 0 0.00058432185323908925
0.42898184061050415 0 0.00013786765339318663
0.47246372699737549 0 6.6779641201719642e-05
0.52111649513244629 0.0027399100363254547 0.00073548860382288694
0.57291907072067261 0.018647138029336929 0.013713343068957329
0.62539315223693848 0.048835471272468567 0.034040279686450958
0.67673701047897339 0.083186879754066467 0.060708198696374893
0.72723060846328735 0.12204966694116592 0.091610744595527649
0.77727794647216797 0.16867253184318542 0.11821583658456802
0.8274616003036499 0.21747873723506927 0.14132976531982422
0.11031807959079742 0.094433724880218506 0.039833247661590576
0.27156591415405273 0.043108891695737839 0.020682405680418015
0.36056116223335266 0.012164216488599777 0.0098746204748749733
0.41292938590049744 0.0065515106543898582 0.0061457767151296139
0.44924905896186829 0.0074050156399607658 0.0043900134041905403
0.48724496364593506 0.017701901495456696 0.0017274594865739346
0.53117328882217407 0.044042922556400299 0.00094493792857974768
0.57975488901138306 0.071458645164966583 0.019218295812606812
0.63006985187530518 0.10290208458900452 0.041187316179275513
0.67996364831924438 0.13857214152812958 0.063456669449806213
0.72952920198440552 0.17782166600227356 0.089493244886398315
0.77836507558822632 0.22177183628082275 0.11478941887617111
0.82781803607940674 0.26732081174850464 0.13732905685901642
0.097445048391819 0.18834468722343445 0.021934913471341133
0.23286530375480652 0.15664491057395935 0.015354395844042301
0.3424936830997467 0.11291590332984924 0.0049271676689386368
0.41546535491943359 0.08713308721780777 0.005146280862390995
0.46245852112770081 0.082245692610740662 0.0036835165228694677
0.50118720531463623 0.096005156636238098 0.001672841957770288
0.54131156206130981 0.12336704134941101 0.0019323162268847227
0.5861629843711853 0.14882282912731171 0.020446239039301872
0.63445812463760376 0.17494244873523712 0.045157771557569504
0.6832919716835022 0.20572006702423096 0.067591875791549683
0.73137158155441284 0.24091142416000366 0.091872915625572205
0.77942794561386108 0.27969986200332642 0.1156964898109436
0.82824838161468506 0.32027685642242432 0.13711099326610565
0.10124500095844269 0.2658698558807373 0.017391983419656754
0.21232612431049347 0.25442379713058472 0.018503690138459206
0.31509542465209961 0.22987796366214752 0.0056980056688189507
0.40243178606033325 0.20401231944561005 0.0017594281816855073
0.46816509962081909 0.19393450021743774 0.00154813879635185
0.51389509439468384 0.1999531090259552 0.0023201438598334789
0.55162709951400757 0.21814839541912079 0.00893402099609375
0.59370440244674683 0.23670941591262817 0.02966727502644062
0.64047819375991821 0.2558286190032959 0.053817316889762878
0.68814718723297119 0.27942860126495361 0.076860494911670685
0.73511636257171631 0.30829685926437378 0.10014224797487259
0.78160941600799561 0.34120616316795349 0.12142445892095566
0.82914531230926514 0.37663471698760986 0.13855473697185516
0.10276375710964203 0.33980017900466919 0.031604543328285217
0.19970816373825073 0.33624675869941711 0.026796648278832436
0.29263204336166382 0.32501819729804993 0.014361587353050709
0.38377389311790466 0.30932042002677917 0.0090056620538234711
0.46359729766845703 0.29889142513275146 0.009632783941924572
0.51929730176925659 0.29924789071083069 0.0099185565486550331
0.55963826179504395 0.30983659625053406 0.024459538981318474
0.60171175003051758 0.3227570652961731 0.046113632619380951
0.64877831935882568 0.33653882145881653 0.067199572920799255
0.69605511426925659 0.35438850522041321 0.088050410151481628
0.74138158559799194 0.37761741876602173 0.10931680351495743
0.78618848323822021 0.40516930818557739 0.12776930630207062
0.83239352703094482 0.43573027849197388 0.14106246829032898
0.10022738575935364 0.41649442911148071 0.040046811103820801
0.18815994262695312 0.41510534286499023 0.037246823310852051
0.2737126350402832 0.41086295247077942 0.032936558127403259
0.3573460578918457 0.40309476852416992 0.030469572171568871
0.4380304217338562 0.39468038082122803 0.025235509499907494
0.51097369194030762 0.38966447114944458 0.016504518687725067
0.56269240379333496 0.39523801207542419 0.034957811236381531
0.60993611812591553 0.40431967377662659 0.058839954435825348
0.65941601991653442 0.41470769047737122 0.077878572046756744
0.70662951469421387 0.42883953452110291 0.096250079572200775
0.75075346231460571 0.44770437479019165 0.11410785466432571
0.79384738206863403 0.47089472413063049 0.1291782557964325
0.83817243576049805 0.49751713871955872 0.14262980222702026
0.10406827926635742 0.49180728197097778 0.044213224202394485
0.18340480327606201 0.4927685558795929 0.04663555696606636
0.26074078679084778 0.49161157011985779 0.049262836575508118
0.33578783273696899 0.48852261900901794 0.049081224948167801
0.41207340359687805 0.4830259382724762 0.0434226393699646
0.49259242415428162 0.47680777311325073 0.034387953579425812
0.55999821424484253 0.47722148895263672 0.045567996799945831
0.61761975288391113 0.48295265436172485 0.066821306943893433
0.67081493139266968 0.49068728089332581 0.085416726768016815
0.71862149238586426 0.50240671634674072 0.10316553711891174
0.76205843687057495 0.51810991764068604 0.11985521763563156
0.8036341667175293 0.53810125589370728 0.13491088151931763
0.84620571136474609 0.56115394830703735 0.1504979282617569
0.1218130812048912 0.56723344326019287 0.062261112034320831
0.19210474193096161 0.56787109375 0.064716339111328125
0.26175022125244141 0.56802362203598022 0.0680098757147789
0.33168143033981323 0.56718963384628296 0.067977100610733032
0.40576285123825073 0.56348145008087158 0.064017817378044128
0.48298579454421997 0.55917835235595703 0.060917753726243973
0.55615180730819702 0.55817711353302002 0.067322149872779846
0.62239938974380493 0.56029677391052246 0.081497117877006531
0.68012404441833496 0.56613844633102417 0.09799116849899292
0.72921216487884521 0.57565104961395264 0.116726353764534
0.77267485857009888 0.58900284767150879 0.1353575587272644
0.81364846229553223 0.60631680488586426 0.15383444726467133
0.85557091236114502 0.62680661678314209 0.17353297770023346
0.15360794961452484 0.64090341329574585 0.098106428980827332
0.21441254019737244 0.64188516139984131 0.097221106290817261
0.27655491232872009 0.64231961965560913 0.096920788288116455
0.34131929278373718 0.64153897762298584 0.094392217695713043
0.41033241152763367 0.63951432704925537 0.091268591582775116
0.48293644189834595 0.63683605194091797 0.091781079769134521
0.55499184131622314 0.63676470518112183 0.098167911171913147
0.62343019247055054 0.63691484928131104 0.10980144143104553
0.68410557508468628 0.64143168926239014 0.12476219981908798
0.73574894666671753 0.64919352531433105 0.14335107803344727
0.78098100423812866 0.66053098440170288 0.16547556221485138
0.82309329509735107 0.67574197053909302 0.18938350677490234
0.86518770456314087 0.69395333528518677 0.21417994797229767
0.19516056776046753 0.71383941173553467 0.14632232487201691
0.24626637995243073 0.71470719575881958 0.14275568723678589
0.29956528544425964 0.71497422456741333 0.13870368897914886
0.35723382234573364 0.71462142467498779 0.13345494866371155
0.42041793465614319 0.71355640888214111 0.13031280040740967
0.48723629117012024 0.71250617504119873 0.13307231664657593
0.55504727363586426 0.71204972267150879 0.14167775213718414
0.62189608812332153 0.71386456489562988 0.15376850962638855
0.68292856216430664 0.71663284301757812 0.16885198652744293
0.73803764581680298 0.72336351871490479 0.18798111379146576
0.78628247976303101 0.73281538486480713 0.2118135541677475
0.83110338449478149 0.74559468030929565 0.238875612616539
0.87488400936126709 0.76098692417144775 0.2670043408870697
0.24207504093647003 0.78623718023300171 0.20266677439212799
0.28248006105422974 0.78681057691574097 0.19894455373287201
0.3248785138130188 0.7873917818069458 0.19368816912174225
0.37391456961631775 0.78744494915008545 0.18780510127544403
0.43021824955940247 0.78720217943191528 0.18495336174964905
0.49150937795639038 0.78725296258926392 0.1896703839302063
0.55536460876464844 0.7872549295425415 0.19975665211677551
0.61943495273590088 0.78938347101211548 0.21288679540157318
0.68147069215774536 0.79248160123825073 0.22829198837280273
0.73790669441223145 0.79766726493835449 0.24732477962970734
0.79003322124481201 0.80566263198852539 0.27015995979309082
0.83821243047714233 0.8157997727394104 0.29614448547363281
0.88570135831832886 0.82876807451248169 0.32299759984016418
0.29140648245811462 0.85891282558441162 0.26470455527305603
0.32035121321678162 0.85928189754486084 0.26234465837478638
0.35108420252799988 0.85996514558792114 0.25874698162078857
0.39027386903762817 0.86051136255264282 0.25475966930389404
0.43972951173782349 0.86088377237319946 0.25401756167411804
0.49585625529289246 0.86187595129013062 0.25957289338111877
0.55606752634048462 0.86409741640090942 0.27028244733810425
0.61826241016387939 0.86482185125350952 0.28292667865753174
0.67903107404708862 0.86824280023574829 0.29759275913238525
0.73783218860626221 0.87246555089950562 0.31531307101249695
0.79360145330429077 0.87838047742843628 0.33524546027183533
0.84659731388092041 0.88612353801727295 0.35643735527992249
0.89807242155075073 0.89644259214401245 0.37760651111602783
0.33952465653419495 0.93170958757400513 0.32752937078475952
0.35825648903846741 0.93236732482910156 0.32773587107658386
0.37869441509246826 0.93329811096191406 0.32681566476821899
0.40980565547943115 0.93410193920135498 0.32599014043807983
0.45241963863372803 0.93541878461837769 0.32749760150909424
0.503814697265625 0.93733900785446167 0.33454039692878723
0.56069451570510864 0.93835830688476562 0.34555119276046753
0.62095963954925537 0.94116371870040894 0.35654476284980774
0.68195158243179321 0.94314885139465332 0.36950454115867615
0.74170494079589844 0.94679397344589233 0.3852120041847229
0.79959118366241455 0.95133465528488159 0.40197575092315674
0.85610157251358032 0.95697790384292603 0.41762012243270874
0.91155016422271729 0.9648444652557373 0.43301618099212646
0.12120388448238373 0.0017896016361191869 0.26347094774246216
0.25987675786018372 0.00015028411871753633 0.16289998590946198
0.33768293261528015 0 0.091544099152088165
0.38836359977722168 0.00022753547818865627 0.052997440099716187
0.42817282676696777 2.0225375919835642e-05 0.033309489488601685
0.47217252850532532 0 0.031056946143507957
0.52075201272964478 0.0029353720601648092 0.031640566885471344
0.57289338111877441 0.021735576912760735 0.036319088190793991
0.62602168321609497 0.055468346923589706 0.046172663569450378
0.67770624160766602 0.090415477752685547 0.069080442190170288
0.72827303409576416 0.12928448617458344 0.097454532980918884
0.7783350944519043 0.17413471639156342 0.12222015112638474
0.82845085859298706 0.22075152397155762 0.14368420839309692
0.10791689157485962 0.074667520821094513 0.23077243566513062
0.26419457793235779 0.037877041846513748 0.17025764286518097
0.35938724875450134 0.018480487167835236 0.11161404848098755
0.41398939490318298 0.015970567241311073 0.076570309698581696
0.45103448629379272 0.014156685210764408 0.057194668799638748
0.48778295516967773 0.021173214539885521 0.042868476361036301
0.53081625699996948 0.045731816440820694 0.031087838113307953
0.57924181222915649 0.07568078488111496 0.039401378482580185
0.63016122579574585 0.10868538916110992 0.054008964449167252
0.68058663606643677 0.14501757919788361 0.071618534624576569
0.73017776012420654 0.18386512994766235 0.095121286809444427
0.77889835834503174 0.2268625795841217 0.11909452080726624
0.82835400104522705 0.2709382176399231 0.14011245965957642
0.095628596842288971 0.18221142888069153 0.16442081332206726
0.23012809455394745 0.15280301868915558 0.13915243744850159
0.34402292966842651 0.11686411499977112 0.10055243968963623
0.41941669583320618 0.095232047140598297 0.078730955719947815
0.46534931659698486 0.088174618780612946 0.061771631240844727
0.50216281414031982 0.099391892552375793 0.045805852860212326
0.54069250822067261 0.12711140513420105 0.034683723002672195
0.58570742607116699 0.15368779003620148 0.045021776109933853
0.63469201326370239 0.18021851778030396 0.062013842165470123
0.68388789892196655 0.21106168627738953 0.077567003667354584
0.73202717304229736 0.24595551192760468 0.09868304431438446
0.77993893623352051 0.28404146432876587 0.12099557369947433
0.82793158292770386 0.32377603650093079 0.14102509617805481
0.10005123913288116 0.26306840777397156 0.12114645540714264
0.21049968898296356 0.25003248453140259 0.11571037769317627
0.31755030155181885 0.22823002934455872 0.089228913187980652
0.40719825029373169 0.20587749779224396 0.070603974163532257
0.47103846073150635 0.19570174813270569 0.059579722583293915
0.51446735858917236 0.20260407030582428 0.050145257264375687
0.55113166570663452 0.2226281464099884 0.0468917116522789
0.5937158465385437 0.24103190004825592 0.059289250522851944
0.64160096645355225 0.25963923335075378 0.076303936541080475
0.68934124708175659 0.28339946269989014 0.091839119791984558
0.73582178354263306 0.31190162897109985 0.10982106626033783
0.78177684545516968 0.34443876147270203 0.12791627645492554
0.82863450050354004 0.37933900952339172 0.14367595314979553
0.099206648766994476 0.33985978364944458 0.10313522070646286
0.19738747179508209 0.33571028709411621 0.10263842344284058
0.29331573843955994 0.32513442635536194 0.089341722428798676
0.38644841313362122 0.31021896004676819 0.077380746603012085
0.46485567092895508 0.29996731877326965 0.070785611867904663
0.52019697427749634 0.30088034272193909 0.062801569700241089
0.55995661020278931 0.3118223249912262 0.065315291285514832
0.60299390554428101 0.32477399706840515 0.078675195574760437
0.65077406167984009 0.33852949738502502 0.093939118087291718
0.69759011268615723 0.35695454478263855 0.1074400395154953
0.74230325222015381 0.37994787096977234 0.12132448703050613
0.78611057996749878 0.40747544169425964 0.13375689089298248
0.83089429140090942 0.43781229853630066 0.14478224515914917
0.094665825366973877 0.41691175103187561 0.094472028315067291
0.18442210555076599 0.41637077927589417 0.097090929746627808
0.27274942398071289 0.41189342737197876 0.095633484423160553
0.36016601324081421 0.40393030643463135 0.089536942541599274
0.44206351041793823 0.39527547359466553 0.081027626991271973
0.5108453631401062 0.39105409383773804 0.071288794279098511
0.56275069713592529 0.39553624391555786 0.077085725963115692
0.61140990257263184 0.40465804934501648 0.092529147863388062
0.6611931324005127 0.4153667688369751 0.10624659061431885
0.7083202600479126 0.42980951070785522 0.11738052219152451
0.75175637006759644 0.44883936643600464 0.12679728865623474
0.79348498582839966 0.47228309512138367 0.13464534282684326
0.83619540929794312 0.49876236915588379 0.1430758535861969
0.09627842903137207 0.49398401379585266 0.086152799427509308
0.17802311480045319 0.49411764740943909 0.093900211155414581
0.25831136107444763 0.49349561333656311 0.09919273853302002
0.33767712116241455 0.48930555582046509 0.097624868154525757
0.41621363162994385 0.48329880833625793 0.090229108929634094
0.49207812547683716 0.47803321480751038 0.082144610583782196
0.55844783782958984 0.47783249616622925 0.086453817784786224
0.61743098497390747 0.48301893472671509 0.099782370030879974
0.67175447940826416 0.49066334962844849 0.11221518367528915
0.7201647162437439 0.50252395868301392 0.12240965664386749
0.7630423903465271 0.51866608858108521 0.1309971958398819
0.80292707681655884 0.5384984016418457 0.13786475360393524
0.84397143125534058 0.56185215711593628 0.14679586887359619
0.11363899707794189 0.56804615259170532 0.097816795110702515
0.18570242822170258 0.56968307495117188 0.10350438952445984
0.25818255543708801 0.57023829221725464 0.10790978372097015
0.33072909712791443 0.5678563117980957 0.10684619843959808
0.40540271997451782 0.56455045938491821 0.10154807567596436
0.48092684149742126 0.56030464172363281 0.097539834678173065
0.55431950092315674 0.55917060375213623 0.10036149621009827
0.6213223934173584 0.56022286415100098 0.10933278501033783
0.68057167530059814 0.56580090522766113 0.11941813677549362
0.73114633560180664 0.57518881559371948 0.13056172430515289
0.77427089214324951 0.58899974822998047 0.14266951382160187
0.81411129236221313 0.60660749673843384 0.1546674519777298
0.8537103533744812 0.62695306539535522 0.16880175471305847
0.14662733674049377 0.64198100566864014 0.12950649857521057
0.20834940671920776 0.64308363199234009 0.12912020087242126
0.27216324210166931 0.64352339506149292 0.12786951661109924
0.33911198377609253 0.64265215396881104 0.12305057048797607
0.4093686044216156 0.64047002792358398 0.11772622168064117
0.48157060146331787 0.63739204406738281 0.11663606017827988
0.5542832612991333 0.63676470518112183 0.12133217602968216
0.62306606769561768 0.63689148426055908 0.12896350026130676
0.68583536148071289 0.64115875959396362 0.13798166811466217
0.73866754770278931 0.64869004487991333 0.15069623291492462
0.78355365991592407 0.66031730175018311 0.16846221685409546
0.82409501075744629 0.67574197053909302 0.18871496617794037
0.86428743600845337 0.69411766529083252 0.2106533944606781
0.18890427052974701 0.71485328674316406 0.17085707187652588
0.23979417979717255 0.7156074047088623 0.16658276319503784
0.29391404986381531 0.71591567993164062 0.16038577258586884
0.35399481654167175 0.71528631448745728 0.15093065798282623
0.41917616128921509 0.71399331092834473 0.14399565756320953
0.48666980862617493 0.71302676200866699 0.14587625861167908
0.55484402179718018 0.71318995952606201 0.15415075421333313
0.62224709987640381 0.71396207809448242 0.16389605402946472
0.68565040826797485 0.7165418267250061 0.1746937483549118
0.74134695529937744 0.72291666269302368 0.18958361446857452
0.78941458463668823 0.73273134231567383 0.21107317507266998
0.83266556262969971 0.74559974670410156 0.2364027202129364
0.87458068132400513 0.76143443584442139 0.26424077153205872
0.23551730811595917 0.78732359409332275 0.21831226348876953
0.27449724078178406 0.7879752516746521 0.21384014189243317
0.31703612208366394 0.78827410936355591 0.20675152540206909
0.36794432997703552 0.78788000345230103 0.19620226323604584
0.42695567011833191 0.7872931957244873 0.1889658123254776
0.48997944593429565 0.7872549295425415 0.19213154911994934
0.55432802438735962 0.7872881293296814 0.20286795496940613
0.61954420804977417 0.79017239809036255 0.21517297625541687
0.68236154317855835 0.79272687435150146 0.22891309857368469
0.74037641286849976 0.79793030023574829 0.24575063586235046
0.79243379831314087 0.80586016178131104 0.26710695028305054
0.8400728702545166 0.81619548797607422 0.29208642244338989
0.88565373420715332 0.82952439785003662 0.31959179043769836
0.28316998481750488 0.85963118076324463 0.27074474096298218
0.30937719345092773 0.86032485961914062 0.26916837692260742
0.33845186233520508 0.86100941896438599 0.2654603123664856
0.37921261787414551 0.86120337247848511 0.258291095495224
0.43185383081436157 0.86123037338256836 0.25325706601142883
0.4909730851650238 0.86249381303787231 0.25621110200881958
0.55316460132598877 0.86438286304473877 0.26600992679595947
0.61671382188796997 0.86557173728942871 0.27901929616928101
0.67922741174697876 0.86892247200012207 0.29436570405960083
0.73904287815093994 0.87350547313690186 0.31252464652061462
0.79432195425033569 0.87945055961608887 0.33191987872123718
0.84698033332824707 0.88729774951934814 0.35207316279411316
0.89751482009887695 0.89756470918655396 0.37316355109214783
0.3295195996761322 0.93259227275848389 0.32544729113578796
0.34462124109268188 0.93317919969558716 0.32815414667129517
0.3614763617515564 0.93406111001968384 0.32937389612197876
0.39295965433120728 0.93484127521514893 0.32680776715278625
0.44042357802391052 0.9360923171043396 0.32404887676239014
0.49613431096076965 0.93764752149581909 0.32688376307487488
0.55590945482254028 0.93908727169036865 0.33552157878875732
0.61783206462860107 0.94163453578948975 0.34782004356384277
0.67955636978149414 0.94448518753051758 0.36341467499732971
0.74024432897567749 0.94831383228302002 0.38225013017654419
0.79799294471740723 0.95315283536911011 0.40047475695610046
0.85438305139541626 0.95876896381378174 0.41484242677688599
0.90948158502578735 0.96657824516296387 0.4293079674243927
0.098769307136535645 0 0.32454454898834229
0.21830166876316071 0 0.27914932370185852
0.31651651859283447 0.00019220091053284705 0.22369545698165894
0.38249331712722778 0.0007416668813675642 0.17236749827861786
0.42932191491127014 0 0.13568337261676788
0.47451266646385193 0 0.1204158142209053
0.52291494607925415 0.00095030840020626783 0.11307724565267563
0.57433688640594482 0.016866346821188927 0.1072123646736145
0.62709963321685791 0.052951425313949585 0.10477755963802338
0.67897868156433105 0.091605089604854584 0.11406483501195908
0.72981029748916626 0.13249479234218597 0.13068440556526184
0.78008902072906494 0.17668110132217407 0.14730702340602875
0.83019429445266724 0.22203020751476288 0.16220040619373322
0.11614855378866196 0.049756534397602081 0.33982470631599426
0.23909628391265869 0.036206010729074478 0.30027800798416138
0.33825501799583435 0.026182182133197784 0.24777792394161224
0.40388557314872742 0.022698825225234032 0.19611527025699615
0.44905143976211548 0.015375967137515545 0.16070739924907684
0.48943248391151428 0.016162557527422905 0.13854749500751495
0.53300321102142334 0.035604886710643768 0.12191329896450043
0.58112746477127075 0.070082120597362518 0.11320344358682632
0.63170862197875977 0.1076328232884407 0.1109422892332077
0.68224489688873291 0.14652836322784424 0.11531596630811691
0.73173660039901733 0.18696025013923645 0.1283293217420578
0.78077811002731323 0.22925880551338196 0.14455781877040863
0.8294292688369751 0.27244466543197632 0.16041950881481171
0.10562838613986969 0.16670955717563629 0.30498793721199036
0.22652493417263031 0.142894446849823 0.28088131546974182
0.333147794008255 0.1165674701333046 0.24453394114971161
0.41054445505142212 0.097280390560626984 0.2036859393119812
0.462574303150177 0.086350232362747192 0.17211075127124786
0.50301378965377808 0.09433390200138092 0.14474102854728699
0.54280352592468262 0.12072420120239258 0.12386675179004669
0.58806097507476807 0.15053370594978333 0.11733106523752213
0.63705801963806152 0.18032096326351166 0.11786612868309021
0.68607926368713379 0.21299703419208527 0.12073285132646561
0.73403775691986084 0.24827234447002411 0.13234445452690125
0.78125149011611938 0.28538221120834351 0.14823524653911591
0.82855391502380371 0.32507845759391785 0.16348618268966675
0.099999383091926575 0.25920942425727844 0.25435981154441833
0.20966069400310516 0.24537275731563568 0.24245151877403259
0.31423395872116089 0.22437027096748352 0.22170685231685638
0.4038672149181366 0.20285908877849579 0.19761794805526733
0.47046715021133423 0.19093285501003265 0.17491677403450012
0.51504242420196533 0.19775854051113129 0.14977359771728516
0.55289924144744873 0.21797402203083038 0.13261653482913971
0.59657186269760132 0.23906265199184418 0.13034527003765106
0.64481580257415771 0.25970849394798279 0.13346399366855621
0.69224900007247925 0.28493890166282654 0.13605538010597229
0.73806905746459961 0.3141058087348938 0.14384523034095764
0.78316134214401245 0.34644484519958496 0.15510402619838715
0.82898056507110596 0.38086828589439392 0.16698630154132843
0.09571133553981781 0.33973070979118347 0.21332567930221558
0.19564524292945862 0.33458548784255981 0.21171766519546509
0.29213753342628479 0.32300248742103577 0.20308429002761841
0.38545674085617065 0.30833122134208679 0.19003237783908844
0.46529605984687805 0.29649049043655396 0.17699559032917023
0.52019542455673218 0.29743692278862 0.15897072851657867
0.55986648797988892 0.30900606513023376 0.14744630455970764
0.60539543628692627 0.32286310195922852 0.14823468029499054
