assets/lut/pixlsus expired 69.cube
# Created by: G'MIC (https://gmic.eu)
TITLE "expired_69"
# LUT size
LUT_3D_SIZE 13
# Data domain
DOMAIN_MIN 0.0 0.0 0.0
DOMAIN_MAX 1.0 1.0 1.0
# LUT data points
0.035047419369220734 0.040115192532539368 0.043806098401546478
0.091206811368465424 0.050541702657938004 0.059833422303199768
0.15018938481807709 0.064023323357105255 0.082729503512382507
0.21020360291004181 0.08096642792224884 0.11133106052875519
0.27207952737808228 0.10023945569992065 0.14298912882804871
0.33735364675521851 0.11919593065977097 0.17244704067707062
0.40769600868225098 0.13368961215019226 0.1891179233789444
0.48390784859657288 0.13996985554695129 0.18390257656574249
0.56387066841125488 0.14048774540424347 0.16264720261096954
0.64586234092712402 0.13771234452724457 0.13550511002540588
0.72688591480255127 0.13325676321983337 0.11386583745479584
0.80474710464477539 0.12778718769550323 0.102527916431427
0.88081783056259155 0.12241973727941513 0.095817714929580688
0.051483109593391418 0.10834751278162003 0.070063509047031403
0.10631623864173889 0.11598506569862366 0.080740891396999359
0.16313262283802032 0.12664631009101868 0.097748041152954102
0.22048045694828033 0.14138361811637878 0.12123977392911911
0.27974176406860352 0.15819241106510162 0.14964471757411957
0.34246671199798584 0.17567910254001617 0.17639541625976562
0.41058939695358276 0.18895094096660614 0.19129739701747894
0.48506397008895874 0.19652090966701508 0.18673704564571381
0.5647234320640564 0.19871322810649872 0.16582745313644409
0.64615857601165771 0.19769364595413208 0.13772211968898773
0.72772020101547241 0.19371551275253296 0.11355948448181152
0.80563920736312866 0.18910485506057739 0.10040920227766037
0.88305294513702393 0.18425270915031433 0.094884596765041351
0.070929661393165588 0.17926408350467682 0.10075019299983978
0.12381256371736526 0.18474850058555603 0.10671501606702805
0.17830203473567963 0.19225521385669708 0.11715900152921677
0.23391295969486237 0.20358309149742126 0.13387724757194519
0.29088547825813293 0.21745730936527252 0.15743386745452881
0.35061913728713989 0.23189681768417358 0.18156653642654419
0.41589292883872986 0.24360144138336182 0.19547396898269653
0.48853078484535217 0.25191810727119446 0.19101430475711823
0.5668342113494873 0.25646516680717468 0.16982188820838928
0.64753824472427368 0.25659275054931641 0.139987513422966
0.72839558124542236 0.25443702936172485 0.112137570977211
0.80795145034790039 0.25046443939208984 0.099458031356334686
0.88641548156738281 0.24617727100849152 0.098221749067306519
0.091843515634536743 0.25251147150993347 0.13549339771270752
0.14392207562923431 0.2563876211643219 0.13831518590450287
0.19709514081478119 0.26138448715209961 0.14343945682048798
0.25096014142036438 0.2693684995174408 0.15300960838794708
0.30549457669258118 0.27978017926216125 0.17132674157619476
0.3628896176815033 0.29115220904350281 0.19244271516799927
0.42506325244903564 0.30150091648101807 0.20479190349578857
0.49541142582893372 0.31029981374740601 0.19904668629169464
0.57162767648696899 0.31579610705375671 0.17691035568714142
0.65118581056594849 0.31797993183135986 0.14561767876148224
0.73138427734375 0.31690657138824463 0.11631083488464355
0.81103289127349854 0.31385955214500427 0.10310453176498413
0.88985168933868408 0.30985340476036072 0.10443597286939621
0.11414080113172531 0.32739531993865967 0.17368400096893311
0.1647014319896698 0.32941886782646179 0.17529904842376709
0.21734060347080231 0.33268773555755615 0.17784674465656281
0.27032500505447388 0.33802646398544312 0.18337173759937286
0.32382577657699585 0.34580335021018982 0.1947970986366272
0.37834808230400085 0.3548370897769928 0.2100604772567749
0.43921679258346558 0.3643418550491333 0.21892836689949036
0.506480872631073 0.37261921167373657 0.21152347326278687
0.58036917448043823 0.37877443432807922 0.18768647313117981
0.65770399570465088 0.38234961032867432 0.15440693497657776
0.73666417598724365 0.38264721632003784 0.1239001527428627
0.81605154275894165 0.38036292791366577 0.10761792212724686
0.89538168907165527 0.37694525718688965 0.1061309352517128
0.13588026165962219 0.40180274844169617 0.21063388884067535
0.18504445254802704 0.40347427129745483 0.21084314584732056
0.23665957152843475 0.40535655617713928 0.21292273700237274
0.28950822353363037 0.40891250967979431 0.21663451194763184
0.34238055348396301 0.41486844420433044 0.22186437249183655
0.39725959300994873 0.42252591252326965 0.23104391992092133
0.45570576190948486 0.43088886141777039 0.23679418861865997
0.52051979303359985 0.43869093060493469 0.22753003239631653
0.59139537811279297 0.44509133696556091 0.20088562369346619
0.6670343279838562 0.44963747262954712 0.16360035538673401
0.74433296918869019 0.45116034150123596 0.12872573733329773
0.82336556911468506 0.4499627947807312 0.11013460159301758
0.90254569053649902 0.44690233469009399 0.10945407301187515
0.15105791389942169 0.47833529114723206 0.23207338154315948
0.19904455542564392 0.47843137383460999 0.23017627000808716
0.25135120749473572 0.47891297936439514 0.23243026435375214
0.30569440126419067 0.48205387592315674 0.23572468757629395
0.35977047681808472 0.48683968186378479 0.23693974316120148
0.41442030668258667 0.49329224228858948 0.2428196519613266
0.47260138392448425 0.50046169757843018 0.24875451624393463
0.53596389293670654 0.5076591968536377 0.24043351411819458
0.60464662313461304 0.51428318023681641 0.21451123058795929
0.67777901887893677 0.51914829015731812 0.17529325187206268
0.75392156839370728 0.52188116312026978 0.13676492869853973
0.83222031593322754 0.52119821310043335 0.1216122955083847
0.9110906720161438 0.51851803064346313 0.12816011905670166
0.15455211699008942 0.55556899309158325 0.22324247658252716
0.20446479320526123 0.55563724040985107 0.22351279854774475
0.25969961285591125 0.55563724040985107 0.22553800046443939
0.31724399328231812 0.55747830867767334 0.22792057693004608
0.3743281364440918 0.56119406223297119 0.2289888858795166
0.43185117840766907 0.56626290082931519 0.2340976893901825
0.49036902189254761 0.57231491804122925 0.2415526807308197
0.55329650640487671 0.57889670133590698 0.24139565229415894
0.61997461318969727 0.58461892604827881 0.22464936971664429
0.69099706411361694 0.58955729007720947 0.19301412999629974
0.76548069715499878 0.59249889850616455 0.16262964904308319
0.84259921312332153 0.59268337488174438 0.15589022636413574
0.92001771926879883 0.59057396650314331 0.16968211531639099
0.15448352694511414 0.63284313678741455 0.19792097806930542
0.20691089332103729 0.63284313678741455 0.20110569894313812
0.26597604155540466 0.63284313678741455 0.20398992300033569
0.32723167538642883 0.63455772399902344 0.20571310818195343
0.38789406418800354 0.6370469331741333 0.20700532197952271
0.4481564462184906 0.6409754753112793 0.21061018109321594
0.5090179443359375 0.64562481641769409 0.21874198317527771
0.57136285305023193 0.65096217393875122 0.22799232602119446
0.63644057512283325 0.65597891807556152 0.22601830959320068
0.70566028356552124 0.66031217575073242 0.21183596551418304
0.77805531024932861 0.66299700736999512 0.19975125789642334
0.85277843475341797 0.66361361742019653 0.2025136798620224
0.92943185567855835 0.66252678632736206 0.21926231682300568
0.16632859408855438 0.71004903316497803 0.18355460464954376
0.21788069605827332 0.71004903316497803 0.18914283812046051
0.27695998549461365 0.71004903316497803 0.19206993281841278
0.33885908126831055 0.71208220720291138 0.1904028058052063
0.40063673257827759 0.7139706015586853 0.19079336524009705
0.46279758214950562 0.7157895565032959 0.1931934654712677
0.52574563026428223 0.71930617094039917 0.19919408857822418
0.58856213092803955 0.72352427244186401 0.21368181705474854
0.65302526950836182 0.7276490330696106 0.22435808181762695
0.72036737203598022 0.73126143217086792 0.22894710302352905
0.79053521156311035 0.73397397994995117 0.2345847487449646
0.86317390203475952 0.73495334386825562 0.24730665981769562
0.93720322847366333 0.73473495244979858 0.26526710391044617
0.20498745143413544 0.7872549295425415 0.2070067822933197
0.24587923288345337 0.7872549295425415 0.2092864066362381
0.29551288485527039 0.7872549295425415 0.2091204822063446
0.35194277763366699 0.78760790824890137 0.20400373637676239
0.4115576446056366 0.78983515501022339 0.2031291127204895
0.47378978133201599 0.79118281602859497 0.20540913939476013
0.53836745023727417 0.79313486814498901 0.21093915402889252
0.60313230752944946 0.79625421762466431 0.22371965646743774
0.66833829879760742 0.79952800273895264 0.23885847628116608
0.73491168022155762 0.80287677049636841 0.25434109568595886
0.8031611442565918 0.80507755279541016 0.2724548876285553
0.87342202663421631 0.80650657415390015 0.29325440526008606
0.94512647390365601 0.80682897567749023 0.31439617276191711
0.26436883211135864 0.86445826292037964 0.26179420948028564
0.28844693303108215 0.86446076631546021 0.26196533441543579
0.32048788666725159 0.86446076631546021 0.26051551103591919
0.3645971417427063 0.86446076631546021 0.25582429766654968
0.42055320739746094 0.86446076631546021 0.2517600953578949
0.48339435458183289 0.86519414186477661 0.25118169188499451
0.54955846071243286 0.8671262264251709 0.25575166940689087
0.61636114120483398 0.86927974224090576 0.2658238410949707
0.68278086185455322 0.8720894455909729 0.27974188327789307
0.7492220401763916 0.87452161312103271 0.29768621921539307
0.81616055965423584 0.8771355152130127 0.32004380226135254
0.88426870107650757 0.87844443321228027 0.3452448844909668
0.95440191030502319 0.87893527746200562 0.36941954493522644
0.33023837208747864 0.93916839361190796 0.32756707072257996
0.33847188949584961 0.93956029415130615 0.32809546589851379
0.35237401723861694 0.93900859355926514 0.32940369844436646
0.38275444507598877 0.93869292736053467 0.32760530710220337
0.43488842248916626 0.93908232450485229 0.32032319903373718
0.49758371710777283 0.93993663787841797 0.31625950336456299
0.56411153078079224 0.94126838445663452 0.31933635473251343
0.6315232515335083 0.94265061616897583 0.32811194658279419
0.698536217212677 0.94478785991668701 0.34022313356399536
0.76476049423217773 0.9470827579498291 0.35618042945861816
0.83075237274169922 0.94922369718551636 0.37755373120307922
0.8972819447517395 0.95090240240097046 0.4031011164188385
0.9659188985824585 0.95161324739456177 0.42863470315933228
0.03567809984087944 0.04446633905172348 0.10337968915700912
0.091741032898426056 0.054579358547925949 0.11589329689741135
0.15042158961296082 0.067749619483947754 0.13583381474018097
0.21043230593204498 0.084621548652648926 0.1623946875333786
0.27248990535736084 0.10403674095869064 0.19327077269554138
0.33777430653572083 0.1216869130730629 0.22277086973190308
0.40803614258766174 0.13552857935428619 0.24076926708221436
0.48392242193222046 0.14086578786373138 0.23814621567726135
0.56335490942001343 0.14086949825286865 0.21917644143104553
0.64501756429672241 0.13880160450935364 0.19204907119274139
0.7254326343536377 0.13398449122905731 0.16332219541072845
0.80505192279815674 0.12883542478084564 0.13374139368534088
0.88256275653839111 0.12397667020559311 0.10334912687540054
0.051470857113599777 0.11164461076259613 0.12676063179969788
0.10613829642534256 0.11902856081724167 0.13478446006774902
0.1627238392829895 0.12925046682357788 0.14949005842208862
0.22026731073856354 0.14326635003089905 0.17135494947433472
0.27981841564178467 0.1595977246761322 0.19883905351161957
0.34299281239509583 0.17673981189727783 0.22597521543502808
0.41130796074867249 0.19007249176502228 0.24222740530967712
0.48544567823410034 0.19749948382377625 0.24063384532928467
0.56482774019241333 0.19871322810649872 0.22233931720256805
0.64602494239807129 0.19825530052185059 0.19419524073600769
0.72735404968261719 0.19410495460033417 0.1637217104434967
0.8061373233795166 0.18984784185886383 0.13481588661670685
0.88493877649307251 0.1855657696723938 0.10985538363456726
0.07072409987449646 0.18168886005878448 0.15313325822353363
0.12333688139915466 0.18656280636787415 0.15774422883987427
0.17769943177700043 0.19338440895080566 0.16727308928966522
0.23299457132816315 0.20350122451782227 0.18320830166339874
0.29060912132263184 0.21727527678012848 0.20566031336784363
0.3512481153011322 0.23211191594600677 0.22947844862937927
0.41720676422119141 0.24417996406555176 0.24478231370449066
0.48983916640281677 0.25260931253433228 0.24349550902843475
0.56746923923492432 0.25661763548851013 0.22559814155101776
0.6480141282081604 0.25661665201187134 0.19657725095748901
0.72900933027267456 0.25485366582870483 0.16413439810276031
0.80925041437149048 0.25140294432640076 0.13690420985221863
0.8877558708190918 0.24754069745540619 0.11708556860685349
0.091294907033443451 0.25462597608566284 0.18371956050395966
0.14355005323886871 0.25728395581245422 0.18641766905784607
0.19655501842498779 0.26141777634620667 0.19207735359668732
0.250531405210495 0.26827943325042725 0.20204456150531769
0.3050713837146759 0.27865225076675415 0.2187141478061676
0.36376899480819702 0.29085993766784668 0.2386893630027771
0.42691200971603394 0.30179166793823242 0.25277078151702881
0.49685627222061157 0.31050282716751099 0.25111299753189087
0.57255274057388306 0.31616601347923279 0.23250699043273926
0.65187615156173706 0.31856513023376465 0.20177586376667023
0.73232591152191162 0.31747657060623169 0.16746041178703308
0.81234270334243774 0.31492260098457336 0.14004850387573242
0.89179438352584839 0.31138914823532104 0.12198766320943832
0.11287496238946915 0.32877090573310852 0.21862423419952393
0.16452796757221222 0.3303554356098175 0.22107201814651489
0.21778243780136108 0.33239719271659851 0.22509108483791351
0.27102997899055481 0.33702766895294189 0.23059417307376862
0.32477423548698425 0.34466701745986938 0.24034212529659271
0.38120013475418091 0.3544171154499054 0.25569090247154236
0.4408811628818512 0.36417022347450256 0.26747998595237732
0.50771230459213257 0.3724883496761322 0.26447111368179321
0.58073025941848755 0.37890335917472839 0.24354314804077148
0.65805375576019287 0.38247835636138916 0.21004374325275421
0.73760122060775757 0.38279250264167786 0.17300258576869965
0.8174934983253479 0.38136768341064453 0.14169155061244965
0.89687085151672363 0.37799164652824402 0.12116262316703796
0.13478983938694 0.40312793850898743 0.25589561462402344
0.18552383780479431 0.40391629934310913 0.257293701171875
0.23815877735614777 0.40497484803199768 0.26015010476112366
0.2914842963218689 0.40792319178581238 0.26350688934326172
0.34477654099464417 0.41393515467643738 0.26788318157196045
0.39866140484809875 0.42191493511199951 0.27825754880905151
0.4566349983215332 0.42997592687606812 0.28755074739456177
0.52110964059829712 0.43840855360031128 0.28233757615089417
0.59151673316955566 0.44504854083061218 0.25787264108657837
0.6670343279838562 0.44962254166603088 0.2193194180727005
0.74481934309005737 0.45137524604797363 0.17681363224983215
0.82435339689254761 0.45024394989013672 0.14152990281581879
0.9037635326385498 0.44732514023780823 0.11976135522127151
0.15173158049583435 0.4783475399017334 0.27987155318260193
0.20103597640991211 0.47843137383460999 0.27916446328163147
0.25412595272064209 0.47856545448303223 0.28099328279495239
0.30874770879745483 0.48120561242103577 0.28381946682929993
0.36251658201217651 0.48591223359107971 0.28569296002388
0.41681334376335144 0.49244570732116699 0.29352602362632751
0.47421666979789734 0.49975574016571045 0.302702397108078
0.53605479001998901 0.50724613666534424 0.29841876029968262
0.60447973012924194 0.51386034488677979 0.27347654104232788
0.67758923768997192 0.51895338296890259 0.23077909648418427
0.75394535064697266 0.52167791128158569 0.18403196334838867
0.8327755331993103 0.52095144987106323 0.15031987428665161
0.91182225942611694 0.51844954490661621 0.13367953896522522
0.15791590511798859 0.55523568391799927 0.27431848645210266
0.20831146836280823 0.55563724040985107 0.27369987964630127
0.2636210024356842 0.55563724040985107 0.27483820915222168
0.32109075784683228 0.55651199817657471 0.27639710903167725
0.37767326831817627 0.56057047843933105 0.27897709608078003
0.4336993396282196 0.56558895111083984 0.28680181503295898
0.49107271432876587 0.57174336910247803 0.29816916584968567
0.55306512117385864 0.57829111814498901 0.30259859561920166
0.61903363466262817 0.58438122272491455 0.28523907065391541
0.69033688306808472 0.5893591046333313 0.24531941115856171
0.76514363288879395 0.59236758947372437 0.20400139689445496
0.84270620346069336 0.59254664182662964 0.17803584039211273
0.92012113332748413 0.59066480398178101 0.16988703608512878
0.16183340549468994 0.63284313678741455 0.25087720155715942
0.21321387588977814 0.63284313678741455 0.25111484527587891
0.27134469151496887 0.63284313678741455 0.25112482905387878
0.33195716142654419 0.63346010446548462 0.25120389461517334
0.3915712833404541 0.63680458068847656 0.25376406311988831
0.45064488053321838 0.64031058549880981 0.2617042064666748
0.5093148946762085 0.64502674341201782 0.27420994639396667
0.57110828161239624 0.65049415826797485 0.28571042418479919
0.63590323925018311 0.65586346387863159 0.28016564249992371
0.70499289035797119 0.66024702787399292 0.25538769364356995
0.777698814868927 0.66303360462188721 0.23070850968360901
0.8526797890663147 0.66363942623138428 0.21716552972793579
0.92933326959609985 0.66284787654876709 0.21553695201873779
0.17742905020713806 0.71004903316497803 0.23453633487224579
0.22612553834915161 0.71004903316497803 0.23371373116970062
0.28367051482200623 0.71004903316497803 0.2312859445810318
0.34495580196380615 0.71094805002212524 0.22770453989505768
0.40565404295921326 0.71395772695541382 0.23002804815769196
0.46554255485534668 0.71525764465332031 0.237897589802742
0.52702707052230835 0.71891731023788452 0.24821740388870239
0.58917546272277832 0.72314441204071045 0.25872880220413208
0.65380197763442993 0.72740131616592407 0.26196578145027161
0.72091281414031982 0.73137360811233521 0.25856629014015198
0.79083716869354248 0.73419743776321411 0.25490680336952209
0.86326146125793457 0.73555052280426025 0.2555406391620636
0.93732589483261108 0.73535412549972534 0.26115566492080688
0.2140430212020874 0.7872549295425415 0.24405673146247864
0.25378838181495667 0.7872549295425415 0.24136397242546082
0.30354201793670654 0.7872549295425415 0.23598815500736237
0.36029025912284851 0.78741109371185303 0.22809052467346191
0.41855290532112122 0.78941088914871216 0.23026219010353088
0.47854164242744446 0.79103678464889526 0.23819226026535034
0.54129886627197266 0.79280644655227661 0.2460719496011734
0.60570913553237915 0.79598665237426758 0.25313997268676758
0.67082452774047852 0.79943579435348511 0.25925853848457336
0.73684287071228027 0.80287796258926392 0.26925534009933472
0.80434495210647583 0.80545967817306519 0.28206086158752441
0.87392133474349976 0.8072812557220459 0.29585403203964233
0.94538044929504395 0.80781394243240356 0.30974003672599792
0.26869270205497742 0.86446076631546021 0.27962732315063477
0.29498594999313354 0.86446076631546021 0.27685552835464478
0.32979908585548401 0.86446076631546021 0.27258700132369995
0.37535837292671204 0.86446076631546021 0.26701253652572632
0.42968571186065674 0.86446076631546021 0.26638016104698181
0.49017584323883057 0.86490952968597412 0.27137422561645508
0.55452710390090942 0.86686313152313232 0.27813851833343506
0.62069356441497803 0.86905902624130249 0.28463685512542725
0.68667960166931152 0.87177330255508423 0.29130315780639648
0.75220650434494019 0.87472403049468994 0.30354630947113037
0.8180730938911438 0.87753438949584961 0.32227399945259094
0.88528668880462646 0.87901252508163452 0.34410408139228821
0.95466303825378418 0.88014906644821167 0.36480382084846497
0.33067920804023743 0.93981564044952393 0.32804310321807861
0.34402245283126831 0.94007354974746704 0.32758685946464539
0.36338570713996887 0.93962037563323975 0.32701596617698669
0.39682519435882568 0.93927693367004395 0.32553693652153015
0.44607663154602051 0.93927693367004395 0.32378900051116943
0.50568991899490356 0.93984073400497437 0.3257904052734375
0.57040035724639893 0.94111651182174683 0.3333747386932373
0.63690876960754395 0.94231337308883667 0.34307777881622314
0.70314747095108032 0.94459629058837891 0.35077482461929321
0.76826679706573486 0.94724458456039429 0.35980725288391113
0.83294165134429932 0.94978034496307373 0.37708458304405212
0.89837968349456787 0.95156437158584595 0.40000236034393311
0.96596008539199829 0.95252382755279541 0.42441034317016602
0.037912376224994659 0.049463532865047455 0.16579411923885345
0.093903549015522003 0.059377018362283707 0.17570824921131134
0.15230834484100342 0.072159305214881897 0.19193889200687408
0.21260471642017365 0.087632186710834503 0.21465304493904114
0.27480390667915344 0.10424541682004929 0.24255400896072388
0.34027674794197083 0.12043488770723343 0.27000990509986877
0.41005182266235352 0.1326041966676712 0.28797745704650879
0.4850514829158783 0.13912017643451691 0.29042273759841919
0.56323415040969849 0.14047901332378387 0.2779029905796051
0.64425098896026611 0.1375340074300766 0.25532203912734985
0.72494471073150635 0.13308426737785339 0.22479341924190521
0.80519658327102661 0.12823215126991272 0.1838851273059845
0.88335114717483521 0.12428960204124451 0.13182558119297028
0.052989751100540161 0.11572271585464478 0.18626989424228668
0.10747574269771576 0.123074971139431 0.19245094060897827
0.16380080580711365 0.13288003206253052 0.20440320670604706
0.22152338922023773 0.14546792209148407 0.22342252731323242
0.28159883618354797 0.1608806699514389 0.24830815196037292
0.34528142213821411 0.17603848874568939 0.27357932925224304
0.41377463936805725 0.1882849782705307 0.29107677936553955
0.48749017715454102 0.19567625224590302 0.29412218928337097
0.56571215391159058 0.19861429929733276 0.28236284852027893
0.6461716890335083 0.19710393249988556 0.25901949405670166
0.72722989320755005 0.1935657411813736 0.22693586349487305
0.80721133947372437 0.1897757351398468 0.18658626079559326
0.88668656349182129 0.18611244857311249 0.14284543693065643
0.071524947881698608 0.18457615375518799 0.20887574553489685
0.12466534227132797 0.18940246105194092 0.21232984960079193
0.17853035032749176 0.19584959745407104 0.22065669298171997
0.23367294669151306 0.20498697459697723 0.23483031988143921
0.29157859086990356 0.21776434779167175 0.25499844551086426
0.35337123274803162 0.23206450045108795 0.27737188339233398
0.41984802484512329 0.24354128539562225 0.29409956932067871
0.49187687039375305 0.25172269344329834 0.29777896404266357
0.56884366273880005 0.25628551840782166 0.28628614544868469
0.64888489246368408 0.2565477192401886 0.2625611424446106
0.72975099086761475 0.25462615489959717 0.22962914407253265
0.81017452478408813 0.2517123818397522 0.19037523865699768
0.88978248834609985 0.24859224259853363 0.15256333351135254
0.092313192784786224 0.25617334246635437 0.23583053052425385
0.14433804154396057 0.25892218947410583 0.23782208561897278
0.19731983542442322 0.26260071992874146 0.24311128258705139
0.25081092119216919 0.2689795196056366 0.25214758515357971
0.30597668886184692 0.27885136008262634 0.26681646704673767
0.36548584699630737 0.29087567329406738 0.28576302528381348
0.42951381206512451 0.30151355266571045 0.30155012011528015
0.49921441078186035 0.31014060974121094 0.30493623018264771
0.57430070638656616 0.31557801365852356 0.2929324209690094
0.65298998355865479 0.31796205043792725 0.26751360297203064
0.73347371816635132 0.31762269139289856 0.23285956680774689
0.81392544507980347 0.31563562154769897 0.19349630177021027
0.89349710941314697 0.31272813677787781 0.15705877542495728
0.11375591903924942 0.3295343816280365 0.2684270441532135
0.16546840965747833 0.33084332942962646 0.27016308903694153
0.21833500266075134 0.33297166228294373 0.27341008186340332
0.27148467302322388 0.33735746145248413 0.27827650308609009
0.32508578896522522 0.34471610188484192 0.28652846813201904
0.38196593523025513 0.35433676838874817 0.30145996809005737
0.4426993727684021 0.36388128995895386 0.31575736403465271
0.50953382253646851 0.37218225002288818 0.31754386425018311
0.58216530084609985 0.37851637601852417 0.3033948540687561
