assets/lut/pixlsus progressen.cube
# Created by: G'MIC (https://gmic.eu)
TITLE "progressen"
# LUT size
LUT_3D_SIZE 5
# Data domain
DOMAIN_MIN 0.0 0.0 0.0
DOMAIN_MAX 1.0 1.0 1.0
# LUT data points
0.019312584772706032 0.019229933619499207 0.02245819941163063
0.13561046123504639 0.03612498939037323 0.040744811296463013
0.39648851752281189 0.011748848482966423 0.029586507007479668
0.71575456857681274 0.013986146077513695 0.055300123989582062
0.91041499376296997 0.0087526654824614525 0.093126006424427032
0.052208621054887772 0.12138077616691589 0.054583381861448288
0.14067164063453674 0.15855099260807037 0.012803066521883011
0.42307433485984802 0.18129876255989075 0.0055995415896177292
0.71558475494384766 0.17907154560089111 0.019683269783854485
0.88083302974700928 0.16704156994819641 0.06303831934928894
0.12005890160799026 0.31803601980209351 0.06210639700293541
0.18012604117393494 0.32465413212776184 0.05602722242474556
0.39904952049255371 0.44554585218429565 0.0077071245759725571
0.71240246295928955 0.46350768208503723 0.0044002905488014221
0.86679518222808838 0.46656271815299988 0.021948346868157387
0.16654445230960846 0.51740163564682007 0.060733973979949951
0.27576112747192383 0.50930190086364746 0.0490555539727211
0.43163907527923584 0.56561100482940674 0.031985249370336533
0.74447250366210938 0.67400538921356201 0.019939182326197624
0.93357479572296143 0.75158613920211792 0.026785891503095627
0.1573488712310791 0.69502925872802734 0.048576220870018005
0.29082491993904114 0.66155403852462769 0.046635482460260391
0.46824654936790466 0.68880146741867065 0.03252970427274704
0.74685806035995483 0.77317601442337036 0.04605725035071373
0.94843798875808716 0.8675503134727478 0.089765332639217377
0.044591192156076431 0.073837310075759888 0.13829497992992401
0.1739097535610199 0.05964292585849762 0.18097667396068573
0.46932497620582581 0.012799311429262161 0.20995469391345978
0.73138797283172607 0.02952098473906517 0.1801043301820755
0.93030858039855957 0.02921079657971859 0.16869102418422699
0.048839554190635681 0.14118820428848267 0.14713969826698303
0.17151762545108795 0.16587981581687927 0.17343336343765259
0.45453765988349915 0.14459888637065887 0.17118319869041443
0.73449355363845825 0.13945239782333374 0.17346417903900146
0.94983041286468506 0.14769075810909271 0.18820253014564514
0.12573713064193726 0.31833595037460327 0.20173580944538116
0.2107260674238205 0.32163506746292114 0.20712344348430634
0.41050773859024048 0.44052308797836304 0.14022171497344971
0.70786780118942261 0.43484282493591309 0.082371175289154053
0.90820610523223877 0.44059431552886963 0.10005635023117065
0.1661951094865799 0.49358981847763062 0.22257167100906372
0.27660509943962097 0.50317811965942383 0.22091569006443024
0.43690097332000732 0.55978560447692871 0.18998225033283234
0.76590162515640259 0.72702842950820923 0.13054995238780975
0.96100163459777832 0.8158339262008667 0.13507950305938721
0.15575800836086273 0.67739474773406982 0.23245508968830109
0.29426807165145874 0.65958786010742188 0.21894276142120361
0.49160566926002502 0.68909132480621338 0.2018866240978241
0.75434237718582153 0.78859424591064453 0.22653116285800934
0.94660806655883789 0.89685201644897461 0.26251506805419922
0.070231325924396515 0.15682907402515411 0.3407934308052063
0.20357003808021545 0.16101549565792084 0.37538957595825195
0.49972295761108398 0.098700203001499176 0.42505189776420593
0.72889000177383423 0.10411310940980911 0.39401546120643616
0.9083254337310791 0.13476231694221497 0.35503402352333069
0.055742781609296799 0.22180663049221039 0.38248762488365173
0.18806928396224976 0.23852598667144775 0.39073017239570618
0.48965606093406677 0.23662254214286804 0.4453696608543396
0.75148987770080566 0.24477478861808777 0.43917837738990784
0.91958725452423096 0.25779265165328979 0.38369673490524292
0.14738622307777405 0.35810407996177673 0.40635186433792114
0.25103062391281128 0.38483616709709167 0.40764659643173218
0.45682546496391296 0.44851979613304138 0.43633094429969788
0.71164000034332275 0.45287051796913147 0.39863729476928711
0.93686974048614502 0.47353479266166687 0.43062925338745117
0.19324888288974762 0.50514048337936401 0.44616365432739258
0.29668259620666504 0.50876373052597046 0.43824478983879089
0.48041677474975586 0.56743079423904419 0.44404515624046326
0.76723259687423706 0.73936694860458374 0.48079890012741089
0.95522844791412354 0.78566640615463257 0.48494011163711548
0.16949190199375153 0.66653674840927124 0.44857266545295715
0.30265027284622192 0.6567617654800415 0.44686248898506165
0.49719744920730591 0.695423424243927 0.44532641768455505
0.76061874628067017 0.79926800727844238 0.49534726142883301
0.92878425121307373 0.94342488050460815 0.54650461673736572
0.10551765561103821 0.22684918344020844 0.57222861051559448
0.2473074197769165 0.2245250791311264 0.55395543575286865
0.47312471270561218 0.19042500853538513 0.55077886581420898
0.69452297687530518 0.17266780138015747 0.51996231079101562
0.87578535079956055 0.19142554700374603 0.50022363662719727
0.14883564412593842 0.3339506983757019 0.58151590824127197
0.26328051090240479 0.34358695149421692 0.56038117408752441
0.46231377124786377 0.32606774568557739 0.5423891544342041
0.69731354713439941 0.3189207911491394 0.51888316869735718
0.87768900394439697 0.32314985990524292 0.50079333782196045
0.22913749516010284 0.44663533568382263 0.63552993535995483
0.30667382478713989 0.46661567687988281 0.60511976480484009
0.46597793698310852 0.49037480354309082 0.58005452156066895
0.69558811187744141 0.52996861934661865 0.54557853937149048
0.88190126419067383 0.53489643335342407 0.52218800783157349
0.22039362788200378 0.54156464338302612 0.65426391363143921
0.32844454050064087 0.55101877450942993 0.63957089185714722
0.49750271439552307 0.60868722200393677 0.63683253526687622
0.74765002727508545 0.72844231128692627 0.64797443151473999
0.93159526586532593 0.78615784645080566 0.64923059940338135
0.18546046316623688 0.68203771114349365 0.66877108812332153
0.31553450226783752 0.67524999380111694 0.65585970878601074
0.50790029764175415 0.72597378492355347 0.65703201293945312
0.75214314460754395 0.82405978441238403 0.69543373584747314
0.94443404674530029 0.95256143808364868 0.77025765180587769
0.11832665652036667 0.22654873132705688 0.72348332405090332
0.27382105588912964 0.23648957908153534 0.72939568758010864
0.45875236392021179 0.19513262808322906 0.69817441701889038
0.67838776111602783 0.17299181222915649 0.66868144273757935
0.87563943862915039 0.1608806848526001 0.67700833082199097
0.17872126400470734 0.36314594745635986 0.70500493049621582
0.29003098607063293 0.37906435132026672 0.69591236114501953
0.46338248252868652 0.34667360782623291 0.67621737718582153
0.68101638555526733 0.33145222067832947 0.65896356105804443
0.87403243780136108 0.32584038376808167 0.65696316957473755
0.2200002521276474 0.47274699807167053 0.73659700155258179
0.32360884547233582 0.4919799268245697 0.72048574686050415
0.47596734762191772 0.51894873380661011 0.70284777879714966
0.69317960739135742 0.53511953353881836 0.68620169162750244
0.88957875967025757 0.54948121309280396 0.67399346828460693
0.21349653601646423 0.56351113319396973 0.76331734657287598
0.33665663003921509 0.58414137363433838 0.74632620811462402
0.50551140308380127 0.63958060741424561 0.7479022741317749
0.732757568359375 0.73494678735733032 0.77070468664169312
0.9122043251991272 0.77794402837753296 0.74534660577774048
0.17950469255447388 0.69814115762710571 0.80093252658843994
0.32081437110900879 0.69968903064727783 0.78150224685668945
0.50640618801116943 0.74805426597595215 0.78141868114471436
0.73844915628433228 0.84264999628067017 0.80068761110305786
0.92845070362091064 0.94093698263168335 0.83176195621490479
