assets/lut/pixlsus street.cube
# Created by: G'MIC (https://gmic.eu)
TITLE "street"
# LUT size
LUT_3D_SIZE 13
# Data domain
DOMAIN_MIN 0.0 0.0 0.0
DOMAIN_MAX 1.0 1.0 1.0
# LUT data points
0.02587565965950489 0.026892179623246193 0.024570735171437263
0.080188482999801636 0.020537521690130234 0.013883687555789948
0.14821280539035797 0.025191213935613632 0.0046203462406992912
0.2244686484336853 0.033521287143230438 0.0060237809084355831
0.30516508221626282 0.051122717559337616 0.012349820695817471
0.3873220682144165 0.077912934124469757 0.023445878177881241
0.47062516212463379 0.11056699603796005 0.035674165934324265
0.55387270450592041 0.14648896455764771 0.047262363135814667
0.63557887077331543 0.182292640209198 0.054769746959209442
0.7118108868598938 0.20908965170383453 0.05666249617934227
0.78426814079284668 0.22988653182983398 0.056277241557836533
0.85438579320907593 0.24803110957145691 0.05489451065659523
0.92283833026885986 0.26310551166534424 0.05213513970375061
0.050317950546741486 0.097028873860836029 0.064672820270061493
0.10066249966621399 0.089617304503917694 0.046835385262966156
0.16279277205467224 0.091954566538333893 0.027405248954892159
0.23663713037967682 0.094940200448036194 0.018808327615261078
0.3153432309627533 0.10442846268415451 0.021762054413557053
0.39593392610549927 0.12090151757001877 0.029652584344148636
0.47718045115470886 0.13972586393356323 0.037981774657964706
0.55736172199249268 0.15985596179962158 0.046085253357887268
0.63666760921478271 0.18436288833618164 0.050311055034399033
0.71159821748733521 0.2072565108537674 0.052000965923070908
0.782187819480896 0.22563399374485016 0.0530509352684021
0.85036551952362061 0.24082948267459869 0.05300019308924675
0.91700601577758789 0.25292658805847168 0.049844421446323395
0.096682712435722351 0.17541654407978058 0.11428448557853699
0.132340207695961 0.17041857540607452 0.096623517572879791
0.18423512578010559 0.16748271882534027 0.080384604632854462
0.25204765796661377 0.16659717261791229 0.067571930587291718
0.32864397764205933 0.17063702642917633 0.057650621980428696
0.40805253386497498 0.17872783541679382 0.05170980840921402
0.48731276392936707 0.18586383759975433 0.049313727766275406
0.56460952758789062 0.19164995849132538 0.048762857913970947
0.6404876708984375 0.20188973844051361 0.046713061630725861
0.7128593921661377 0.21568582952022552 0.046692073345184326
0.78090953826904297 0.22798039019107819 0.049979954957962036
0.84647971391677856 0.23763729631900787 0.051787074655294418
0.91135597229003906 0.24563607573509216 0.04828166589140892
0.13117912411689758 0.25550353527069092 0.16329802572727203
0.15885618329048157 0.25259372591972351 0.15068115293979645
0.20681416988372803 0.24889607727527618 0.14039246737957001
0.27187752723693848 0.24629829823970795 0.12726247310638428
0.34722596406936646 0.24791151285171509 0.10828531533479691
0.42467376589775085 0.25056305527687073 0.090863049030303955
0.50153946876525879 0.25041130185127258 0.077465876936912537
0.57672768831253052 0.24708154797554016 0.065050967037677765
0.64928936958312988 0.24458186328411102 0.052999518811702728
0.7181854248046875 0.24660535156726837 0.047379586845636368
0.78321105241775513 0.24956031143665314 0.049948524683713913
0.84590095281600952 0.25041258335113525 0.054066091775894165
0.90901970863342285 0.25098878145217896 0.047997120767831802
0.14807936549186707 0.33941265940666199 0.20949144661426544
0.17946387827396393 0.33836656808853149 0.20069079101085663
0.23179954290390015 0.3366970419883728 0.19326452910900116
0.29809150099754333 0.33575740456581116 0.18081475794315338
0.37143266201019287 0.33566266298294067 0.16190974414348602
0.44558757543563843 0.33415678143501282 0.14161892235279083
0.51916372776031494 0.33090135455131531 0.12242093682289124
0.59153753519058228 0.32498839497566223 0.10225683450698853
0.6614919900894165 0.31615301966667175 0.080628730356693268
0.7278628945350647 0.30756363272666931 0.06516672670841217
0.79091435670852661 0.29962894320487976 0.060838945209980011
0.85183751583099365 0.28893402218818665 0.058963295072317123
0.91295379400253296 0.27795955538749695 0.049347013235092163
0.17864486575126648 0.42374986410140991 0.25890868902206421
0.21294595301151276 0.42427301406860352 0.25163653492927551
0.26469883322715759 0.42493230104446411 0.2447526752948761
0.32885545492172241 0.42629340291023254 0.2339434027671814
0.39824086427688599 0.42561763525009155 0.21843133866786957
0.46852263808250427 0.42223772406578064 0.20022542774677277
0.538798987865448 0.41947519779205322 0.18081894516944885
0.60867410898208618 0.4165242612361908 0.15964809060096741
0.67647868394851685 0.40839961171150208 0.13508890569210052
0.74099767208099365 0.39513590931892395 0.11233010143041611
0.80289310216903687 0.38048550486564636 0.097986228764057159
0.86313974857330322 0.35813447833061218 0.083843320608139038
0.92194318771362305 0.33170080184936523 0.065152354538440704
0.2247195690870285 0.50677764415740967 0.31079131364822388
0.25886166095733643 0.50815862417221069 0.304555743932724
0.30603104829788208 0.50919675827026367 0.29809701442718506
0.3634316623210907 0.51021707057952881 0.28940215706825256
0.42688962817192078 0.50953739881515503 0.27732637524604797
0.49284902215003967 0.50755518674850464 0.26294124126434326
0.55979073047637939 0.50593912601470947 0.24669887125492096
0.62682068347930908 0.50497347116470337 0.22849991917610168
0.69250565767288208 0.50106865167617798 0.20705369114875793
0.75555145740509033 0.49323433637619019 0.18576127290725708
0.81687355041503906 0.48186963796615601 0.16587407886981964
0.87640362977981567 0.45522239804267883 0.14102353155612946
0.93344634771347046 0.41733428835868835 0.1114795133471489
0.27679693698883057 0.587371826171875 0.36372298002243042
0.30943968892097473 0.58896356821060181 0.35844746232032776
0.35097897052764893 0.59044677019119263 0.3529534637928009
0.40108925104141235 0.5909159779548645 0.34592157602310181
0.45789933204650879 0.58994102478027344 0.33717772364616394
0.51875251531600952 0.58724939823150635 0.32667368650436401
0.58196485042572021 0.58700978755950928 0.31479930877685547
0.64607459306716919 0.58699667453765869 0.30128109455108643
0.70906180143356323 0.58616179227828979 0.28652584552764893
0.77052009105682373 0.58463883399963379 0.26966404914855957
0.8303036093711853 0.58016407489776611 0.24892057478427887
0.88863229751586914 0.56114250421524048 0.22218555212020874
0.94369405508041382 0.52902686595916748 0.19179382920265198
0.32854485511779785 0.66514712572097778 0.41760215163230896
0.35901516675949097 0.66680324077606201 0.41298750042915344
0.39528638124465942 0.66772341728210449 0.40818655490875244
0.43908050656318665 0.66753667593002319 0.40275552868843079
0.48973065614700317 0.66597282886505127 0.3964601457118988
0.54565215110778809 0.66435027122497559 0.38939651846885681
0.60481923818588257 0.66421568393707275 0.38136222958564758
0.66517841815948486 0.66421568393707275 0.37245213985443115
0.72605293989181519 0.66423434019088745 0.36286512017250061
0.7851988673210144 0.66566842794418335 0.34970378875732422
0.84297215938568115 0.66532653570175171 0.33066609501838684
0.89813292026519775 0.6547667384147644 0.30606061220169067
0.94904863834381104 0.63282567262649536 0.27827572822570801
0.37610337138175964 0.73997366428375244 0.47210931777954102
0.40436857938766479 0.7410961389541626 0.46777528524398804
0.43647709488868713 0.74139565229415894 0.4632018506526947
0.47519952058792114 0.74141669273376465 0.45879220962524414
0.52080285549163818 0.74135500192642212 0.45434814691543579
0.57208824157714844 0.74118578433990479 0.44959655404090881
0.62707757949829102 0.74109184741973877 0.44426617026329041
0.68440729379653931 0.74119961261749268 0.43813696503639221
0.74168235063552856 0.74139702320098877 0.43051800131797791
0.79900431632995605 0.74208372831344604 0.41965362429618835
0.85598641633987427 0.74166864156723022 0.40330761671066284
0.90908849239349365 0.73455548286437988 0.38215988874435425
0.95499366521835327 0.72011494636535645 0.35792094469070435
0.41913953423500061 0.81239646673202515 0.52678841352462769
0.44543340802192688 0.81350076198577881 0.52241182327270508
0.47433191537857056 0.8148421049118042 0.51759827136993408
0.50889629125595093 0.81523942947387695 0.51345789432525635
0.55044078826904297 0.81509065628051758 0.5100475549697876
0.59763181209564209 0.81489068269729614 0.50685852766036987
0.64858162403106689 0.81471753120422363 0.50304800271987915
0.70191985368728638 0.81473428010940552 0.49807211756706238
0.75624698400497437 0.8154560923576355 0.49102199077606201
0.81252509355545044 0.81589603424072266 0.48098698258399963
0.87063896656036377 0.8139348030090332 0.46740740537643433
0.92612379789352417 0.80728405714035034 0.45050570368766785
0.97005373239517212 0.79685443639755249 0.43052351474761963
0.45892173051834106 0.88365203142166138 0.58090156316757202
0.48313283920288086 0.88570612668991089 0.57637357711791992
0.50937080383300781 0.88678634166717529 0.57120537757873535
0.54088979959487915 0.88813567161560059 0.56703680753707886
0.5790519118309021 0.88873296976089478 0.56399774551391602
0.6225627064704895 0.88907122611999512 0.56138783693313599
0.66993075609207153 0.8894391655921936 0.55834406614303589
0.71980917453765869 0.88994115591049194 0.55379706621170044
0.77117282152175903 0.89023870229721069 0.547019362449646
0.82528805732727051 0.88928860425949097 0.53769218921661377
0.88599717617034912 0.88668328523635864 0.5269436240196228
0.94596403837203979 0.88049274682998657 0.51423501968383789
0.98844975233078003 0.87234628200531006 0.49870365858078003
0.4948371946811676 0.95549947023391724 0.63323014974594116
0.51806008815765381 0.95761406421661377 0.62856054306030273
0.54267764091491699 0.95950013399124146 0.62337589263916016
0.57194286584854126 0.96115410327911377 0.61904805898666382
0.60687416791915894 0.96226215362548828 0.61584645509719849
0.64735513925552368 0.96349108219146729 0.61349403858184814
0.69170355796813965 0.96474707126617432 0.61061376333236694
0.73908871412277222 0.96517974138259888 0.60653877258300781
0.78853583335876465 0.96519607305526733 0.60053956508636475
0.84213012456893921 0.96519607305526733 0.59253227710723877
0.90290230512619019 0.96325266361236572 0.58428782224655151
0.96350449323654175 0.95983827114105225 0.57566666603088379
0.99629026651382446 0.95503926277160645 0.56345415115356445
0.021282555535435677 0.033908933401107788 0.068724282085895538
0.076493270695209503 0.023274261504411697 0.055315367877483368
0.1450219601392746 0.027623509988188744 0.040586702525615692
0.2198813408613205 0.037889264523983002 0.039062052965164185
0.2991788387298584 0.053879756480455399 0.049838945269584656
0.38167107105255127 0.080106966197490692 0.062405034899711609
0.4664975106716156 0.11220405250787735 0.074431084096431732
0.55052345991134644 0.14603546261787415 0.084630943834781647
0.63161319494247437 0.1774178147315979 0.090438112616539001
0.70806652307510376 0.20284266769886017 0.091334715485572815
0.78039300441741943 0.2230498343706131 0.089388541877269745
0.85036933422088623 0.23975042998790741 0.086753681302070618
0.91831213235855103 0.25281181931495667 0.083702400326728821
0.045643031597137451 0.10271178930997849 0.10806059092283249
0.096636228263378143 0.093152575194835663 0.091744802892208099
0.15989713370800018 0.092604421079158783 0.074579395353794098
0.23183511197566986 0.097279220819473267 0.062879480421543121
0.30847945809364319 0.10741108655929565 0.061774443835020065
0.39012187719345093 0.1246144026517868 0.067500382661819458
0.47391116619110107 0.14487102627754211 0.075835362076759338
0.55616992712020874 0.16520330309867859 0.083304218947887421
0.63494312763214111 0.186057448387146 0.086218126118183136
0.70927119255065918 0.20489740371704102 0.085534550249576569
0.77959394454956055 0.22051705420017242 0.08388596773147583
0.8470306396484375 0.23360544443130493 0.081718787550926208
0.91319435834884644 0.24438953399658203 0.078304484486579895
0.093758419156074524 0.1809321790933609 0.15302416682243347
0.12889136373996735 0.17619040608406067 0.13938838243484497
0.18223555386066437 0.17281860113143921 0.12455035746097565
0.24883808195590973 0.17122979462146759 0.10829591751098633
0.32297548651695251 0.17441040277481079 0.094356343150138855
0.40276879072189331 0.18293838202953339 0.086655966937541962
0.48420414328575134 0.19207629561424255 0.084991231560707092
0.56362259387969971 0.19911617040634155 0.08510194718837738
0.63982236385345459 0.20668862760066986 0.081949375569820404
0.71190172433853149 0.21580879390239716 0.078351043164730072
0.77944457530975342 0.22436943650245667 0.077197164297103882
0.84415501356124878 0.23143909871578217 0.076496362686157227
0.90847235918045044 0.23769687116146088 0.072924323379993439
0.12531709671020508 0.26117727160453796 0.19843131303787231
0.15387721359729767 0.25948897004127502 0.18864504992961884
0.20469225943088531 0.25578701496124268 0.17754784226417542
0.26972296833992004 0.25183236598968506 0.16067448258399963
0.34315988421440125 0.2511957585811615 0.14052717387676239
0.42022711038589478 0.2537592351436615 0.12363246828317642
0.49785542488098145 0.25512200593948364 0.11133048683404922
0.57416331768035889 0.25312206149101257 0.099307507276535034
0.64766258001327515 0.24908401072025299 0.085302822291851044
0.71698874235153198 0.24634444713592529 0.074042946100234985
0.7818828821182251 0.24546769261360168 0.071816794574260712
0.84414857625961304 0.24377305805683136 0.072237484157085419
0.90646743774414062 0.24334494769573212 0.068657055497169495
0.13527104258537292 0.34443566203117371 0.24324585497379303
0.16870945692062378 0.34386119246482849 0.23541830480098724
0.22580839693546295 0.34120514988899231 0.22715230286121368
0.29376652836799622 0.33811125159263611 0.21264459192752838
0.36741843819618225 0.33612328767776489 0.19301672279834747
0.44108918309211731 0.33518430590629578 0.17355546355247498
0.51436305046081543 0.33336260914802551 0.15472510457038879
0.58755254745483398 0.3279055655002594 0.13312642276287079
0.65846043825149536 0.3169633150100708 0.10706167668104172
0.72547429800033569 0.30296492576599121 0.083500176668167114
0.78836333751678467 0.29245001077651978 0.076881274580955505
0.84899836778640747 0.28109532594680786 0.075924471020698547
0.90919327735900879 0.26992341876029968 0.069806359708309174
0.16559819877147675 0.42757263779640198 0.29139888286590576
0.2007901668548584 0.42773076891899109 0.28449058532714844
0.25579392910003662 0.42679929733276367 0.27735015749931335
0.32175964117050171 0.4255615770816803 0.26552680134773254
0.39218491315841675 0.42361271381378174 0.24967983365058899
0.46271112561225891 0.42140078544616699 0.23147642612457275
0.53315287828445435 0.41923707723617554 0.21132153272628784
0.60372209548950195 0.41587194800376892 0.18715089559555054
0.67226970195770264 0.40528237819671631 0.15744434297084808
0.73712855577468872 0.38815918564796448 0.12819911539554596
0.79865342378616333 0.37131670117378235 0.11373754590749741
0.85831671953201294 0.34949830174446106 0.10297984629869461
0.91662830114364624 0.32509806752204895 0.088984891772270203
0.21364487707614899 0.50954222679138184 0.34197878837585449
0.24836413562297821 0.51001632213592529 0.33585524559020996
0.29651486873626709 0.50964879989624023 0.32937523722648621
0.35509651899337769 0.50899410247802734 0.32033565640449524
0.41964995861053467 0.50757920742034912 0.30795726180076599
0.48627603054046631 0.50524204969406128 0.29308119416236877
0.55381220579147339 0.50375664234161377 0.27523359656333923
0.62180691957473755 0.50278311967849731 0.25411099195480347
0.68814229965209961 0.49774542450904846 0.22907166182994843
0.75120532512664795 0.48731312155723572 0.20449911057949066
0.81153911352157593 0.47270563244819641 0.18465745449066162
0.87032204866409302 0.44738608598709106 0.16359739005565643
0.92740720510482788 0.41457024216651917 0.13998597860336304
0.26830139756202698 0.59047114849090576 0.39274674654006958
0.30067965388298035 0.59088766574859619 0.38778936862945557
0.34194326400756836 0.5904773473739624 0.38247272372245789
0.39262077212333679 0.58858370780944824 0.37535706162452698
0.4503893256187439 0.5870477557182312 0.3663841187953949
0.51223230361938477 0.58562755584716797 0.35511305928230286
0.57658523321151733 0.58465397357940674 0.34150731563568115
0.64196097850799561 0.58490204811096191 0.32541239261627197
0.70603656768798828 0.58447784185409546 0.3076665997505188
0.76700729131698608 0.58239895105361938 0.28973519802093506
0.82522040605545044 0.57603377103805542 0.27098885178565979
0.88275939226150513 0.55742824077606201 0.24724531173706055
0.93809562921524048 0.52764105796813965 0.21995846927165985
0.32220035791397095 0.66800707578659058 0.44448947906494141
0.35158589482307434 0.66811126470565796 0.44015240669250488
0.38708940148353577 0.66741979122161865 0.4354856014251709
0.43079948425292969 0.66525542736053467 0.43001928925514221
0.48229172825813293 0.66423439979553223 0.42344975471496582
0.53933292627334595 0.66354876756668091 0.41550460457801819
0.60029488801956177 0.66295707225799561 0.40602520108222961
0.66287559270858765 0.66393208503723145 0.39508306980133057
0.72467237710952759 0.66434091329574585 0.38309955596923828
0.78380680084228516 0.66737395524978638 0.37014243006706238
0.83944880962371826 0.66661697626113892 0.35419803857803345
0.89395910501480103 0.65540546178817749 0.33167228102684021
0.94568789005279541 0.63271546363830566 0.30432158708572388
0.36984989047050476 0.74123954772949219 0.49698632955551147
0.39706361293792725 0.7417377233505249 0.49281063675880432
0.42815473675727844 0.74132978916168213 0.48805990815162659
0.4664122462272644 0.74088865518569946 0.48354640603065491
0.51293981075286865 0.73991161584854126 0.4788462221622467
0.56587213277816772 0.73883473873138428 0.47352731227874756
0.62308871746063232 0.73863577842712402 0.46753385663032532
0.68271732330322266 0.74007594585418701 0.45993497967720032
0.74213647842407227 0.74146020412445068 0.45111948251724243
0.79953914880752563 0.74396038055419922 0.44014689326286316
0.85507732629776001 0.74409836530685425 0.42558431625366211
0.90735548734664917 0.73671692609786987 0.40534505248069763
0.95448428392410278 0.72094488143920898 0.38109847903251648
0.412171870470047 0.81276386976242065 0.54980325698852539
0.43710559606552124 0.81354707479476929 0.54511100053787231
0.46423310041427612 0.81416290998458862 0.53987377882003784
0.49864640831947327 0.81431639194488525 0.53560763597488403
0.54164928197860718 0.81415510177612305 0.53247427940368652
0.59100210666656494 0.81400823593139648 0.5293276309967041
0.64449948072433472 0.81439977884292603 0.52532607316970825
0.7000311017036438 0.81470465660095215 0.51963073015213013
0.75706213712692261 0.81574362516403198 0.51208037137985229
0.8142513632774353 0.81690943241119385 0.50193148851394653
0.87132567167282104 0.81551527976989746 0.48815065622329712
0.92506927251815796 0.8089594841003418 0.47071531414985657
0.96953308582305908 0.79845422506332397 0.44995668530464172
0.45079454779624939 0.88350671529769897 0.60207641124725342
0.473763108253479 0.88534820079803467 0.59712862968444824
0.49807208776473999 0.88632047176361084 0.59129995107650757
0.52949249744415283 0.88707971572875977 0.5870024561882019
0.56903153657913208 0.88761997222900391 0.58442586660385132
0.61491137742996216 0.88791942596435547 0.58251088857650757
0.66509926319122314 0.88817304372787476 0.5795360803604126
0.71774095296859741 0.88876146078109741 0.5750051736831665
0.77198249101638794 0.889515221118927 0.56819307804107666
0.82862341403961182 0.88928508758544922 0.55855709314346313
0.88785427808761597 0.88664603233337402 0.54626357555389404
0.94386327266693115 0.88066327571868896 0.5304529070854187
0.98581951856613159 0.87295931577682495 0.51331186294555664
0.4858124852180481 0.95509451627731323 0.65261590480804443
0.5078284740447998 0.95667850971221924 0.64792484045028687
0.53083556890487671 0.95871710777282715 0.6422918438911438
0.55970466136932373 0.96010982990264893 0.63776004314422607
0.59598016738891602 0.96121466159820557 0.6350705623626709
0.63848507404327393 0.96176397800445557 0.63306480646133423
0.68558818101882935 0.96256041526794434 0.63083642721176147
0.73561424016952515 0.96367686986923218 0.62689328193664551
0.78817236423492432 0.96436315774917603 0.62087589502334595
0.84357172250747681 0.96364098787307739 0.61261320114135742
0.90302509069442749 0.96132093667984009 0.6022573709487915
0.95800405740737915 0.95731562376022339 0.58998328447341919
0.99419111013412476 0.95272195339202881 0.57555699348449707
0.027247350662946701 0.050667271018028259 0.1250530332326889
0.080191642045974731 0.036287702620029449 0.11109521985054016
0.14558033645153046 0.033179681748151779 0.097516916692256927
0.21608702838420868 0.042827188968658447 0.092099584639072418
0.2915407121181488 0.059504713863134384 0.10087157785892487
0.37435060739517212 0.084847182035446167 0.11226850003004074
0.46104070544242859 0.11552669852972031 0.12399308383464813
0.54616141319274902 0.14601895213127136 0.13255754113197327
0.62689268589019775 0.17299087345600128 0.13573536276817322
0.70322668552398682 0.19600643217563629 0.13409389555454254
0.77558547258377075 0.21475069224834442 0.13016225397586823
0.8453441858291626 0.23022079467773438 0.12569242715835571
0.91317355632781982 0.24194623529911041 0.1222175732254982
0.051202990114688873 0.11451758444309235 0.1585007905960083
0.097693346440792084 0.10293684154748917 0.14511337876319885
0.15726117789745331 0.096222817897796631 0.13174395263195038
0.22438807785511017 0.099394537508487701 0.1190810427069664
0.29735025763511658 0.1111438050866127 0.11428951472043991
0.38134685158729553 0.1287170797586441 0.11914699524641037
0.46909672021865845 0.15026718378067017 0.12877592444419861
0.55351370573043823 0.17046268284320831 0.13494065403938293
0.63223612308502197 0.18831679224967957 0.13492076098918915
0.70610576868057251 0.20347373187541962 0.13096658885478973
0.77582448720932007 0.21672272682189941 0.12555998563766479
0.84300434589385986 0.22770217061042786 0.1199716329574585
0.90884685516357422 0.23665289580821991 0.11554054170846939
0.091580800712108612 0.18956661224365234 0.19921186566352844
0.12883032858371735 0.1849779486656189 0.18943719565868378
0.18066351115703583 0.17905016243457794 0.17639897763729095
0.24226410686969757 0.17424170672893524 0.15805031359195709
0.31270548701286316 0.17705516517162323 0.14260898530483246
0.39371788501739502 0.185575932264328 0.13664111495018005
0.47883164882659912 0.19723251461982727 0.13856607675552368
0.56085193157196045 0.20653580129146576 0.13832120597362518
0.63773179054260254 0.21353846788406372 0.13398373126983643
0.7096753716468811 0.21930468082427979 0.12716680765151978
0.77705293893814087 0.22462479770183563 0.12029803544282913
0.84125041961669922 0.22920562326908112 0.1139582023024559
0.9048340916633606 0.23382380604743958 0.10877788811922073
0.12020906805992126 0.26837277412414551 0.24423941969871521
0.15512716770172119 0.2671741247177124 0.23620244860649109
0.20534513890743256 0.2628018856048584 0.22375558316707611
0.26606139540672302 0.25649946928024292 0.20426647365093231
0.33586347103118896 0.25394603610038757 0.18448071181774139
0.41203123331069946 0.25606498122215271 0.16995170712471008
0.49107182025909424 0.25970038771629333 0.16066659986972809
0.5693848729133606 0.25990739464759827 0.1508805900812149
0.64446902275085449 0.25672087073326111 0.1378612220287323
0.71479159593582153 0.25206610560417175 0.1250055730342865
0.77976059913635254 0.24789440631866455 0.11588456481695175
0.84142261743545532 0.24399676918983459 0.10950534045696259
0.90278863906860352 0.24214601516723633 0.10382464528083801
0.13427230715751648 0.34957998991012573 0.2885163426399231
0.17112165689468384 0.34887951612472534 0.28075575828552246
0.22511132061481476 0.34583172202110291 0.27003207802772522
0.29039517045021057 0.34139469265937805 0.25400257110595703
0.36112985014915466 0.33836066722869873 0.23494912683963776
0.4335026741027832 0.33778738975524902 0.21711061894893646
0.50687342882156372 0.3367496132850647 0.20004969835281372
