assets/lut/pixlsus cinematic lady bird.cube
# Created by: G'MIC (https://gmic.eu)
TITLE "cinematic_lady_bird"
# LUT size
LUT_3D_SIZE 7
# Data domain
DOMAIN_MIN 0.0 0.0 0.0
DOMAIN_MAX 1.0 1.0 1.0
# LUT data points
0.037049043923616409 0.027976151555776596 0.038278840482234955
0.25218680500984192 0.037808287888765335 0.034212958067655563
0.46770229935646057 0.037263832986354828 0.029418332502245903
0.57979363203048706 0.049094211310148239 0.02276630699634552
0.67905038595199585 0.038436394184827805 0.025240145623683929
0.75029540061950684 0.035929303616285324 0.031514529138803482
0.80311083793640137 0.042319204658269882 0.084478460252285004
0.03473275899887085 0.15117126703262329 0.062529005110263824
0.18270084261894226 0.15366707742214203 0.06305287778377533
0.37882626056671143 0.18108545243740082 0.04174436628818512
0.53478783369064331 0.20052562654018402 0.026892434805631638
0.68748193979263306 0.20384140312671661 0.022167939692735672
0.77150857448577881 0.18678545951843262 0.053908359259366989
0.83044487237930298 0.21280090510845184 0.11957264691591263
0.036179337650537491 0.26997902989387512 0.10238518565893173
0.18685907125473022 0.29266691207885742 0.085663154721260071
0.40476107597351074 0.31194648146629333 0.06761595606803894
0.57189077138900757 0.3433404266834259 0.056327491998672485
0.71147233247756958 0.35716044902801514 0.055344853550195694
0.81113386154174805 0.3596281111240387 0.084160976111888885
0.87267935276031494 0.36966276168823242 0.13278661668300629
0.04290458932518959 0.37584948539733887 0.11802755296230316
0.20249496400356293 0.40779322385787964 0.1107434406876564
0.40314128994941711 0.44014933705329895 0.081122137606143951
0.57422918081283569 0.47239977121353149 0.082900851964950562
0.71476328372955322 0.49683976173400879 0.11540357023477554
0.82069635391235352 0.50488042831420898 0.14837433397769928
0.87544852495193481 0.50019639730453491 0.15649192035198212
0.092580385506153107 0.48935264348983765 0.13549321889877319
0.26630035042762756 0.51532143354415894 0.11281509697437286
0.43355855345726013 0.54880750179290771 0.080654740333557129
0.5998685359954834 0.57840901613235474 0.056548040360212326
0.7148173451423645 0.60690450668334961 0.081490926444530487
0.81506943702697754 0.622353196144104 0.14437486231327057
0.86828172206878662 0.6344638466835022 0.16198763251304626
0.17559210956096649 0.56481868028640747 0.12570127844810486
0.29267734289169312 0.58351606130599976 0.11524254083633423
0.46024692058563232 0.61602878570556641 0.095468021929264069
0.62940084934234619 0.65387123823165894 0.077072829008102417
0.7494695782661438 0.68327456712722778 0.077638588845729828
0.82808494567871094 0.7174907922744751 0.11587401479482651
0.89627498388290405 0.73189467191696167 0.12861190736293793
0.15315966308116913 0.65164220333099365 0.11113810539245605
0.29738762974739075 0.65873867273330688 0.10942818224430084
0.44436353445053101 0.68201428651809692 0.095636598765850067
0.58808475732803345 0.72958505153656006 0.067649111151695251
0.78894788026809692 0.75103384256362915 0.068638548254966736
0.88486576080322266 0.79231423139572144 0.11459941416978836
0.92230159044265747 0.8188440203666687 0.13300657272338867
0.023072591051459312 0.050817079842090607 0.15634268522262573
0.18999823927879333 0.055856578052043915 0.15937615931034088
0.42360246181488037 0.05008220300078392 0.15170300006866455
0.58748406171798706 0.049205482006072998 0.15644343197345734
0.67835080623626709 0.047181971371173859 0.13616339862346649
0.7459149956703186 0.033852759748697281 0.1564679890871048
0.78531771898269653 0.043720632791519165 0.17899425327777863
0.020384978502988815 0.16461955010890961 0.17932160198688507
0.15110896527767181 0.1778448075056076 0.18526923656463623
0.36380615830421448 0.19977748394012451 0.17664104700088501
0.54536813497543335 0.21145334839820862 0.15848477184772491
0.69872760772705078 0.2087751179933548 0.16909044981002808
0.78753048181533813 0.20247679948806763 0.14509323239326477
0.83438229560852051 0.23380585014820099 0.1891588568687439
0.026141058653593063 0.29032024741172791 0.21635749936103821
0.14726269245147705 0.30442914366722107 0.21829356253147125
0.37755557894706726 0.3415931761264801 0.2246435284614563
0.57880198955535889 0.34986221790313721 0.20257675647735596
0.72541749477386475 0.3708864152431488 0.15245412290096283
0.81718456745147705 0.37732282280921936 0.14775566756725311
0.87505364418029785 0.37672430276870728 0.18114283680915833
0.031224314123392105 0.3964751660823822 0.23914444446563721
0.16393701732158661 0.42885896563529968 0.24327968060970306
0.37447550892829895 0.46161648631095886 0.24481169879436493
0.5723382830619812 0.49003425240516663 0.23951949179172516
0.73371553421020508 0.51350969076156616 0.23366981744766235
0.83835160732269287 0.52367746829986572 0.23051135241985321
0.88359618186950684 0.51224291324615479 0.23752054572105408
0.079779021441936493 0.49194276332855225 0.24146266281604767
0.21078771352767944 0.52955961227416992 0.25035226345062256
0.42604070901870728 0.58598989248275757 0.2745729386806488
0.58964163064956665 0.60529053211212158 0.23936361074447632
0.73539572954177856 0.62729430198669434 0.24929209053516388
0.84062540531158447 0.63289952278137207 0.2390885055065155
0.88119828701019287 0.64246553182601929 0.24965125322341919
0.13228456676006317 0.58039999008178711 0.24329449236392975
0.25923484563827515 0.60220801830291748 0.23674690723419189
0.45405274629592896 0.64006435871124268 0.23055964708328247
0.59953778982162476 0.69185155630111694 0.24486760795116425
0.74283325672149658 0.70872348546981812 0.22617147862911224
0.84976136684417725 0.7394605278968811 0.22546643018722534
0.90206801891326904 0.74363023042678833 0.25726762413978577
0.15072615444660187 0.66653335094451904 0.23517489433288574
0.2849058210849762 0.6776542067527771 0.23686970770359039
0.43581947684288025 0.70575535297393799 0.23786379396915436
0.5866733193397522 0.74061411619186401 0.24279433488845825
0.77363318204879761 0.77905219793319702 0.27292487025260925
0.88027101755142212 0.80755865573883057 0.26088759303092957
0.9425167441368103 0.82229030132293701 0.28589323163032532
0.029692960903048515 0.044390331953763962 0.24634572863578796
0.16778643429279327 0.061345808207988739 0.26216843724250793
0.37725687026977539 0.071900464594364166 0.29344603419303894
0.53382259607315063 0.093360811471939087 0.29945093393325806
0.66202682256698608 0.075363948941230774 0.26747691631317139
0.75708037614822388 0.037222020328044891 0.23735600709915161
0.79623579978942871 0.053510196506977081 0.28274974226951599
0.015178320929408073 0.18488499522209167 0.29075521230697632
0.10801991820335388 0.19807973504066467 0.29390868544578552
0.32467317581176758 0.21940894424915314 0.31231415271759033
0.54932332038879395 0.22291524708271027 0.33566686511039734
0.69914776086807251 0.21781668066978455 0.32033997774124146
0.8033071756362915 0.2288966029882431 0.33800616860389709
0.85942971706390381 0.23328271508216858 0.35631391406059265
0.015732215717434883 0.30113795399665833 0.32836347818374634
0.10210149735212326 0.32017433643341064 0.3366292417049408
0.34926667809486389 0.35921600461006165 0.36587154865264893
0.55734467506408691 0.38493055105209351 0.36804363131523132
0.72554200887680054 0.39317724108695984 0.35913041234016418
0.84510272741317749 0.40780758857727051 0.35612753033638
0.90148675441741943 0.39360812306404114 0.36020961403846741
0.021841056644916534 0.41009873151779175 0.36125427484512329
0.1131170392036438 0.44540724158287048 0.36148944497108459
0.35536894202232361 0.4852566123008728 0.3901180624961853
0.56762808561325073 0.52080953121185303 0.40002766251564026
0.73603999614715576 0.53789353370666504 0.39047002792358398
0.84981435537338257 0.53938430547714233 0.38489487767219543
0.91128760576248169 0.54408317804336548 0.36996117234230042
0.072838172316551208 0.51068758964538574 0.38449159264564514
0.19508998095989227 0.54255610704421997 0.39993339776992798
0.40571564435958862 0.612923264503479 0.42397156357765198
0.58322316408157349 0.63414716720581055 0.41564655303955078
0.72668153047561646 0.65320974588394165 0.40479916334152222
0.85764193534851074 0.65778309106826782 0.39160940051078796
0.91996085643768311 0.66165512800216675 0.40409845113754272
0.11464229226112366 0.58494442701339722 0.36860576272010803
0.23432272672653198 0.6092066764831543 0.36689004302024841
0.42657619714736938 0.67055833339691162 0.40462681651115417
0.61054080724716187 0.71207815408706665 0.42739427089691162
0.74174678325653076 0.73538124561309814 0.41502591967582703
0.86621397733688354 0.75067418813705444 0.4038754403591156
0.93737602233886719 0.75115483999252319 0.42234832048416138
0.12612904608249664 0.6780928373336792 0.36159086227416992
0.25407353043556213 0.69017112255096436 0.37037131190299988
0.42269647121429443 0.72119200229644775 0.38880151510238647
0.6021307110786438 0.75444012880325317 0.40584579110145569
0.7484404444694519 0.80887711048126221 0.4304109513759613
0.87814509868621826 0.83309215307235718 0.42531669139862061
0.95876628160476685 0.84518986940383911 0.43936663866043091
0.031526528298854828 0.069548666477203369 0.31644070148468018
0.18209818005561829 0.063292533159255981 0.33908841013908386
0.36229449510574341 0.081786274909973145 0.37754330039024353
0.49492654204368591 0.1038874015212059 0.40458998084068298
0.65077227354049683 0.13619852066040039 0.4268132746219635
0.74259823560714722 0.10627041757106781 0.39255288243293762
0.78400051593780518 0.055057317018508911 0.39715337753295898
0.028727782890200615 0.20111709833145142 0.37657061219215393
0.14372456073760986 0.20337188243865967 0.40178674459457397
0.35304522514343262 0.23787224292755127 0.43683537840843201
0.53060001134872437 0.2430909126996994 0.45530188083648682
0.68465852737426758 0.25097692012786865 0.45598241686820984
0.80282020568847656 0.24319906532764435 0.44968914985656738
0.83630663156509399 0.21544477343559265 0.4438231885433197
0.010794680565595627 0.31016218662261963 0.43055450916290283
0.066353067755699158 0.34186926484107971 0.44210377335548401
0.31234642863273621 0.37658020853996277 0.47536030411720276
0.54065656661987305 0.40612995624542236 0.49124571681022644
0.72163492441177368 0.4060814380645752 0.49887502193450928
0.84519249200820923 0.409515380859375 0.50307595729827881
0.88864052295684814 0.41911470890045166 0.47618091106414795
0.011243917047977448 0.42642995715141296 0.46634981036186218
0.092485822737216949 0.45459207892417908 0.46009930968284607
0.33058178424835205 0.50336134433746338 0.50552856922149658
0.55590152740478516 0.53864085674285889 0.53533780574798584
0.7386896014213562 0.55636310577392578 0.52870625257492065
0.85723870992660522 0.56809914112091064 0.52126234769821167
0.93021893501281738 0.56810855865478516 0.50898569822311401
0.036497436463832855 0.52027827501296997 0.50027006864547729
0.13760876655578613 0.55279815196990967 0.48613417148590088
0.36834898591041565 0.62788289785385132 0.53356671333312988
0.57549512386322021 0.65162807703018188 0.54003709554672241
0.73408681154251099 0.66898548603057861 0.55739432573318481
0.85806417465209961 0.68543559312820435 0.54867303371429443
0.93199771642684937 0.69368582963943481 0.53761130571365356
0.081550031900405884 0.59982156753540039 0.48691591620445251
0.18866275250911713 0.61840665340423584 0.48796385526657104
0.37125411629676819 0.67990571260452271 0.52766478061676025
0.59311717748641968 0.74174302816390991 0.5710989236831665
0.73864376544952393 0.75673729181289673 0.55074077844619751
0.86355853080749512 0.77732968330383301 0.55783993005752563
0.95139169692993164 0.7783626914024353 0.56164628267288208
0.089915379881858826 0.67965376377105713 0.4950711727142334
0.21676085889339447 0.70331323146820068 0.50060123205184937
0.40916970372200012 0.74896198511123657 0.54281669855117798
0.59421855211257935 0.78374201059341431 0.55226963758468628
0.74039071798324585 0.82067269086837769 0.58162391185760498
0.87486094236373901 0.85718941688537598 0.56335127353668213
0.96277850866317749 0.87064856290817261 0.57083189487457275
0.077645637094974518 0.090401381254196167 0.41942724585533142
0.1693393886089325 0.10964750498533249 0.43640503287315369
0.31838923692703247 0.15369883179664612 0.4863918125629425
0.47345057129859924 0.18032099306583405 0.53289097547531128
0.64708203077316284 0.20711773633956909 0.54594802856445312
0.75391900539398193 0.16244733333587646 0.53581804037094116
0.79407572746276855 0.089930877089500427 0.5117453932762146
0.057498183101415634 0.20519621670246124 0.46571007370948792
0.15480151772499084 0.22661349177360535 0.47964733839035034
0.33077982068061829 0.24890066683292389 0.50300079584121704
0.49004179239273071 0.28178536891937256 0.54265081882476807
0.67993170022964478 0.29765117168426514 0.56709611415863037
0.792946457862854 0.28368648886680603 0.57351839542388916
0.84832924604415894 0.22991473972797394 0.56222617626190186
0.037418782711029053 0.33226791024208069 0.51142740249633789
0.080862261354923248 0.35496023297309875 0.54306000471115112
0.33285164833068848 0.37657207250595093 0.56989842653274536
0.52595603466033936 0.41953873634338379 0.59294295310974121
0.69940567016601562 0.42223134636878967 0.59984278678894043
0.82647985219955444 0.43500840663909912 0.61203134059906006
0.90358692407608032 0.41604587435722351 0.59076046943664551
0.016730977222323418 0.4441949725151062 0.54587322473526001
0.084926202893257141 0.46985825896263123 0.57594627141952515
0.30776956677436829 0.51372021436691284 0.60273867845535278
0.54210025072097778 0.55138677358627319 0.62299537658691406
0.73371481895446777 0.56875157356262207 0.63089364767074585
0.85702067613601685 0.57080894708633423 0.6423991322517395
0.94299477338790894 0.56322234869003296 0.63400644063949585
0.017132313922047615 0.54450297355651855 0.58380794525146484
0.053740616887807846 0.58823245763778687 0.59870469570159912
0.30780011415481567 0.63316828012466431 0.62841635942459106
0.56202620267868042 0.66794931888580322 0.65398228168487549
0.73633301258087158 0.6841660737991333 0.65794968605041504
0.86583399772644043 0.68338704109191895 0.65195608139038086
0.93468779325485229 0.69258266687393188 0.64246422052383423
0.043262556195259094 0.62343728542327881 0.60336184501647949
0.14185741543769836 0.67461311817169189 0.61762094497680664
0.3551659882068634 0.70548516511917114 0.63473010063171387
0.53958421945571899 0.75431692600250244 0.66557580232620239
0.73803353309631348 0.77207612991333008 0.66153496503829956
0.85421442985534668 0.7938646674156189 0.6578747034072876
0.93369555473327637 0.79371833801269531 0.6476818323135376
0.062969446182250977 0.69167524576187134 0.61497920751571655
0.176071897149086 0.72671753168106079 0.62504804134368896
0.38521608710289001 0.77043658494949341 0.66893559694290161
0.55147814750671387 0.81072968244552612 0.68034225702285767
0.74255484342575073 0.82313156127929688 0.67937374114990234
0.87387222051620483 0.86727255582809448 0.68348151445388794
0.96169710159301758 0.88855725526809692 0.66846644878387451
0.093378327786922455 0.10789730399847031 0.50747841596603394
0.16380192339420319 0.14777852594852448 0.50747013092041016
0.31851804256439209 0.18204969167709351 0.55976295471191406
0.46501779556274414 0.21825999021530151 0.61190509796142578
0.63974320888519287 0.25232106447219849 0.63776040077209473
0.76097804307937622 0.22499223053455353 0.64122855663299561
0.85850447416305542 0.18924462795257568 0.63870227336883545
0.096584886312484741 0.22956885397434235 0.53957360982894897
0.16623289883136749 0.24458815157413483 0.5468219518661499
0.33179482817649841 0.27616366744041443 0.58182996511459351
0.49152785539627075 0.30344012379646301 0.62622940540313721
0.6472281813621521 0.33814603090286255 0.66080659627914429
0.7764706015586853 0.33080941438674927 0.65030264854431152
0.90269201993942261 0.28579023480415344 0.67016583681106567
0.062980026006698608 0.34166818857192993 0.57747566699981689
0.14971201121807098 0.36318579316139221 0.60141605138778687
0.34353199601173401 0.39675375819206238 0.64619189500808716
0.53250938653945923 0.42700758576393127 0.67136257886886597
0.68723362684249878 0.4420209527015686 0.70923346281051636
0.79243558645248413 0.44054964184761047 0.67690438032150269
0.89131802320480347 0.42750939726829529 0.67530232667922974
0.017723172903060913 0.45058181881904602 0.60544300079345703
0.10031966865062714 0.48250550031661987 0.63789242506027222
0.31854277849197388 0.53120386600494385 0.68837583065032959
0.5374140739440918 0.56328302621841431 0.71472954750061035
0.71272027492523193 0.57279366254806519 0.72743040323257446
0.84134066104888916 0.58651638031005859 0.72116994857788086
0.92576092481613159 0.5773695707321167 0.70959746837615967
0.013072279281914234 0.56109392642974854 0.66356956958770752
0.05089506134390831 0.59931051731109619 0.68240231275558472
0.28938212990760803 0.64238280057907104 0.70209270715713501
0.5517464280128479 0.67555153369903564 0.72241306304931641
0.72855812311172485 0.69268178939819336 0.7307668924331665
0.86185717582702637 0.70179051160812378 0.74047756195068359
0.93940883874893188 0.69833427667617798 0.74472296237945557
0.014807547442615032 0.64427715539932251 0.69588011503219604
0.074695795774459839 0.68068552017211914 0.69753491878509521
0.33259075880050659 0.71573644876480103 0.72333335876464844
0.56217855215072632 0.75536483526229858 0.75064504146575928
0.73718297481536865 0.78518033027648926 0.76618856191635132
0.86789566278457642 0.7917516827583313 0.74974936246871948
0.92924541234970093 0.79814451932907104 0.74671089649200439
0.026498623192310333 0.71054482460021973 0.71451139450073242
0.13488568365573883 0.74060285091400146 0.7227475643157959
0.36656612157821655 0.77670085430145264 0.73692494630813599
0.54007196426391602 0.81380867958068848 0.76151210069656372
0.73047089576721191 0.85297054052352905 0.78373038768768311
0.876242995262146 0.87792104482650757 0.77742522954940796
0.96182703971862793 0.89947789907455444 0.75223714113235474
0.090737029910087585 0.11274834722280502 0.5982738733291626
0.19272184371948242 0.15396100282669067 0.60632479190826416
0.32918426394462585 0.18505193293094635 0.6418226957321167
0.46962848305702209 0.22698156535625458 0.6855323314666748
0.63601088523864746 0.2667824923992157 0.72968322038650513
0.77119624614715576 0.25717815756797791 0.73557412624359131
0.89293533563613892 0.21919216215610504 0.73270267248153687
0.13188596069812775 0.23503492772579193 0.62442880868911743
0.18530689179897308 0.24062329530715942 0.63983035087585449
0.34424957633018494 0.28156164288520813 0.66410738229751587
0.48507165908813477 0.32929405570030212 0.70657938718795776
0.64358490705490112 0.35173860192298889 0.73236298561096191
0.78104972839355469 0.35062062740325928 0.73568850755691528
0.89749431610107422 0.3323376476764679 0.72055751085281372
0.086815297603607178 0.35111287236213684 0.6262018084526062
0.15032847225666046 0.35794469714164734 0.65110296010971069
0.35758319497108459 0.39945140480995178 0.70880752801895142
0.51029711961746216 0.44446581602096558 0.75589096546173096
0.66618216037750244 0.4599338173866272 0.73758327960968018
0.79896664619445801 0.46191048622131348 0.75059735774993896
0.90207892656326294 0.45432153344154358 0.73545163869857788
0.033790141344070435 0.47234940528869629 0.67088901996612549
0.11365366727113724 0.48611065745353699 0.69172650575637817
0.32177668809890747 0.53233838081359863 0.73802149295806885
0.5169333815574646 0.56920188665390015 0.75877422094345093
0.70531857013702393 0.57632583379745483 0.78413534164428711
0.86033523082733154 0.58577626943588257 0.797768235206604
0.92225146293640137 0.58926379680633545 0.78296267986297607
0.010932458564639091 0.58261549472808838 0.73241811990737915
0.075935974717140198 0.61321884393692017 0.76324313879013062
0.28459012508392334 0.6563643217086792 0.78109467029571533
0.53623718023300171 0.68246191740036011 0.79333901405334473
0.72037327289581299 0.69635158777236938 0.81292814016342163
0.85622000694274902 0.71481692790985107 0.82688421010971069
0.94870251417160034 0.70996707677841187 0.82180696725845337
0.012153984978795052 0.66882783174514771 0.74666231870651245
0.07897581160068512 0.7020990252494812 0.77829253673553467
0.33177560567855835 0.73663771152496338 0.80768853425979614
0.54477769136428833 0.77265840768814087 0.80929827690124512
0.73391175270080566 0.80115878582000732 0.81686830520629883
0.86977612972259521 0.79873865842819214 0.83172875642776489
0.95461666584014893 0.80138516426086426 0.84221714735031128
0.017808157950639725 0.75085997581481934 0.78785049915313721
0.1294819712638855 0.75371032953262329 0.78267556428909302
0.39655211567878723 0.80391544103622437 0.82081586122512817
0.57573062181472778 0.84617006778717041 0.8258281946182251
0.74108260869979858 0.87244784832000732 0.84033083915710449
0.87033760547637939 0.88497042655944824 0.84937471151351929
0.96380418539047241 0.89700216054916382 0.85721629858016968
