assets/lut/pixlsus street.cube
# Created by: G'MIC (https://gmic.eu)
TITLE "street"
# LUT size
LUT_3D_SIZE 5
# Data domain
DOMAIN_MIN 0.0 0.0 0.0
DOMAIN_MAX 1.0 1.0 1.0
# LUT data points
0.02587565965950489 0.026892179623246193 0.024570735171437263
0.2244686484336853 0.033521287143230438 0.0060237809084355831
0.47062516212463379 0.11056699603796005 0.035674165934324265
0.7118108868598938 0.20908965170383453 0.05666249617934227
0.92283833026885986 0.26310551166534424 0.05213513970375061
0.13117912411689758 0.25550353527069092 0.16329802572727203
0.27187752723693848 0.24629829823970795 0.12726247310638428
0.50153946876525879 0.25041130185127258 0.077465876936912537
0.7181854248046875 0.24660535156726837 0.047379586845636368
0.90901970863342285 0.25098878145217896 0.047997120767831802
0.2247195690870285 0.50677764415740967 0.31079131364822388
0.3634316623210907 0.51021707057952881 0.28940215706825256
0.55979073047637939 0.50593912601470947 0.24669887125492096
0.75555145740509033 0.49323433637619019 0.18576127290725708
0.93344634771347046 0.41733428835868835 0.1114795133471489
0.37610337138175964 0.73997366428375244 0.47210931777954102
0.47519952058792114 0.74141669273376465 0.45879220962524414
0.62707757949829102 0.74109184741973877 0.44426617026329041
0.79900431632995605 0.74208372831344604 0.41965362429618835
0.95499366521835327 0.72011494636535645 0.35792094469070435
0.4948371946811676 0.95549947023391724 0.63323014974594116
0.57194286584854126 0.96115410327911377 0.61904805898666382
0.69170355796813965 0.96474707126617432 0.61061376333236694
0.84213012456893921 0.96519607305526733 0.59253227710723877
0.99629026651382446 0.95503926277160645 0.56345415115356445
0.044582098722457886 0.068440333008766174 0.18933045864105225
0.21402715146541595 0.053052309900522232 0.15765558183193207
0.45466509461402893 0.11851776391267776 0.18128463625907898
0.69797956943511963 0.18871398270130157 0.18761755526065826
0.90922725200653076 0.23268809914588928 0.17165118455886841
0.11264944821596146 0.27581143379211426 0.29540416598320007
0.26038151979446411 0.25965699553489685 0.25432673096656799
0.48184928297996521 0.26017895340919495 0.21885882318019867
0.71066808700561523 0.25894883275032043 0.19587373733520508
0.89897984266281128 0.24563024938106537 0.15735703706741333
0.19670946896076202 0.50991255044937134 0.41969987750053406
0.34178373217582703 0.50926500558853149 0.40131482481956482
0.53832805156707764 0.50254154205322266 0.35691970586776733
0.73626816272735596 0.48152947425842285 0.28478404879570007
0.91086018085479736 0.41258120536804199 0.22421681880950928
0.34720689058303833 0.73805099725723267 0.55405223369598389
0.44747993350028992 0.73686569929122925 0.54004549980163574
0.6107826828956604 0.73733031749725342 0.51911300420761108
0.79243665933609009 0.74127829074859619 0.48501574993133545
0.94936162233352661 0.7131955623626709 0.43208208680152893
0.46235752105712891 0.95236086845397949 0.69223159551620483
0.53082650899887085 0.95737957954406738 0.67626160383224487
0.66750091314315796 0.96020472049713135 0.67031967639923096
0.83772140741348267 0.9610106348991394 0.65367799997329712
0.98980426788330078 0.952808678150177 0.61013787984848022
0.11732321232557297 0.13920307159423828 0.45205786824226379
0.26158082485198975 0.13433313369750977 0.43002784252166748
0.47268468141555786 0.13456450402736664 0.43096274137496948
0.7063252329826355 0.15860912203788757 0.43151655793190002
0.92624413967132568 0.18780297040939331 0.42187222838401794
0.10159788280725479 0.31226953864097595 0.48673585057258606
0.269907146692276 0.29508331418037415 0.47048458456993103
0.47368183732032776 0.25829744338989258 0.4425584077835083
0.69768691062927246 0.25611111521720886 0.43584537506103516
0.9125935435295105 0.266447514295578 0.42397204041481018
0.13350754976272583 0.50918155908584595 0.55305671691894531
0.31822752952575684 0.52412170171737671 0.55082482099533081
0.52055233716964722 0.51463925838470459 0.51592564582824707
0.71835434436798096 0.48880282044410706 0.47185873985290527
0.91668856143951416 0.4445052444934845 0.43921241164207458
0.25778365135192871 0.73002785444259644 0.63641804456710815
0.377524733543396 0.73218297958374023 0.62690824270248413
0.56725502014160156 0.73986959457397461 0.61054319143295288
0.7620435357093811 0.73715484142303467 0.57608503103256226
0.95197546482086182 0.71038544178009033 0.53628182411193848
0.3731614351272583 0.9533805251121521 0.73850840330123901
0.43516522645950317 0.95735293626785278 0.72248172760009766
0.60479694604873657 0.96070295572280884 0.71939241886138916
0.79664367437362671 0.95918834209442139 0.70431852340698242
0.97720903158187866 0.95939213037490845 0.66493231058120728
0.18303406238555908 0.19783389568328857 0.65885359048843384
0.29601025581359863 0.20168079435825348 0.63863343000411987
0.49436250329017639 0.19017051160335541 0.63626080751419067
0.69437628984451294 0.1840042769908905 0.61465883255004883
0.89703840017318726 0.19566148519515991 0.61554622650146484
0.12551127374172211 0.35292574763298035 0.6912912130355835
0.2782314121723175 0.34106025099754333 0.67361682653427124
0.49232339859008789 0.31741040945053101 0.66129773855209351
0.70659923553466797 0.28300487995147705 0.64889657497406006
0.89796489477157593 0.27681437134742737 0.6218942403793335
0.10547103732824326 0.52126008272171021 0.7239193320274353
0.29269668459892273 0.52846729755401611 0.72217869758605957
0.49863734841346741 0.50902062654495239 0.69773846864700317
0.71145939826965332 0.48654121160507202 0.67695838212966919
0.91124075651168823 0.45757648348808289 0.64110720157623291
0.28374409675598145 0.72061699628829956 0.78628116846084595
0.38813507556915283 0.72463846206665039 0.77976065874099731
0.55845808982849121 0.73082840442657471 0.75879198312759399
0.73635798692703247 0.72864639759063721 0.7216913104057312
0.93243163824081421 0.7099108099937439 0.68687480688095093
0.3851313591003418 0.94507861137390137 0.87758171558380127
0.45105478167533875 0.94785231351852417 0.86629867553710938
0.60350531339645386 0.95227622985839844 0.85470271110534668
0.77904117107391357 0.95825058221817017 0.82583045959472656
0.96951746940612793 0.95362162590026855 0.80261588096618652
0.24257874488830566 0.26306071877479553 0.79051172733306885
0.32398855686187744 0.26444634795188904 0.76682204008102417
0.48454225063323975 0.2615821361541748 0.74421697854995728
0.67339742183685303 0.24779972434043884 0.71868044137954712
0.83577847480773926 0.26813498139381409 0.69348543882369995
0.17735034227371216 0.40358203649520874 0.84046614170074463
0.30100691318511963 0.40374702215194702 0.83010232448577881
0.4941965639591217 0.38955551385879517 0.8063809871673584
0.69307667016983032 0.34317123889923096 0.76701480150222778
0.85433238744735718 0.30099734663963318 0.71712571382522583
0.15557625889778137 0.57317084074020386 0.89305686950683594
0.30397859215736389 0.5736204981803894 0.88656169176101685
0.505950927734375 0.56305700540542603 0.86295759677886963
0.71137934923171997 0.54301255941390991 0.84019798040390015
0.88743734359741211 0.4877316951751709 0.79435110092163086
0.30094748735427856 0.7300107479095459 0.93357473611831665
0.40450599789619446 0.73398971557617188 0.92707866430282593
0.55089497566223145 0.73625808954238892 0.90834540128707886
0.72485917806625366 0.73608428239822388 0.88759422302246094
0.90713006258010864 0.71262747049331665 0.85119074583053589
0.44552737474441528 0.92683953046798706 0.99080753326416016
0.52415192127227783 0.9303479790687561 0.9973410964012146
0.62325054407119751 0.93552869558334351 0.99239826202392578
0.76964396238327026 0.9439273476600647 0.97646176815032959
0.9442826509475708 0.94404357671737671 0.9451485276222229
