assets/lut/pixlsus faded print.cube
# Created by: G'MIC (https://gmic.eu)
TITLE "faded_print"
# LUT size
LUT_3D_SIZE 7
# Data domain
DOMAIN_MIN 0.0 0.0 0.0
DOMAIN_MAX 1.0 1.0 1.0
# LUT data points
0.15779986977577209 0.010977277532219887 0.096720166504383087
0.34388294816017151 0 0.0030220032203942537
0.42898184061050415 0 0.00013786765339318663
0.52111649513244629 0.0027399100363254547 0.00073548860382288694
0.62539315223693848 0.048835471272468567 0.034040279686450958
0.72723060846328735 0.12204966694116592 0.091610744595527649
0.8274616003036499 0.21747873723506927 0.14132976531982422
0.097445048391819 0.18834468722343445 0.021934913471341133
0.3424936830997467 0.11291590332984924 0.0049271676689386368
0.46245852112770081 0.082245692610740662 0.0036835165228694677
0.54131156206130981 0.12336704134941101 0.0019323162268847227
0.63445812463760376 0.17494244873523712 0.045157771557569504
0.73137158155441284 0.24091142416000366 0.091872915625572205
0.82824838161468506 0.32027685642242432 0.13711099326610565
0.10276375710964203 0.33980017900466919 0.031604543328285217
0.29263204336166382 0.32501819729804993 0.014361587353050709
0.46359729766845703 0.29889142513275146 0.009632783941924572
0.55963826179504395 0.30983659625053406 0.024459538981318474
0.64877831935882568 0.33653882145881653 0.067199572920799255
0.74138158559799194 0.37761741876602173 0.10931680351495743
0.83239352703094482 0.43573027849197388 0.14106246829032898
0.10406827926635742 0.49180728197097778 0.044213224202394485
0.26074078679084778 0.49161157011985779 0.049262836575508118
0.41207340359687805 0.4830259382724762 0.0434226393699646
0.55999821424484253 0.47722148895263672 0.045567996799945831
0.67081493139266968 0.49068728089332581 0.085416726768016815
0.76205843687057495 0.51810991764068604 0.11985521763563156
0.84620571136474609 0.56115394830703735 0.1504979282617569
0.15360794961452484 0.64090341329574585 0.098106428980827332
0.27655491232872009 0.64231961965560913 0.096920788288116455
0.41033241152763367 0.63951432704925537 0.091268591582775116
0.55499184131622314 0.63676470518112183 0.098167911171913147
0.68410557508468628 0.64143168926239014 0.12476219981908798
0.78098100423812866 0.66053098440170288 0.16547556221485138
0.86518770456314087 0.69395333528518677 0.21417994797229767
0.24207504093647003 0.78623718023300171 0.20266677439212799
0.3248785138130188 0.7873917818069458 0.19368816912174225
0.43021824955940247 0.78720217943191528 0.18495336174964905
0.55536460876464844 0.7872549295425415 0.19975665211677551
0.68147069215774536 0.79248160123825073 0.22829198837280273
0.79003322124481201 0.80566263198852539 0.27015995979309082
0.88570135831832886 0.82876807451248169 0.32299759984016418
0.33952465653419495 0.93170958757400513 0.32752937078475952
0.37869441509246826 0.93329811096191406 0.32681566476821899
0.45241963863372803 0.93541878461837769 0.32749760150909424
0.56069451570510864 0.93835830688476562 0.34555119276046753
0.68195158243179321 0.94314885139465332 0.36950454115867615
0.79959118366241455 0.95133465528488159 0.40197575092315674
0.91155016422271729 0.9648444652557373 0.43301618099212646
0.098769307136535645 0 0.32454454898834229
0.31651651859283447 0.00019220091053284705 0.22369545698165894
0.42932191491127014 0 0.13568337261676788
0.52291494607925415 0.00095030840020626783 0.11307724565267563
0.62709963321685791 0.052951425313949585 0.10477755963802338
0.72981029748916626 0.13249479234218597 0.13068440556526184
0.83019429445266724 0.22203020751476288 0.16220040619373322
0.10562838613986969 0.16670955717563629 0.30498793721199036
0.333147794008255 0.1165674701333046 0.24453394114971161
0.462574303150177 0.086350232362747192 0.17211075127124786
0.54280352592468262 0.12072420120239258 0.12386675179004669
0.63705801963806152 0.18032096326351166 0.11786612868309021
0.73403775691986084 0.24827234447002411 0.13234445452690125
0.82855391502380371 0.32507845759391785 0.16348618268966675
0.09571133553981781 0.33973070979118347 0.21332567930221558
0.29213753342628479 0.32300248742103577 0.20308429002761841
0.46529605984687805 0.29649049043655396 0.17699559032917023
0.55986648797988892 0.30900606513023376 0.14744630455970764
0.65446054935455322 0.33768850564956665 0.15170879662036896
0.74460631608963013 0.38124829530715942 0.15591020882129669
0.83117830753326416 0.43914523720741272 0.16760964691638947
0.094107024371623993 0.49411764740943909 0.16335733234882355
0.25781482458114624 0.4932970404624939 0.17563933134078979
0.41512709856033325 0.4835529625415802 0.16833387315273285
0.55462872982025146 0.47805255651473999 0.1595161110162735
0.67254585027694702 0.48961979150772095 0.16573213040828705
0.76454108953475952 0.51866859197616577 0.16515572369098663
0.84344375133514404 0.56252646446228027 0.16430212557315826
0.14419229328632355 0.64244091510772705 0.18641263246536255
0.27077740430831909 0.64371156692504883 0.18254309892654419
0.4091532826423645 0.64081698656082153 0.17178697884082794
0.55254071950912476 0.63676470518112183 0.17069102823734283
0.68610131740570068 0.64078307151794434 0.17524543404579163
0.78659522533416748 0.66006886959075928 0.19244132936000824
0.8658219575881958 0.69411766529083252 0.22254842519760132
0.23260487616062164 0.78808683156967163 0.24577012658119202
0.31396585702896118 0.78871476650238037 0.23537126183509827
0.42724919319152832 0.78735733032226562 0.21246615052223206
0.55459296703338623 0.78780180215835571 0.22444345057010651
0.68462103605270386 0.79301822185516357 0.24546124041080475
0.79735004901885986 0.80605792999267578 0.27398991584777832
0.88953053951263428 0.82966959476470947 0.31796607375144958
0.32549396157264709 0.93363445997238159 0.3261408805847168
0.35287678241729736 0.93492275476455688 0.33672910928726196
0.43565025925636292 0.93683940172195435 0.32816717028617859
0.5551261305809021 0.93990552425384521 0.33307373523712158
0.68045413494110107 0.94528067111968994 0.36181226372718811
0.79962325096130371 0.95459884405136108 0.39973586797714233
0.91039222478866577 0.96796184778213501 0.42533916234970093
0.07924816757440567 1.8669577912078239e-05 0.41404047608375549
0.25883573293685913 0 0.37723422050476074
0.40704280138015747 0.0012581320479512215 0.32711896300315857
0.52425956726074219 0.007724342867732048 0.29491877555847168
0.63040733337402344 0.052441257983446121 0.27936238050460815
0.73338836431503296 0.12838724255561829 0.27028700709342957
0.83265501260757446 0.21427775919437408 0.26865604519844055
0.11049551516771317 0.14531640708446503 0.44687181711196899
0.28680264949798584 0.11282085627317429 0.41333717107772827
0.43844041228294373 0.10650881379842758 0.36360654234886169
0.54515832662582397 0.13706324994564056 0.3155219554901123
0.64267575740814209 0.18279492855072021 0.28750985860824585
0.73790580034255981 0.24813762307167053 0.27064675092697144
0.83098483085632324 0.32304090261459351 0.27101114392280579
0.097152784466743469 0.33241266012191772 0.41525667905807495
0.28054845333099365 0.31763088703155518 0.39864072203636169
0.44983801245689392 0.29706594347953796 0.36977079510688782
0.55818545818328857 0.31058943271636963 0.32649269700050354
0.65810436010360718 0.33747211098670959 0.3070073127746582
0.74790745973587036 0.38236981630325317 0.2853483259677887
0.83331179618835449 0.439829021692276 0.279867023229599
0.090961426496505737 0.4940040111541748 0.34790366888046265
0.25397798418998718 0.49066072702407837 0.34831759333610535
0.41242432594299316 0.48416605591773987 0.34285211563110352
0.55742770433425903 0.47698035836219788 0.32817906141281128
0.67348545789718628 0.48842671513557434 0.31727927923202515
0.76644009351730347 0.51988393068313599 0.29593321681022644
0.84572219848632812 0.5653764009475708 0.28556615114212036
0.14421232044696808 0.64268136024475098 0.33681976795196533
0.2708427906036377 0.64436274766921997 0.33372688293457031
0.41007602214813232 0.64228874444961548 0.33773234486579895
0.5517585277557373 0.6392441987991333 0.32179343700408936
0.68477249145507812 0.64217442274093628 0.31725114583969116
0.78907042741775513 0.66181820631027222 0.31529295444488525
0.87031358480453491 0.69623982906341553 0.31602874398231506
0.23707385361194611 0.78920042514801025 0.33429300785064697
0.32105231285095215 0.79024332761764526 0.33754074573516846
0.43001356720924377 0.79027873277664185 0.33279123902320862
0.55685460567474365 0.79114812612533569 0.32615527510643005
0.68814623355865479 0.79492884874343872 0.33776575326919556
0.80574244260787964 0.80655026435852051 0.34691581130027771
0.89799076318740845 0.83054959774017334 0.36275526881217957
0.34092628955841064 0.93541449308395386 0.35214072465896606
0.37655216455459595 0.93654674291610718 0.37172600626945496
0.45101383328437805 0.938140869140625 0.37116742134094238
0.56213510036468506 0.94150882959365845 0.36489975452423096
0.68719518184661865 0.94582635164260864 0.38952577114105225
0.80965960025787354 0.95384329557418823 0.41485333442687988
0.91614812612533569 0.96900874376296997 0.4416312575340271
0.075757883489131927 0.0077818180434405804 0.48876222968101501
0.22761264443397522 0.010204494930803776 0.47500127553939819
0.37454825639724731 0.030561394989490509 0.46239545941352844
0.51380819082260132 0.038625530898571014 0.44681549072265625
0.6331905722618103 0.067469514906406403 0.43424186110496521
0.73753100633621216 0.12977892160415649 0.42094749212265015
0.83616429567337036 0.20896600186824799 0.40679237246513367
0.097602486610412598 0.16351856291294098 0.51083511114120483
0.24544602632522583 0.15337651968002319 0.49898681044578552
0.39942073822021484 0.15097834169864655 0.4878709614276886
0.53739899396896362 0.15656155347824097 0.46936321258544922
0.64640539884567261 0.1881738156080246 0.44222113490104675
0.74114251136779785 0.25037258863449097 0.41862118244171143
0.83370506763458252 0.32147166132926941 0.40752914547920227
0.093056760728359222 0.33701950311660767 0.5170474648475647
0.25248575210571289 0.33127135038375854 0.51115089654922485
0.40946894884109497 0.31933650374412537 0.50225245952606201
0.54911237955093384 0.31561467051506042 0.4817231297492981
0.65659981966018677 0.3406493067741394 0.44974061846733093
0.74935048818588257 0.38568773865699768 0.4274609386920929
0.83575701713562012 0.44227159023284912 0.41737431287765503
0.097866639494895935 0.49019607901573181 0.49580591917037964
0.2513425350189209 0.49016141891479492 0.49449184536933899
0.40579709410667419 0.48771673440933228 0.49800512194633484
0.55426490306854248 0.48076534271240234 0.48514324426651001
0.67418909072875977 0.49191373586654663 0.46245795488357544
0.76745724678039551 0.52274972200393677 0.44285392761230469
0.84783816337585449 0.56829988956451416 0.42860373854637146
0.14660704135894775 0.64252066612243652 0.47761145234107971
0.27381736040115356 0.64458543062210083 0.48257744312286377
0.41235271096229553 0.64460784196853638 0.48815658688545227
0.55461674928665161 0.6417771577835083 0.47939640283584595
0.68637198209762573 0.64549213647842407 0.47627162933349609
0.78872275352478027 0.66504561901092529 0.46702873706817627
0.87068861722946167 0.69974398612976074 0.44797411561012268
0.23572319746017456 0.78982001543045044 0.46034497022628784
0.32736974954605103 0.79179412126541138 0.46814274787902832
0.43632784485816956 0.79306709766387939 0.46944493055343628
0.56082379817962646 0.79467570781707764 0.46320262551307678
0.68982857465744019 0.79751694202423096 0.47425934672355652
0.80448347330093384 0.80979633331298828 0.48181784152984619
0.89650952816009521 0.83381277322769165 0.47265598177909851
0.3414866030216217 0.93582838773727417 0.45232641696929932
0.39530721306800842 0.9374079704284668 0.46524634957313538
0.47082117199897766 0.93981564044952393 0.46755179762840271
0.57479512691497803 0.9428863525390625 0.46189704537391663
0.6943049430847168 0.94693976640701294 0.47964447736740112
0.81128215789794922 0.95500880479812622 0.49987262487411499
0.91542285680770874 0.97018492221832275 0.51669961214065552
0.087631747126579285 0.048504337668418884 0.5604097843170166
0.22632166743278503 0.059578403830528259 0.55546021461486816
0.36374911665916443 0.071793213486671448 0.55658209323883057
0.50253140926361084 0.074963904917240143 0.55890059471130371
0.63088512420654297 0.091736361384391785 0.55771607160568237
0.74050223827362061 0.1444530189037323 0.54651081562042236
0.84145796298980713 0.21442553400993347 0.53376978635787964
0.099993430078029633 0.19087252020835876 0.57493031024932861
0.2374708354473114 0.19453684985637665 0.57207584381103516
0.37556439638137817 0.19520342350006104 0.57382875680923462
0.51581233739852905 0.18913464248180389 0.57548850774765015
0.64627176523208618 0.19562333822250366 0.57147258520126343
0.74667608737945557 0.25574207305908203 0.5496591329574585
0.83855354785919189 0.3288390040397644 0.53009730577468872
0.10584652423858643 0.34639409184455872 0.58957237005233765
0.24998258054256439 0.34588360786437988 0.59077918529510498
0.38494357466697693 0.34538748860359192 0.58910465240478516
0.52225667238235474 0.34154045581817627 0.58493399620056152
0.6515582799911499 0.34771794080734253 0.57562941312789917
0.75497019290924072 0.38759973645210266 0.55776530504226685
0.84123927354812622 0.44835743308067322 0.53506338596343994
0.12283066660165787 0.49487730860710144 0.60589152574539185
0.26085352897644043 0.49487915635108948 0.60551303625106812
0.39847943186759949 0.49684566259384155 0.60464394092559814
0.54009848833084106 0.49493953585624695 0.60171866416931152
0.67101532220840454 0.49852073192596436 0.59405308961868286
0.77125191688537598 0.52396100759506226 0.57357180118560791
0.8529433012008667 0.56886774301528931 0.54727482795715332
0.15373459458351135 0.64393389225006104 0.61105489730834961
0.2786690890789032 0.64507335424423218 0.61102092266082764
0.4137054979801178 0.64752507209777832 0.60962957143783569
0.55344909429550171 0.64648610353469849 0.60766434669494629
0.68832439184188843 0.64784026145935059 0.61290442943572998
0.78897279500961304 0.66758674383163452 0.59012240171432495
0.87176263332366943 0.70194929838180542 0.56415528059005737
0.22619360685348511 0.79071235656738281 0.60076302289962769
0.32535246014595032 0.79279798269271851 0.60399144887924194
0.43956810235977173 0.79503726959228516 0.60196375846862793
0.56500893831253052 0.79669404029846191 0.60015332698822021
0.69337105751037598 0.79970604181289673 0.60879945755004883
0.80506879091262817 0.81235998868942261 0.60631442070007324
0.89532560110092163 0.83693510293960571 0.58881932497024536
0.33216372132301331 0.93613171577453613 0.58889806270599365
0.39551544189453125 0.9382551908493042 0.59430122375488281
0.47783514857292175 0.94066387414932251 0.59555792808532715
0.58424246311187744 0.94417053461074829 0.59520238637924194
0.69955980777740479 0.94941556453704834 0.60260844230651855
0.81079494953155518 0.95797401666641235 0.61115896701812744
0.91431736946105957 0.9719315767288208 0.61789959669113159
0.10955635458230972 0.1105501651763916 0.62796604633331299
0.23707062005996704 0.11577386409044266 0.62536883354187012
0.36074480414390564 0.12265467643737793 0.63042622804641724
0.48860958218574524 0.12828625738620758 0.64002591371536255
0.61677670478820801 0.14315120875835419 0.64928364753723145
0.73635327816009521 0.17855337262153625 0.65205603837966919
0.84679323434829712 0.22991658747196198 0.65082085132598877
0.11769856512546539 0.23210544884204865 0.6384274959564209
0.24347257614135742 0.23519568145275116 0.63638675212860107
0.3649667501449585 0.23860585689544678 0.63991159200668335
0.49128237366676331 0.23999951779842377 0.64760547876358032
0.62269777059555054 0.24837382137775421 0.65707319974899292
0.74105596542358398 0.28471207618713379 0.65642464160919189
0.84480226039886475 0.34066501259803772 0.64680927991867065
0.12256155908107758 0.36834484338760376 0.65434783697128296
0.24990211427211761 0.36940106749534607 0.65277099609375
0.37164506316184998 0.37242618203163147 0.65316414833068848
0.49614810943603516 0.37513533234596252 0.6560700535774231
0.62968295812606812 0.3782278299331665 0.66557151079177856
0.75243347883224487 0.40221917629241943 0.66972869634628296
0.85016500949859619 0.45371115207672119 0.65376037359237671
0.13270804286003113 0.50746053457260132 0.67548191547393799
0.26031425595283508 0.50821161270141602 0.67338550090789795
0.38628542423248291 0.51184725761413574 0.67339187860488892
0.51492750644683838 0.51409035921096802 0.67559993267059326
0.6472967267036438 0.51647144556045532 0.68352770805358887
0.76917749643325806 0.53013843297958374 0.68718725442886353
0.86210173368453979 0.57104724645614624 0.66683995723724365
0.15514270961284637 0.64991730451583862 0.69714915752410889
0.27717655897140503 0.65128368139266968 0.69602733850479126
0.40496477484703064 0.65469509363174438 0.69552761316299438
0.53671228885650635 0.65729624032974243 0.69738984107971191
0.66701322793960571 0.66112625598907471 0.70511478185653687
0.78818517923355103 0.67104518413543701 0.70510685443878174
0.87636071443557739 0.70467507839202881 0.67830032110214233
0.22539991140365601 0.79408353567123413 0.70898783206939697
0.32004830241203308 0.7962343692779541 0.71277803182601929
0.43197792768478394 0.79926192760467529 0.71198952198028564
0.56104618310928345 0.80255967378616333 0.71415919065475464
0.68641501665115356 0.80805027484893799 0.71916276216506958
0.80806756019592285 0.8154609203338623 0.72607135772705078
0.90023994445800781 0.83910959959030151 0.70463961362838745
0.33760061860084534 0.93854552507400513 0.71027874946594238
0.38796782493591309 0.94053316116333008 0.7147793173789978
0.46960943937301636 0.94355493783950806 0.7179102897644043
0.58542907238006592 0.94714879989624023 0.71984380483627319
0.69943177700042725 0.95403271913528442 0.71975702047348022
0.81000477075576782 0.96260768175125122 0.72201955318450928
0.91831403970718384 0.9714663028717041 0.72741544246673584
0.13267183303833008 0.17600907385349274 0.69450974464416504
0.24815145134925842 0.17532004415988922 0.69184726476669312
0.3600318431854248 0.17913730442523956 0.69728076457977295
0.4755556583404541 0.18933646380901337 0.70879733562469482
0.59976804256439209 0.2059943675994873 0.72503072023391724
0.72722631692886353 0.22465081512928009 0.74299365282058716
0.85064059495925903 0.25437450408935547 0.75923341512680054
0.13520875573158264 0.2830655574798584 0.69937777519226074
0.24944835901260376 0.28347209095954895 0.69546985626220703
0.35737365484237671 0.28670182824134827 0.69860970973968506
0.47023367881774902 0.29510509967803955 0.70801371335983276
0.59602081775665283 0.31124332547187805 0.72394704818725586
0.72522217035293579 0.32963916659355164 0.74131488800048828
0.84578841924667358 0.36164635419845581 0.75320565700531006
0.13682457804679871 0.40227800607681274 0.70932567119598389
0.25172072649002075 0.40273189544677734 0.70450383424758911
0.36030957102775574 0.40593060851097107 0.7065618634223938
0.47240325808525085 0.41167277097702026 0.71380674839019775
0.59855842590332031 0.42250519990921021 0.72817951440811157
0.72842562198638916 0.43920844793319702 0.74611437320709229
0.8477439284324646 0.47152259945869446 0.75671625137329102
0.14448253810405731 0.52958321571350098 0.72420018911361694
0.26203608512878418 0.52986270189285278 0.71959131956100464
0.37412479519844055 0.53454649448394775 0.72521257400512695
0.48943451046943665 0.54060417413711548 0.73278379440307617
0.61238795518875122 0.54805833101272583 0.74286109209060669
0.73955893516540527 0.55952662229537964 0.75826704502105713
0.8589593768119812 0.58556503057479858 0.77094954252243042
0.16559100151062012 0.66353565454483032 0.74651974439620972
0.27931687235832214 0.66449874639511108 0.74689096212387085
0.39338448643684387 0.66969400644302368 0.75517642498016357
0.51350569725036621 0.6759260892868042 0.76246029138565063
0.6361127495765686 0.68290865421295166 0.76912671327590942
0.76211106777191162 0.69039356708526611 0.78130984306335449
0.87782460451126099 0.71097797155380249 0.79008960723876953
0.23978689312934875 0.80290746688842773 0.77677798271179199
0.3160860538482666 0.80508643388748169 0.7819678783416748
0.41752797365188599 0.80932992696762085 0.78896880149841309
0.54367733001708984 0.81435710191726685 0.79563021659851074
0.66516411304473877 0.82175463438034058 0.79761242866516113
0.78531241416931152 0.82954537868499756 0.804526686668396
0.9024389386177063 0.8453182578086853 0.81226187944412231
0.36085617542266846 0.94549471139907837 0.80444705486297607
0.37797486782073975 0.94811582565307617 0.80788677930831909
0.45020559430122375 0.95113867521286011 0.81335926055908203
0.5741773247718811 0.95429575443267822 0.81885772943496704
0.69092792272567749 0.96032881736755371 0.81752526760101318
0.80564790964126587 0.96639657020568848 0.82265090942382812
0.92500859498977661 0.97619259357452393 0.83564585447311401
