assets/lut/pixlsus warm vintage.cube
# Created by: G'MIC (https://gmic.eu)
TITLE "warm_vintage"
# LUT size
LUT_3D_SIZE 7
# Data domain
DOMAIN_MIN 0.0 0.0 0.0
DOMAIN_MAX 1.0 1.0 1.0
# LUT data points
0.073510535061359406 0.070058055222034454 0.067882195115089417
0.16899734735488892 0.035020716488361359 0.040273241698741913
0.2766927182674408 0.032381035387516022 0.02972869947552681
0.4119378924369812 0.037375088781118393 0.032216764986515045
0.56797313690185547 0.038716588169336319 0.030199777334928513
0.71342349052429199 0.044616550207138062 0.031907070428133011
0.85976779460906982 0.045756127685308456 0.032274030148983002
0.054106589406728745 0.19542987644672394 0.047782164067029953
0.18317991495132446 0.18076832592487335 0.038594849407672882
0.24028009176254272 0.13465501368045807 0.027172807604074478
0.37678182125091553 0.13580609858036041 0.0252964086830616
0.54147261381149292 0.14893236756324768 0.027330001816153526
0.69305926561355591 0.16228094696998596 0.034676138311624527
0.83795273303985596 0.1713310182094574 0.039130669087171555
0.047506026923656464 0.29176238179206848 0.040218666195869446
0.17672133445739746 0.29247415065765381 0.036758825182914734
0.28764164447784424 0.28388312458992004 0.030888022854924202
0.38266709446907043 0.25870338082313538 0.02887440100312233
0.52063703536987305 0.26231738924980164 0.029172170907258987
0.67009079456329346 0.27522704005241394 0.033054158091545105
0.81803667545318604 0.29002159833908081 0.028705433011054993
0.050237290561199188 0.4160313606262207 0.035754617303609848
0.16595369577407837 0.41655495762825012 0.03544190526008606
0.2916826605796814 0.41485577821731567 0.032764837145805359
0.42092403769493103 0.41517424583435059 0.030392052605748177
0.54572045803070068 0.40627646446228027 0.028787305578589439
0.67368036508560181 0.41219669580459595 0.029243588447570801
0.80800974369049072 0.41793018579483032 0.030693158507347107
0.045708466321229935 0.57091259956359863 0.039653375744819641
0.17166389524936676 0.57388138771057129 0.04119669646024704
0.30044883489608765 0.57255780696868896 0.038977351039648056
0.43591037392616272 0.57053667306900024 0.038859453052282333
0.57525193691253662 0.56903308629989624 0.035338606685400009
0.69723504781723022 0.56596082448959351 0.032304607331752777
0.82612574100494385 0.57064855098724365 0.031702287495136261
0.073546528816223145 0.72157782316207886 0.041008219122886658
0.17818355560302734 0.7184823751449585 0.038935746997594833
0.3105921745300293 0.7209358811378479 0.044147416949272156
0.44756254553794861 0.72008061408996582 0.042381167411804199
0.59145236015319824 0.71848577260971069 0.042519677430391312
0.72573941946029663 0.72484886646270752 0.042723905295133591
0.84769511222839355 0.72064203023910522 0.033085603266954422
0.052581172436475754 0.8656926155090332 0.032484255731105804
0.17848718166351318 0.86912077665328979 0.030482333153486252
0.31661266088485718 0.86744344234466553 0.037540197372436523
0.45231282711029053 0.86908411979675293 0.029579581692814827
0.60209858417510986 0.86666357517242432 0.035463146865367889
0.73890000581741333 0.86792963743209839 0.029029622673988342
0.86654341220855713 0.86649203300476074 0.02907085046172142
0.056611109524965286 0.039017830044031143 0.19615755975246429
0.23526409268379211 0.044474657624959946 0.20481254160404205
0.43238657712936401 0.0553397536277771 0.23045587539672852
0.55086064338684082 0.058634426444768906 0.21001052856445312
0.66905945539474487 0.062948055565357208 0.18776296079158783
0.7948451042175293 0.09273470938205719 0.18259468674659729
0.92940235137939453 0.069204248487949371 0.17514246702194214
0.072166696190834045 0.24314497411251068 0.21228410303592682
0.26329350471496582 0.24270695447921753 0.19210892915725708
0.40103280544281006 0.23333325982093811 0.2068977952003479
0.5165284276008606 0.19998182356357574 0.18670943379402161
0.64559561014175415 0.18951661884784698 0.17433454096317291
0.77274554967880249 0.19164609909057617 0.17163316905498505
0.90872085094451904 0.19452528655529022 0.16955137252807617
0.076588965952396393 0.4486657977104187 0.24016778171062469
0.29210773110389709 0.4490915834903717 0.23271964490413666
0.45485243201255798 0.44536256790161133 0.23028557002544403
0.5254591703414917 0.37111923098564148 0.19551900029182434
0.63008952140808105 0.33305433392524719 0.1725432425737381
0.75206130743026733 0.32374843955039978 0.16984803974628448
0.88902682065963745 0.3291780948638916 0.167157381772995
0.08524215966463089 0.56364578008651733 0.2225872278213501
0.24084757268428802 0.56689298152923584 0.21604219079017639
0.41395559906959534 0.5643121600151062 0.2152722030878067
0.55794697999954224 0.55042600631713867 0.2043711394071579
0.65317374467849731 0.50277400016784668 0.18108980357646942
0.75491189956665039 0.46573528647422791 0.16987600922584534
0.8780941367149353 0.46331813931465149 0.16441820561885834
0.077350348234176636 0.68217146396636963 0.21703647077083588
0.22192251682281494 0.68843591213226318 0.21451801061630249
0.37327533960342407 0.68105047941207886 0.21166864037513733
0.54163378477096558 0.68133610486984253 0.21021440625190735
0.68081212043762207 0.67731815576553345 0.19606421887874603
0.78362572193145752 0.65112555027008057 0.18559670448303223
0.89448767900466919 0.63144505023956299 0.16877077519893646
0.086179547011852264 0.80707830190658569 0.19568474590778351
0.21621611714363098 0.81020539999008179 0.20421527326107025
0.3631337583065033 0.80736678838729858 0.20783258974552155
0.52879089117050171 0.80911564826965332 0.20986437797546387
0.67371213436126709 0.80176019668579102 0.19842344522476196
0.80544120073318481 0.81055378913879395 0.18333344161510468
0.91869473457336426 0.79476463794708252 0.17148193717002869
0.10446494817733765 0.93320101499557495 0.17654502391815186
0.20314875245094299 0.93755215406417847 0.17846889793872833
0.35006305575370789 0.93695449829101562 0.18053099513053894
0.51095306873321533 0.9359511137008667 0.18087306618690491
0.65946704149246216 0.92961180210113525 0.1821092963218689
0.80881732702255249 0.93452030420303345 0.17803670465946198
0.93724846839904785 0.9419550895690918 0.17221838235855103
0.068850137293338776 0.039161592721939087 0.33940494060516357
0.21619759500026703 0.041055388748645782 0.33344629406929016
0.38261845707893372 0.045431923121213913 0.3458121120929718
0.56476700305938721 0.060732420533895493 0.37004119157791138
0.75233185291290283 0.057108350098133087 0.38658624887466431
0.88009941577911377 0.073939166963100433 0.3757290244102478
0.97556811571121216 0.069815993309020996 0.34990924596786499
0.05829315260052681 0.1840621680021286 0.30460628867149353
0.21278277039527893 0.17956990003585815 0.27824446558952332
0.34986212849617004 0.18155865371227264 0.28187835216522217
0.53912997245788574 0.20423085987567902 0.32977810502052307
0.72217488288879395 0.22075986862182617 0.365317702293396
0.85713249444961548 0.22857840359210968 0.36780604720115662
0.97252964973449707 0.22159840166568756 0.35286906361579895
0.066025108098983765 0.37714695930480957 0.34269905090332031
0.24164552986621857 0.37218585610389709 0.3104856014251709
0.40075987577438354 0.37316018342971802 0.30846676230430603
0.54559952020645142 0.37554162740707397 0.32774144411087036
0.70884042978286743 0.38379308581352234 0.35894039273262024
0.83711105585098267 0.37732017040252686 0.36218154430389404
0.96186894178390503 0.37707117199897766 0.35224756598472595
0.08390343189239502 0.58098548650741577 0.37459680438041687
0.24659149348735809 0.58927720785140991 0.36431273818016052
0.4291737973690033 0.57843685150146484 0.3494102954864502
0.59229713678359985 0.57936638593673706 0.35424289107322693
0.73078316450119019 0.57793158292770386 0.37015408277511597
0.84203040599822998 0.54507005214691162 0.37013614177703857
0.94384765625 0.52109992504119873 0.35242646932601929
0.070347368717193604 0.76031816005706787 0.38866966962814331
0.24944473803043365 0.75561410188674927 0.38512536883354187
0.43169119954109192 0.76194995641708374 0.39265477657318115
0.61748623847961426 0.76318323612213135 0.38939964771270752
0.77301871776580811 0.77153301239013672 0.39127552509307861
0.86635380983352661 0.73781669139862061 0.3786734938621521
0.96147888898849487 0.69984644651412964 0.35494312644004822
0.081483356654644012 0.88637036085128784 0.3770773708820343
0.24434798955917358 0.88597339391708374 0.3820195198059082
0.41079998016357422 0.88932704925537109 0.39037153124809265
0.58241456747055054 0.88553398847579956 0.39239946007728577
0.76092898845672607 0.88899135589599609 0.38608193397521973
0.9003022313117981 0.90016812086105347 0.38126629590988159
0.98101389408111572 0.87069070339202881 0.35816764831542969
0.088657528162002563 0.97771984338760376 0.34860223531723022
0.22676959633827209 0.97894847393035889 0.35216447710990906
0.38175767660140991 0.97748291492462158 0.3584187924861908
0.54747462272644043 0.98780965805053711 0.36295813322067261
0.71733212471008301 0.98931342363357544 0.36308813095092773
0.87031799554824829 0.99073821306228638 0.36173138022422791
0.98620414733886719 0.99021679162979126 0.35502868890762329
0.051182825118303299 0.036308392882347107 0.47795945405960083
0.20786555111408234 0.041213825345039368 0.48027718067169189
0.35894793272018433 0.046896286308765411 0.47760599851608276
0.52415347099304199 0.043462760746479034 0.4943261444568634
0.71119481325149536 0.058708250522613525 0.51771467924118042
0.89426857233047485 0.067805960774421692 0.53612244129180908
0.99038451910018921 0.075474865734577179 0.5184817910194397
0.061248268932104111 0.1776021271944046 0.44534087181091309
0.19450579583644867 0.16596297919750214 0.41723701357841492
0.3383561372756958 0.16696436703205109 0.40801537036895752
0.48780146241188049 0.16950507462024689 0.42145881056785583
0.68331974744796753 0.19597180187702179 0.47389593720436096
0.87237012386322021 0.22211581468582153 0.51722031831741333
0.99080556631088257 0.23179903626441956 0.52210152149200439
0.048238836228847504 0.33137103915214539 0.44617092609405518
0.20011243224143982 0.32397866249084473 0.41383925080299377
0.35532271862030029 0.31399011611938477 0.38751134276390076
0.50388818979263306 0.31686180830001831 0.39950895309448242
0.68517160415649414 0.34678497910499573 0.45351734757423401
0.85678780078887939 0.37761861085891724 0.50449120998382568
0.98682010173797607 0.40568035840988159 0.53769254684448242
0.057268492877483368 0.53370869159698486 0.49434316158294678
0.21723034977912903 0.52625781297683716 0.45908397436141968
0.38097149133682251 0.5014457106590271 0.41791033744812012
0.5428541898727417 0.50258660316467285 0.43413206934928894
0.70443886518478394 0.52889007329940796 0.45747783780097961
0.85723245143890381 0.54685342311859131 0.50150489807128906
0.98280668258666992 0.56817328929901123 0.5374443531036377
0.073494978249073029 0.71613287925720215 0.51649445295333862
0.2384432852268219 0.72014886140823364 0.50453346967697144
0.41143050789833069 0.72568118572235107 0.49016326665878296
0.58748292922973633 0.72857165336608887 0.48395219445228577
0.75158905982971191 0.73873305320739746 0.49209561944007874
0.88205575942993164 0.7509276270866394 0.51780503988265991
0.9938194751739502 0.74269348382949829 0.54036986827850342
0.074730910360813141 0.902820885181427 0.53727537393569946
0.24791499972343445 0.90070801973342896 0.53604257106781006
0.41972106695175171 0.90320360660552979 0.53707671165466309
0.59644222259521484 0.90306109189987183 0.5367618203163147
0.78499549627304077 0.90762293338775635 0.54159355163574219
0.92488080263137817 0.92377293109893799 0.5442919135093689
0.99655890464782715 0.9041370153427124 0.54284346103668213
0.06880594789981842 0.99125432968139648 0.51284021139144897
0.23003947734832764 0.98882782459259033 0.51495641469955444
0.39407211542129517 0.99365711212158203 0.52977818250656128
0.57339537143707275 0.99109882116317749 0.54281461238861084
0.74121981859207153 0.99466109275817871 0.54450154304504395
0.89820343255996704 0.996662437915802 0.54636192321777344
0.9923437237739563 0.9934266209602356 0.5382457971572876
0.074916571378707886 0.039517361670732498 0.62647455930709839
0.20147384703159332 0.035230044275522232 0.64141887426376343
0.34681198000907898 0.048511579632759094 0.62800997495651245
0.50662767887115479 0.04842110350728035 0.62931716442108154
0.68478620052337646 0.046358969062566757 0.64564824104309082
0.86349231004714966 0.066954895853996277 0.6682237982749939
0.98952752351760864 0.086618669331073761 0.67430597543716431
0.064154759049415588 0.17081098258495331 0.60221445560455322
0.18828816711902618 0.16388495266437531 0.58575105667114258
0.33119747042655945 0.16740258038043976 0.56134480237960815
0.48226946592330933 0.17060928046703339 0.56679463386535645
0.66313540935516357 0.17474998533725739 0.59573394060134888
0.8442884087562561 0.19942529499530792 0.63404792547225952
0.98661655187606812 0.21998772025108337 0.66087275743484497
0.052500121295452118 0.32077234983444214 0.58628380298614502
0.1856970340013504 0.31265610456466675 0.55932068824768066
0.33772128820419312 0.30885002017021179 0.53888708353042603
0.49663016200065613 0.30849295854568481 0.5431409478187561
0.64883148670196533 0.3134925365447998 0.54950743913650513
0.8281930685043335 0.34422177076339722 0.60301649570465088
0.97636133432388306 0.37667271494865417 0.64830255508422852
0.052478265017271042 0.50460392236709595 0.6154857873916626
0.19774696230888367 0.48731768131256104 0.5753973126411438
0.3556467592716217 0.47203546762466431 0.54993635416030884
0.52072423696517944 0.46900120377540588 0.53449451923370361
0.67442625761032104 0.48067045211791992 0.53785443305969238
0.82966744899749756 0.51374924182891846 0.58509457111358643
0.96962422132492065 0.54098320007324219 0.64136624336242676
0.063402824103832245 0.68781834840774536 0.64413207769393921
0.22415341436862946 0.68404072523117065 0.61585503816604614
0.38495293259620667 0.67650866508483887 0.58858001232147217
0.55420547723770142 0.67264252901077271 0.56269979476928711
0.71110278367996216 0.67841029167175293 0.58315503597259521
0.85182565450668335 0.70310550928115845 0.60815393924713135
0.97570943832397461 0.71637773513793945 0.64772039651870728
0.074560977518558502 0.87228071689605713 0.66778910160064697
0.23315206170082092 0.87037903070449829 0.65559715032577515
0.39838501811027527 0.86522519588470459 0.64571523666381836
0.57941979169845581 0.86396121978759766 0.62652236223220825
0.74616694450378418 0.86648988723754883 0.62672513723373413
0.89114284515380859 0.88441687822341919 0.63792359828948975
0.99019759893417358 0.88851439952850342 0.65509450435638428
0.071807041764259338 0.98770630359649658 0.658824622631073
0.22330120205879211 0.98617404699325562 0.65332514047622681
0.38713768124580383 0.99149996042251587 0.66488951444625854
0.56444019079208374 0.99251103401184082 0.66302895545959473
0.74199533462524414 0.99331450462341309 0.65905243158340454
0.89622634649276733 0.99382698535919189 0.65775018930435181
0.99519449472427368 0.99367207288742065 0.65567052364349365
0.072008527815341949 0.041754089295864105 0.77677130699157715
0.20003975927829742 0.041684228926897049 0.7872733473777771
0.3484291136264801 0.047717135399580002 0.77670407295227051
0.50409883260726929 0.054326616227626801 0.77105456590652466
0.6776883602142334 0.047949548810720444 0.78025597333908081
0.84433043003082275 0.051286764442920685 0.79297316074371338
0.98253518342971802 0.059259481728076935 0.80107724666595459
0.066409885883331299 0.16896304488182068 0.76306009292602539
0.19249889254570007 0.16704204678535461 0.75959199666976929
0.3351433277130127 0.1725594699382782 0.73212820291519165
0.49006497859954834 0.17925311625003815 0.72588837146759033
0.6598583459854126 0.1794276237487793 0.73537147045135498
0.82115703821182251 0.18248379230499268 0.74244070053100586
0.97335398197174072 0.20177285373210907 0.77911895513534546
0.050659060478210449 0.31717956066131592 0.74322235584259033
0.18599696457386017 0.31267184019088745 0.72054791450500488
0.33294123411178589 0.31608462333679199 0.70334219932556152
0.49185118079185486 0.31942856311798096 0.69824951887130737
0.65109121799468994 0.31891775131225586 0.69917905330657959
0.80173557996749878 0.32151377201080322 0.70196598768234253
0.95990729331970215 0.35338208079338074 0.7531815767288208
0.057409472763538361 0.48464202880859375 0.74826145172119141
0.19636718928813934 0.47881981730461121 0.72280335426330566
0.35282990336418152 0.47553214430809021 0.70088040828704834
0.51480919122695923 0.48193013668060303 0.68408375978469849
0.66665399074554443 0.48220297694206238 0.67318153381347656
0.81012165546417236 0.48247089982032776 0.67894250154495239
0.95385074615478516 0.51137590408325195 0.73315292596817017
0.059305585920810699 0.66760110855102539 0.76939529180526733
0.20767474174499512 0.6619725227355957 0.74092739820480347
0.37224903702735901 0.65579414367675781 0.71405136585235596
0.53811615705490112 0.65258324146270752 0.68602162599563599
0.69300383329391479 0.65395146608352661 0.67588239908218384
0.83895140886306763 0.6616855263710022 0.68591094017028809
0.95738834142684937 0.68294370174407959 0.72532260417938232
0.064253531396389008 0.84661287069320679 0.79540723562240601
0.21609240770339966 0.84245562553405762 0.77095264196395874
0.3787807822227478 0.83877670764923096 0.74975216388702393
0.54157483577728271 0.83253318071365356 0.71766775846481323
0.71725022792816162 0.83727645874023438 0.70629787445068359
0.8613288402557373 0.83837848901748657 0.72456318140029907
0.97627723217010498 0.84929251670837402 0.73680776357650757
0.057445526123046875 0.98867404460906982 0.803119957447052
0.215550497174263 0.98632025718688965 0.78680253028869629
0.37677246332168579 0.98916876316070557 0.77552396059036255
0.54275190830230713 0.9883272647857666 0.76189243793487549
0.72661674022674561 0.98761415481567383 0.74628162384033203
0.87700122594833374 0.98680609464645386 0.74308651685714722
0.98729968070983887 0.98796188831329346 0.74351364374160767
0.051336564123630524 0.037077166140079498 0.91945266723632812
0.19798646867275238 0.041646890342235565 0.91089802980422974
0.3537152111530304 0.041632916778326035 0.91414427757263184
0.50858694314956665 0.049339517951011658 0.91540473699569702
0.67064517736434937 0.056753914803266525 0.9091607928276062
0.83832943439483643 0.043590113520622253 0.91753637790679932
0.97010517120361328 0.04541696235537529 0.91300874948501587
0.052942343056201935 0.18058435618877411 0.91181272268295288
0.19714245200157166 0.16909430921077728 0.8967289924621582
0.34476813673973083 0.17489121854305267 0.88527268171310425
0.5015607476234436 0.18526908755302429 0.88347494602203369
0.67023557424545288 0.18877582252025604 0.87922275066375732
0.82343822717666626 0.18769189715385437 0.87214475870132446
0.9607270359992981 0.190861776471138 0.88186538219451904
0.08069591224193573 0.32557275891304016 0.88769817352294922
0.19423416256904602 0.32323279976844788 0.87343847751617432
0.33786845207214355 0.324933260679245 0.85364127159118652
0.49490740895271301 0.33081594109535217 0.84510999917984009
0.66398102045059204 0.3332066535949707 0.84187287092208862
0.8115084171295166 0.32804983854293823 0.83979445695877075
0.95195132493972778 0.3333943784236908 0.85336673259735107
0.094033919274806976 0.47791579365730286 0.87724900245666504
0.19604140520095825 0.4804324209690094 0.86230963468551636
0.3453126847743988 0.48344254493713379 0.84060013294219971
0.50574153661727905 0.48703798651695251 0.82702124118804932
0.66228801012039185 0.48929813504219055 0.81360089778900146
0.81219029426574707 0.48459753394126892 0.81352561712265015
0.94690382480621338 0.48892325162887573 0.82773667573928833
0.060660943388938904 0.65131044387817383 0.89638316631317139
0.20021367073059082 0.65049445629119873 0.8732142448425293
0.35645756125450134 0.65102553367614746 0.85108542442321777
0.52631849050521851 0.65323817729949951 0.82762259244918823
0.68264776468276978 0.65397471189498901 0.8076900839805603
0.83230447769165039 0.65534716844558716 0.80234724283218384
0.96078598499298096 0.65926933288574219 0.81283891201019287
0.053749579936265945 0.82137012481689453 0.91597127914428711
0.2059364914894104 0.8214794397354126 0.8920055627822876
0.36305421590805054 0.81845831871032715 0.86830484867095947
0.52411133050918579 0.81789594888687134 0.8468746542930603
0.69644749164581299 0.81745386123657227 0.81765168905258179
0.84828764200210571 0.81773251295089722 0.81738096475601196
0.97919946908950806 0.81967389583587646 0.82262998819351196
0.058108925819396973 0.96904212236404419 0.91770374774932861
0.20730118453502655 0.9710155725479126 0.89500772953033447
0.3647114634513855 0.97618341445922852 0.87978357076644897
0.53096646070480347 0.97299140691757202 0.8550955057144165
0.70491653680801392 0.9761892557144165 0.82810544967651367
0.85225009918212891 0.96992182731628418 0.82519710063934326
0.98637169599533081 0.97037839889526367 0.8484463095664978
