assets/lut/pixlsus unknown.cube
# Created by: G'MIC (https://gmic.eu)
TITLE "unknown"
# LUT size
LUT_3D_SIZE 5
# Data domain
DOMAIN_MIN 0.0 0.0 0.0
DOMAIN_MAX 1.0 1.0 1.0
# LUT data points
0.022772859781980515 0.022366750985383987 0.023155735805630684
0.23289656639099121 0.053743340075016022 0.031011303886771202
0.48566830158233643 0.023007530719041824 0.027604285627603531
0.77226012945175171 0.0065695969387888908 0.0061769522726535797
0.98392987251281738 0.0045271632261574268 0.0025081259664148092
0.006242804229259491 0.25614085793495178 0.037705454975366592
0.21511086821556091 0.2587127685546875 0.010693075135350227
0.52547293901443481 0.22740824520587921 0.0042675393633544445
0.82145583629608154 0.18614554405212402 0.0053260056301951408
0.9787592887878418 0.1558644026517868 0.0065452577546238899
0.0044053168967366219 0.50950449705123901 0.065347753465175629
0.029549364000558853 0.50429040193557739 0.11369651556015015
0.47445416450500488 0.49249723553657532 0.008920975960791111
0.81449055671691895 0.46743306517601013 0.0039431853219866753
0.99166214466094971 0.46573725342750549 0.00041082044481299818
0.0039215688593685627 0.73037111759185791 0.14867562055587769
0.021630171686410904 0.74587196111679077 0.20082053542137146
0.19863396883010864 0.75410360097885132 0.14844934642314911
0.73342722654342651 0.73084646463394165 0.0091169318184256554
0.99375444650650024 0.72558814287185669 0.0013521232176572084
0.0016481586499139667 0.95532798767089844 0.27144631743431091
0.019082328304648399 0.94000643491744995 0.25474521517753601
0.030814735218882561 0.95808136463165283 0.10891854017972946
0.58584201335906982 0.90866541862487793 0.037821870297193527
0.95208770036697388 0.95144575834274292 0.0028754889499396086
0.023847917094826698 0.037022668868303299 0.25548520684242249
0.24375620484352112 0.056529641151428223 0.23438945412635803
0.49892866611480713 0.074103429913520813 0.21451817452907562
0.77634507417678833 0.010445045307278633 0.15276484191417694
0.99224770069122314 0.0021978940349072218 0.10495297610759735
0.0041421479545533657 0.2525697648525238 0.25003823637962341
0.19910958409309387 0.25763946771621704 0.25093656778335571
0.49627828598022461 0.21877127885818481 0.19775785505771637
0.79565387964248657 0.13395780324935913 0.15569743514060974
0.9936179518699646 0.062380414456129074 0.12855006754398346
0.0074664694257080555 0.49677637219429016 0.26136583089828491
0.036624893546104431 0.50451141595840454 0.29318499565124512
0.46909230947494507 0.49808138608932495 0.23317509889602661
0.80845552682876587 0.4692530632019043 0.16650310158729553
0.99549537897109985 0.44258734583854675 0.14135421812534332
0.01136652659624815 0.72413033246994019 0.32016617059707642
0.010168606415390968 0.74406725168228149 0.33229073882102966
0.082323722541332245 0.76476222276687622 0.35572117567062378
0.73586970567703247 0.73473703861236572 0.18501873314380646
0.99303853511810303 0.7162095308303833 0.14279019832611084
0.0073590446263551712 0.93921434879302979 0.39065399765968323
0.0053491182625293732 0.958263099193573 0.44021958112716675
0.037094429135322571 0.94885653257369995 0.38207319378852844
0.49573639035224915 0.94187909364700317 0.25184223055839539
0.96573340892791748 0.94909650087356567 0.077255561947822571
0.014472527429461479 0.072533294558525085 0.50840920209884644
0.22939366102218628 0.097491681575775146 0.47735542058944702
0.50741696357727051 0.10398487746715546 0.46113541722297668
0.81039023399353027 0.018349412828683853 0.43552014231681824
0.98496198654174805 0.0067827710881829262 0.3979601263999939
0.011865009553730488 0.25105369091033936 0.48850229382514954
0.16234777867794037 0.246556356549263 0.47671204805374146
0.51603537797927856 0.23771299421787262 0.47834563255310059
0.80437672138214111 0.14808769524097443 0.43182557821273804
0.9941641092300415 0.032272666692733765 0.37335303425788879
0.012052139267325401 0.47228652238845825 0.48232242465019226
0.028187006711959839 0.48242813348770142 0.47685307264328003
0.47094768285751343 0.49869439005851746 0.49702921509742737
0.79292565584182739 0.44556191563606262 0.44047427177429199
0.99759089946746826 0.36336791515350342 0.38608747720718384
0.03039570152759552 0.70745468139648438 0.52952629327774048
0.032952059060335159 0.72527468204498291 0.51728528738021851
0.13568472862243652 0.7564314603805542 0.54523938894271851
0.73154222965240479 0.73807686567306519 0.48248052597045898
0.99476075172424316 0.71254754066467285 0.43050482869148254
0.014768428169190884 0.92499375343322754 0.56090474128723145
0.029756404459476471 0.92780643701553345 0.58824390172958374
0.014593790285289288 0.9647146463394165 0.65013599395751953
0.37841871380805969 0.97146153450012207 0.58237171173095703
0.97083145380020142 0.94460219144821167 0.43914321064949036
0.022806264460086823 0.12331810593605042 0.74672782421112061
0.19839246571063995 0.13975737988948822 0.72946375608444214
0.50048255920410156 0.13304024934768677 0.71778345108032227
0.80128675699234009 0.092923089861869812 0.70508503913879395
0.97809678316116333 0.045713372528553009 0.69197094440460205
0.012708567082881927 0.26163488626480103 0.72139632701873779
0.15106901526451111 0.26773574948310852 0.72917300462722778
0.50339525938034058 0.27364656329154968 0.72768992185592651
0.81133246421813965 0.2348048985004425 0.72302454710006714
0.98366981744766235 0.084673814475536346 0.70183718204498291
0.0067641912028193474 0.47637543082237244 0.69711703062057495
0.014448681846261024 0.48333069682121277 0.67582821846008301
0.44095888733863831 0.4883517324924469 0.71194618940353394
0.79348373413085938 0.47822210192680359 0.72538506984710693
0.99596303701400757 0.33950385451316833 0.68830603361129761
0.021086225286126137 0.7246091365814209 0.73590230941772461
0.03700980544090271 0.72728848457336426 0.70592182874679565
0.27838623523712158 0.72815567255020142 0.70934534072875977
0.74618697166442871 0.73574256896972656 0.729836106300354
0.9922715425491333 0.68704646825790405 0.67818737030029297
0.015781626105308533 0.93284410238265991 0.73641461133956909
0.047160670161247253 0.92224925756454468 0.7439427375793457
0.14237616956233978 0.92610424757003784 0.76388615369796753
0.27651652693748474 0.97287803888320923 0.84449762105941772
0.96983796358108521 0.947132408618927 0.71067488193511963
0.0067175021395087242 0.11607565730810165 0.96342790126800537
0.15625035762786865 0.14211441576480865 0.94383734464645386
0.51439273357391357 0.13066139817237854 0.94495069980621338
0.78955608606338501 0.094005152583122253 0.92880356311798096
0.98575717210769653 0.024790311232209206 0.95370560884475708
0.013077724725008011 0.28017878532409668 0.94180202484130859
0.1883036345243454 0.28179663419723511 0.94091790914535522
0.49994122982025146 0.27159532904624939 0.94642305374145508
0.79138082265853882 0.24249118566513062 0.93605828285217285
0.97459971904754639 0.20784810185432434 0.94981253147125244
0.0055794510990381241 0.50716036558151245 0.92245221138000488
0.052350781857967377 0.51247066259384155 0.92334830760955811
0.43838351964950562 0.50382983684539795 0.93579310178756714
0.77293771505355835 0.49199560284614563 0.93244081735610962
0.98597902059555054 0.4713960587978363 0.94860506057739258
0.011890381574630737 0.74076700210571289 0.92163574695587158
0.021783806383609772 0.74669498205184937 0.9205966591835022
0.22582176327705383 0.74150615930557251 0.90586835145950317
0.7376362681388855 0.73631787300109863 0.93117189407348633
0.99565249681472778 0.71603631973266602 0.93965590000152588
0.0016518387710675597 0.96986681222915649 0.90436297655105591
0.01276047620922327 0.96560013294219971 0.89208102226257324
0.027219465002417564 0.96767795085906982 0.90011221170425415
0.43017578125 0.96695792675018311 0.91804242134094238
0.982643723487854 0.94688785076141357 0.92676317691802979
