assets/lut/pixlsus uzbek samarcande.cube
# Created by: G'MIC (https://gmic.eu)
TITLE "uzbek_samarcande"
# LUT size
LUT_3D_SIZE 5
# Data domain
DOMAIN_MIN 0.0 0.0 0.0
DOMAIN_MAX 1.0 1.0 1.0
# LUT data points
0.030232224613428116 0.03659464418888092 0.028586562722921371
0.1917407214641571 0.069653712213039398 0.061304263770580292
0.35793912410736084 0.11577459424734116 0.090312972664833069
0.54619729518890381 0.17657192051410675 0.1419479101896286
0.72198390960693359 0.23731312155723572 0.18523490428924561
0.034199029207229614 0.26947253942489624 0.040439501404762268
0.25789406895637512 0.26126351952552795 0.045890044420957565
0.44275954365730286 0.26452264189720154 0.10567831993103027
0.59580212831497192 0.28484144806861877 0.15567068755626678
0.75386416912078857 0.32066196203231812 0.2024395614862442
0.03089580126106739 0.49839937686920166 0.041324153542518616
0.25825396180152893 0.5003197193145752 0.055942490696907043
0.49544242024421692 0.48475468158721924 0.056627534329891205
0.69786965847015381 0.48478183150291443 0.12345612794160843
0.8548474907875061 0.4970996081829071 0.20842558145523071
0.048475828021764755 0.72573530673980713 0.063338503241539001
0.24106009304523468 0.72974789142608643 0.05840924009680748
0.49185982346534729 0.71769464015960693 0.064868107438087463
0.73217177391052246 0.73022353649139404 0.058599494397640228
0.94247603416442871 0.72901719808578491 0.11574482917785645
0.029249005019664764 0.96193963289260864 0.032995142042636871
0.23196840286254883 0.95697581768035889 0.040960617363452911
0.4834744930267334 0.95530456304550171 0.056686896830797195
0.73357844352722168 0.95651805400848389 0.040020931512117386
0.9583355188369751 0.95775139331817627 0.04322153702378273
0.034226555377244949 0.024895327165722847 0.15095303952693939
0.23056977987289429 0.075650326907634735 0.23036284744739532
0.37378299236297607 0.15145872533321381 0.23748898506164551
0.54909634590148926 0.21499189734458923 0.27262705564498901
0.72072350978851318 0.26780101656913757 0.3059898316860199
0.0022541419602930546 0.25835612416267395 0.24922789633274078
0.24587424099445343 0.25453376770019531 0.24951751530170441
0.41594076156616211 0.27403450012207031 0.26600426435470581
0.58415812253952026 0.30345392227172852 0.28955504298210144
0.74625962972640991 0.34340628981590271 0.32149860262870789
0.010327298194169998 0.52440088987350464 0.2671627402305603
0.24006044864654541 0.51273900270462036 0.26464298367500305
0.48756057024002075 0.48921936750411987 0.26601335406303406
0.68505239486694336 0.49070268869400024 0.30174994468688965
0.8300093412399292 0.50923514366149902 0.34060746431350708
0.020440150052309036 0.75405722856521606 0.27020677924156189
0.19984771311283112 0.73569202423095703 0.26290002465248108
0.4794776439666748 0.72824209928512573 0.26938760280609131
0.72706520557403564 0.73047280311584473 0.27066662907600403
0.93562591075897217 0.72962057590484619 0.30186590552330017
0.014235702343285084 0.96581000089645386 0.23139049112796783
0.18087601661682129 0.95875638723373413 0.23877580463886261
0.47630771994590759 0.95219641923904419 0.25769913196563721
0.73359882831573486 0.95514369010925293 0.26177361607551575
0.95909267663955688 0.95584708452224731 0.26145786046981812
0.043328184634447098 0.029764961451292038 0.29070430994033813
0.18271897733211517 0.041005570441484451 0.33156082034111023
0.44867125153541565 0.14567811787128448 0.45697906613349915
0.58313488960266113 0.24011954665184021 0.43900671601295471
0.73988473415374756 0.30219501256942749 0.4707888662815094
0.017631052061915398 0.16432361304759979 0.32100981473922729
0.1927095353603363 0.19920554757118225 0.36738798022270203
0.4543902575969696 0.28205817937850952 0.45607766509056091
0.60335969924926758 0.33505690097808838 0.45583817362785339
0.75564837455749512 0.38079172372817993 0.48821905255317688
0 0.50351327657699585 0.49426093697547913
0.11279241740703583 0.49395766854286194 0.48362836241722107
0.47465094923973083 0.48297935724258423 0.48078572750091553
0.6592719554901123 0.50928521156311035 0.49875417351722717
0.81798160076141357 0.53399199247360229 0.52556020021438599
0.0036207609809935093 0.79310566186904907 0.50379389524459839
0.10414591431617737 0.78087508678436279 0.52223432064056396
0.46831455826759338 0.74918341636657715 0.50378060340881348
0.72090655565261841 0.737468421459198 0.50254350900650024
0.91777884960174561 0.7319791316986084 0.5299384593963623
0.0023284314665943384 0.98073446750640869 0.48066499829292297
0.082894615828990936 0.97554749250411987 0.48596897721290588
0.47269770503044128 0.96570408344268799 0.48251011967658997
0.72830080986022949 0.95720565319061279 0.4894917905330658
0.95733976364135742 0.95623767375946045 0.49496331810951233
0.039549943059682846 0.028998490422964096 0.46541312336921692
0.17957448959350586 0.03575674444437027 0.49725884199142456
0.39847889542579651 0.082256168127059937 0.57269018888473511
0.683036208152771 0.22791901230812073 0.6817898154258728
0.81829869747161865 0.317941814661026 0.67462664842605591
0.025282692164182663 0.17381121218204498 0.50408405065536499
0.18067587912082672 0.18281155824661255 0.53992706537246704
0.40577954053878784 0.21613503992557526 0.58841133117675781
0.68362760543823242 0.33767896890640259 0.68548858165740967
0.8259655237197876 0.40240070223808289 0.6828342080116272
0.0077721541747450829 0.36211001873016357 0.54834151268005371
0.13103881478309631 0.37817952036857605 0.57743436098098755
0.40969955921173096 0.41517549753189087 0.62937504053115845
0.69812822341918945 0.51645731925964355 0.7033887505531311
0.84544855356216431 0.5664665699005127 0.70556509494781494
0 0.75521105527877808 0.75161564350128174
0.012474852614104748 0.74910670518875122 0.74348241090774536
0.37631723284721375 0.73690897226333618 0.7309611439704895
0.71480780839920044 0.72528541088104248 0.7235640287399292
0.89033913612365723 0.74700385332107544 0.74183541536331177
0 0.9954337477684021 0.74637377262115479
0.024523986503481865 0.99391710758209229 0.74703264236450195
0.36441531777381897 0.98525142669677734 0.73133736848831177
0.717232346534729 0.96362370252609253 0.73015761375427246
0.95860671997070312 0.95873552560806274 0.73499202728271484
0.025994289666414261 0.025069577619433403 0.65300607681274414
0.17833690345287323 0.049950350075960159 0.67782723903656006
0.38131609559059143 0.045548740774393082 0.72731292247772217
0.65116161108016968 0.15608756244182587 0.8284716010093689
0.90255391597747803 0.30175930261611938 0.89466655254364014
0.03466096892952919 0.18234351277351379 0.68407446146011353
0.16851562261581421 0.18031996488571167 0.72147995233535767
0.39247429370880127 0.20132081210613251 0.75932091474533081
0.6492956280708313 0.26439198851585388 0.83465814590454102
0.91072779893875122 0.39105445146560669 0.90276777744293213
0.0072053349576890469 0.37845227122306824 0.77718251943588257
0.13906644284725189 0.39812365174293518 0.79123932123184204
0.40752124786376953 0.41639825701713562 0.82329088449478149
0.66026395559310913 0.44539850950241089 0.86483103036880493
0.91480469703674316 0.55126076936721802 0.91459083557128906
0 0.61305058002471924 0.83770632743835449
0.015677029266953468 0.62468236684799194 0.84916096925735474
0.38112333416938782 0.65307849645614624 0.8809666633605957
0.68613988161087036 0.692840576171875 0.91599434614181519
0.92872041463851929 0.75249242782592773 0.93549591302871704
0 0.97709459066390991 0.98301494121551514
0 0.97343415021896362 0.97939103841781616
0.1689571738243103 0.97029775381088257 0.97571688890457153
0.64973026514053345 0.96431934833526611 0.96409314870834351
0.95312488079071045 0.96065467596054077 0.95773851871490479
