assets/lut/pixlsus uzbek samarcande.cube
# Created by: G'MIC (https://gmic.eu)
TITLE "uzbek_samarcande"
# LUT size
LUT_3D_SIZE 7
# Data domain
DOMAIN_MIN 0.0 0.0 0.0
DOMAIN_MAX 1.0 1.0 1.0
# LUT data points
0.030232224613428116 0.03659464418888092 0.028586562722921371
0.13820245862007141 0.053916212171316147 0.051108207553625107
0.2438139021396637 0.080693610012531281 0.069465458393096924
0.35793912410736084 0.11577459424734116 0.090312972664833069
0.48546460270881653 0.15904250741004944 0.12790220975875854
0.60682541131973267 0.19887028634548187 0.15924261510372162
0.72198390960693359 0.23731312155723572 0.18523490428924561
0.033669430762529373 0.19319929182529449 0.042913652956485748
0.18143089115619659 0.18571557104587555 0.042896568775177002
0.30218872427940369 0.18622699379920959 0.07130075991153717
0.40014132857322693 0.19819630682468414 0.10670547187328339
0.51465469598770142 0.22109344601631165 0.13623364269733429
0.62526905536651611 0.25145173072814941 0.16808415949344635
0.73804718255996704 0.2865091860294342 0.1979784369468689
0.033528376370668411 0.34575259685516357 0.036783285439014435
0.18201205134391785 0.33970588445663452 0.046733077615499496
0.33375376462936401 0.33842048048973083 0.051628727465867996
0.47354912757873535 0.3363000750541687 0.082168400287628174
0.58423542976379395 0.33676305413246155 0.13806980848312378
0.67655813694000244 0.3548089861869812 0.17461301386356354
0.77312982082366943 0.36989334225654602 0.20730538666248322
0.03089580126106739 0.49839937686920166 0.041324153542518616
0.18011261522769928 0.50028568506240845 0.054102040827274323
0.33314681053161621 0.49636486172676086 0.05717836320400238
0.49544242024421692 0.48475468158721924 0.056627534329891205
0.6414560079574585 0.48691380023956299 0.074005231261253357
0.75168371200561523 0.4890974760055542 0.16092929244041443
0.8548474907875061 0.4970996081829071 0.20842558145523071
0.046615868806838989 0.64852941036224365 0.061437241733074188
0.17821471393108368 0.65403085947036743 0.059044856578111649
0.33170041441917419 0.6514667272567749 0.058528855443000793
0.49650630354881287 0.63907116651535034 0.061851412057876587
0.65626257658004761 0.64630585908889771 0.06066691130399704
0.80076926946640015 0.65506827831268311 0.079254329204559326
0.92176151275634766 0.65238970518112183 0.17191165685653687
0.044773414731025696 0.80443930625915527 0.059099338948726654
0.16384069621562958 0.80471789836883545 0.059007905423641205
0.31651648879051208 0.8035660982131958 0.059995569288730621
0.48662424087524414 0.79719090461730957 0.065588392317295074
0.6535612940788269 0.80146479606628418 0.061391614377498627
0.80827665328979492 0.80694639682769775 0.059424813836812973
0.95446407794952393 0.80686277151107788 0.061319462954998016
0.029249005019664764 0.96193963289260864 0.032995142042636871
0.1596381664276123 0.95559489727020264 0.039059940725564957
0.31135267019271851 0.9529833197593689 0.047431465238332748
0.4834744930267334 0.95530456304550171 0.056686896830797195
0.65381723642349243 0.95199763774871826 0.054579507559537888
0.81078433990478516 0.95522093772888184 0.047989893704652786
0.9583355188369751 0.95775139331817627 0.04322153702378273
0.031623378396034241 0.024956976994872093 0.10904214531183243
0.16088499128818512 0.057348243892192841 0.16152013838291168
0.25493243336677551 0.10313326120376587 0.16794626414775848
0.36735400557518005 0.14151334762573242 0.18663524091243744
0.48775395750999451 0.17986395955085754 0.21142773330211639
0.60658222436904907 0.22257830202579498 0.2384142279624939
0.72071808576583862 0.25329625606536865 0.25535017251968384
0.0095723923295736313 0.1802593469619751 0.17034889757633209
0.17082437872886658 0.18061132729053497 0.17591702938079834
0.28580522537231445 0.19218122959136963 0.18637053668498993
0.39742973446846008 0.21416060626506805 0.20194460451602936
0.51270323991775513 0.23810265958309174 0.22065058350563049
0.62334895133972168 0.27021762728691101 0.24643324315547943
0.73214858770370483 0.300384521484375 0.26809424161911011
0.020495740696787834 0.36829447746276855 0.19457055628299713
0.17533351480960846 0.34888362884521484 0.19150802493095398
0.33387243747711182 0.33937078714370728 0.19020400941371918
0.46118292212486267 0.33616021275520325 0.21070587635040283
0.56343621015548706 0.34001946449279785 0.23393437266349792
0.66275745630264282 0.35978725552558899 0.26012071967124939
0.76761519908905029 0.38456881046295166 0.28387677669525146
0.019764306023716927 0.50955855846405029 0.19341342151165009
0.15820051729679108 0.50577068328857422 0.19508197903633118
0.32620531320571899 0.49539798498153687 0.19086019694805145
0.49352625012397766 0.48832088708877563 0.19125762581825256
0.63680011034011841 0.49427556991577148 0.21267367899417877
0.73652911186218262 0.49448788166046143 0.25803610682487488
0.84196525812149048 0.51206320524215698 0.28598076105117798
0.033371254801750183 0.66643643379211426 0.19963186979293823
0.14573444426059723 0.6602548360824585 0.19819419085979462
0.31678199768066406 0.65311366319656372 0.19146585464477539
0.48874187469482422 0.64873272180557251 0.19459448754787445
0.65337294340133667 0.65104937553405762 0.19376891851425171
0.79650402069091797 0.65420186519622803 0.21604621410369873
0.91650831699371338 0.6545225977897644 0.2614256739616394
0.028757805004715919 0.81491684913635254 0.18372099101543427
0.12542212009429932 0.80756419897079468 0.18748216331005096
0.30148643255233765 0.80410170555114746 0.18185587227344513
0.47934415936470032 0.80286860466003418 0.18989139795303345
0.65192538499832153 0.8019443154335022 0.19080376625061035
0.80739879608154297 0.80563557147979736 0.19279526174068451
0.95440375804901123 0.80686277151107788 0.19743436574935913
0.02071705274283886 0.96380162239074707 0.15185427665710449
0.12191313505172729 0.95666807889938354 0.15525165200233459
0.29830724000930786 0.95336019992828369 0.16012416779994965
0.47574338316917419 0.95119392871856689 0.18051654100418091
0.65553849935531616 0.95458012819290161 0.18603390455245972
0.81059795618057251 0.95512741804122925 0.18581651151180267
0.95809012651443481 0.9568248987197876 0.18530775606632233
0.037586390972137451 0.026384152472019196 0.19475243985652924
0.13481630384922028 0.039333716034889221 0.22806179523468018
0.30021840333938599 0.09960753470659256 0.30314528942108154
0.39142155647277832 0.1571037620306015 0.29930084943771362
0.50193440914154053 0.20603559911251068 0.31167364120483398
0.61365127563476562 0.24547791481018066 0.33330187201499939
0.72530293464660645 0.28217557072639465 0.35848012566566467
0.017447661608457565 0.11337865144014359 0.2163577675819397
0.1334378719329834 0.13603805005550385 0.24620430171489716
0.30213600397109985 0.19288106262683868 0.30555987358093262
0.40080717206001282 0.22896778583526611 0.30940118432044983
0.51670092344284058 0.25835222005844116 0.32518556714057922
0.62764614820480347 0.29021582007408142 0.34235942363739014
0.73620015382766724 0.32180777192115784 0.36469599604606628
0.00071273505454882979 0.33884182572364807 0.32980763912200928
0.10324423015117645 0.32867634296417236 0.31988602876663208
0.31952789425849915 0.32869714498519897 0.32496654987335205
0.43813690543174744 0.34001070261001587 0.33493855595588684
0.55379313230514526 0.35475137829780579 0.34606742858886719
0.6593785285949707 0.37466561794281006 0.3631141185760498
0.77009409666061401 0.39688307046890259 0.3807741105556488
0.0051413890905678272 0.54883861541748047 0.35441544651985168
0.087843663990497589 0.53272080421447754 0.35086694359779358
0.32544624805450439 0.50434207916259766 0.34002393484115601
0.49044176936149597 0.491943359375 0.34126996994018555
0.62550067901611328 0.49515858292579651 0.35794192552566528
0.72152739763259888 0.49711692333221436 0.37981176376342773
0.82087850570678711 0.50672447681427002 0.39807194471359253
0.011101158335804939 0.69498085975646973 0.34895262122154236
0.10246879607439041 0.68106883764266968 0.34954994916915894
0.29831627011299133 0.66761952638626099 0.3405764102935791
0.48182368278503418 0.65690892934799194 0.34364596009254456
0.65376085042953491 0.65676724910736084 0.34134525060653687
0.79060602188110352 0.65648782253265381 0.36064809560775757
0.9074590802192688 0.65640008449554443 0.39300402998924255
0.013494663871824741 0.83433741331100464 0.34026390314102173
0.08207760751247406 0.82431340217590332 0.34110456705093384
0.27860027551651001 0.81344956159591675 0.33849141001701355
0.47044703364372253 0.8095090389251709 0.34576025605201721
0.64713037014007568 0.81102538108825684 0.34378615021705627
0.80671733617782593 0.81000763177871704 0.33996647596359253
0.94957280158996582 0.80707544088363647 0.35075628757476807
0.013197431340813637 0.97200286388397217 0.31162476539611816
0.066924706101417542 0.96563231945037842 0.32068973779678345
0.28362604975700378 0.96302217245101929 0.32356047630310059
0.47883468866348267 0.95435839891433716 0.33300697803497314
0.65180075168609619 0.95619338750839233 0.33806654810905457
0.81033098697662354 0.95654016733169556 0.33578836917877197
0.95921581983566284 0.95685303211212158 0.3356357216835022
0.043328184634447098 0.029764961451292038 0.29070430994033813
0.13141708076000214 0.041480943560600281 0.31499555706977844
0.25718766450881958 0.05641111359000206 0.36965617537498474
0.44867125153541565 0.14567811787128448 0.45697906613349915
0.53960329294204712 0.20995023846626282 0.44614943861961365
0.63062202930450439 0.26559898257255554 0.44108006358146667
0.73988473415374756 0.30219501256942749 0.4707888662815094
0.030123841017484665 0.11388722062110901 0.31592997908592224
0.12955957651138306 0.13412383198738098 0.34120267629623413
0.25981637835502625 0.14885587990283966 0.37416589260101318
0.44973435997962952 0.22962078452110291 0.45503300428390503
0.55032503604888916 0.27162814140319824 0.45147794485092163
0.64343094825744629 0.31171086430549622 0.45288839936256409
0.74653810262680054 0.34788575768470764 0.48072889447212219
0.0048851463943719864 0.21704502403736115 0.32887881994247437
0.097970657050609589 0.23691853880882263 0.35318893194198608
0.26459434628486633 0.26994535326957703 0.39576852321624756
0.45934608578681946 0.33986857533454895 0.4597657322883606
0.56473267078399658 0.37316790223121643 0.46229895949363708
0.66983473300933838 0.39854457974433899 0.48008868098258972
0.77080893516540527 0.42262017726898193 0.49861153960227966
0 0.50351327657699585 0.49426093697547913
0.015893658623099327 0.49972271919250488 0.48941165208816528
0.2638152539730072 0.48791694641113281 0.48022773861885071
0.47465094923973083 0.48297935724258423 0.48078572750091553
0.60571575164794922 0.50000125169754028 0.49260452389717102
0.71079546213150024 0.51763653755187988 0.51169520616531372
0.81798160076141357 0.53399199247360229 0.52556020021438599
0.00024937649141065776 0.73550009727478027 0.52636581659317017
0.032903335988521576 0.72472125291824341 0.53007584810256958
0.2444109320640564 0.69893139600753784 0.5069161057472229
0.47483706474304199 0.67380690574645996 0.50272810459136963
0.65034252405166626 0.65991699695587158 0.49474412202835083
0.7799072265625 0.65798628330230713 0.51439303159713745
0.88332867622375488 0.66082298755645752 0.53948122262954712
0.0047041052021086216 0.8585507869720459 0.49660947918891907
0.029611865058541298 0.85239112377166748 0.51736867427825928
0.23132973909378052 0.8370247483253479 0.50356137752532959
0.4604465663433075 0.82184922695159912 0.50079989433288574
0.64066416025161743 0.8159899115562439 0.50060904026031494
0.8006591796875 0.81096851825714111 0.49930301308631897
0.93909817934036255 0.80612492561340332 0.51483011245727539
0.0023284314665943384 0.98073446750640869 0.48066499829292297
0.013594848103821278 0.97444593906402588 0.49100416898727417
0.24505382776260376 0.9778936505317688 0.47613030672073364
0.47269770503044128 0.96570408344268799 0.48251011967658997
0.64727896451950073 0.95443737506866455 0.4875490665435791
0.80694770812988281 0.95724070072174072 0.49167555570602417
0.95733976364135742 0.95623767375946045 0.49496331810951233
0.042486242949962616 0.031854979693889618 0.4042181670665741
0.12880684435367584 0.037800420075654984 0.4239095151424408
0.24247096478939056 0.04510662704706192 0.46275025606155396
0.41885325312614441 0.10675529390573502 0.53837257623672485
0.60257452726364136 0.20124474167823792 0.60374754667282104
0.69546306133270264 0.26573455333709717 0.59957981109619141
0.78896111249923706 0.3210524320602417 0.59985196590423584
0.029978195205330849 0.11653391271829605 0.42952677607536316
0.12716495990753174 0.12646175920963287 0.4521452784538269
0.25146186351776123 0.14081832766532898 0.48578712344169617
0.40798529982566833 0.17487330734729767 0.53170156478881836
0.61158162355422974 0.27023023366928101 0.61146122217178345
0.69819295406341553 0.32234686613082886 0.60059475898742676
0.78870338201522827 0.36929908394813538 0.61011302471160889
0.016350556164979935 0.2250724583864212 0.45369920134544373
0.10989309847354889 0.23900584876537323 0.48281070590019226
0.25273388624191284 0.25826248526573181 0.51343095302581787
0.41578549146652222 0.2841247022151947 0.54624342918395996
0.6124076247215271 0.37035864591598511 0.61558127403259277
0.70517021417617798 0.41126367449760437 0.61539161205291748
0.79804933071136475 0.44625464081764221 0.61725479364395142
0.0020364949014037848 0.35437184572219849 0.4883388876914978
0.047109223902225494 0.36251837015151978 0.5011904239654541
0.22626827657222748 0.38990035653114319 0.52861040830612183
0.41732379794120789 0.42685019969940186 0.57146245241165161
0.62372374534606934 0.49866801500320435 0.62873643636703491
0.72680431604385376 0.53899562358856201 0.63549506664276123
0.82841187715530396 0.55788415670394897 0.6449999213218689
0 0.67419278621673584 0.66874164342880249
0.00039693794678896666 0.67287421226501465 0.66518926620483398
0.12008767575025558 0.66393417119979858 0.65732592344284058
0.42244160175323486 0.65288245677947998 0.64776027202606201
0.64271575212478638 0.65154528617858887 0.64854526519775391
0.76152247190475464 0.6634221076965332 0.65827596187591553
0.87004983425140381 0.67686319351196289 0.6690337061882019
0 0.89749133586883545 0.69607478380203247
0.006183878518640995 0.89386308193206787 0.69841486215591431
0.12544652819633484 0.87169778347015381 0.68274736404418945
0.41530695557594299 0.84682369232177734 0.66483390331268311
0.64247256517410278 0.81956815719604492 0.66102617979049683
0.80254817008972168 0.81062805652618408 0.66068512201309204
0.9300801157951355 0.8081049919128418 0.67795777320861816
0.00070489622885361314 0.99158179759979248 0.65739023685455322
0.011335575021803379 0.99075233936309814 0.66077840328216553
0.14852011203765869 0.98480290174484253 0.65553957223892212
0.41139107942581177 0.97571951150894165 0.65096241235733032
0.63861286640167236 0.96525269746780396 0.65108603239059448
0.80302399396896362 0.95516449213027954 0.65457761287689209
0.95556861162185669 0.95597630739212036 0.66004794836044312
0.036775566637516022 0.027460644021630287 0.52763503789901733
0.12214349210262299 0.028437325730919838 0.53968381881713867
0.23837432265281677 0.044665049761533737 0.5724337100982666
0.38385811448097229 0.06462511420249939 0.61579722166061401
0.58455103635787964 0.16148790717124939 0.70032650232315063
0.75002515316009521 0.25227248668670654 0.75337332487106323
0.84829956293106079 0.31321185827255249 0.75021147727966309
0.028515789657831192 0.11803150922060013 0.55233943462371826
0.12113593518733978 0.11937324702739716 0.56574541330337524
0.24605588614940643 0.13339345157146454 0.5975334644317627
0.38824886083602905 0.15022173523902893 0.62941873073577881
0.5832093358039856 0.23088535666465759 0.70122247934341431
0.74924904108047485 0.30970427393913269 0.75195932388305664
0.86090278625488281 0.35978436470031738 0.75282150506973267
0.025833863765001297 0.23970453441143036 0.58807885646820068
0.11490126699209213 0.24011319875717163 0.60666251182556152
0.24458040297031403 0.2482554018497467 0.63075160980224609
0.40631875395774841 0.27191480994224548 0.65944212675094604
0.58354711532592773 0.32218161225318909 0.70683860778808594
0.75650376081466675 0.40420904755592346 0.76076078414916992
0.86394035816192627 0.44670009613037109 0.76020711660385132
0.011090386658906937 0.36563929915428162 0.61871439218521118
0.05314616858959198 0.37415513396263123 0.62909018993377686
0.22646230459213257 0.39002835750579834 0.66759508848190308
0.40573504567146301 0.41162481904029846 0.69370448589324951
0.587138831615448 0.4460236132144928 0.72356277704238892
0.77195209264755249 0.53387683629989624 0.77562230825424194
0.87438380718231201 0.56722110509872437 0.77302521467208862
2.4653416403452866e-05 0.53746277093887329 0.68140774965286255
0.0017928627785295248 0.53572136163711548 0.68212568759918213
0.16964386403560638 0.54260265827178955 0.68980103731155396
0.3871663510799408 0.56527924537658691 0.71431553363800049
0.60229921340942383 0.60918158292770386 0.7551724910736084
0.77835983037948608 0.66171777248382568 0.78597879409790039
0.88251584768295288 0.69526594877243042 0.79129469394683838
0 0.83233743906021118 0.82989329099655151
4.57763671875e-05 0.83164334297180176 0.82651352882385254
0.042413525283336639 0.82298731803894043 0.81729555130004883
0.32263898849487305 0.81665897369384766 0.80990833044052124
0.59729152917861938 0.80931311845779419 0.80272960662841797
0.79222410917282104 0.80240494012832642 0.80151861906051636
0.9179084300994873 0.81922954320907593 0.81208294630050659
0 0.98999571800231934 0.8323969841003418
0.00056967639829963446 0.99625653028488159 0.83369743824005127
0.006288476288318634 0.9927375316619873 0.82788246870040894
0.26248800754547119 0.99120402336120605 0.81957447528839111
0.59410089254379272 0.97899842262268066 0.80974143743515015
0.79717427492141724 0.96260917186737061 0.80641388893127441
0.95776677131652832 0.95972025394439697 0.81062692403793335
0.025994289666414261 0.025069577619433403 0.65300607681274414
0.12228089570999146 0.042796295136213303 0.66605091094970703
0.2423861026763916 0.054926823824644089 0.69103127717971802
0.38131609559059143 0.045548740774393082 0.72731292247772217
0.5575365424156189 0.11529342085123062 0.78914988040924072
0.74963140487670898 0.20967958867549896 0.86537843942642212
0.90255391597747803 0.30175930261611938 0.89466655254364014
0.036298714578151703 0.12664292752742767 0.66070282459259033
0.12000378221273422 0.11987181752920151 0.68490064144134521
0.23594097793102264 0.12744070589542389 0.71163415908813477
0.3824668824672699 0.14189471304416656 0.74417459964752197
0.55504566431045532 0.18262937664985657 0.79603475332260132
0.74941962957382202 0.26777392625808716 0.86621940135955811
0.9063299298286438 0.35011357069015503 0.90026998519897461
0.028676575049757957 0.24078167974948883 0.71903866529464722
0.1085275262594223 0.23974290490150452 0.73076146841049194
0.23996713757514954 0.24829393625259399 0.75101780891418457
0.40127700567245483 0.26297083497047424 0.78040266036987305
0.5603032112121582 0.2883031964302063 0.81421983242034912
0.74823462963104248 0.35985571146011353 0.86986589431762695
0.90926510095596313 0.43743634223937988 0.90459549427032471
0.0072053349576890469 0.37845227122306824 0.77718251943588257
0.060655184090137482 0.39031648635864258 0.78029447793960571
0.22626449167728424 0.40466129779815674 0.8078034520149231
0.40752124786376953 0.41639825701713562 0.82329088449478149
0.57474386692047119 0.43360313773155212 0.84780406951904297
0.7507864236831665 0.4747624397277832 0.8849482536315918
0.91480469703674316 0.55126076936721802 0.91459083557128906
3.5903034586226568e-05 0.52972924709320068 0.81114065647125244
0.015263186767697334 0.53853064775466919 0.82215821743011475
0.1671120673418045 0.55411148071289062 0.83886897563934326
0.39823701977729797 0.57529503107070923 0.86701154708862305
0.59247374534606934 0.60239160060882568 0.88955438137054443
0.76464104652404785 0.62685108184814453 0.90980851650238037
0.92440152168273926 0.68927812576293945 0.9283602237701416
0 0.73271012306213379 0.89624637365341187
0 0.73641777038574219 0.8983120322227478
0.068315036594867706 0.7370409369468689 0.89841651916503906
0.35460951924324036 0.74360597133636475 0.90617114305496216
0.58623969554901123 0.7628861665725708 0.92364531755447388
0.77965503931045532 0.78439122438430786 0.93694299459457397
0.93535256385803223 0.81959706544876099 0.94427412748336792
0 0.97709459066390991 0.98301494121551514
0 0.97428631782531738 0.98113304376602173
0.0011042725527659059 0.97217893600463867 0.98068153858184814
0.1689571738243103 0.97029775381088257 0.97571688890457153
0.53034871816635132 0.96712344884872437 0.96745389699935913
0.75990879535675049 0.962746262550354 0.96050918102264404
0.95312488079071045 0.96065467596054077 0.95773851871490479
