assets/lut/pixlsus hypressen.cube
# Created by: G'MIC (https://gmic.eu)
TITLE "hypressen"
# LUT size
LUT_3D_SIZE 7
# Data domain
DOMAIN_MIN 0.0 0.0 0.0
DOMAIN_MAX 1.0 1.0 1.0
# LUT data points
0.18520070612430573 0.066371455788612366 0.087531194090843201
0.23813380300998688 0.067543730139732361 0.087824217975139618
0.39866229891777039 0.069797232747077942 0.096702903509140015
0.62741965055465698 0.072500772774219513 0.099073611199855804
0.82367157936096191 0.070128284394741058 0.1266491562128067
0.90342211723327637 0.06534227728843689 0.19121116399765015
0.95275300741195679 0.061846204102039337 0.24457496404647827
0.18749701976776123 0.090133011341094971 0.093487650156021118
0.23191654682159424 0.10530509054660797 0.087803289294242859
0.4356473982334137 0.13899868726730347 0.088178731501102448
0.66370922327041626 0.15996554493904114 0.09547906368970871
0.83003687858581543 0.17722421884536743 0.11711098253726959
0.90589255094528198 0.15451362729072571 0.1713588535785675
0.95260405540466309 0.14416040480136871 0.22553740441799164
0.21922242641448975 0.22727462649345398 0.12400034070014954
0.24731668829917908 0.24447625875473022 0.11696922779083252
0.43348497152328491 0.38833451271057129 0.099851004779338837
0.67506122589111328 0.42749550938606262 0.10434886068105698
0.82033634185791016 0.40825390815734863 0.10878723859786987
0.90208327770233154 0.39875087141990662 0.12948013842105865
0.93818694353103638 0.37065112590789795 0.17348752915859222
0.27214613556861877 0.40982168912887573 0.14057351648807526
0.33733409643173218 0.44326317310333252 0.15198121964931488
0.40345349907875061 0.50321024656295776 0.17039898037910461
0.64123368263244629 0.64367544651031494 0.11214414238929749
0.83668297529220581 0.67009365558624268 0.10091211646795273
0.91214936971664429 0.63721251487731934 0.09863726794719696
0.94581007957458496 0.62907308340072632 0.10400673002004623
0.30087998509407043 0.5644761323928833 0.13395600020885468
0.3864864706993103 0.57094305753707886 0.14971402287483215
0.47916421294212341 0.61784309148788452 0.15294551849365234
0.61059677600860596 0.70799976587295532 0.1339995414018631
0.81955915689468384 0.80283498764038086 0.10901317000389099
0.93285214900970459 0.83934366703033447 0.089798435568809509
0.96992290019989014 0.83577525615692139 0.089302659034729004
0.30517414212226868 0.68457043170928955 0.11928166449069977
0.40387943387031555 0.68777012825012207 0.13463008403778076
0.50884521007537842 0.70662188529968262 0.13474765419960022
0.62859243154525757 0.74831277132034302 0.16888710856437683
0.77325427532196045 0.80704414844512939 0.13952378928661346
0.90943312644958496 0.86190760135650635 0.11482326686382294
0.97133076190948486 0.89942270517349243 0.13030503690242767
0.28130057454109192 0.78946739435195923 0.11021647602319717
0.38797691464424133 0.7776343822479248 0.12208949029445648
0.49596276879310608 0.7852485179901123 0.12065514922142029
0.63468396663665771 0.81942403316497803 0.1420397013425827
0.7709234356880188 0.86274617910385132 0.12774369120597839
0.8885037899017334 0.90812015533447266 0.12541970610618591
0.97301381826400757 0.94630670547485352 0.17011983692646027
0.18165050446987152 0.07254529744386673 0.12908966839313507
0.26432695984840393 0.077159687876701355 0.17350789904594421
0.44061571359634399 0.069713711738586426 0.22695912420749664
0.66481631994247437 0.067108973860740662 0.25189107656478882
0.84428888559341431 0.066751040518283844 0.23521764576435089
0.92446047067642212 0.06795579195022583 0.26804712414741516
0.95792317390441895 0.072109058499336243 0.31038931012153625
0.19183392822742462 0.096784301102161407 0.13314877450466156
0.27206829190254211 0.12484074383974075 0.18971641361713409
0.46306639909744263 0.11965798586606979 0.20495861768722534
0.68433839082717896 0.12052664905786514 0.20880554616451263
0.84416097402572632 0.11477717757225037 0.22716309130191803
0.92256754636764526 0.11244295537471771 0.26606738567352295
0.96285903453826904 0.11887712776660919 0.31980964541435242
0.22462639212608337 0.25303122401237488 0.23440824449062347
0.28922185301780701 0.27304765582084656 0.26498809456825256
0.44770228862762451 0.38251516222953796 0.22436676919460297
0.67068910598754883 0.40210404992103577 0.17388193309307098
0.82907611131668091 0.39314338564872742 0.1757398247718811
0.91756004095077515 0.39138969779014587 0.192111536860466
0.95893114805221558 0.3810751736164093 0.28120952844619751
0.28133207559585571 0.41667205095291138 0.27441149950027466
0.35179805755615234 0.43118160963058472 0.2990315854549408
0.41741323471069336 0.49223363399505615 0.33271938562393188
0.65458327531814575 0.64566785097122192 0.19142995774745941
0.84828263521194458 0.67661136388778687 0.11323143541812897
0.91729038953781128 0.63089936971664429 0.11528483033180237
0.95900219678878784 0.63534700870513916 0.12996086478233337
0.30624520778656006 0.55202734470367432 0.27262261509895325
0.38952374458312988 0.56021034717559814 0.28432571887969971
0.4833240807056427 0.61014682054519653 0.30336833000183105
0.61680549383163452 0.70530712604522705 0.26423925161361694
0.82887238264083862 0.81910580396652222 0.16279226541519165
0.94445514678955078 0.86870908737182617 0.094000689685344696
0.97579097747802734 0.86118590831756592 0.11364655196666718
0.30341297388076782 0.66441494226455688 0.25828030705451965
0.40394613146781921 0.67295223474502563 0.26856508851051331
0.51091760396957397 0.697379469871521 0.27415573596954346
0.63602536916732788 0.74753409624099731 0.22839793562889099
0.79769670963287354 0.82665151357650757 0.20508961379528046
0.91394698619842529 0.88917410373687744 0.22950585186481476
0.97991371154785156 0.93984949588775635 0.18227361142635345
0.27927765250205994 0.77757126092910767 0.24728335440158844
0.38625863194465637 0.76785075664520264 0.25610378384590149
0.50023293495178223 0.77792644500732422 0.26066729426383972
0.63891708850860596 0.81386744976043701 0.23314197361469269
0.77598422765731812 0.87086135149002075 0.20898845791816711
0.89464342594146729 0.91620892286300659 0.25116026401519775
0.97500169277191162 0.95477974414825439 0.28206685185432434
0.19232943654060364 0.12263306230306625 0.31213074922561646
0.27936080098152161 0.13110196590423584 0.38007178902626038
0.46838834881782532 0.11743150651454926 0.42754334211349487
0.70074260234832764 0.088412970304489136 0.47412493824958801
0.83313888311386108 0.08464958518743515 0.45827558636665344
0.90549129247665405 0.11053480207920074 0.41381913423538208
0.95436352491378784 0.12851093709468842 0.4085848331451416
0.19922837615013123 0.16019704937934875 0.3504316508769989
0.27887016534805298 0.17030295729637146 0.42099124193191528
0.47467687726020813 0.16564556956291199 0.46585440635681152
0.72139078378677368 0.12379983812570572 0.51141631603240967
0.85175913572311401 0.11104121804237366 0.493935227394104
0.9231383204460144 0.12674227356910706 0.47770231962203979
0.9667479395866394 0.15406692028045654 0.47487065196037292
0.22429987788200378 0.31654304265975952 0.41053998470306396
0.32440653443336487 0.35291916131973267 0.44214358925819397
0.49225521087646484 0.40139555931091309 0.47728642821311951
0.69309484958648682 0.39621374011039734 0.47851359844207764
0.84503889083862305 0.37629586458206177 0.47490522265434265
0.92915982007980347 0.38502368330955505 0.48052090406417847
0.97724974155426025 0.40165936946868896 0.48782393336296082
0.29352709650993347 0.44857650995254517 0.42545992136001587
0.37856808304786682 0.47516635060310364 0.44994744658470154
0.48774474859237671 0.51864480972290039 0.48436644673347473
0.66853064298629761 0.63445669412612915 0.46394062042236328
0.84227490425109863 0.64167726039886475 0.40872180461883545
0.91975146532058716 0.62330389022827148 0.40129879117012024
0.97359079122543335 0.64098954200744629 0.40183737874031067
0.32422283291816711 0.56341016292572021 0.41489246487617493
0.41140589118003845 0.58107614517211914 0.43050935864448547
0.50979775190353394 0.61596852540969849 0.45217883586883545
0.64064913988113403 0.70091986656188965 0.46135294437408447
0.83738738298416138 0.82345938682556152 0.4197593629360199
0.95048373937606812 0.87613517045974731 0.37493005394935608
0.98038840293884277 0.8651348352432251 0.38069960474967957
0.31825911998748779 0.66508370637893677 0.401976078748703
0.4095977246761322 0.67377674579620361 0.41348308324813843
0.51865017414093018 0.69729971885681152 0.42316362261772156
0.65973061323165894 0.75438976287841797 0.42477849125862122
0.81181013584136963 0.83800739049911499 0.40194368362426758
0.92508208751678467 0.91140711307525635 0.45217573642730713
0.98263430595397949 0.95548528432846069 0.4884222149848938
0.29329264163970947 0.76832222938537598 0.3927420973777771
0.39034008979797363 0.76356786489486694 0.39998897910118103
0.50528967380523682 0.77818411588668823 0.40933185815811157
0.65330713987350464 0.81599462032318115 0.40864574909210205
0.78715962171554565 0.87217813730239868 0.4068748950958252
0.89851540327072144 0.91466635465621948 0.45090818405151367
0.97025567293167114 0.96862196922302246 0.50634509325027466
0.20690229535102844 0.23120290040969849 0.51119768619537354
0.2926449179649353 0.24341632425785065 0.52919679880142212
0.46717122197151184 0.22285610437393188 0.54878783226013184
0.68348139524459839 0.1696978360414505 0.58322691917419434
0.8134310245513916 0.16020086407661438 0.57447534799575806
0.88347119092941284 0.1889350563287735 0.52302056550979614
0.94771718978881836 0.21907106041908264 0.51072984933853149
0.21287386119365692 0.2917248010635376 0.54630231857299805
0.29237818717956543 0.306163489818573 0.5579833984375
0.46507570147514343 0.31539374589920044 0.56400996446609497
0.69312852621078491 0.27735123038291931 0.61278611421585083
0.8505968451499939 0.25570490956306458 0.64173614978790283
0.90200138092041016 0.31385377049446106 0.56396865844726562
0.95505988597869873 0.31198835372924805 0.54036915302276611
0.2581762969493866 0.40864604711532593 0.57971668243408203
0.36247101426124573 0.42738524079322815 0.58352768421173096
0.50368213653564453 0.46118432283401489 0.60560959577560425
0.71228963136672974 0.47656545042991638 0.63732314109802246
0.86325162649154663 0.4773307740688324 0.66090863943099976
0.92724031209945679 0.4754052460193634 0.60991489887237549
0.96463942527770996 0.48310711979866028 0.57434868812561035
0.34362581372261047 0.52151340246200562 0.58365148305892944
0.43096345663070679 0.54988157749176025 0.5894661545753479
0.54833102226257324 0.59110379219055176 0.60991173982620239
0.70438206195831299 0.64563107490539551 0.62643218040466309
0.83766871690750122 0.64942198991775513 0.59535461664199829
0.92749631404876709 0.65150147676467896 0.59093654155731201
0.97349220514297485 0.6722150444984436 0.60308158397674561
0.36077862977981567 0.60226190090179443 0.57112878561019897
0.4509594738483429 0.61866682767868042 0.57553565502166748
0.55319368839263916 0.64845430850982666 0.59339010715484619
0.69211351871490479 0.7142137885093689 0.61846703290939331
0.85674571990966797 0.82282894849777222 0.62026125192642212
0.94319432973861694 0.85905671119689941 0.62539839744567871
0.98148119449615479 0.84404301643371582 0.60728162527084351
0.34304726123809814 0.68409186601638794 0.55359125137329102
0.4300256073474884 0.68672603368759155 0.56177425384521484
0.54210269451141357 0.70927077531814575 0.57887953519821167
0.6710742712020874 0.75699800252914429 0.59313052892684937
0.81922286748886108 0.83843249082565308 0.61867713928222656
0.92883443832397461 0.91742110252380371 0.66192412376403809
0.98360598087310791 0.95402419567108154 0.68430042266845703
0.3046155571937561 0.77635067701339722 0.54657340049743652
0.39851763844490051 0.77260351181030273 0.548714280128479
0.51611411571502686 0.78362298011779785 0.56420660018920898
0.64867109060287476 0.82213926315307617 0.57232958078384399
0.79203981161117554 0.87396383285522461 0.60393399000167847
0.90281003713607788 0.92187041044235229 0.6489485502243042
0.9703366756439209 0.97559577226638794 0.70702201128005981
0.23213636875152588 0.3167320191860199 0.65039736032485962
0.32310593128204346 0.31914150714874268 0.64382606744766235
0.4592418372631073 0.30293041467666626 0.64026558399200439
0.64323556423187256 0.25565177202224731 0.64811408519744873
0.77602940797805786 0.24070373177528381 0.63310384750366211
0.862415611743927 0.2516268789768219 0.61442810297012329
0.93824148178100586 0.26060199737548828 0.5943952202796936
0.26490211486816406 0.40871870517730713 0.67950111627578735
0.35540926456451416 0.41266271471977234 0.66596519947052002
0.47440630197525024 0.41614881157875061 0.64820027351379395
0.63875144720077515 0.37622100114822388 0.65124142169952393
0.79433149099349976 0.3499128520488739 0.65305191278457642
0.87448424100875854 0.37493464350700378 0.62067341804504395
0.93849951028823853 0.37127196788787842 0.60043245553970337
0.33426734805107117 0.50375378131866455 0.72912108898162842
0.41604211926460266 0.52059674263000488 0.69707053899765015
0.52123349905014038 0.52955138683319092 0.68191349506378174
0.65493768453598022 0.51854395866394043 0.66477161645889282
0.78929877281188965 0.51039588451385498 0.65741556882858276
0.88204997777938843 0.51137840747833252 0.62777101993560791
0.9447396993637085 0.51297593116760254 0.60867899656295776
0.42631593346595764 0.60684764385223389 0.74135547876358032
0.49379149079322815 0.62256777286529541 0.7384074330329895
0.58479595184326172 0.64382755756378174 0.73102635145187378
0.68621915578842163 0.66181617975234985 0.70028334856033325
0.79877161979675293 0.68237411975860596 0.67141282558441162
0.88807594776153564 0.67686313390731812 0.63886106014251709
0.94637179374694824 0.6796078085899353 0.63488250970840454
0.41692888736724854 0.65223324298858643 0.74043524265289307
0.49508869647979736 0.66565167903900146 0.73545730113983154
0.59287798404693604 0.69524478912353516 0.73870480060577393
0.70018357038497925 0.73898249864578247 0.73766130208969116
0.81913262605667114 0.79205304384231567 0.72452133893966675
0.91451132297515869 0.83547240495681763 0.71829205751419067
0.96724295616149902 0.83500027656555176 0.70775437355041504
0.37426230311393738 0.7132563591003418 0.72755944728851318
0.46092799305915833 0.71782642602920532 0.72449946403503418
0.55789738893508911 0.7316325306892395 0.72587621212005615
0.6810142993927002 0.77950412034988403 0.73190051317214966
0.80696684122085571 0.84103387594223022 0.74980533123016357
0.91942328214645386 0.90752851963043213 0.81787490844726562
0.98548686504364014 0.94658827781677246 0.85803490877151489
0.32502448558807373 0.79290330410003662 0.71494483947753906
0.42129015922546387 0.7890770435333252 0.71122360229492188
0.52550435066223145 0.79805624485015869 0.71140784025192261
0.64733630418777466 0.83552294969558716 0.71443665027618408
0.78070724010467529 0.87739044427871704 0.74699348211288452
0.89919346570968628 0.92697328329086304 0.81238913536071777
0.9736713171005249 0.97931188344955444 0.88522684574127197
0.2526339590549469 0.35002923011779785 0.75826478004455566
0.3487047553062439 0.35019031167030334 0.74944353103637695
0.468801349401474 0.33173847198486328 0.73156964778900146
0.60826241970062256 0.29463136196136475 0.71509820222854614
0.74670493602752686 0.26841509342193604 0.70299369096755981
0.83881562948226929 0.27251908183097839 0.68983620405197144
0.92826884984970093 0.26300379633903503 0.6748846173286438
0.30896621942520142 0.45130622386932373 0.77428144216537476
0.3938886821269989 0.46258583664894104 0.76450943946838379
0.48983305692672729 0.44013163447380066 0.7341310977935791
0.62046444416046143 0.39985007047653198 0.71578419208526611
0.75741589069366455 0.36943605542182922 0.70597320795059204
0.84740519523620605 0.38001886010169983 0.68211060762405396
0.92757952213287354 0.3785952627658844 0.67352819442749023
0.3869597315788269 0.56018185615539551 0.81386226415634155
0.45723077654838562 0.57342946529388428 0.80641013383865356
0.53627747297286987 0.55155026912689209 0.76617145538330078
0.64317268133163452 0.52646243572235107 0.73382461071014404
0.74944651126861572 0.51424837112426758 0.70822811126708984
0.85269784927368164 0.50835138559341431 0.68321853876113892
0.93449938297271729 0.50759792327880859 0.67083799839019775
0.47900480031967163 0.65968090295791626 0.86872744560241699
0.53127270936965942 0.67293334007263184 0.86324763298034668
0.59497684240341187 0.6746666431427002 0.8209843635559082
0.68757635354995728 0.67320472002029419 0.79877018928527832
0.77078449726104736 0.65960347652435303 0.7437744140625
0.86416614055633545 0.66665613651275635 0.71289336681365967
0.9414980411529541 0.66510111093521118 0.69262617826461792
0.44413024187088013 0.68432259559631348 0.85235834121704102
0.51350957155227661 0.69725364446640015 0.84489470720291138
0.61995673179626465 0.73197722434997559 0.8576546311378479
0.71251803636550903 0.7678716778755188 0.85300928354263306
0.79120552539825439 0.77811914682388306 0.80635613203048706
0.88241195678710938 0.80142444372177124 0.78461951017379761
0.95418906211853027 0.81077390909194946 0.77185559272766113
0.38539135456085205 0.73146277666091919 0.84022921323776245
0.47224020957946777 0.73977315425872803 0.83344703912734985
0.57417458295822144 0.75664430856704712 0.83778947591781616
0.67948609590530396 0.79577863216400146 0.8418271541595459
0.78661161661148071 0.84259158372879028 0.84534579515457153
0.88970804214477539 0.88562285900115967 0.86556452512741089
0.96385902166366577 0.91516953706741333 0.87535268068313599
0.33214965462684631 0.80345731973648071 0.83186906576156616
0.42988899350166321 0.80607098340988159 0.8250725269317627
0.53603237867355347 0.8152695894241333 0.82626962661743164
0.65463781356811523 0.85024690628051758 0.8326842188835144
0.77339982986450195 0.88960617780685425 0.84884464740753174
0.88552868366241455 0.92698580026626587 0.88793736696243286
0.97105669975280762 0.97609686851501465 0.94678366184234619
0.24713844060897827 0.33494111895561218 0.84168285131454468
0.3573242723941803 0.34808483719825745 0.84432500600814819
0.46695432066917419 0.32516801357269287 0.81591862440109253
0.58724349737167358 0.27502292394638062 0.79793632030487061
0.72672945261001587 0.24793146550655365 0.78078120946884155
0.83013463020324707 0.24841845035552979 0.7703356146812439
0.92920690774917603 0.23956680297851562 0.77241998910903931
0.2981637716293335 0.44354379177093506 0.84184497594833374
0.39589232206344604 0.46241754293441772 0.84421145915985107
0.49314895272254944 0.43490421772003174 0.81346583366394043
0.60979664325714111 0.39111369848251343 0.79346829652786255
0.73101592063903809 0.36618167161941528 0.77994692325592041
0.83239811658859253 0.36632233858108521 0.76299291849136353
0.92605417966842651 0.36140897870063782 0.76065194606781006
0.3612312376499176 0.54868966341018677 0.86469656229019165
0.44531440734863281 0.5643121600151062 0.86432749032974243
0.5356481671333313 0.54208594560623169 0.83836686611175537
0.64016449451446533 0.53280633687973022 0.8126530647277832
0.74135559797286987 0.50768685340881348 0.78916102647781372
0.83850079774856567 0.50000274181365967 0.76562297344207764
0.93218851089477539 0.49237769842147827 0.76052200794219971
0.41760361194610596 0.63499486446380615 0.89380770921707153
0.49040335416793823 0.65202409029006958 0.88875699043273926
0.57263416051864624 0.65693539381027222 0.87251609563827515
0.66916465759277344 0.66942662000656128 0.85473120212554932
0.75628364086151123 0.64777839183807373 0.81452488899230957
0.85058045387268066 0.64478963613510132 0.79415488243103027
0.94125837087631226 0.64942818880081177 0.78213471174240112
0.41032692790031433 0.68621957302093506 0.89967167377471924
0.49077478051185608 0.70187675952911377 0.89232182502746582
0.58196777105331421 0.72313946485519409 0.89112132787704468
0.68094253540039062 0.74857497215270996 0.88314360380172729
0.77502310276031494 0.76734691858291626 0.87194442749023438
0.86332243680953979 0.77339786291122437 0.85150367021560669
0.94762736558914185 0.78554248809814453 0.83499312400817871
0.36832591891288757 0.73565733432769775 0.90259867906570435
0.45403403043746948 0.74746191501617432 0.89122223854064941
0.55962377786636353 0.76330304145812988 0.89052218198776245
0.66442549228668213 0.79673111438751221 0.89580589532852173
0.77245557308197021 0.83908480405807495 0.90789371728897095
0.87189334630966187 0.87295496463775635 0.91013020277023315
0.95876854658126831 0.8958439826965332 0.90259921550750732
0.32257315516471863 0.81360000371932983 0.90747225284576416
0.42355981469154358 0.81360149383544922 0.89478194713592529
0.5286065936088562 0.82459712028503418 0.89685863256454468
0.64255827665328979 0.85750347375869751 0.90132570266723633
0.76690483093261719 0.89335006475448608 0.9133528470993042
0.87458193302154541 0.92917901277542114 0.92993557453155518
0.96309620141983032 0.96626991033554077 0.94975727796554565
