assets/lut/pixlsus warm vintage.cube
# Created by: G'MIC (https://gmic.eu)
TITLE "warm_vintage"
# LUT size
LUT_3D_SIZE 5
# Data domain
DOMAIN_MIN 0.0 0.0 0.0
DOMAIN_MAX 1.0 1.0 1.0
# LUT data points
0.073510535061359406 0.070058055222034454 0.067882195115089417
0.2189251035451889 0.030605494976043701 0.0321059450507164
0.4119378924369812 0.037375088781118393 0.032216764986515045
0.64270639419555664 0.040765978395938873 0.030659515410661697
0.85976779460906982 0.045756127685308456 0.032274030148983002
0.047166384756565094 0.23734664916992188 0.039275839924812317
0.23152333498001099 0.22827446460723877 0.035775188356637955
0.36471790075302124 0.19071049988269806 0.027634264901280403
0.60426396131515503 0.21184881031513214 0.031707555055618286
0.82818317413330078 0.23061870038509369 0.026890594512224197
0.050237290561199188 0.4160313606262207 0.035754617303609848
0.22908377647399902 0.41543751955032349 0.033009279519319534
0.42092403769493103 0.41517424583435059 0.030392052605748177
0.61107945442199707 0.40984976291656494 0.028745509684085846
0.80800974369049072 0.41793018579483032 0.030693158507347107
0.057284172624349594 0.6435205340385437 0.038291573524475098
0.23979201912879944 0.64644145965576172 0.043172139674425125
0.44290027022361755 0.64491134881973267 0.043617710471153259
0.64873164892196655 0.64506006240844727 0.039128649979829788
0.83796536922454834 0.64654755592346191 0.031001446768641472
0.052581172436475754 0.8656926155090332 0.032484255731105804
0.2469005286693573 0.8696478009223938 0.032623633742332458
0.45231282711029053 0.86908411979675293 0.029579581692814827
0.67229765653610229 0.87008869647979736 0.029567478224635124
0.86654341220855713 0.86649203300476074 0.02907085046172142
0.056798689067363739 0.039222389459609985 0.26855811476707458
0.31039538979530334 0.043430253863334656 0.27408969402313232
0.58518713712692261 0.059678364545106888 0.30530548095703125
0.7813606858253479 0.073654592037200928 0.28659355640411377
0.96357572078704834 0.063056424260139465 0.26378065347671509
0.068007767200469971 0.30929794907569885 0.27824383974075317
0.3321940004825592 0.30879166722297668 0.24945621192455292
0.55458611249923706 0.30486690998077393 0.27989789843559265
0.73965197801589966 0.27922543883323669 0.26505067944526672
0.93308645486831665 0.27965632081031799 0.25965091586112976
0.085137806832790375 0.60056525468826294 0.31396406888961792
0.35358718037605286 0.60149067640304565 0.30521947145462036
0.6082146167755127 0.5979689359664917 0.30607372522354126
0.74377959966659546 0.51931977272033691 0.27344158291816711
0.91027820110321045 0.49126759171485901 0.25606212019920349
0.077216774225234985 0.79432129859924316 0.29613515734672546
0.32030922174453735 0.79287278652191162 0.30216947197914124
0.57818663120269775 0.79285699129104614 0.30679351091384888
0.79357963800430298 0.79238951206207275 0.283885657787323
0.94279950857162476 0.75392305850982666 0.25987747311592102
0.10578768700361252 0.96499603986740112 0.2634698748588562
0.29211023449897766 0.96612101793289185 0.26497521996498108
0.532734215259552 0.9671749472618103 0.26750943064689636
0.76746273040771484 0.9691392183303833 0.26647338271141052
0.96957647800445557 0.97704082727432251 0.26175662875175476
0.051182825118303299 0.036308392882347107 0.47795945405960083
0.28428873419761658 0.042755559086799622 0.479299396276474
0.52415347099304199 0.043462760746479034 0.4943261444568634
0.80333757400512695 0.065671630203723907 0.52546948194503784
0.99038451910018921 0.075474865734577179 0.5184817910194397
0.055039871484041214 0.25167402625083923 0.44039842486381531
0.26780444383621216 0.23391929268836975 0.39154672622680664
0.4816138744354248 0.23767657577991486 0.39611229300498962
0.77843564748764038 0.28560486435890198 0.48867321014404297
0.98706179857254028 0.31655570864677429 0.52662253379821777
0.057268492877483368 0.53370869159698486 0.49434316158294678
0.29944023489952087 0.5130736231803894 0.43714338541030884
0.5428541898727417 0.50258660316467285 0.43413206934928894
0.78048884868621826 0.53606110811233521 0.47851702570915222
0.98280668258666992 0.56817328929901123 0.5374443531036377
0.076958812773227692 0.80711209774017334 0.52480918169021606
0.33187127113342285 0.81121325492858887 0.51613426208496094
0.59156680107116699 0.81716489791870117 0.50986135005950928
0.83707696199417114 0.83347028493881226 0.51820868253707886
0.99464553594589233 0.8243597149848938 0.54089516401290894
0.06880594789981842 0.99125432968139648 0.51284021139144897
0.31197008490562439 0.9917762279510498 0.52266114950180054
0.57339537143707275 0.99109882116317749 0.54281461238861084
0.81936615705490112 0.99470812082290649 0.54105764627456665
0.9923437237739563 0.9934266209602356 0.5382457971572876
0.08616136759519577 0.041091516613960266 0.70268267393112183
0.27310320734977722 0.043876722455024719 0.71000254154205322
0.50404244661331177 0.054496269673109055 0.69824683666229248
0.76971703767776489 0.041729375720024109 0.71880549192428589
0.99182695150375366 0.058236919343471527 0.74123674631118774
0.059056930243968964 0.24092237651348114 0.67197126150131226
0.25576949119567871 0.23635374009609222 0.63620442152023315
0.4871152937412262 0.24109683930873871 0.6314806342124939
0.73712706565856934 0.24758297204971313 0.65022522211074829
0.97442007064819336 0.28749817609786987 0.71091490983963013
0.053590137511491776 0.49328404664993286 0.68040621280670166
0.27289274334907532 0.47521102428436279 0.63493567705154419
0.52031779289245605 0.47558343410491943 0.60896360874176025
0.73941779136657715 0.4832034707069397 0.60374945402145386
0.96370679140090942 0.52681660652160645 0.68980169296264648
0.065996594727039337 0.76874202489852905 0.71961230039596558
0.3024384081363678 0.76152652502059937 0.68174344301223755
0.55542552471160889 0.75385397672653198 0.63843482732772827
0.78698217868804932 0.75969094038009644 0.65480011701583862
0.97489577531814575 0.78602045774459839 0.6905626654624939
0.065310642123222351 0.98836135864257812 0.73268550634384155
0.29918810725212097 0.9875902533531189 0.71741688251495361
0.55099868774414062 0.99163275957107544 0.71421408653259277
0.80986630916595459 0.99035763740539551 0.6982390284538269
0.98884177207946777 0.99283808469772339 0.69826948642730713
0.051336564123630524 0.037077166140079498 0.91945266723632812
0.27471745014190674 0.042034313082695007 0.91092592477798462
0.50858694314956665 0.049339517951011658 0.91540473699569702
0.75935548543930054 0.045927219092845917 0.91619873046875
0.97010517120361328 0.04541696235537529 0.91300874948501587
0.052162244915962219 0.25582265853881836 0.90562868118286133
0.26787444949150085 0.24618533253669739 0.87699347734451294
0.49593058228492737 0.25761681795120239 0.86115914583206177
0.74582529067993164 0.25932079553604126 0.86093437671661377
0.95968931913375854 0.26287835836410522 0.87014526128768921
0.094033919274806976 0.47791579365730286 0.87724900245666504
0.26981517672538757 0.48146605491638184 0.85042911767959595
0.50574153661727905 0.48703798651695251 0.82702124118804932
0.74058860540390015 0.48879078030586243 0.81259971857070923
0.94690382480621338 0.48892325162887573 0.82773667573928833
0.05416419729590416 0.73968696594238281 0.9087148904800415
0.28294289112091064 0.73779666423797607 0.87277936935424805
0.52806442975997925 0.73578113317489624 0.83590292930603027
0.76717549562454224 0.73705220222473145 0.80413925647735596
0.96770834922790527 0.73954731225967407 0.80993497371673584
0.058108925819396973 0.96904212236404419 0.91770374774932861
0.28654414415359497 0.97508126497268677 0.88726150989532471
0.53096646070480347 0.97299140691757202 0.8550955057144165
0.78120529651641846 0.97483527660369873 0.82030242681503296
0.98637169599533081 0.97037839889526367 0.8484463095664978
