assets/lut/pixlsus amstragram.cube
# Created by: G'MIC (https://gmic.eu)
TITLE "amstragram"
# LUT size
LUT_3D_SIZE 7
# Data domain
DOMAIN_MIN 0.0 0.0 0.0
DOMAIN_MAX 1.0 1.0 1.0
# LUT data points
0.09331386536359787 0.13070030510425568 0.13350208103656769
0.17708569765090942 0.12183248251676559 0.10522647947072983
0.34286338090896606 0.15155878663063049 0.097373664379119873
0.51327013969421387 0.1913103461265564 0.11666751652956009
0.6594967246055603 0.21289244294166565 0.15805171430110931
0.76067113876342773 0.21513484418392181 0.17718376219272614
0.83355885744094849 0.20864175260066986 0.17669710516929626
0.062556624412536621 0.18503785133361816 0.15416224300861359
0.15671984851360321 0.19552455842494965 0.14175312221050262
0.34183612465858459 0.22441516816616058 0.12749002873897552
0.53022873401641846 0.27494692802429199 0.14752466976642609
0.66639918088912964 0.30387791991233826 0.16491110622882843
0.7566673755645752 0.30919519066810608 0.18346768617630005
0.84127169847488403 0.29770287871360779 0.18561822175979614
0.091367237269878387 0.27453413605690002 0.18787102401256561
0.16004166007041931 0.30520588159561157 0.20862245559692383
0.34474301338195801 0.34566909074783325 0.21232466399669647
0.55443179607391357 0.3901924192905426 0.19645431637763977
0.69710499048233032 0.42408460378646851 0.18689383566379547
0.78934258222579956 0.43368467688560486 0.2033841609954834
0.85048019886016846 0.41873002052307129 0.20843927562236786
0.15925987064838409 0.38257375359535217 0.22694353759288788
0.24396896362304688 0.40755501389503479 0.25647097826004028
0.39660906791687012 0.46852660179138184 0.29960101842880249
0.57291984558105469 0.52065545320510864 0.30459499359130859
0.73086810111999512 0.55091637372970581 0.27440142631530762
0.83042007684707642 0.56856280565261841 0.25602555274963379
0.87588655948638916 0.55311113595962524 0.24358759820461273
0.19941723346710205 0.49488186836242676 0.24353793263435364
0.30479243397712708 0.51069051027297974 0.2714209258556366
0.44042566418647766 0.54433679580688477 0.30571100115776062
0.5975722074508667 0.59262406826019287 0.31826633214950562
0.74614804983139038 0.65493994951248169 0.33178937435150146
0.86437159776687622 0.68402588367462158 0.30537816882133484
0.92047131061553955 0.67684471607208252 0.28239905834197998
0.21626962721347809 0.61337858438491821 0.24234519898891449
0.32169896364212036 0.61962729692459106 0.26540598273277283
0.44743442535400391 0.63176900148391724 0.28240159153938293
0.59596508741378784 0.66103410720825195 0.30150249600410461
0.73922991752624512 0.7031511664390564 0.31825524568557739
0.8570670485496521 0.74471443891525269 0.31650996208190918
0.93372577428817749 0.75825446844100952 0.2948344349861145
0.21190854907035828 0.72968512773513794 0.22096750140190125
0.31722256541252136 0.7190176248550415 0.23733320832252502
0.44329553842544556 0.72273916006088257 0.25600922107696533
0.58698862791061401 0.73532730340957642 0.27306213974952698
0.72681182622909546 0.76199299097061157 0.2937069833278656
0.85435944795608521 0.79791229963302612 0.29376748204231262
0.9296535849571228 0.81321847438812256 0.2859504222869873
0.093392178416252136 0.13234691321849823 0.19201965630054474
0.16867400705814362 0.12980668246746063 0.17058521509170532
0.33340594172477722 0.15640935301780701 0.16175854206085205
0.53133112192153931 0.20480512082576752 0.17600168287754059
0.67106318473815918 0.2374911904335022 0.19731445610523224
0.77581620216369629 0.2436414361000061 0.21652911603450775
0.83274310827255249 0.23256994783878326 0.22425056993961334
0.071111701428890228 0.18013307452201843 0.22835063934326172
0.15461389720439911 0.20003528892993927 0.20933195948600769
0.33071115612983704 0.23244167864322662 0.20192579925060272
0.52428507804870605 0.27908626198768616 0.20433606207370758
0.66519343852996826 0.30634579062461853 0.21868860721588135
0.76622492074966431 0.31269219517707825 0.22754949331283569
0.84097427129745483 0.30521118640899658 0.24146223068237305
0.11356090754270554 0.27941811084747314 0.2743682861328125
0.15892009437084198 0.30541983246803284 0.27639934420585632
0.31733295321464539 0.34321379661560059 0.28138026595115662
0.54896509647369385 0.39465296268463135 0.28126317262649536
0.69115442037582397 0.42580306529998779 0.27405628561973572
0.78637349605560303 0.43306592106819153 0.27658343315124512
0.85183298587799072 0.4207051694393158 0.27297583222389221
0.17438063025474548 0.39818385243415833 0.31287708878517151
0.22240746021270752 0.41291144490242004 0.32034781575202942
0.32738670706748962 0.46718120574951172 0.36343395709991455
0.55080592632293701 0.52682995796203613 0.38460677862167358
0.72030138969421387 0.55438244342803955 0.35453134775161743
0.8344566822052002 0.57026463747024536 0.32418814301490784
0.87820452451705933 0.55305880308151245 0.31292414665222168
0.20895548164844513 0.50238037109375 0.33960437774658203
0.2924182116985321 0.51380038261413574 0.35465317964553833
0.40818294882774353 0.55535662174224854 0.39006084203720093
0.58336597681045532 0.61711233854293823 0.42308086156845093
0.73718678951263428 0.6642155647277832 0.42306375503540039
0.85877484083175659 0.68473213911056519 0.38267514109611511
0.9211125373840332 0.68034982681274414 0.36059972643852234
0.22013744711875916 0.60851985216140747 0.34261927008628845
0.30959340929985046 0.61508405208587646 0.35707923769950867
0.43418315052986145 0.63696509599685669 0.37889012694358826
0.58948761224746704 0.67174410820007324 0.40666073560714722
0.73077559471130371 0.70761489868164062 0.40670713782310486
0.85873878002166748 0.75817441940307617 0.40209168195724487
0.93289053440093994 0.77946078777313232 0.37220615148544312
0.21379709243774414 0.70946800708770752 0.32727164030075073
0.31028154492378235 0.71241289377212524 0.33979591727256775
0.43707159161567688 0.7210390567779541 0.35771399736404419
0.58127468824386597 0.73386967182159424 0.37264516949653625
0.72597682476043701 0.7603447437286377 0.37851426005363464
0.85436761379241943 0.79843485355377197 0.37196055054664612
0.92900043725967407 0.81779897212982178 0.36311560869216919
0.11642470955848694 0.15238390862941742 0.26323768496513367
0.15819841623306274 0.14195752143859863 0.23330381512641907
0.31347733736038208 0.15374504029750824 0.22058410942554474
0.51288104057312012 0.20673608779907227 0.2398020476102829
0.66521364450454712 0.24131160974502563 0.24879488348960876
0.7837371826171875 0.25775089859962463 0.26394480466842651
0.84262925386428833 0.25485199689865112 0.27910980582237244
0.10487332940101624 0.19988761842250824 0.31168383359909058
0.14494827389717102 0.19812975823879242 0.27747330069541931
0.30092960596084595 0.22789047658443451 0.26806116104125977
0.50827664136886597 0.2815743088722229 0.27796775102615356
0.67173844575881958 0.3109343945980072 0.27708974480628967
0.79081058502197266 0.3222934901714325 0.26659578084945679
0.85728657245635986 0.31563743948936462 0.28306287527084351
0.10563686490058899 0.2872922420501709 0.35325890779495239
0.15685701370239258 0.29618409276008606 0.34894394874572754
0.30540382862091064 0.34346336126327515 0.35029008984565735
0.52648454904556274 0.39791068434715271 0.35797005891799927
0.68928003311157227 0.42602646350860596 0.35479944944381714
0.80709785223007202 0.43678528070449829 0.3345969021320343
0.8727116584777832 0.41813397407531738 0.31753629446029663
0.1731429398059845 0.39843115210533142 0.41000047326087952
0.22646965086460114 0.42132645845413208 0.40800899267196655
0.30624905228614807 0.47292596101760864 0.42926952242851257
0.52868956327438354 0.53138262033462524 0.45868390798568726
0.71373391151428223 0.55999886989593506 0.44173333048820496
0.82941317558288574 0.56278485059738159 0.40976178646087646
0.88688689470291138 0.55376005172729492 0.39520877599716187
0.21260879933834076 0.50336229801177979 0.44265502691268921
0.28615871071815491 0.52505898475646973 0.44559517502784729
0.37754121422767639 0.56553727388381958 0.46192798018455505
0.54765802621841431 0.62293785810470581 0.50458014011383057
0.71928083896636963 0.67850559949874878 0.51867532730102539
0.85125690698623657 0.69318693876266479 0.47991448640823364
0.92336344718933105 0.68969130516052246 0.4405253529548645
0.22095702588558197 0.59806102514266968 0.44475242495536804
0.30379432439804077 0.61700540781021118 0.44989922642707825
0.41590431332588196 0.64060676097869873 0.46561172604560852
0.56868553161621094 0.67764729261398315 0.4932287335395813
0.7250446081161499 0.72002452611923218 0.50673049688339233
0.83863973617553711 0.75161886215209961 0.49929156899452209
0.94436526298522949 0.78608173131942749 0.48151218891143799
0.20348204672336578 0.69679218530654907 0.43436688184738159
0.30045482516288757 0.70831418037414551 0.44013553857803345
0.42364650964736938 0.71986639499664307 0.45579224824905396
0.57431721687316895 0.74074172973632812 0.47152036428451538
0.71719872951507568 0.76953661441802979 0.47897902131080627
0.83819973468780518 0.79251283407211304 0.47383973002433777
0.93748342990875244 0.81978785991668701 0.46510079503059387
0.12834203243255615 0.18534263968467712 0.36838570237159729
0.19746831059455872 0.19094574451446533 0.34387731552124023
0.33011072874069214 0.19150514900684357 0.31796574592590332
0.49079763889312744 0.21209466457366943 0.31752538681030273
0.6619715690612793 0.2472507655620575 0.31656390428543091
0.76934146881103516 0.25711837410926819 0.32003164291381836
0.83313888311386108 0.24857886135578156 0.34089502692222595
0.13322976231575012 0.24538254737854004 0.39000073075294495
0.1791565865278244 0.24602355062961578 0.36787128448486328
0.29073071479797363 0.24839697778224945 0.34339508414268494
0.49485287070274353 0.28818237781524658 0.36247974634170532
0.66146719455718994 0.31637004017829895 0.36155340075492859
0.77639269828796387 0.32315155863761902 0.35294073820114136
0.84840577840805054 0.31811541318893433 0.33509811758995056
0.12276683002710342 0.33146259188652039 0.41695061326026917
0.17480483651161194 0.32257288694381714 0.42915907502174377
0.2823621928691864 0.34691670536994934 0.4183882474899292
0.51289170980453491 0.40990668535232544 0.44156768918037415
0.67755365371704102 0.43402653932571411 0.43918994069099426
0.79805809259414673 0.43435466289520264 0.41865378618240356
0.87922877073287964 0.40589570999145508 0.37562832236289978
0.17767326533794403 0.43948167562484741 0.49960651993751526
0.22481290996074677 0.45020267367362976 0.50146001577377319
0.30188882350921631 0.46546351909637451 0.49564811587333679
0.52825844287872314 0.53674638271331787 0.52652865648269653
0.70412009954452515 0.56480866670608521 0.52832579612731934
0.82708334922790527 0.5708807110786438 0.51053941249847412
0.89136511087417603 0.54952329397201538 0.47533166408538818
0.22197283804416656 0.51764756441116333 0.53826743364334106
0.27769953012466431 0.53680551052093506 0.53907495737075806
0.37487059831619263 0.57883429527282715 0.54907578229904175
0.51897740364074707 0.63516479730606079 0.57212746143341064
0.71470063924789429 0.69022434949874878 0.6054195761680603
0.84789359569549561 0.70249152183532715 0.57783764600753784
0.93081319332122803 0.68777310848236084 0.54605209827423096
0.22489866614341736 0.5970035195350647 0.54178923368453979
0.29720371961593628 0.6135106086730957 0.55324810743331909
0.40534019470214844 0.64280414581298828 0.56509929895401001
0.55293077230453491 0.69640761613845825 0.59214520454406738
0.72266954183578491 0.75754088163375854 0.62968450784683228
0.84787970781326294 0.78318107128143311 0.61817401647567749
0.9388929009437561 0.78633671998977661 0.5933719277381897
0.21856696903705597 0.69290578365325928 0.54021519422531128
0.29233196377754211 0.69732868671417236 0.54577255249023438
0.41109439730644226 0.71620577573776245 0.56728148460388184
0.55766069889068604 0.74779558181762695 0.5882381796836853
0.7094109058380127 0.79170477390289307 0.61185324192047119
0.83887594938278198 0.82325202226638794 0.61567795276641846
0.93509572744369507 0.82734793424606323 0.58761101961135864
0.13491767644882202 0.20264272391796112 0.47846809029579163
0.2243226021528244 0.21435452997684479 0.46002921462059021
0.35881310701370239 0.2330736517906189 0.44571360945701599
0.51230573654174805 0.25077405571937561 0.43896394968032837
0.6554102897644043 0.25290641188621521 0.41267237067222595
0.76669681072235107 0.25315329432487488 0.39085942506790161
0.81708472967147827 0.24935877323150635 0.39995697140693665
0.14339955151081085 0.28188210725784302 0.49102652072906494
0.20031222701072693 0.28812608122825623 0.46999707818031311
0.33522871136665344 0.30942651629447937 0.46855068206787109
0.50589311122894287 0.32556614279747009 0.46506187319755554
0.65516239404678345 0.33344745635986328 0.45328649878501892
0.76701658964157104 0.3330497145652771 0.43776533007621765
0.83295160531997681 0.31081593036651611 0.431295245885849
0.15702341496944427 0.38220560550689697 0.51591503620147705
0.2141101062297821 0.38272657990455627 0.50525271892547607
0.32077750563621521 0.40020206570625305 0.50926351547241211
0.51128751039505005 0.43107485771179199 0.52043622732162476
0.66849064826965332 0.44544592499732971 0.52353024482727051
0.78324460983276367 0.43797093629837036 0.50914525985717773
0.85602229833602905 0.41267484426498413 0.48095294833183289
0.19507585465908051 0.47410571575164795 0.56080442667007446
0.24517308175563812 0.48142388463020325 0.56521075963973999
0.32412195205688477 0.491506427526474 0.56914865970611572
0.5231773853302002 0.54549044370651245 0.59293043613433838
0.69816380739212036 0.5686524510383606 0.60478854179382324
0.80952143669128418 0.57775545120239258 0.59817427396774292
0.88883638381958008 0.55476653575897217 0.56056839227676392
0.23675763607025146 0.54993808269500732 0.60711193084716797
0.29010823369026184 0.5642019510269165 0.61869484186172485
0.36045974493026733 0.58666902780532837 0.62187933921813965
0.51938378810882568 0.64333873987197876 0.65251892805099487
0.71396154165267944 0.6972881555557251 0.67788064479827881
0.84033775329589844 0.70838606357574463 0.67339903116226196
0.93312978744506836 0.70383429527282715 0.65227574110031128
0.25286036729812622 0.62638771533966064 0.62821906805038452
0.30522659420967102 0.62858003377914429 0.63761186599731445
0.39993619918823242 0.66035646200180054 0.65835195779800415
0.55547720193862915 0.72968363761901855 0.68903696537017822
0.71758103370666504 0.79385733604431152 0.72223049402236938
0.85955649614334106 0.82131057977676392 0.73622888326644897
0.93198215961456299 0.80807584524154663 0.70808637142181396
0.22838148474693298 0.71480834484100342 0.63946783542633057
0.30974972248077393 0.70402932167053223 0.64683669805526733
0.40778002142906189 0.72796303033828735 0.66856545209884644
0.54985427856445312 0.77701157331466675 0.69987320899963379
0.72418183088302612 0.83590793609619141 0.73185807466506958
0.85495638847351074 0.86522489786148071 0.75007724761962891
0.92715162038803101 0.86464405059814453 0.72593057155609131
0.13527862727642059 0.20850369334220886 0.58904504776000977
0.22571715712547302 0.21884624660015106 0.57226979732513428
0.36502915620803833 0.24041962623596191 0.56457388401031494
0.52227181196212769 0.25054278969764709 0.54856961965560913
0.66268903017044067 0.24270321428775787 0.50563174486160278
0.76277971267700195 0.24451766908168793 0.48558542132377625
0.83212578296661377 0.23761290311813354 0.47937539219856262
0.15433807671070099 0.30408743023872375 0.58773338794708252
0.22121274471282959 0.30812364816665649 0.5733826756477356
0.35970300436019897 0.32520225644111633 0.5741000771522522
0.51345109939575195 0.33334589004516602 0.56208646297454834
0.6581616997718811 0.33295860886573792 0.54175317287445068
0.76093935966491699 0.32442864775657654 0.51412028074264526
0.83152920007705688 0.30885699391365051 0.49280300736427307
0.15885066986083984 0.39827832579612732 0.60099416971206665
0.24169133603572845 0.40540912747383118 0.59810823202133179
0.3656003475189209 0.4274405837059021 0.59945559501647949
0.52298223972320557 0.44428226351737976 0.59607547521591187
0.67129826545715332 0.45063212513923645 0.5907827615737915
0.78620308637619019 0.43983122706413269 0.57228624820709229
0.84544700384140015 0.41653046011924744 0.54686635732650757
0.1951395571231842 0.49321338534355164 0.62586492300033569
0.26284989714622498 0.5022505521774292 0.62743222713470459
0.36760967969894409 0.5205116868019104 0.63057959079742432
0.54323887825012207 0.56186461448669434 0.64505159854888916
0.69470804929733276 0.57440924644470215 0.64924663305282593
0.80993741750717163 0.57867515087127686 0.65320783853530884
0.88986927270889282 0.57028526067733765 0.64290404319763184
0.23809012770652771 0.58176290988922119 0.66311734914779663
0.30022174119949341 0.59416812658309937 0.67140346765518188
0.38179367780685425 0.6158331036567688 0.67835253477096558
0.52679300308227539 0.65324223041534424 0.69936847686767578
0.71395134925842285 0.70462197065353394 0.73244017362594604
0.82966607809066772 0.71071922779083252 0.73369127511978149
0.91211074590682983 0.70915848016738892 0.73557478189468384
0.27092570066452026 0.66747039556503296 0.69639343023300171
0.32540473341941833 0.6691475510597229 0.70257461071014404
0.4172208309173584 0.69865673780441284 0.72747480869293213
0.54831963777542114 0.76163774728775024 0.79319971799850464
0.72195899486541748 0.80733740329742432 0.81610184907913208
0.8551023006439209 0.83296787738800049 0.8125920295715332
0.94080692529678345 0.83184361457824707 0.79633057117462158
0.25262564420700073 0.75566977262496948 0.72489959001541138
0.34112265706062317 0.74970787763595581 0.73020738363265991
0.43296793103218079 0.76275110244750977 0.75375467538833618
0.54925477504730225 0.79522180557250977 0.79712837934494019
0.73384672403335571 0.86431020498275757 0.82302021980285645
0.86842614412307739 0.90475857257843018 0.85051482915878296
0.92514717578887939 0.89820647239685059 0.82771569490432739
0.12643195688724518 0.19592684507369995 0.69838029146194458
0.22860898077487946 0.20702023804187775 0.68661439418792725
0.36302652955055237 0.22203007340431213 0.67151772975921631
0.51756179332733154 0.2262360155582428 0.65095978975296021
0.65998917818069458 0.22209566831588745 0.61298757791519165
0.75988107919692993 0.23002070188522339 0.58659893274307251
0.85046195983886719 0.21613016724586487 0.58561855554580688
0.14540229737758636 0.30093735456466675 0.68726015090942383
0.23906831443309784 0.31077703833580017 0.67233574390411377
0.36692994832992554 0.32066076993942261 0.67120611667633057
0.52435576915740967 0.32465755939483643 0.65693968534469604
0.66254091262817383 0.31780657172203064 0.63610339164733887
0.76632183790206909 0.31168636679649353 0.60308218002319336
0.84984898567199707 0.29889172315597534 0.58402121067047119
0.15349268913269043 0.39923352003097534 0.69504278898239136
0.25412696599960327 0.40926948189735413 0.68352854251861572
0.37593916058540344 0.42556604743003845 0.68442821502685547
0.53751933574676514 0.43534964323043823 0.67812585830688477
0.67319047451019287 0.44175434112548828 0.66702497005462646
0.78684699535369873 0.43285870552062988 0.64833813905715942
0.86425334215164185 0.42025694251060486 0.6322178840637207
0.18100136518478394 0.49773332476615906 0.70123100280761719
0.27283942699432373 0.51235270500183105 0.68964594602584839
0.38314974308013916 0.5336570143699646 0.70344632863998413
0.54510623216629028 0.55630373954772949 0.70310741662979126
0.69127154350280762 0.56799924373626709 0.71209806203842163
0.80881309509277344 0.56817227602005005 0.70958304405212402
0.87913304567337036 0.55740135908126831 0.69882005453109741
0.21953219175338745 0.60008752346038818 0.73833471536636353
0.30363106727600098 0.61011141538619995 0.73171037435531616
0.38924285769462585 0.63096392154693604 0.74269479513168335
0.54836702346801758 0.67026811838150024 0.76432085037231445
0.70400023460388184 0.70075303316116333 0.77860152721405029
0.82911866903305054 0.70888572931289673 0.78541982173919678
0.90661996603012085 0.7014954686164856 0.7769128680229187
0.26804813742637634 0.69495201110839844 0.7762722373008728
0.33478569984436035 0.69978535175323486 0.77373683452606201
0.42384269833564758 0.72177320718765259 0.78789544105529785
0.54522055387496948 0.76182782649993896 0.82141292095184326
0.71350133419036865 0.80270850658416748 0.84572076797485352
0.84333091974258423 0.83592188358306885 0.85864883661270142
0.93224751949310303 0.83628123998641968 0.84762310981750488
0.26492452621459961 0.79009455442428589 0.81121635437011719
0.35162454843521118 0.77983814477920532 0.80447745323181152
0.44127598404884338 0.78662568330764771 0.81331330537796021
0.54633724689483643 0.81490516662597656 0.84585994482040405
0.71488398313522339 0.85702455043792725 0.87113136053085327
0.85554367303848267 0.90077561140060425 0.89880269765853882
0.95358896255493164 0.93480753898620605 0.92289334535598755
