assets/lut/pixlsus metropolis.cube
# Created by: G'MIC (https://gmic.eu)
TITLE "metropolis"
# LUT size
LUT_3D_SIZE 13
# Data domain
DOMAIN_MIN 0.0 0.0 0.0
DOMAIN_MAX 1.0 1.0 1.0
# LUT data points
0.0060221054591238499 0.12553656101226807 0.049667373299598694
0.050808355212211609 0.16605807840824127 0.050656083971261978
0.095281057059764862 0.19361667335033417 0.052811268717050552
0.089177407324314117 0.28682655096054077 0.066904090344905853
0.11305907368659973 0.36323505640029907 0.078186735510826111
0.16692163050174713 0.42316749691963196 0.087267331779003143
0.19429178535938263 0.45357775688171387 0.088136769831180573
0.20613057911396027 0.49719107151031494 0.091512896120548248
0.24417909979820251 0.51147586107254028 0.093148402869701385
0.23425456881523132 0.33188256621360779 0.068921737372875214
0.20912130177021027 0.015309951268136501 0.032304216176271439
0.20341672003269196 0.047194581478834152 0.03531208261847496
0.054270889610052109 0.049977350980043411 0.023814661428332329
0.00070283177774399519 0.14568373560905457 0.07536972314119339
0.014696382917463779 0.21735009551048279 0.079924866557121277
0.041227977722883224 0.27193328738212585 0.087214812636375427
0.054827071726322174 0.36968815326690674 0.10775028169155121
0.071391493082046509 0.48187723755836487 0.12488677352666855
0.090364210307598114 0.58225858211517334 0.13755181431770325
0.10668318718671799 0.60552924871444702 0.13464643061161041
0.13710278272628784 0.60531157255172729 0.1305268257856369
0.18215307593345642 0.60345804691314697 0.13042186200618744
0.18682797253131866 0.41067036986351013 0.099183358252048492
0.13466624915599823 0.095724500715732574 0.046096473932266235
0.037666454911231995 0.032318264245986938 0.033216007053852081
0.17136318981647491 0.018178438767790794 0.048177249729633331
0 0.16342750191688538 0.10373809188604355
0 0.29850330948829651 0.11982134729623795
0 0.46471318602561951 0.1454835832118988
2.0614324967027642e-05 0.66841042041778564 0.17978981137275696
1.9058526959270239e-05 0.83062082529067993 0.21017070114612579
2.6059618903673254e-05 0.89487552642822266 0.22153502702713013
0.00014540727715939283 0.84929454326629639 0.19358007609844208
0.019136840477585793 0.7667807936668396 0.17469309270381927
0.069578938186168671 0.78050565719604492 0.1867954432964325
0.10848041623830795 0.52979618310928345 0.145891472697258
0.055353455245494843 0.16460549831390381 0.077805414795875549
0.084105469286441803 0.013169008307158947 0.034405801445245743
0.22463177144527435 0.00024701288202777505 0.030161015689373016
0 0.16634666919708252 0.13534583151340485
0 0.31301933526992798 0.15835109353065491
0 0.51876974105834961 0.19360615313053131
0 0.77854454517364502 0.23976433277130127
0 0.92344576120376587 0.28074067831039429
0 0.9367097020149231 0.28887420892715454
0.002451728330925107 0.79341572523117065 0.24375165998935699
0.045814156532287598 0.64715945720672607 0.21716110408306122
0.10504448413848877 0.73361366987228394 0.23692208528518677
0.12581387162208557 0.53247708082199097 0.1968408077955246
0.065224051475524902 0.17553344368934631 0.12311610579490662
0.1037900447845459 0.0082103060558438301 0.043036755174398422
0.22047191858291626 0 0.017782533541321754
0.0089744571596384048 0.1477695107460022 0.17101939022541046
0.0068352343514561653 0.24719533324241638 0.19433370232582092
0.0021349887829273939 0.42520728707313538 0.23180048167705536
1.7592486983630806e-05 0.70739340782165527 0.28236126899719238
0 0.89749938249588013 0.32928472757339478
0 0.90434408187866211 0.33957958221435547
0.015106260776519775 0.7274516224861145 0.29456949234008789
0.08183925598859787 0.60196834802627563 0.27004322409629822
0.12757609784603119 0.73199194669723511 0.2928602397441864
0.13752302527427673 0.54718607664108276 0.2530161440372467
0.077577866613864899 0.18687178194522858 0.17786633968353271
0.10830292105674744 0.0083968816325068474 0.083259537816047668
0.20698222517967224 0 0.04391518235206604
0.063062421977519989 0.12454593181610107 0.21476896107196808
0.077750444412231445 0.15461209416389465 0.23495461046695709
0.076718799769878387 0.27881845831871033 0.26776909828186035
0.044254451990127563 0.56008648872375488 0.31724381446838379
0.013532720506191254 0.82461422681808472 0.36699014902114868
0.010963111184537411 0.85657739639282227 0.38303816318511963
0.053274519741535187 0.69240725040435791 0.3475644588470459
0.11251886188983917 0.60002243518829346 0.32758837938308716
0.14164441823959351 0.74299103021621704 0.34884399175643921
0.14689913392066956 0.56095850467681885 0.31392145156860352
0.093122415244579315 0.19542279839515686 0.23990029096603394
0.11714064329862595 0.0081137111410498619 0.14804323017597198
0.20118109881877899 0 0.12037151306867599
0.10873110592365265 0.10945024341344833 0.27370703220367432
0.13692601025104523 0.11489525437355042 0.28887772560119629
0.15290576219558716 0.21742039918899536 0.31410330533981323
0.13082502782344818 0.49175518751144409 0.35863658785820007
0.088318407535552979 0.77764654159545898 0.40721020102500916
0.07223878800868988 0.82095038890838623 0.42695280909538269
0.098107248544692993 0.65229958295822144 0.39994931221008301
0.13112431764602661 0.56017005443572998 0.38425242900848389
0.15023531019687653 0.74273991584777832 0.40943700075149536
0.15409615635871887 0.57711094617843628 0.37939625978469849
0.10831417143344879 0.19676631689071655 0.30942842364311218
0.12964105606079102 0.0047344430349767208 0.23229555785655975
0.20627360045909882 0 0.23863396048545837
0.1304902583360672 0.14066289365291595 0.34936767816543579
0.15403540432453156 0.17232440412044525 0.36340028047561646
0.164687380194664 0.29753190279006958 0.38176190853118896
0.1556839793920517 0.57146018743515015 0.41975006461143494
0.13066644966602325 0.81040889024734497 0.46139848232269287
0.11566624045372009 0.82249993085861206 0.47815379500389099
0.12645310163497925 0.62856924533843994 0.45688346028327942
0.14392596483230591 0.52044576406478882 0.44749212265014648
0.15726721286773682 0.73795789480209351 0.47746574878692627
0.15916453301906586 0.6016501784324646 0.45367354154586792
0.12439187616109848 0.19807989895343781 0.38552680611610413
0.14541898667812347 0.0025468564126640558 0.33629462122917175
0.22045066952705383 0 0.4049869179725647
0.14312383532524109 0.21356754004955292 0.43933704495429993
0.15820913016796112 0.30223405361175537 0.46383684873580933
0.1613524854183197 0.47771301865577698 0.48481056094169617
0.15770901739597321 0.74474954605102539 0.51583695411682129
0.14610888063907623 0.89055287837982178 0.54062211513519287
0.13796171545982361 0.86144709587097168 0.53964132070541382
0.14456219971179962 0.64240151643753052 0.51232606172561646
0.15675395727157593 0.51859456300735474 0.50425726175308228
0.16620491445064545 0.74445474147796631 0.5321505069732666
0.16697005927562714 0.59753906726837158 0.51270449161529541
0.13894347846508026 0.20169222354888916 0.45919686555862427
0.16498982906341553 0.0023046007845550776 0.46078029274940491
0.24221484363079071 0 0.62463492155075073
0.16094857454299927 0.28091293573379517 0.54003959894180298
0.1699594110250473 0.45475384593009949 0.59193700551986694
0.16989381611347198 0.6944345235824585 0.63145548105239868
0.16453993320465088 0.90762561559677124 0.65880769491195679
0.15686553716659546 0.96443444490432739 0.65837502479553223
0.15258665382862091 0.91790080070495605 0.61963373422622681
0.15873081982135773 0.68887090682983398 0.56421524286270142
0.16755659878253937 0.53838866949081421 0.54959022998809814
0.17427399754524231 0.73532885313034058 0.57409679889678955
0.17500212788581848 0.60352551937103271 0.56523734331130981
0.1490219384431839 0.20959384739398956 0.5293043851852417
0.18229785561561584 0.0036839055828750134 0.60554784536361694
0.26653850078582764 0 0.87315630912780762
0.17968842387199402 0.34192359447479248 0.65189945697784424
0.18516571819782257 0.60037672519683838 0.74351346492767334
0.18223868310451508 0.87507432699203491 0.81413853168487549
0.17476049065589905 0.98696303367614746 0.85153275728225708
0.16692186892032623 0.99858230352401733 0.83060836791992188
0.16371770203113556 0.97007268667221069 0.73848080635070801
0.16836494207382202 0.76359832286834717 0.62385517358779907
0.17393863201141357 0.58322727680206299 0.59144914150238037
0.18007205426692963 0.78297770023345947 0.62294942140579224
0.18140065670013428 0.61828142404556274 0.61897391080856323
0.15619204938411713 0.21698182821273804 0.59924775362014771
0.19896294176578522 0.0071073197759687901 0.76371729373931885
0.28478339314460754 0 0.9913945198059082
0.18686453998088837 0.39672288298606873 0.76127654314041138
0.19153290987014771 0.72624373435974121 0.89805388450622559
0.18655990064144135 0.96620005369186401 0.97670894861221313
0.17818249762058258 0.99992823600769043 0.99401521682739258
0.17004188895225525 1 0.98614823818206787
0.16797050833702087 0.99599069356918335 0.90915179252624512
0.17319954931735992 0.8572542667388916 0.71873605251312256
0.17454075813293457 0.63839012384414673 0.63945013284683228
0.17935276031494141 0.77431243658065796 0.67107123136520386
0.18348179757595062 0.62277704477310181 0.67485058307647705
0.1582057923078537 0.22317218780517578 0.67138642072677612
0.20523549616336823 0.015010340139269829 0.86624819040298462
0.26805227994918823 0.029017653316259384 0.99985843896865845
0.16681694984436035 0.43687635660171509 0.83500242233276367
0.17251603305339813 0.81118714809417725 0.97998553514480591
0.1676439493894577 0.9922519326210022 0.99998599290847778
0.15926492214202881 1 1
0.15278290212154388 1 1
0.152950718998909 1 0.99668985605239868
0.16200695931911469 0.94791191816329956 0.90251964330673218
0.16558383405208588 0.74090224504470825 0.76921415328979492
0.17443481087684631 0.83601677417755127 0.78584295511245728
0.17686623334884644 0.6310582160949707 0.69346249103546143
0.125379279255867 0.20060639083385468 0.54796034097671509
0.1351395845413208 0.011398016475141048 0.46973294019699097
0.1384398341178894 0.12316001206636429 0.59369456768035889
0 0.26255249977111816 0.084795109927654266
0.00042893653153441846 0.48260855674743652 0.093504808843135834
0.0016132728196680546 0.71918565034866333 0.10655257105827332
0.00019989014253951609 0.90667766332626343 0.12719079852104187
4.6479468437610194e-05 0.98037815093994141 0.14874053001403809
0.0002342972147744149 0.9978066086769104 0.16491219401359558
0.037694685161113739 0.98811632394790649 0.14609912037849426
0.15344496071338654 0.55929553508758545 0.069176770746707916
0.070550180971622467 0.16575369238853455 0.023839898407459259
0.011458452790975571 0.088236503303050995 0.018693827092647552
2.8722426577587612e-05 0.12939079105854034 0.021073957905173302
6.1035157159494702e-06 0.15009866654872894 0.020835921168327332
0.086605757474899292 0.17008551955223083 0.051381908357143402
0 0.29141330718994141 0.11049208045005798
1.0471718496773974e-06 0.52302879095077515 0.12411227077245712
3.7234436604194343e-05 0.77233988046646118 0.14954337477684021
4.6973136704764329e-06 0.93846321105957031 0.18832466006278992
0 0.9923585057258606 0.2288573682308197
3.7398992844828172e-06 0.99924767017364502 0.2559349536895752
0.023407850414514542 0.99430161714553833 0.22693005204200745
0.15078100562095642 0.56654369831085205 0.1081395298242569
0.07125459611415863 0.16967162489891052 0.040137019008398056
0.010473093949258327 0.14768111705780029 0.033442120999097824
2.288818359375e-05 0.28069129586219788 0.054784107953310013
0.0055669150315225124 0.29358017444610596 0.070235922932624817
0.1604950875043869 0.22255747020244598 0.084504552185535431
0 0.30317053198814392 0.13454344868659973
0 0.56889033317565918 0.15609461069107056
0 0.86765134334564209 0.19650466740131378
0 0.99209868907928467 0.25550609827041626
0 0.99996954202651978 0.31841573119163513
0 1 0.35468968749046326
0.024882791563868523 0.99516409635543823 0.30283963680267334
0.15972574055194855 0.55973911285400391 0.14855404198169708
0.077143572270870209 0.17121177911758423 0.069061219692230225
0.011381381191313267 0.176775723695755 0.05989469587802887
5.5320590035989881e-05 0.39032945036888123 0.091977350413799286
0.018573416396975517 0.38312643766403198 0.10289695858955383
0.17015111446380615 0.19968239963054657 0.092316403985023499
0 0.28498542308807373 0.1612219512462616
0 0.54114222526550293 0.18578742444515228
0 0.87074846029281616 0.23444844782352448
0 0.99843841791152954 0.30752456188201904
0 1 0.38642284274101257
0 1 0.42850175499916077
0.042494006454944611 0.99431627988815308 0.36714932322502136
0.17257009446620941 0.56415295600891113 0.1976606696844101
0.088162228465080261 0.17560034990310669 0.11189213395118713
0.015987589955329895 0.17750081419944763 0.099296793341636658
0.00014688828377984464 0.42810362577438354 0.13266398012638092
0.014562270604074001 0.40670716762542725 0.12894953787326813
0.13660743832588196 0.17487998306751251 0.10216405242681503
0.015677059069275856 0.23141123354434967 0.19503521919250488
0.015832908451557159 0.41239389777183533 0.21533319354057312
0.010128275491297245 0.72286635637283325 0.2616126537322998
0.0019435209687799215 0.98146557807922363 0.33862957358360291
1.0531556654314045e-05 1 0.4254423975944519
0.0019604552071541548 1 0.47338736057281494
0.078208625316619873 0.99447065591812134 0.41765984892845154
0.18536041676998138 0.57860273122787476 0.25344130396842957
0.10420133173465729 0.18047301471233368 0.16737803816795349
0.023500720039010048 0.16402909159660339 0.15124684572219849
0.0006923900218680501 0.42863553762435913 0.18269746005535126
0.012228572741150856 0.41651469469070435 0.17585106194019318
0.11276994645595551 0.18202278017997742 0.15045157074928284
0.082681305706501007 0.17099602520465851 0.23991210758686066
0.10829318314790726 0.24847754836082458 0.25185671448707581
0.12229469418525696 0.45619428157806396 0.28687337040901184
0.090283878147602081 0.88334047794342041 0.35971179604530334
0.045960910618305206 0.99991095066070557 0.44955182075500488
0.049360252916812897 1 0.50342094898223877
0.12472920119762421 0.99608916044235229 0.46000596880912781
0.19691145420074463 0.58951872587203979 0.31198474764823914
0.12438776344060898 0.17958077788352966 0.22934021055698395
0.037514571100473404 0.12877416610717773 0.20990419387817383
0.0040826834738254547 0.3925895094871521 0.24333243072032928
0.0212554931640625 0.39376622438430786 0.247910276055336
0.11483170837163925 0.17151902616024017 0.24347177147865295
0.13869360089302063 0.14970514178276062 0.29762735962867737
0.17944091558456421 0.18692557513713837 0.30434194207191467
0.2117333710193634 0.35540750622749329 0.32868939638137817
0.19122523069381714 0.82223749160766602 0.3924776017665863
0.14050817489624023 0.99952870607376099 0.4784579873085022
0.12408480048179626 1 0.53497129678726196
0.16201351583003998 0.99590796232223511 0.5053335428237915
0.20548729598522186 0.59909659624099731 0.37690117955207825
0.14754122495651245 0.18398644030094147 0.30150958895683289
0.065620094537734985 0.079035244882106781 0.27872538566589355
0.023185117170214653 0.32853493094444275 0.31796544790267944
0.052489574998617172 0.32423895597457886 0.34672823548316956
0.14164125919342041 0.11378839612007141 0.38222196698188782
0.16998520493507385 0.19558696448802948 0.36782410740852356
0.20281609892845154 0.28079575300216675 0.37731054425239563
0.22270309925079346 0.52845829725265503 0.39908820390701294
0.21196219325065613 0.92180502414703369 0.45315176248550415
0.1811726838350296 0.99995988607406616 0.52556508779525757
0.16479398310184479 1 0.5765082836151123
0.18314780294895172 0.99625217914581299 0.55760610103607178
0.20946180820465088 0.61326825618743896 0.44985976815223694
0.16954866051673889 0.18775807321071625 0.37942135334014893
0.10960347950458527 0.084211580455303192 0.36455389857292175
0.072801209986209869 0.27447676658630371 0.40972506999969482
0.10457777231931686 0.2606968879699707 0.48164919018745422
0.18806168437004089 0.071397744119167328 0.58392059803009033
0.18823905289173126 0.28778746724128723 0.45084002614021301
0.20798598229885101 0.44769406318664551 0.4738350510597229
0.2146146148443222 0.76333975791931152 0.50099259614944458
0.20788954198360443 0.99075675010681152 0.54798763990402222
0.19252389669418335 1 0.60065841674804688
0.18395598232746124 1 0.62858957052230835
0.19668322801589966 0.9968075156211853 0.60118687152862549
0.21594992280006409 0.62170523405075073 0.50938159227371216
0.18722540140151978 0.19194909930229187 0.45126792788505554
0.14414818584918976 0.097790844738483429 0.44817960262298584
0.12083951383829117 0.25825756788253784 0.51727795600891113
0.16129808127880096 0.24054843187332153 0.65755081176757812
0.24587419629096985 0.064277365803718567 0.84236049652099609
0.2050091028213501 0.39096152782440186 0.55103462934494019
0.21446995437145233 0.63057833909988403 0.60140538215637207
0.21466332674026489 0.93774318695068359 0.64980453252792358
0.20805594325065613 0.99995315074920654 0.69816774129867554
0.19923032820224762 1 0.72614043951034546
0.19614362716674805 1 0.70779561996459961
0.20888528227806091 0.99763476848602295 0.64229542016983032
0.22616443037986755 0.63967639207839966 0.56044965982437134
0.20054750144481659 0.20372234284877777 0.52161359786987305
0.1654493510723114 0.097167238593101501 0.53443658351898193
0.15905287861824036 0.2612646222114563 0.64519214630126953
0.21598432958126068 0.26666721701622009 0.85497713088989258
0.30498448014259338 0.098804593086242676 0.98926001787185669
0.22184433043003082 0.49624353647232056 0.67756026983261108
0.22612462937831879 0.80907422304153442 0.7711455225944519
0.2223680317401886 0.99638611078262329 0.85720282793045044
0.21453729271888733 1 0.91634446382522583
0.20660018920898438 1 0.92385059595108032
0.20475806295871735 1 0.85171627998352051
0.21708409488201141 0.99878668785095215 0.70845460891723633
0.23418089747428894 0.66094964742660522 0.61218798160552979
0.20601165294647217 0.20508231222629547 0.58802944421768188
0.17847470939159393 0.077728942036628723 0.6309959888458252
0.19462965428829193 0.27491676807403564 0.78968989849090576
0.26874646544456482 0.32664883136749268 0.96862882375717163
0.3511451780796051 0.19743652641773224 1
0.2294476330280304 0.60109233856201172 0.81941825151443481
0.2328149676322937 0.93359756469726562 0.95125299692153931
0.22702895104885101 0.99999630451202393 0.99707776308059692
0.2177964448928833 1 1
0.20869484543800354 1 0.99999207258224487
0.20597650110721588 1 0.98851841688156128
0.21850907802581787 0.99928885698318481 0.83590090274810791
0.23845203220844269 0.66744661331176758 0.66604644060134888
0.21110481023788452 0.2198868989944458 0.66142070293426514
0.19618752598762512 0.12392256408929825 0.74416434764862061
0.22573700547218323 0.28823491930961609 0.89971399307250977
0.29619261622428894 0.35714507102966309 0.99559551477432251
0.34328106045722961 0.34767371416091919 1
0.21170566976070404 0.69277304410934448 0.93011617660522461
0.21690593659877777 0.98322635889053345 0.99973368644714355
0.21164128184318542 1 1
0.20208726823329926 1 1
0.19290699064731598 1 1
0.18986557424068451 1 1
0.2068554162979126 0.99994349479675293 0.9711269736289978
0.23582710325717926 0.66074144840240479 0.67189270257949829
0.17168059945106506 0.20380899310112 0.54588186740875244
0.1197420135140419 0.033239759504795074 0.50298678874969482
0.12819316983222961 0.10722030699253082 0.53419262170791626
0.17737941443920135 0.20985937118530273 0.59532105922698975
0.18945848941802979 0.29846274852752686 0.62484627962112427
5.0563437980599701e-05 0.33417701721191406 0.10386338829994202
0 0.75759339332580566 0.11677144467830658
0 0.99220967292785645 0.13832291960716248
0 1 0.17209300398826599
0 1 0.21172614395618439
0.00014430026931222528 1 0.23603104054927826
0.068109177052974701 1 0.19504222273826599
0.19606785476207733 0.3797919750213623 0.049633443355560303
0.010042496956884861 0.085602626204490662 0.020349016413092613
0 0.31855347752571106 0.062566764652729034
0 0.3574383556842804 0.075843885540962219
0.00023649627109989524 0.32793715596199036 0.075836151838302612
0.11901445686817169 0.31919315457344055 0.080216333270072937
0 0.37974792718887329 0.12618559598922729
0 0.80333477258682251 0.14393848180770874
0 0.99704241752624512 0.18018347024917603
0 1 0.23761117458343506
0 1 0.30503249168395996
0 1 0.35027512907981873
0.052397411316633224 1 0.29508557915687561
0.1968798041343689 0.37753430008888245 0.07703668624162674
0.0084570795297622681 0.16801372170448303 0.031704980880022049
0 0.56225419044494629 0.093293659389019012
0 0.64519768953323364 0.11727037280797958
0.0017446480924263597 0.55781084299087524 0.11685671657323837
0.13928592205047607 0.43239462375640869 0.10932843387126923
0 0.39567497372627258 0.14368690550327301
0 0.81750750541687012 0.165272057056427
0 0.99901443719863892 0.21513408422470093
0 1 0.29452860355377197
0 1 0.38745689392089844
0 1 0.44874423742294312
0.058532685041427612 1 0.37998703122138977
0.20274685323238373 0.38037228584289551 0.10970529168844223
0.010840831324458122 0.14641471207141876 0.041653309017419815
0 0.60730552673339844 0.11502750217914581
0 0.8017534613609314 0.14857099950313568
0.0037186865229159594 0.73040831089019775 0.14508089423179626
0.12359285354614258 0.52654844522476196 0.12443543970584869
0.0016849891981109977 0.36774620413780212 0.16373737156391144
0.00019110884750261903 0.76022660732269287 0.18395882844924927
0 0.99578028917312622 0.23924481868743896
0 1 0.33121681213378906
0 1 0.43928927183151245
0.00092092773411422968 1 0.50934302806854248
0.088290944695472717 1 0.43778109550476074
0.21281951665878296 0.38290491700172424 0.15167105197906494
0.025672193616628647 0.065874464809894562 0.060986880213022232
0 0.49823769927024841 0.13775652647018433
0 0.81010979413986206 0.17822869122028351
0.00094363640528172255 0.81573235988616943 0.1714240163564682
0.088366568088531494 0.61306524276733398 0.14523880183696747
0.038383841514587402 0.30073380470275879 0.19785168766975403
0.036794267594814301 0.60355257987976074 0.20903173089027405
0.027638394385576248 0.94810217618942261 0.25742393732070923
0.012977136299014091 0.99999207258224487 0.34903612732887268
0.0061478111892938614 1 0.46084669232368469
0.025024143978953362 1 0.53446298837661743
0.13283507525920868 1 0.47149643301963806
0.22494344413280487 0.3931276798248291 0.20523671805858612
0.05847414955496788 0.017062587663531303 0.10707777738571167
4.308364077587612e-05 0.33998048305511475 0.17813792824745178
0 0.73211765289306641 0.22161813080310822
0.00036341350642032921 0.83227360248565674 0.21876838803291321
0.068037830293178558 0.68948602676391602 0.19982543587684631
0.10502292215824127 0.23053435981273651 0.2501247227191925
0.1304192841053009 0.41788125038146973 0.24862407147884369
0.14553366601467133 0.77545392513275146 0.2806822657585144
0.12461520731449127 0.99581044912338257 0.36240512132644653
0.092904813587665558 1 0.47126877307891846
0.10386733710765839 1 0.54577481746673584
0.17403960227966309 1 0.49725884199142456
0.23669658601284027 0.41045132279396057 0.27195504307746887
0.096854835748672485 0.003332863561809063 0.18074811995029449
0.004949233029037714 0.20981225371360779 0.24085283279418945
0 0.61571329832077026 0.28978437185287476
0.0055637285113334656 0.78089982271194458 0.30430912971496582
0.080473460257053375 0.69581097364425659 0.30910637974739075
0.16188892722129822 0.20049770176410675 0.31090852618217468
0.19943413138389587 0.33393612504005432 0.3037494421005249
0.22888551652431488 0.66568058729171753 0.32281264662742615
0.21673522889614105 0.98774701356887817 0.39113464951515198
0.18064320087432861 1 0.49171540141105652
0.1708884984254837 1 0.56638306379318237
0.20648758113384247 1 0.53270876407623291
0.24407964944839478 0.41612917184829712 0.34172278642654419
0.13586902618408203 0.00029841403011232615 0.2646520733833313
0.040275335311889648 0.11366300284862518 0.32272300124168396
0.015940932556986809 0.49016129970550537 0.39107590913772583
0.046820502728223801 0.67397713661193848 0.44255077838897705
0.12870033085346222 0.60548156499862671 0.48931851983070374
0.19968758523464203 0.23042008280754089 0.37215748429298401
0.22956505417823792 0.3914262056350708 0.37006035447120667
