assets/lut/pixlsus sweet bubblegum.cube
# Created by: G'MIC (https://gmic.eu)
TITLE "sweet_bubblegum"
# LUT size
LUT_3D_SIZE 7
# Data domain
DOMAIN_MIN 0.0 0.0 0.0
DOMAIN_MAX 1.0 1.0 1.0
# LUT data points
0.048835784196853638 0.01562652550637722 0.045102093368768692
0.23320627212524414 0.015339825302362442 0.044491052627563477
0.46946805715560913 0.019362745806574821 0.046961646527051926
0.7380790114402771 0.020556805655360222 0.048039216548204422
0.89129734039306641 0.016045978292822838 0.046535536646842957
0.96253478527069092 0.015856977552175522 0.045708868652582169
0.99725615978240967 0.024402139708399773 0.052757352590560913
0.045376334339380264 0.09064280241727829 0.045197386294603348
0.22956998646259308 0.10201629996299744 0.043044745922088623
0.46779501438140869 0.11357198655605316 0.046772196888923645
0.72787618637084961 0.12519931793212891 0.049163356423377991
0.88734906911849976 0.13229678571224213 0.04985128715634346
0.96178954839706421 0.14099359512329102 0.048262622207403183
0.99838042259216309 0.15997946262359619 0.05278632789850235
0.039739839732646942 0.25475850701332092 0.043944116681814194
0.22894701361656189 0.26535713672637939 0.045055929571390152
0.47188869118690491 0.28938201069831848 0.048291884362697601
0.73858791589736938 0.30585885047912598 0.05196114256978035
0.88645690679550171 0.32684504985809326 0.05412890762090683
0.95680582523345947 0.34201660752296448 0.051423180848360062
0.9963257908821106 0.35901811718940735 0.053956858813762665
0.041478443890810013 0.49967488646507263 0.04344584047794342
0.2308233380317688 0.52653545141220093 0.049720119684934616
0.46726709604263306 0.54671645164489746 0.052732683718204498
0.73430919647216797 0.57481640577316284 0.053821802139282227
0.88283967971801758 0.60050636529922485 0.054289214313030243
0.95527088642120361 0.61277824640274048 0.054021440446376801
0.99453723430633545 0.63940656185150146 0.0552840456366539
0.046550195664167404 0.69986063241958618 0.046146079897880554
0.23299069702625275 0.72514516115188599 0.051274705678224564
0.47218579053878784 0.75373673439025879 0.054490812122821808
0.73919433355331421 0.77324378490447998 0.05390479788184166
0.88715386390686035 0.80047464370727539 0.051567826420068741
0.95852619409561157 0.81647807359695435 0.053101781755685806
0.99690169095993042 0.83415979146957397 0.057168204337358475
0.057885654270648956 0.88465791940689087 0.057223659008741379
0.25784289836883545 0.88781905174255371 0.060801830142736435
0.48739886283874512 0.89702135324478149 0.057467218488454819
0.73603451251983643 0.90200775861740112 0.050758659839630127
0.88338559865951538 0.91838598251342773 0.048164635896682739
0.95789569616317749 0.92977678775787354 0.04982135072350502
0.99724274873733521 0.93507379293441772 0.055799104273319244
0.061158601194620132 0.98590224981307983 0.059366531670093536
0.28697934746742249 0.99335795640945435 0.065910741686820984
0.5305016040802002 0.99395740032196045 0.064125761389732361
0.77500778436660767 0.98670393228530884 0.05753001943230629
0.90012937784194946 0.9915655255317688 0.054352734237909317
0.96238744258880615 0.99434548616409302 0.054288271814584732
0.99679279327392578 0.99277538061141968 0.058409716933965683
0.04596010223031044 0.014087452553212643 0.22957657277584076
0.23218216001987457 0.015896441414952278 0.23057088255882263
0.46749725937843323 0.019362745806574821 0.23321957886219025
0.72427558898925781 0.01861673966050148 0.24097089469432831
0.88563817739486694 0.016646711155772209 0.2444852888584137
0.96331304311752319 0.016612183302640915 0.24344538152217865
0.9988817572593689 0.02252642996609211 0.25253692269325256
0.042931888252496719 0.1014309749007225 0.23224183917045593
0.22953911125659943 0.1099088042974472 0.2295277863740921
0.4691784679889679 0.11804582178592682 0.2354443222284317
0.72421449422836304 0.12455528229475021 0.24295949935913086
0.88390374183654785 0.13094344735145569 0.24822279810905457
0.96260446310043335 0.13894718885421753 0.25006762146949768
0.99926471710205078 0.15923331677913666 0.26213926076889038
0.043150119483470917 0.26064783334732056 0.23297986388206482
0.23096689581871033 0.27543139457702637 0.23040507733821869
0.47036415338516235 0.29368585348129272 0.23813700675964355
0.73455643653869629 0.30791667103767395 0.24676218628883362
0.8879733681678772 0.32541915774345398 0.25301644206047058
0.96021652221679688 0.34066784381866455 0.25736233592033386
0.99867719411849976 0.36771661043167114 0.26746582984924316
0.048592273145914078 0.51209068298339844 0.23082295060157776
0.23765422403812408 0.53468722105026245 0.23480792343616486
0.47074335813522339 0.55470150709152222 0.24457569420337677
0.73457509279251099 0.57542902231216431 0.25523242354393005
0.88353294134140015 0.6044158935546875 0.26020646095275879
0.95933490991592407 0.62218284606933594 0.26665142178535461
0.99666619300842285 0.65230512619018555 0.27224493026733398
0.050647031515836716 0.72170013189315796 0.23311981558799744
0.23659759759902954 0.7282106876373291 0.23705589771270752
0.46636757254600525 0.76980859041213989 0.25345173478126526
0.73130685091018677 0.79171901941299438 0.26634001731872559
0.88895261287689209 0.81573110818862915 0.26649701595306396
0.96498566865921021 0.82499593496322632 0.27306696772575378
0.99908924102783203 0.84394121170043945 0.28197416663169861
0.059397246688604355 0.88110566139221191 0.25298017263412476
0.27037736773490906 0.88962209224700928 0.26841488480567932
0.5077214241027832 0.89911484718322754 0.27482119202613831
0.74789667129516602 0.90800237655639648 0.26946794986724854
0.89453125 0.92647266387939453 0.26760080456733704
0.96641737222671509 0.93556720018386841 0.27100127935409546
0.99926471710205078 0.9439162015914917 0.28221645951271057
0.060939278453588486 0.98619061708450317 0.26886868476867676
0.29407042264938354 0.99327105283737183 0.28454548120498657
0.54853320121765137 0.99378496408462524 0.29147523641586304
0.77910548448562622 0.9899667501449585 0.28270938992500305
0.91027975082397461 0.99282830953598022 0.27801957726478577
0.97148340940475464 0.99523943662643433 0.2810041606426239
0.99937903881072998 0.99540442228317261 0.28682976961135864
0.046310082077980042 0.0093345046043395996 0.46901598572731018
0.23645523190498352 0.013954387046396732 0.47426122426986694
0.47299614548683167 0.01939290389418602 0.47672000527381897
0.73428380489349365 0.020521216094493866 0.47343438863754272
0.88776785135269165 0.02174224890768528 0.48684799671173096
0.96023541688919067 0.023319453001022339 0.48841685056686401
0.99722874164581299 0.026960559189319611 0.50971633195877075
0.044607140123844147 0.10569407045841217 0.47356560826301575
0.2374207079410553 0.11322664469480515 0.47288778424263
0.47876065969467163 0.12174723297357559 0.47575965523719788
0.7321280837059021 0.12839339673519135 0.47834214568138123
0.88851004838943481 0.13612422347068787 0.4881899356842041
0.96090185642242432 0.1454538106918335 0.49724102020263672
0.99730968475341797 0.16487914323806763 0.51765245199203491
0.046033628284931183 0.27405005693435669 0.47751936316490173
0.23824533820152283 0.28540503978729248 0.47104498744010925
0.47635713219642639 0.29759165644645691 0.47322970628738403
0.73876559734344482 0.31437689065933228 0.47930118441581726
0.88948601484298706 0.33185502886772156 0.492788165807724
0.96152180433273315 0.34657061100006104 0.50140458345413208
0.99757695198059082 0.37262129783630371 0.52487373352050781
0.051314707845449448 0.52759408950805664 0.47002199292182922
0.24428519606590271 0.54107630252838135 0.46407380700111389
0.46804121136665344 0.5568917989730835 0.46672424674034119
0.73409652709960938 0.58425343036651611 0.48315739631652832
0.88314735889434814 0.61320251226425171 0.50128835439682007
0.96274280548095703 0.62971866130828857 0.5120195746421814
0.99846816062927246 0.65482884645462036 0.52703845500946045
0.054274138063192368 0.74468225240707397 0.47146469354629517
0.25210186839103699 0.76118332147598267 0.46830981969833374
0.47228085994720459 0.77303284406661987 0.46808826923370361
0.73009717464447021 0.80691432952880859 0.50401240587234497
0.88447529077529907 0.82916074991226196 0.52098405361175537
0.96318084001541138 0.84079998731613159 0.53094315528869629
0.9985116720199585 0.85803467035293579 0.54333281517028809
0.056029167026281357 0.88422310352325439 0.47840577363967896
0.27052843570709229 0.89458566904067993 0.50138872861862183
0.50696766376495361 0.89935624599456787 0.50820231437683105
0.7434278130531311 0.91483372449874878 0.5202796459197998
0.89082962274551392 0.93590039014816284 0.5411607027053833
0.96634191274642944 0.94353616237640381 0.54259198904037476
0.99880361557006836 0.9520641565322876 0.5537179708480835
0.052047759294509888 0.9799504280090332 0.50415778160095215
0.28106385469436646 0.98792427778244019 0.52746677398681641
0.54569220542907715 0.99258184432983398 0.54118305444717407
0.79631000757217407 0.9891389012336731 0.54367208480834961
0.91185063123703003 0.99228692054748535 0.5424150824546814
0.97093838453292847 0.9923253059387207 0.55654221773147583
0.99830061197280884 0.99472141265869141 0.55245137214660645
0.049031618982553482 0.017264377325773239 0.73964983224868774
0.24327287077903748 0.015444946475327015 0.73662251234054565
0.47488877177238464 0.019916534423828125 0.74006885290145874
0.73584496974945068 0.021872665733098984 0.72749876976013184
0.88489615917205811 0.022610638290643692 0.74845331907272339
0.95555299520492554 0.022684568539261818 0.75206106901168823
0.99405145645141602 0.029831262305378914 0.77378016710281372
0.04768390953540802 0.11300929635763168 0.73506534099578857
0.24629297852516174 0.1175340861082077 0.73303413391113281
0.48807305097579956 0.12553684413433075 0.73074227571487427
0.73792845010757446 0.13200627267360687 0.72465533018112183
0.88910716772079468 0.13978195190429688 0.73533707857131958
0.95720177888870239 0.1513160765171051 0.74870979785919189
0.99407327175140381 0.17132793366909027 0.76761728525161743
0.049587130546569824 0.28631141781806946 0.74032914638519287
0.24663259088993073 0.29834386706352234 0.73316323757171631
0.48341843485832214 0.3067624568939209 0.73428434133529663
0.73852300643920898 0.31902423501014709 0.7313847541809082
0.88796544075012207 0.33405843377113342 0.74906051158905029
0.95971822738647461 0.35519379377365112 0.76014667749404907
0.99539679288864136 0.37500324845314026 0.7767035961151123
0.05377298966050148 0.54312866926193237 0.73808807134628296
0.25176319479942322 0.56154906749725342 0.73535615205764771
0.47985628247261047 0.57222574949264526 0.73552757501602173
0.73674666881561279 0.59034287929534912 0.73840516805648804
0.88179558515548706 0.61119979619979858 0.75674676895141602
0.96218961477279663 0.63464069366455078 0.77851015329360962
0.99857938289642334 0.65593743324279785 0.79071319103240967
0.054289214313030243 0.759135901927948 0.73879921436309814
0.26413053274154663 0.78226858377456665 0.73578351736068726
0.50485908985137939 0.79967021942138672 0.73530322313308716
0.73739802837371826 0.80804359912872314 0.73967379331588745
0.88018321990966797 0.82888227701187134 0.78277766704559326
0.96228486299514771 0.8466370701789856 0.80934590101242065
0.99773979187011719 0.86495071649551392 0.82712715864181519
0.053848147392272949 0.89263403415679932 0.72923380136489868
0.26927873492240906 0.90485519170761108 0.7433667778968811
0.52258753776550293 0.91380399465560913 0.75513410568237305
0.75854849815368652 0.91219866275787354 0.76238065958023071
0.88292443752288818 0.93659257888793945 0.81797844171524048
0.96234405040740967 0.95353001356124878 0.84374558925628662
0.99727517366409302 0.9647829532623291 0.85382604598999023
0.054926015436649323 0.98162370920181274 0.76602733135223389
0.27223742008209229 0.98449718952178955 0.78083676099777222
0.53838622570037842 0.98740726709365845 0.80474174022674561
0.83975279331207275 0.98952800035476685 0.83581018447875977
0.92094224691390991 0.99072134494781494 0.84371155500411987
0.97049945592880249 0.99428796768188477 0.84803396463394165
0.99647730588912964 0.99578511714935303 0.85501539707183838
0.046505197882652283 0.015640318393707275 0.904671311378479
0.25125929713249207 0.015508419834077358 0.90779036283493042
0.49481049180030823 0.020204896107316017 0.89958161115646362
0.75173884630203247 0.022391464561223984 0.88484376668930054
0.8909265398979187 0.017965085804462433 0.89029288291931152
0.95411217212677002 0.018250169232487679 0.90295064449310303
0.993865966796875 0.028538588434457779 0.91749751567840576
0.049536433070898056 0.11809702962636948 0.90336316823959351
0.2537485659122467 0.12313728779554367 0.90650331974029541
0.5015830397605896 0.13232763111591339 0.89860957860946655
0.74855238199234009 0.1378801167011261 0.88612264394760132
0.89019674062728882 0.14365953207015991 0.88411867618560791
0.9541393518447876 0.15742753446102142 0.89869725704193115
0.99274617433547974 0.18116261065006256 0.91672301292419434
0.051316790282726288 0.29674607515335083 0.89443540573120117
0.25489294528961182 0.31195876002311707 0.90060687065124512
0.5018201470375061 0.3231845498085022 0.89656639099121094
0.75610089302062988 0.32941934466362 0.88475781679153442
0.8970719575881958 0.348419189453125 0.89020156860351562
0.96066462993621826 0.37494254112243652 0.90280497074127197
0.99544447660446167 0.40087690949440002 0.91503989696502686
0.054289214313030243 0.564536452293396 0.8857957124710083
0.25715816020965576 0.57622331380844116 0.89395338296890259
0.49847954511642456 0.5869402289390564 0.89307451248168945
0.75693625211715698 0.59468406438827515 0.88317853212356567
0.89259600639343262 0.61714744567871094 0.88554644584655762
0.96310907602310181 0.64713317155838013 0.8984418511390686
0.99850523471832275 0.67224586009979248 0.913321852684021
0.054435521364212036 0.77746182680130005 0.88770616054534912
0.26799190044403076 0.79384744167327881 0.88549935817718506
0.52259260416030884 0.81141030788421631 0.88593786954879761
0.7785574197769165 0.82152271270751953 0.87930673360824585
0.88570976257324219 0.83281105756759644 0.88374060392379761
0.96410340070724487 0.84991270303726196 0.90675002336502075
0.99918830394744873 0.87226128578186035 0.92803955078125
0.052022416144609451 0.90441912412643433 0.88069319725036621
0.27178895473480225 0.9149053692817688 0.88014382123947144
0.53603869676589966 0.92570441961288452 0.87878990173339844
0.81607520580291748 0.93583130836486816 0.88379734754562378
0.88525032997131348 0.93820667266845703 0.888660728931427
0.95802807807922363 0.95682913064956665 0.92894226312637329
0.99752306938171387 0.97388726472854614 0.95835858583450317
0.052044589072465897 0.98912101984024048 0.88990873098373413
0.27282959222793579 0.98927277326583862 0.89696764945983887
0.53413897752761841 0.98691248893737793 0.90167135000228882
0.84291410446166992 0.98791050910949707 0.91550427675247192
0.94186151027679443 0.99095511436462402 0.94226449728012085
0.97619330883026123 0.99525457620620728 0.95405280590057373
0.99841451644897461 0.9987301230430603 0.96565818786621094
0.048636045306921005 0.013890045695006847 0.97535896301269531
0.25456082820892334 0.014403608627617359 0.98093885183334351
0.49444785714149475 0.020976990461349487 0.97241044044494629
0.76125741004943848 0.022881347686052322 0.96328830718994141
0.89755088090896606 0.015206355601549149 0.96036028861999512
0.95813238620758057 0.015243051573634148 0.96856582164764404
0.99560940265655518 0.026628263294696808 0.97643536329269409
0.050257381051778793 0.12008426338434219 0.97499734163284302
0.25574719905853271 0.12523970007896423 0.98030996322631836
0.50796377658843994 0.13702192902565002 0.97402870655059814
0.762401282787323 0.14301089942455292 0.96405947208404541
0.89690637588500977 0.1470535546541214 0.95820748805999756
0.95792317390441895 0.15840628743171692 0.96614724397659302
0.99524849653244019 0.18163584172725677 0.97868138551712036
0.051129136234521866 0.30232486128807068 0.96295708417892456
0.25541037321090698 0.31858590245246887 0.97084552049636841
0.50554108619689941 0.33570948243141174 0.96832132339477539
0.76532375812530518 0.34510719776153564 0.96028059720993042
0.90706104040145874 0.35863783955574036 0.95834511518478394
0.96549850702285767 0.37966758012771606 0.96479475498199463
0.99682486057281494 0.40282464027404785 0.97368425130844116
0.054333377629518509 0.57620012760162354 0.96033555269241333
0.26056167483329773 0.5886414647102356 0.96489632129669189
0.50630336999893188 0.60871487855911255 0.96406930685043335
0.77007746696472168 0.61652302742004395 0.9593428373336792
0.91026794910430908 0.62820523977279663 0.95722651481628418
0.96778750419616699 0.65147864818572998 0.96095257997512817
0.99704653024673462 0.67281252145767212 0.96941357851028442
0.056544017046689987 0.78877341747283936 0.96512681245803833
0.27216833829879761 0.80323249101638794 0.9635920524597168
0.53036940097808838 0.82070040702819824 0.96253544092178345
0.80386161804199219 0.83253663778305054 0.96397703886032104
0.91303306818008423 0.84385049343109131 0.96048671007156372
0.96553337574005127 0.85770207643508911 0.96482682228088379
0.99726259708404541 0.87597894668579102 0.97680044174194336
0.053414363414049149 0.91359072923660278 0.95823526382446289
0.27204352617263794 0.92396366596221924 0.95685452222824097
0.53953272104263306 0.93304836750030518 0.95832294225692749
0.84305047988891602 0.94858711957931519 0.96366149187088013
0.92666530609130859 0.95625841617584229 0.95910811424255371
0.96690058708190918 0.96602171659469604 0.96767723560333252
0.99693626165390015 0.97948199510574341 0.98944562673568726
0.051594797521829605 0.99114668369293213 0.95567816495895386
0.2736896276473999 0.99244838953018188 0.96000450849533081
0.54061150550842285 0.99017465114593506 0.96224522590637207
0.8457411527633667 0.99029392004013062 0.96584218740463257
0.94700771570205688 0.99326890707015991 0.97250151634216309
0.97895306348800659 0.995472252368927 0.9821087121963501
0.99746811389923096 0.99768209457397461 0.99384593963623047
0.056369692087173462 0.019858656451106071 0.99937790632247925
0.26932159066200256 0.017316481098532677 1
0.51211291551589966 0.022005567327141762 0.99977362155914307
0.77063417434692383 0.024804791435599327 0.99736392498016357
0.89931124448776245 0.017991878092288971 0.99838352203369141
0.96090686321258545 0.018296454101800919 0.99930167198181152
0.99601095914840698 0.029961559921503067 0.99913221597671509
0.055320322513580322 0.12857896089553833 0.9997180700302124
0.26694759726524353 0.1316373199224472 1
0.51827889680862427 0.14164167642593384 1
0.77288061380386353 0.14891475439071655 0.99926471710205078
0.90006870031356812 0.15294079482555389 0.99873632192611694
0.96358352899551392 0.16167135536670685 0.99934941530227661
0.99772816896438599 0.18014012277126312 1
0.054600376635789871 0.31438341736793518 0.99570804834365845
0.26156088709831238 0.32283312082290649 0.99813449382781982
0.5067824125289917 0.3362390398979187 0.99792969226837158
0.77185666561126709 0.34916764497756958 0.99723482131958008
0.9075617790222168 0.36181372404098511 0.99632829427719116
0.96881008148193359 0.37804743647575378 0.99782466888427734
0.99778085947036743 0.38790640234947205 0.99878084659576416
0.055781509727239609 0.59223479032516479 0.99533534049987793
0.26819899678230286 0.60253298282623291 0.9963192343711853
0.51823729276657104 0.61739420890808105 0.99538278579711914
0.79506230354309082 0.63165181875228882 0.99609166383743286
0.91807955503463745 0.64211636781692505 0.99560248851776123
0.96936273574829102 0.66352415084838867 0.99547320604324341
0.99669355154037476 0.6778031587600708 0.9962230920791626
0.059606127440929413 0.80259305238723755 0.99887341260910034
0.2826693058013916 0.81576377153396606 0.99916321039199829
0.53709238767623901 0.83196365833282471 0.99789410829544067
0.81766045093536377 0.84419441223144531 0.99805343151092529
0.9272276759147644 0.85759878158569336 0.99886816740036011
0.97462278604507446 0.86831170320510864 0.99847960472106934
0.99865275621414185 0.87572544813156128 0.99928492307662964
0.058643866330385208 0.92573839426040649 0.9971083402633667
0.28361091017723083 0.93398696184158325 0.99780642986297607
0.54859441518783569 0.94251883029937744 0.99810445308685303
0.85049331188201904 0.95676606893539429 0.9986194372177124
0.95470678806304932 0.96921998262405396 0.99710351228713989
0.98794466257095337 0.97494363784790039 0.99723225831985474
0.99900299310684204 0.98119091987609863 0.99836891889572144
0.05828583613038063 0.99078488349914551 0.99543613195419312
0.28632399439811707 0.99521756172180176 0.99784719944000244
0.54952090978622437 0.99444705247879028 0.9971739649772644
0.84944319725036621 0.99468803405761719 0.99718862771987915
0.96988511085510254 0.99775117635726929 0.99867767095565796
0.99406218528747559 0.99917507171630859 0.99706852436065674
0.99896657466888428 0.99853622913360596 0.9984474778175354
