assets/lut/pixlsus sweet bubblegum.cube
# Created by: G'MIC (https://gmic.eu)
TITLE "sweet_bubblegum"
# LUT size
LUT_3D_SIZE 13
# Data domain
DOMAIN_MIN 0.0 0.0 0.0
DOMAIN_MAX 1.0 1.0 1.0
# LUT data points
0.048835784196853638 0.01562652550637722 0.045102093368768692
0.13867659866809845 0.014640149660408497 0.044353172183036804
0.23320627212524414 0.015339825302362442 0.044491052627563477
0.341085284948349 0.017622929066419601 0.045609805732965469
0.46946805715560913 0.019362745806574821 0.046961646527051926
0.6104881763458252 0.020133553072810173 0.047804411500692368
0.7380790114402771 0.020556805655360222 0.048039216548204422
0.82979059219360352 0.018212726339697838 0.047625567764043808
0.89129734039306641 0.016045978292822838 0.046535536646842957
0.93333727121353149 0.014992897398769855 0.045546393841505051
0.96253478527069092 0.015856977552175522 0.045708868652582169
0.98309022188186646 0.018800906836986542 0.047918267548084259
0.99725615978240967 0.024402139708399773 0.052757352590560913
0.048078916966915131 0.04522337019443512 0.045391082763671875
0.13670893013477325 0.048399608582258224 0.044086936861276627
0.23166917264461517 0.052383050322532654 0.043546490371227264
0.34045350551605225 0.056475739926099777 0.04495403915643692
0.46910244226455688 0.060479678213596344 0.046458538621664047
0.60695570707321167 0.06436900794506073 0.047739066183567047
0.73203438520431519 0.066931858658790588 0.048390824347734451
0.82630717754364014 0.067659638822078705 0.048392575234174728
0.89015305042266846 0.067856088280677795 0.047550112009048462
0.93365246057510376 0.068956084549427032 0.046601507812738419
0.96340548992156982 0.071830511093139648 0.046390220522880554
0.98455536365509033 0.077928371727466583 0.04824809730052948
0.99849402904510498 0.08713880181312561 0.052729543298482895
0.045376334339380264 0.09064280241727829 0.045197386294603348
0.13386468589305878 0.095606602728366852 0.043258082121610641
0.22956998646259308 0.10201629996299744 0.043044745922088623
0.33958637714385986 0.10735974460840225 0.044944316148757935
0.46779501438140869 0.11357198655605316 0.046772196888923645
0.60406994819641113 0.12004418671131134 0.048259120434522629
0.72787618637084961 0.12519931793212891 0.049163356423377991
0.82197070121765137 0.12918676435947418 0.049988973885774612
0.88734906911849976 0.13229678571224213 0.04985128715634346
0.93090087175369263 0.13586091995239258 0.049003183841705322
0.96178954839706421 0.14099359512329102 0.048262622207403183
0.98419058322906494 0.14871476590633392 0.049849893897771835
0.99838042259216309 0.15997946262359619 0.05278632789850235
0.041885871440172195 0.16134762763977051 0.044333528727293015
0.13140861690044403 0.16440112888813019 0.043113004416227341
0.22848081588745117 0.17165268957614899 0.043398689478635788
0.33980479836463928 0.17967842519283295 0.045396856963634491
0.46897923946380615 0.18833369016647339 0.047502793371677399
0.60672509670257568 0.19637537002563477 0.049246709793806076
0.73087668418884277 0.20330187678337097 0.050967123359441757
0.82382452487945557 0.21030370891094208 0.051745112985372543
0.88606178760528564 0.21650126576423645 0.052083108574151993
0.92819368839263916 0.22185516357421875 0.051361218094825745
0.95909696817398071 0.2290981262922287 0.05038515105843544
0.9819488525390625 0.23725751042366028 0.050373930484056473
0.997569739818573 0.24850322306156158 0.053404506295919418
0.039739839732646942 0.25475850701332092 0.043944116681814194
0.13027556240558624 0.25711134076118469 0.044235050678253174
0.22894701361656189 0.26535713672637939 0.045055929571390152
0.34132996201515198 0.27718695998191833 0.046380631625652313
0.47188869118690491 0.28938201069831848 0.048291884362697601
0.612140953540802 0.2983156144618988 0.050370324403047562
0.73858791589736938 0.30585885047912598 0.05196114256978035
0.82856953144073486 0.31692278385162354 0.053109727799892426
0.88645690679550171 0.32684504985809326 0.05412890762090683
0.92630261182785034 0.33415970206260681 0.054065510630607605
0.95680582523345947 0.34201660752296448 0.051423180848360062
0.98002684116363525 0.34964844584465027 0.050563737750053406
0.9963257908821106 0.35901811718940735 0.053956858813762665
0.040095146745443344 0.37248203158378601 0.044258642941713333
0.13121148943901062 0.37897279858589172 0.046082038432359695
0.2301175594329834 0.38674560189247131 0.047047723084688187
0.34237849712371826 0.39861378073692322 0.048293620347976685
0.47092333436012268 0.41317707300186157 0.050046719610691071
0.61181008815765381 0.42533209919929504 0.051510367542505264
0.73955398797988892 0.43461722135543823 0.052255995571613312
0.82894057035446167 0.44822457432746887 0.053868655115365982
0.88548260927200317 0.46121665835380554 0.054289214313030243
0.92507117986679077 0.46901112794876099 0.054289214313030243
0.95539361238479614 0.47614553570747375 0.053560711443424225
0.97826892137527466 0.48524066805839539 0.052305571734905243
0.99498379230499268 0.49603751301765442 0.054358255118131638
0.041478443890810013 0.49967488646507263 0.04344584047794342
0.13228461146354675 0.51923859119415283 0.047044761478900909
0.2308233380317688 0.52653545141220093 0.049720119684934616
0.34082114696502686 0.53330111503601074 0.05126253142952919
0.46726709604263306 0.54671645164489746 0.052732683718204498
0.60662269592285156 0.56305092573165894 0.053453661501407623
0.73430919647216797 0.57481640577316284 0.053821802139282227
0.82555371522903442 0.58689969778060913 0.054281674325466156
0.88283967971801758 0.60050636529922485 0.054289214313030243
0.92358750104904175 0.60658586025238037 0.054289214313030243
0.95527088642120361 0.61277824640274048 0.054021440446376801
0.97789651155471802 0.62468826770782471 0.053828984498977661
0.99453723430633545 0.63940656185150146 0.0552840456366539
0.042651202529668808 0.60130637884140015 0.043009229004383087
0.1327938586473465 0.62601834535598755 0.046936243772506714
0.23031109571456909 0.64227384328842163 0.050709698349237442
0.34019166231155396 0.65166378021240234 0.053255897015333176
0.46832221746444702 0.66471183300018311 0.054291371256113052
0.60763895511627197 0.67927283048629761 0.054484348744153976
0.73621779680252075 0.69019621610641479 0.05432027205824852
0.8269805908203125 0.70222705602645874 0.054241567850112915
0.88429510593414307 0.71592241525650024 0.053818393498659134
0.92553067207336426 0.7227664589881897 0.053499843925237656
0.95683884620666504 0.72898989915847778 0.05405140295624733
0.97974652051925659 0.74060738086700439 0.054908797144889832
0.99564975500106812 0.75411140918731689 0.056493572890758514
0.046550195664167404 0.69986063241958618 0.046146079897880554
0.13662664592266083 0.71118384599685669 0.048512805253267288
0.23299069702625275 0.72514516115188599 0.051274705678224564
0.34338599443435669 0.7385784387588501 0.053843643516302109
0.47218579053878784 0.75373673439025879 0.054490812122821808
0.61156195402145386 0.76519632339477539 0.054851457476615906
0.73919433355331421 0.77324378490447998 0.05390479788184166
0.82943713665008545 0.78628939390182495 0.05225803330540657
0.88715386390686035 0.80047464370727539 0.051567826420068741
0.92813634872436523 0.80961579084396362 0.051894064992666245
0.95852619409561157 0.81647807359695435 0.053101781755685806
0.98135197162628174 0.8253474235534668 0.054685346782207489
0.99690169095993042 0.83415979146957397 0.057168204337358475
0.052998650819063187 0.80300235748291016 0.052617479115724564
0.14604583382606506 0.80525779724121094 0.054847206920385361
0.24333292245864868 0.8083646297454834 0.055917087942361832
0.35252130031585693 0.8160896897315979 0.055770963430404663
0.47818395495414734 0.82785952091217041 0.055435974150896072
0.61296933889389038 0.83606022596359253 0.053884394466876984
0.73567450046539307 0.84212464094161987 0.051171861588954926
0.82626056671142578 0.8528667688369751 0.049513351172208786
0.88617277145385742 0.86549109220504761 0.048986725509166718
0.92782491445541382 0.87473487854003906 0.049644980579614639
0.95875269174575806 0.88103103637695312 0.051189795136451721
0.98202270269393921 0.88705456256866455 0.05354602262377739
0.99724745750427246 0.89210414886474609 0.056456815451383591
0.057885654270648956 0.88465791940689087 0.057223659008741379
0.15645048022270203 0.88732355833053589 0.059922251850366592
0.25784289836883545 0.88781905174255371 0.060801830142736435
0.36726146936416626 0.89094984531402588 0.059950616210699081
0.48739886283874512 0.89702135324478149 0.057467218488454819
0.61661297082901001 0.89984095096588135 0.054003443568944931
0.73603451251983643 0.90200775861740112 0.050758659839630127
0.82462018728256226 0.90878283977508545 0.048636030405759811
0.88338559865951538 0.91838598251342773 0.048164635896682739
0.92581778764724731 0.92558419704437256 0.048516679555177689
0.95789569616317749 0.92977678775787354 0.04982135072350502
0.98151236772537231 0.93302208185195923 0.052299559116363525
0.99724274873733521 0.93507379293441772 0.055799104273319244
0.059870820492506027 0.94260317087173462 0.058803528547286987
0.16491794586181641 0.94809162616729736 0.062470708042383194
0.27264297008514404 0.95067024230957031 0.064225710928440094
0.38561725616455078 0.95263117551803589 0.063436113297939301
0.50472569465637207 0.95496118068695068 0.060379236936569214
0.63213133811950684 0.95333397388458252 0.056365113705396652
0.75020503997802734 0.95068234205245972 0.052995480597019196
0.83378058671951294 0.95383220911026001 0.050947226583957672
0.88619422912597656 0.96078509092330933 0.050173651427030563
0.92696154117584229 0.96509486436843872 0.049925319850444794
0.95865142345428467 0.96694880723953247 0.050574328750371933
0.98174870014190674 0.96769100427627563 0.053014852106571198
0.99696153402328491 0.96770524978637695 0.056270524859428406
0.061158601194620132 0.98590224981307983 0.059366531670093536
0.17234790325164795 0.991191565990448 0.063479840755462646
0.28697934746742249 0.99335795640945435 0.065910741686820984
0.40606227517127991 0.99448806047439575 0.066378682851791382
0.5305016040802002 0.99395740032196045 0.064125761389732361
0.65866154432296753 0.99120616912841797 0.060792300850152969
0.77500778436660767 0.98670393228530884 0.05753001943230629
0.85403341054916382 0.98720771074295044 0.055359397083520889
0.90012937784194946 0.9915655255317688 0.054352734237909317
0.93488770723342896 0.99398499727249146 0.053791359066963196
0.96238744258880615 0.99434548616409302 0.054288271814584732
0.98278665542602539 0.99399936199188232 0.055913273245096207
0.99679279327392578 0.99277538061141968 0.058409716933965683
0.047825712710618973 0.016159581020474434 0.13108006119728088
0.1369597464799881 0.015784185379743576 0.13176228106021881
0.23237878084182739 0.016327623277902603 0.13251422345638275
0.34115356206893921 0.018355321139097214 0.13380740582942963
0.46904176473617554 0.019362745806574821 0.13609442114830017
0.60595554113388062 0.019382670521736145 0.13864032924175262
0.73066413402557373 0.019004926085472107 0.14129379391670227
0.82475030422210693 0.017146211117506027 0.14295342564582825
0.8892897367477417 0.015593435615301132 0.14290286600589752
0.93365168571472168 0.014798616990447044 0.14070592820644379
0.96403169631958008 0.015115251764655113 0.14056037366390228
0.98473471403121948 0.017771746963262558 0.14370295405387878
0.9988633394241333 0.022494535893201828 0.14955370128154755
0.046399403363466263 0.049236822873353958 0.13254263997077942
0.1345917135477066 0.051034409552812576 0.13063943386077881
0.22953733801841736 0.05458107590675354 0.1315021812915802
0.33959996700286865 0.057848673313856125 0.13281539082527161
0.46899509429931641 0.060663305222988129 0.13570645451545715
0.60429686307907104 0.063556700944900513 0.13857808709144592
0.72795277833938599 0.065179415047168732 0.14141106605529785
0.82242798805236816 0.066237851977348328 0.14296248555183411
0.88765215873718262 0.065637476742267609 0.14306928217411041
0.93276399374008179 0.06648649275302887 0.14266785979270935
0.96410536766052246 0.069897115230560303 0.14245632290840149
0.98480832576751709 0.075430847704410553 0.14460603892803192
0.99926453828811646 0.084760956466197968 0.15062305331230164
0.043860789388418198 0.096329271793365479 0.13373130559921265
0.13231860101222992 0.1002352237701416 0.13070377707481384
0.22838838398456573 0.10552399605512619 0.13096114993095398
0.33939951658248901 0.11024302989244461 0.13331425189971924
0.46775045990943909 0.11495784670114517 0.13656266033649445
0.60354608297348022 0.11948007345199585 0.13955850899219513
0.72620683908462524 0.1233280822634697 0.14263458549976349
0.82080280780792236 0.12686258554458618 0.14398142695426941
0.88608783483505249 0.12984780967235565 0.14525116980075836
0.93137460947036743 0.13308466970920563 0.14489974081516266
0.96292895078659058 0.13786488771438599 0.14486610889434814
0.98474264144897461 0.14583815634250641 0.147560715675354
0.99926280975341797 0.15751390159130096 0.1532168984413147
0.041839197278022766 0.16479551792144775 0.13403876125812531
0.13011105358600616 0.16929768025875092 0.13140307366847992
0.22698688507080078 0.17558085918426514 0.13172411918640137
0.33939951658248901 0.18287971615791321 0.13431718945503235
0.46837639808654785 0.19005294144153595 0.13791455328464508
0.60554546117782593 0.19610057771205902 0.14132630825042725
0.72988486289978027 0.20192955434322357 0.1437516063451767
0.82363247871398926 0.20823474228382111 0.146645188331604
0.88727158308029175 0.21403142809867859 0.1473153680562973
0.93037372827529907 0.21967050433158875 0.1477663516998291
0.96117597818374634 0.22597807645797729 0.14803887903690338
0.98468053340911865 0.23454789817333221 0.14980225265026093
0.99902522563934326 0.24756234884262085 0.15501461923122406
0.041715897619724274 0.25622528791427612 0.13438637554645538
0.13125984370708466 0.26088795065879822 0.13248790800571442
0.22876429557800293 0.26836583018302917 0.13289916515350342
0.33985182642936707 0.27905398607254028 0.13580971956253052
0.46991187334060669 0.29013293981552124 0.13941545784473419
0.61061561107635498 0.29783868789672852 0.14278711378574371
0.7368541955947876 0.30522730946540833 0.14595277607440948
0.82849240303039551 0.31541609764099121 0.14767348766326904
0.88796663284301758 0.3248865008354187 0.15010081231594086
0.9288182258605957 0.3321174681186676 0.15080639719963074
0.95919448137283325 0.34001106023788452 0.15071786940097809
0.98287653923034668 0.34882462024688721 0.15171985328197479
0.99812620878219604 0.36088219285011292 0.15537989139556885
0.043466188013553619 0.37294042110443115 0.13433146476745605
0.13400377333164215 0.38136225938796997 0.13391959667205811
0.23224635422229767 0.38755780458450317 0.13546307384967804
0.34323441982269287 0.39851731061935425 0.13819940388202667
0.47199508547782898 0.41348576545715332 0.14203396439552307
0.61307245492935181 0.42351391911506653 0.14521561563014984
0.74013799428939819 0.43228635191917419 0.1473347544670105
0.82989192008972168 0.44735407829284668 0.14999912679195404
0.88684761524200439 0.46066409349441528 0.15176835656166077
0.92665559053421021 0.46826747059822083 0.15264712274074554
0.95766341686248779 0.47713497281074524 0.15326502919197083
0.98086279630661011 0.48835408687591553 0.15384030342102051
0.99696654081344604 0.50180035829544067 0.15626846253871918
0.045520767569541931 0.50816738605499268 0.13260093331336975
0.13587652146816254 0.52088749408721924 0.13557286560535431
0.23430342972278595 0.52929657697677612 0.13896797597408295
0.34423300623893738 0.5380510687828064 0.14257480204105377
0.4703555703163147 0.55134278535842896 0.14661321043968201
0.60936027765274048 0.56200402975082397 0.14947523176670074
0.73704051971435547 0.57166546583175659 0.15090632438659668
0.8267332911491394 0.58838182687759399 0.15244133770465851
0.88381361961364746 0.60396438837051392 0.15390267968177795
0.92584133148193359 0.61007994413375854 0.15541557967662811
0.95748811960220337 0.61763942241668701 0.15659980475902557
0.98078840970993042 0.63100695610046387 0.15739321708679199
0.99544930458068848 0.64710068702697754 0.15916851162910461
0.046121813356876373 0.62402129173278809 0.13162292540073395
0.13479182124137878 0.63096886873245239 0.13479690253734589
0.23241016268730164 0.6498037576675415 0.14097088575363159
0.34286454319953918 0.66491687297821045 0.14671671390533447
0.4684700071811676 0.67613887786865234 0.15148168802261353
0.60576784610748291 0.68605226278305054 0.15475690364837646
0.73402297496795654 0.69493985176086426 0.15513166785240173
0.82607901096343994 0.70916914939880371 0.15487980842590332
0.88524246215820312 0.72349852323532104 0.15547128021717072
0.92780864238739014 0.72959643602371216 0.15713940560817719
0.95976430177688599 0.73520410060882568 0.15917742252349854
0.98219484090805054 0.74665999412536621 0.16106416285037994
0.9967951774597168 0.76099950075149536 0.16320449113845825
0.048322759568691254 0.7116963267326355 0.13543878495693207
0.13752241432666779 0.71147191524505615 0.13732127845287323
0.23401950299739838 0.72587782144546509 0.1417703777551651
0.3447413444519043 0.74827241897583008 0.14842900633811951
0.47100016474723816 0.76528042554855347 0.15389209985733032
0.60864818096160889 0.77511137723922729 0.15655165910720825
0.73706150054931641 0.78151106834411621 0.15548166632652283
0.82982057332992554 0.79455465078353882 0.15462698042392731
0.88972026109695435 0.80863493680953979 0.15519925951957703
0.93145114183425903 0.81658071279525757 0.15685786306858063
0.9625512957572937 0.82132589817047119 0.1598440557718277
0.98482400178909302 0.82932007312774658 0.16304762661457062
0.99826502799987793 0.8404228687286377 0.16610062122344971
0.054719049483537674 0.80409902334213257 0.14514259994029999
0.14916916191577911 0.80747288465499878 0.1488862931728363
0.24734090268611908 0.81034666299819946 0.15174658596515656
0.35726946592330933 0.8210565447807312 0.15470390021800995
0.48223507404327393 0.83400309085845947 0.15711936354637146
0.61683279275894165 0.84115517139434814 0.15668424963951111
0.74051982164382935 0.84590715169906616 0.15403817594051361
0.83167403936386108 0.85808694362640381 0.15352961421012878
0.89117950201034546 0.87187939882278442 0.15390385687351227
0.93285948038101196 0.88049483299255371 0.15559165179729462
0.96347510814666748 0.88529783487319946 0.15827125310897827
0.98554384708404541 0.89086234569549561 0.16192248463630676
0.99891716241836548 0.89792013168334961 0.16651174426078796
0.059534274041652679 0.88459682464599609 0.15367457270622253
0.16054229438304901 0.89021009206771851 0.15903457999229431
0.26471143960952759 0.89135849475860596 0.16288541257381439
0.37663751840591431 0.89396101236343384 0.1645917147397995
0.49913334846496582 0.89901196956634521 0.16351683437824249
0.62734651565551758 0.90100789070129395 0.15980440378189087
0.74473625421524048 0.90428107976913452 0.15582495927810669
0.83225637674331665 0.91218942403793335 0.1540045291185379
0.89077568054199219 0.92244976758956909 0.15385903418064117
0.93222236633300781 0.92952990531921387 0.15486246347427368
0.96312695741653442 0.9336053729057312 0.15680716931819916
0.98515278100967407 0.93693649768829346 0.16054490208625793
0.99891716241836548 0.94036823511123657 0.1658557802438736
0.061759695410728455 0.94415855407714844 0.15902359783649445
0.16855268180370331 0.95037227869033813 0.1644027978181839
0.27951511740684509 0.95307356119155884 0.1694490909576416
0.39647391438484192 0.95451760292053223 0.17155888676643372
0.51948750019073486 0.95561230182647705 0.16966663300991058
0.64486730098724365 0.95397615432739258 0.16493840515613556
0.75782370567321777 0.95282971858978271 0.16034939885139465
0.84064620733261108 0.9563453197479248 0.15748763084411621
0.89479690790176392 0.96289694309234619 0.15649403631687164
0.93428784608840942 0.96748656034469604 0.15684086084365845
0.96429568529129028 0.96956485509872437 0.15839569270610809
0.98557513952255249 0.97070604562759399 0.16167792677879333
0.99891966581344604 0.97192859649658203 0.1666572242975235
0.063095763325691223 0.98787498474121094 0.1631687730550766
0.17515936493873596 0.99232417345046997 0.1683553159236908
0.29226750135421753 0.99456077814102173 0.17351746559143066
0.41496121883392334 0.99546569585800171 0.17629583179950714
0.54151719808578491 0.9945874810218811 0.17536601424217224
0.66709470748901367 0.99200904369354248 0.17145593464374542
0.77763843536376953 0.98919403553009033 0.1671610027551651
0.85660064220428467 0.98966902494430542 0.16405808925628662
0.90662097930908203 0.99274015426635742 0.16285182535648346
0.9417300820350647 0.99458402395248413 0.16286808252334595
0.96820992231369019 0.99536961317062378 0.16411586105823517
0.98730272054672241 0.99539291858673096 0.16653801500797272
0.99908596277236938 0.99526655673980713 0.16995412111282349
0.04596010223031044 0.014087452553212643 0.22957657277584076
0.13604943454265594 0.014766528271138668 0.22953690588474274
0.23218216001987457 0.015896441414952278 0.23057088255882263
0.34106504917144775 0.018914824351668358 0.23122511804103851
0.46749725937843323 0.019362745806574821 0.23321957886219025
0.60234469175338745 0.019362745806574821 0.23703670501708984
0.72427558898925781 0.01861673966050148 0.24097089469432831
0.81886643171310425 0.017335345968604088 0.24363803863525391
0.88563817739486694 0.016646711155772209 0.2444852888584137
0.93141633272171021 0.016268592327833176 0.24390600621700287
0.96331304311752319 0.016612183302640915 0.24344538152217865
0.9847407341003418 0.018473606556653976 0.24580793082714081
0.9988817572593689 0.02252642996609211 0.25253692269325256
0.044651765376329422 0.051192130893468857 0.23010921478271484
0.13363499939441681 0.053107481449842453 0.22813184559345245
0.23001061379909515 0.056471236050128937 0.22928054630756378
0.34071555733680725 0.059882715344429016 0.230661541223526
0.46900534629821777 0.062319662421941757 0.23378725349903107
0.6028980016708374 0.064307130873203278 0.23742370307445526
0.72405421733856201 0.065482422709465027 0.24131453037261963
0.81790506839752197 0.066310673952102661 0.2444378137588501
0.88347059488296509 0.067052759230136871 0.24583034217357635
0.93101650476455688 0.068753339350223541 0.24536807835102081
0.96309465169906616 0.070963524281978607 0.24566853046417236
0.98474264144897461 0.076206564903259277 0.24875195324420929
0.99926280975341797 0.085077367722988129 0.25643447041511536
0.042931888252496719 0.1014309749007225 0.23224183917045593
0.13228060305118561 0.10476765036582947 0.22906699776649475
0.22953911125659943 0.1099088042974472 0.2295277863740921
0.34111842513084412 0.11427707970142365 0.23185017704963684
0.4691784679889679 0.11804582178592682 0.2354443222284317
0.60321676731109619 0.12142070382833481 0.23917178809642792
0.72421449422836304 0.12455528229475021 0.24295949935913086
0.8181464672088623 0.12771794199943542 0.24625441431999207
0.88390374183654785 0.13094344735145569 0.24822279810905457
0.93048596382141113 0.13416324555873871 0.24877059459686279
0.96260446310043335 0.13894718885421753 0.25006762146949768
0.98474264144897461 0.14679984748363495 0.25412431359291077
0.99926471710205078 0.15923331677913666 0.26213926076889038
0.041885871440172195 0.17021128535270691 0.23344680666923523
0.13173909485340118 0.17493496835231781 0.22986981272697449
0.22931939363479614 0.18183058500289917 0.22999332845211029
0.34073743224143982 0.1883360743522644 0.23289501667022705
0.46943271160125732 0.1939723938703537 0.23690174520015717
0.60560542345046997 0.19874422252178192 0.24094931781291962
0.72867065668106079 0.20385651290416718 0.24478399753570557
0.82236748933792114 0.20972491800785065 0.24821609258651733
0.88646984100341797 0.21509139239788055 0.25064611434936523
0.93052345514297485 0.22034908831119537 0.25204402208328247
0.96179234981536865 0.2270151674747467 0.2540193498134613
0.98474264144897461 0.23691509664058685 0.25838103890419006
0.99924725294113159 0.25125616788864136 0.26610621809959412
0.043150119483470917 0.26064783334732056 0.23297986388206482
0.13332481682300568 0.26706194877624512 0.2300713062286377
0.23096689581871033 0.27543139457702637 0.23040507733821869
0.34135875105857849 0.28466522693634033 0.23367910087108612
