assets/lut/pixlsus amstragram.cube
# Created by: G'MIC (https://gmic.eu)
TITLE "amstragram"
# LUT size
LUT_3D_SIZE 5
# Data domain
DOMAIN_MIN 0.0 0.0 0.0
DOMAIN_MAX 1.0 1.0 1.0
# LUT data points
0.09331386536359787 0.13070030510425568 0.13350208103656769
0.25635328888893127 0.13128355145454407 0.099028855562210083
0.51327013969421387 0.1913103461265564 0.11666751652956009
0.7123711109161377 0.21600577235221863 0.16977490484714508
0.83355885744094849 0.20864175260066986 0.17669710516929626
0.062383987009525299 0.22436457872390747 0.16368104517459869
0.23118604719638824 0.25516641139984131 0.16232208907604218
0.5426526665687561 0.32835838198661804 0.15300486981868744
0.72785651683807373 0.36990612745285034 0.18596477806568146
0.84815460443496704 0.35299152135848999 0.19435709714889526
0.15925987064838409 0.38257375359535217 0.22694353759288788
0.31766998767852783 0.43735051155090332 0.27807885408401489
0.57291984558105469 0.52065545320510864 0.30459499359130859
0.791107177734375 0.56396859884262085 0.26153212785720825
0.87588655948638916 0.55311113595962524 0.24358759820461273
0.21240183711051941 0.5535205602645874 0.24584327638149261
0.38456031680107117 0.57468169927597046 0.28334587812423706
0.60000801086425781 0.62721484899520874 0.31086593866348267
0.80329239368438721 0.70855087041854858 0.32631900906562805
0.93884611129760742 0.72411072254180908 0.28901714086532593
0.21190854907035828 0.72968512773513794 0.22096750140190125
0.37610822916030884 0.72151416540145874 0.24389506876468658
0.58698862791061401 0.73532730340957642 0.27306213974952698
0.79441386461257935 0.78024196624755859 0.29628258943557739
0.9296535849571228 0.81321847438812256 0.2859504222869873
0.11269034445285797 0.14158394932746887 0.22246775031089783
0.22211958467960358 0.13001218438148499 0.18673950433731079
0.52277195453643799 0.20514675974845886 0.20416237413883209
0.74449360370635986 0.25919955968856812 0.23466293513774872
0.83657741546630859 0.24646435678005219 0.24918815493583679
0.083595201373100281 0.22439594566822052 0.28847798705101013
0.21375256776809692 0.25717815756797791 0.26712751388549805
0.52824324369430542 0.33266475796699524 0.27172097563743591
0.73091453313827515 0.36079245805740356 0.26650020480155945
0.8538544774055481 0.36390405893325806 0.27844837307929993
0.1769014298915863 0.39253666996955872 0.36355844140052795
0.25117263197898865 0.43680557608604431 0.36539965867996216
0.54125332832336426 0.53088438510894775 0.42406085133552551
0.77868396043777466 0.56830734014511108 0.38286107778549194
0.88117301464080811 0.5504831075668335 0.34997859597206116
0.21753105521202087 0.55088084936141968 0.39803752303123474
0.35405713319778442 0.57895773649215698 0.41245865821838379
0.57441067695617676 0.64584386348724365 0.4554595947265625
0.79560363292694092 0.71907556056976318 0.46460530161857605
0.9363781213760376 0.74765950441360474 0.41707608103752136
0.20711441338062286 0.70280170440673828 0.38194844126701355
0.36490896344184875 0.71643543243408203 0.39666748046875
0.57918256521224976 0.73868143558502197 0.42142608761787415
0.78610289096832275 0.77652674913406372 0.42359873652458191
0.93189334869384766 0.81892937421798706 0.41303625702857971
0.12834203243255615 0.18534263968467712 0.36838570237159729
0.25463438034057617 0.19058936834335327 0.3291204571723938
0.49079763889312744 0.21209466457366943 0.31752538681030273
0.7276531457901001 0.25648990273475647 0.31561598181724548
0.83313888311386108 0.24857886135578156 0.34089502692222595
0.12570896744728088 0.28235322237014771 0.40271958708763123
0.21033301949501038 0.27948823571205139 0.37707236409187317
0.50049048662185669 0.34244301915168762 0.39297354221343994
0.73884099721908569 0.37559965252876282 0.38751044869422913
0.875152587890625 0.36339211463928223 0.35450226068496704
0.17767326533794403 0.43948167562484741 0.49960651993751526
0.25929021835327148 0.45272734761238098 0.50077658891677856
0.52825844287872314 0.53674638271331787 0.52652865648269653
0.76904004812240601 0.57070237398147583 0.51985013484954834
0.89136511087417603 0.54952329397201538 0.47533166408538818
0.22398661077022552 0.55544555187225342 0.54073196649551392
0.33600327372550964 0.58923792839050293 0.5503079891204834
0.53499722480773926 0.66925203800201416 0.58512991666793823
0.78904992341995239 0.75114154815673828 0.62671220302581787
0.94131755828857422 0.74979645013809204 0.57929050922393799
0.21856696903705597 0.69290578365325928 0.54021519422531128
0.34775543212890625 0.70483219623565674 0.55589872598648071
0.55766069889068604 0.74779558181762695 0.5882381796836853
0.7796928882598877 0.81186920404434204 0.61942917108535767
0.93509572744369507 0.82734793424606323 0.58761101961135864
0.13375981152057648 0.20479032397270203 0.53454756736755371
0.28839936852455139 0.22889187932014465 0.5108482837677002
0.52136176824569702 0.25411096215248108 0.49556764960289001
0.71758174896240234 0.24945364892482758 0.44478818774223328
0.82395035028457642 0.24496565759181976 0.44136723875999451
0.15697047114372253 0.34410178661346436 0.5471336841583252
0.26969891786575317 0.35541033744812012 0.53434222936630249
0.5112377405166626 0.38454553484916687 0.53072035312652588
0.72080612182617188 0.3886839747428894 0.51405441761016846
0.83349299430847168 0.356923907995224 0.48171326518058777
0.19696316123008728 0.48487633466720581 0.5911058783531189
0.29599109292030334 0.49613809585571289 0.59208762645721436
0.53039842844009399 0.55327576398849487 0.61942142248153687
0.7536855936050415 0.5822983980178833 0.63144475221633911
0.89422589540481567 0.57173925638198853 0.61901116371154785
0.25591951608657837 0.60631847381591797 0.64905369281768799
0.35168236494064331 0.62908065319061279 0.67412495613098145
0.51893341541290283 0.68548095226287842 0.69543278217315674
0.79049825668334961 0.76549124717712402 0.74326038360595703
0.93355488777160645 0.77318233251571655 0.73086750507354736
0.24199657142162323 0.73482632637023926 0.68260729312896729
0.36805236339569092 0.73272013664245605 0.69861328601837158
0.54890280961990356 0.78930366039276123 0.75058335065841675
0.8115534782409668 0.88100302219390869 0.80383771657943726
0.92406374216079712 0.88082373142242432 0.78191202878952026
0.12643195688724518 0.19592684507369995 0.69838029146194458
0.29083827137947083 0.21291381120681763 0.68187075853347778
0.51756179332733154 0.2262360155582428 0.65095978975296021
0.71137434244155884 0.22817480564117432 0.59673678874969482
0.85046195983886719 0.21613016724586487 0.58561855554580688
0.14989224076271057 0.35130554437637329 0.68967336416244507
0.29948928952217102 0.36409056186676025 0.68175429105758667
0.53054898977279663 0.37712579965591431 0.6679111123085022
0.72350847721099854 0.37749513983726501 0.63866531848907471
0.85569590330123901 0.35338020324707031 0.60248655080795288
0.18100136518478394 0.49773332476615906 0.70123100280761719
0.32165580987930298 0.52238619327545166 0.69813555479049683
0.54510623216629028 0.55630373954772949 0.70310741662979126
0.75320380926132202 0.5698968768119812 0.71263641119003296
0.87913304567337036 0.55740135908126831 0.69882005453109741
0.23956461250782013 0.64800101518630981 0.76028811931610107
0.36177709698677063 0.66764712333679199 0.75940752029418945
0.546347975730896 0.71876335144042969 0.79248958826065063
0.77559190988540649 0.76906263828277588 0.8248826265335083
0.92281270027160645 0.77097761631011963 0.81430107355117798
0.26492452621459961 0.79009455442428589 0.81121635437011719
0.39845818281173706 0.78124392032623291 0.8053252100944519
0.54633724689483643 0.81490516662597656 0.84585994482040405
0.7874329686164856 0.87438476085662842 0.88079506158828735
0.95358896255493164 0.93480753898620605 0.92289334535598755
