assets/lut/pixlsus hypressen.cube
# Created by: G'MIC (https://gmic.eu)
TITLE "hypressen"
# LUT size
LUT_3D_SIZE 5
# Data domain
DOMAIN_MIN 0.0 0.0 0.0
DOMAIN_MAX 1.0 1.0 1.0
# LUT data points
0.18520070612430573 0.066371455788612366 0.087531194090843201
0.31107345223426819 0.06891341507434845 0.09336535632610321
0.62741965055465698 0.072500772774219513 0.099073611199855804
0.86984145641326904 0.068671822547912598 0.15455077588558197
0.95275300741195679 0.061846204102039337 0.24457496404647827
0.19782070815563202 0.14728821814060211 0.10718207061290741
0.32293826341629028 0.23031914234161377 0.090199142694473267
0.65840351581573486 0.27591481804847717 0.099046267569065094
0.87384891510009766 0.29199028015136719 0.12166270613670349
0.94615590572357178 0.24093569815158844 0.20535048842430115
0.27214613556861877 0.40982168912887573 0.14057351648807526
0.36464527249336243 0.46745419502258301 0.16074179112911224
0.64123368263244629 0.64367544651031494 0.11214414238929749
0.87887972593307495 0.64784067869186401 0.098626725375652313
0.94581007957458496 0.62907308340072632 0.10400673002004623
0.30571743845939636 0.62705487012863159 0.12639468908309937
0.44918707013130188 0.64144206047058105 0.14361318945884705
0.6238059401512146 0.72800141572952271 0.15252774953842163
0.86643040180206299 0.82834053039550781 0.10418862849473953
0.97196084260940552 0.87254071235656738 0.1096474900841713
0.28130057454109192 0.78946739435195923 0.11021647602319717
0.44111165404319763 0.77782845497131348 0.12221009284257889
0.63468396663665771 0.81942403316497803 0.1420397013425827
0.83608412742614746 0.88794881105422974 0.10879714041948318
0.97301381826400757 0.94630670547485352 0.17011983692646027
0.18641072511672974 0.089025534689426422 0.20811651647090912
0.35764530301094055 0.089834906160831451 0.31375455856323242
0.69697856903076172 0.074566394090652466 0.38128846883773804
0.8865622878074646 0.077661134302616119 0.35693067312240601
0.95850378274917603 0.094887703657150269 0.35474878549575806
0.19856475293636322 0.18738624453544617 0.27167961001396179
0.37086716294288635 0.24532715976238251 0.34771537780761719
0.68598055839538574 0.22485865652561188 0.36288651823997498
0.8899114727973938 0.21556666493415833 0.38127323985099792
0.9699167013168335 0.22552064061164856 0.40379920601844788
0.28530770540237427 0.42661887407302856 0.34744083881378174
0.40792420506477356 0.4636722207069397 0.39437639713287354
0.65707767009735107 0.63853180408477783 0.34158733487129211
0.88313895463943481 0.63406139612197876 0.21756660938262939
0.96540600061416626 0.63824641704559326 0.22679212689399719
0.31159195303916931 0.6099584698677063 0.33598726987838745
0.45688566565513611 0.63482385873794556 0.3571324348449707
0.63799834251403809 0.72557014226913452 0.34801125526428223
0.88879764080047607 0.86894696950912476 0.24768301844596863
0.9830552339553833 0.92658001184463501 0.24660667777061462
0.28230470418930054 0.77349138259887695 0.319303959608078
0.44148623943328857 0.76800084114074707 0.33082416653633118
0.64680522680282593 0.81098419427871704 0.32057881355285645
0.84008920192718506 0.89344626665115356 0.3240627646446228
0.97338896989822388 0.96079593896865845 0.3897022008895874
0.20690229535102844 0.23120290040969849 0.51119768619537354
0.36451122164726257 0.23858274519443512 0.53408247232437134
0.68348139524459839 0.1696978360414505 0.58322691917419434
0.85027104616165161 0.17506435513496399 0.55054682493209839
0.94771718978881836 0.21907106041908264 0.51072984933853149
0.21567758917808533 0.33815163373947144 0.57261019945144653
0.38776764273643494 0.37048888206481934 0.57777136564254761
0.70146465301513672 0.37642982602119446 0.62519586086273193
0.89043706655502319 0.37827837467193604 0.62336558103561401
0.95836865901947021 0.39431026577949524 0.55734211206436157
0.34362581372261047 0.52151340246200562 0.58365148305892944
0.48565733432769775 0.56997871398925781 0.59775459766387939
0.70438206195831299 0.64563107490539551 0.62643218040466309
0.8837275505065918 0.64327126741409302 0.58893018960952759
0.97349220514297485 0.6722150444984436 0.60308158397674561
0.35220363736152649 0.63976311683654785 0.56177586317062378
0.4927036464214325 0.6640278697013855 0.5747496485710144
0.68069112300872803 0.73044735193252563 0.60592198371887207
0.90061348676681519 0.88359016180038452 0.64054381847381592
0.98337137699127197 0.91817390918731689 0.64593350887298584
0.3046155571937561 0.77635067701339722 0.54657340049743652
0.45586824417114258 0.77628153562545776 0.55480670928955078
0.64867109060287476 0.82213926315307617 0.57232958078384399
0.8534281849861145 0.89929425716400146 0.62658250331878662
0.9703366756439209 0.97559577226638794 0.70702201128005981
0.24215799570083618 0.34192082285881042 0.70831280946731567
0.39883348345756531 0.33339419960975647 0.69156301021575928
0.61996811628341675 0.28691625595092773 0.67781573534011841
0.80468428134918213 0.27171769738197327 0.65851646661758423
0.93472546339035034 0.26464477181434631 0.62907201051712036
0.32293969392776489 0.48789751529693604 0.7467111349105835
0.45636773109436035 0.49517983198165894 0.71878105401992798
0.63252133131027222 0.45536470413208008 0.68373584747314453
0.81772404909133911 0.43956023454666138 0.65956407785415649
0.936870276927948 0.44246312975883484 0.63199001550674438
0.46957883238792419 0.64446151256561279 0.82834750413894653
0.55472683906555176 0.66033291816711426 0.79339760541915894
0.68592154979705811 0.66601991653442383 0.74915897846221924
0.82935142517089844 0.67077505588531494 0.68374276161193848
0.94250917434692383 0.67743766307830811 0.65828168392181396
0.41196820139884949 0.69420349597930908 0.80035048723220825
0.54050487279891968 0.71409332752227783 0.79763072729110718
0.7000114917755127 0.77276414632797241 0.80151659250259399
0.85681635141372681 0.84355825185775757 0.7973555326461792
0.96807372570037842 0.8826184868812561 0.80588740110397339
0.33194473385810852 0.79884898662567139 0.78031373023986816
0.4768730103969574 0.80172187089920044 0.77441555261611938
0.65300291776657104 0.84418600797653198 0.78011137247085571
0.83567285537719727 0.90568608045578003 0.83219230175018311
0.97270894050598145 0.97906428575515747 0.92833656072616577
0.24713844060897827 0.33494111895561218 0.84168285131454468
0.41069239377975464 0.34146362543106079 0.83295553922653198
0.58724349737167358 0.27502292394638062 0.79793632030487061
0.78023487329483032 0.2456449419260025 0.77537262439727783
0.92920690774917603 0.23956680297851562 0.77241998910903931
0.32380262017250061 0.49714094400405884 0.84988701343536377
0.46591868996620178 0.50748163461685181 0.84251660108566284
0.62489229440689087 0.46142512559890747 0.80118578672409058
0.78514420986175537 0.43049764633178711 0.77128809690475464
0.93054842948913574 0.42206671833992004 0.76019477844238281
0.41760361194610596 0.63499486446380615 0.89380770921707153
0.52871501445770264 0.65485525131225586 0.88269722461700439
0.66916465759277344 0.66942662000656128 0.85473120212554932
0.80271059274673462 0.64308774471282959 0.8025362491607666
0.94125837087631226 0.64942818880081177 0.78213471174240112
0.38858553767204285 0.70771503448486328 0.90089911222457886
0.52179950475692749 0.7308427095413208 0.89129042625427246
0.67646849155426025 0.77505666017532349 0.89388710260391235
0.82238399982452393 0.81886738538742065 0.89425837993621826
0.95360720157623291 0.84383338689804077 0.86918485164642334
0.32257315516471863 0.81360000371932983 0.90747225284576416
0.47492992877960205 0.8176918625831604 0.89515799283981323
0.64255827665328979 0.85750347375869751 0.90132570266723633
0.82195311784744263 0.91065818071365356 0.92197990417480469
0.96309620141983032 0.96626991033554077 0.94975727796554565
