assets/lut/pixlsus cinematic lady bird.cube
# Created by: G'MIC (https://gmic.eu)
TITLE "cinematic_lady_bird"
# LUT size
LUT_3D_SIZE 5
# Data domain
DOMAIN_MIN 0.0 0.0 0.0
DOMAIN_MAX 1.0 1.0 1.0
# LUT data points
0.037049043923616409 0.027976151555776596 0.038278840482234955
0.37763911485671997 0.038291122764348984 0.031447526067495346
0.57979363203048706 0.049094211310148239 0.02276630699634552
0.71342545747756958 0.043570410460233688 0.025665970519185066
0.80311083793640137 0.042319204658269882 0.084478460252285004
0.037599124014377594 0.21397459506988525 0.085281595587730408
0.30565652251243591 0.24228495359420776 0.070310510694980621
0.55487239360809326 0.2736440896987915 0.039655841886997223
0.75230675935745239 0.27237510681152344 0.042989183217287064
0.85361462831497192 0.29931408166885376 0.12950386106967926
0.04290458932518959 0.37584948539733887 0.11802755296230316
0.30010434985160828 0.41826009750366211 0.093573600053787231
0.57422918081283569 0.47239977121353149 0.082900851964950562
0.77397352457046509 0.50170606374740601 0.13114906847476959
0.87544852495193481 0.50019639730453491 0.15649192035198212
0.1290554404258728 0.5220940113067627 0.13325288891792297
0.36890473961830139 0.5724446177482605 0.10887224972248077
0.61558657884597778 0.61556386947631836 0.063061445951461792
0.78114867210388184 0.66380822658538818 0.10836935788393021
0.87672924995422363 0.68972408771514893 0.14643067121505737
0.15315966308116913 0.65164220333099365 0.11113810539245605
0.37105467915534973 0.6674683690071106 0.099874995648860931
0.58808475732803345 0.72958505153656006 0.067649111151695251
0.8415302038192749 0.77434355020523071 0.092702783644199371
0.92230159044265747 0.8188440203666687 0.13300657272338867
0.023902265354990959 0.044710554182529449 0.20640572905540466
0.28876504302024841 0.064948543906211853 0.22135405242443085
0.5607265830039978 0.070683106780052185 0.23072776198387146
0.72127920389175415 0.046541027724742889 0.19650791585445404
0.79062151908874512 0.048990495502948761 0.23326510190963745
0.015403732657432556 0.23731802403926849 0.25788459181785583
0.24525541067123413 0.26951485872268677 0.27687418460845947
0.55594331026077271 0.30263224244117737 0.2842462956905365
0.77566629648208618 0.29870045185089111 0.24792538583278656
0.87296402454376221 0.31083005666732788 0.26423311233520508
0.025127800181508064 0.40033072233200073 0.30128425359725952
0.25384947657585144 0.45509758591651917 0.31384161114692688
0.57031524181365967 0.50584298372268677 0.32047006487846375
0.8083575963973999 0.53650391101837158 0.31773403286933899
0.89673066139221191 0.52681177854537964 0.30177181959152222
0.10308797657489777 0.53869271278381348 0.30830514430999756
0.34239447116851807 0.59950029850006104 0.3219020664691925
0.58970779180526733 0.66473627090454102 0.36053958535194397
0.79601019620895386 0.69129461050033569 0.32733574509620667
0.90701097249984741 0.70262044668197632 0.32724106311798096
0.13899299502372742 0.6769605278968811 0.29729411005973816
0.34844061732292175 0.69696509838104248 0.30580624938011169
0.59162545204162598 0.74669021368026733 0.33304497599601746
0.82934081554412842 0.81212294101715088 0.33170047402381897
0.95811265707015991 0.83378481864929199 0.3726285994052887
0.031526528298854828 0.069548666477203369 0.31644070148468018
0.28423333168029785 0.073434822261333466 0.35796278715133667
0.49492654204368591 0.1038874015212059 0.40458998084068298
0.70779991149902344 0.12746976315975189 0.40427988767623901
0.78400051593780518 0.055057317018508911 0.39715337753295898
0.015348860993981361 0.25534752011299133 0.40503203868865967
0.20477031171321869 0.28962144255638123 0.43676134943962097
0.53351622819900513 0.32581871747970581 0.47784462571144104
0.77040475606918335 0.33040666580200195 0.46598818898200989
0.87057924270629883 0.3189166784286499 0.46758198738098145
0.011243917047977448 0.42642995715141296 0.46634981036186218
0.19801665842533112 0.47700431942939758 0.48010239005088806
0.55590152740478516 0.53864085674285889 0.53533780574798584
0.79589855670928955 0.56549310684204102 0.5273934006690979
0.93021893501281738 0.56810855865478516 0.50898569822311401
0.062380354851484299 0.56086450815200806 0.49227374792098999
0.25402480363845825 0.61538010835647583 0.50662928819656372
0.58421856164932251 0.70214235782623291 0.55376100540161133
0.80750900506973267 0.72443270683288574 0.55123096704483032
0.94527000188827515 0.7373054027557373 0.55589300394058228
0.089915379881858826 0.67965376377105713 0.4950711727142334
0.30808743834495544 0.72654134035110474 0.52064222097396851
0.59421855211257935 0.78374201059341431 0.55226963758468628
0.81623536348342896 0.83889055252075195 0.59267950057983398
0.96277850866317749 0.87064856290817261 0.57083189487457275
0.083516471087932587 0.096442505717277527 0.46636882424354553
0.24331091344356537 0.15193679928779602 0.50087100267410278
0.4676668643951416 0.20686900615692139 0.58046853542327881
0.70934605598449707 0.21980859339237213 0.59462183713912964
0.82803910970687866 0.14213429391384125 0.57615917921066284
0.071875825524330139 0.277027428150177 0.52827233076095581
0.21304115653038025 0.31292030215263367 0.54897040128707886
0.51152318716049194 0.35531491041183472 0.60835909843444824
0.74624109268188477 0.3797469437122345 0.63869398832321167
0.88488692045211792 0.3412497341632843 0.62719327211380005
0.017243210226297379 0.45353347063064575 0.58312976360321045
0.20800313353538513 0.49681916832923889 0.63657683134078979
0.53752315044403076 0.5538630485534668 0.66783487796783447
0.79198747873306274 0.57935541868209839 0.67736184597015381
0.93463736772537231 0.56975853443145752 0.67039990425109863
0.016792984679341316 0.60070842504501343 0.6429750919342041
0.16745726764202118 0.65955948829650879 0.66578114032745361
0.56061393022537231 0.72260576486587524 0.71366530656814575
0.80990767478942871 0.74033969640731812 0.70629048347473145
0.92464393377304077 0.75051796436309814 0.69784551858901978
0.042550630867481232 0.69796228408813477 0.66916370391845703
0.25407630205154419 0.74743163585662842 0.68154317140579224
0.52998554706573486 0.8135906457901001 0.72223025560379028
0.80330914258956909 0.872386634349823 0.74751913547515869
0.96413940191268921 0.89229023456573486 0.7075086236000061
0.090737029910087585 0.11274834722280502 0.5982738733291626
0.26007252931594849 0.16636598110198975 0.62421494722366333
0.46962848305702209 0.22698156535625458 0.6855323314666748
0.711742103099823 0.27177968621253967 0.74199658632278442
0.89293533563613892 0.21919216215610504 0.73270267248153687
0.11428506672382355 0.29124191403388977 0.62893795967102051
0.26254376769065857 0.31623595952987671 0.66595065593719482
0.49691987037658691 0.38884156942367554 0.73203319311141968
0.72318243980407715 0.4076111912727356 0.74171799421310425
0.90168386697769165 0.3913523256778717 0.7188754677772522
0.033790141344070435 0.47234940528869629 0.67088901996612549
0.19913908839225769 0.50621044635772705 0.71143221855163574
0.5169333815574646 0.56920188665390015 0.75877422094345093
0.79571080207824707 0.59053897857666016 0.80606323480606079
0.92225146293640137 0.58926379680633545 0.78296267986297607
0.011779516004025936 0.63281011581420898 0.74043267965316772
0.18034887313842773 0.68478637933731079 0.79598128795623779
0.52433532476425171 0.73466640710830688 0.80520188808441162
0.8079720139503479 0.75283199548721313 0.81850069761276245
0.95324981212615967 0.75707358121871948 0.83266180753707886
0.017808157950639725 0.75085997581481934 0.78785049915313721
0.27015337347984314 0.77685946226119995 0.80864852666854858
0.57573062181472778 0.84617006778717041 0.8258281946182251
0.81395441293716431 0.88106262683868408 0.84303295612335205
0.96380418539047241 0.89700216054916382 0.85721629858016968
