assets/lut/pixlsus magenta yellow.cube
# Created by: G'MIC (https://gmic.eu)
TITLE "magenta_yellow"
# LUT size
LUT_3D_SIZE 5
# Data domain
DOMAIN_MIN 0.0 0.0 0.0
DOMAIN_MAX 1.0 1.0 1.0
# LUT data points
0.097288556396961212 0.070831656455993652 0.09713822603225708
0.31370776891708374 0.024207485839724541 0.041647728532552719
0.50768882036209106 0.033801224082708359 0.039122801274061203
0.72771209478378296 0.068961411714553833 0.034803923219442368
0.96071875095367432 0.12786073982715607 0.030401222407817841
0.047981157898902893 0.2863897979259491 0.045933935791254044
0.30330637097358704 0.26512044668197632 0.035789266228675842
0.50055360794067383 0.24333415925502777 0.034635178744792938
0.72181373834609985 0.28921350836753845 0.031185988336801529
0.95735293626785278 0.36208358407020569 0.02645944245159626
0.042839769273996353 0.47466391324996948 0.035154171288013458
0.28583845496177673 0.48057350516319275 0.024544375017285347
0.50280815362930298 0.48272857069969177 0.025862107053399086
0.7257457971572876 0.51813429594039917 0.027017749845981598
0.95788544416427612 0.58886986970901489 0.025192350149154663
0.042832765728235245 0.73752713203430176 0.030207930132746696
0.28616631031036377 0.73816984891891479 0.021481502801179886
0.51199984550476074 0.73630887269973755 0.018860641866922379
0.73288083076477051 0.73965972661972046 0.021247295662760735
0.96127450466156006 0.81762158870697021 0.021401289850473404
0.043349485844373703 0.96616435050964355 0.029856318607926369
0.28987857699394226 0.9705238938331604 0.017796071246266365
0.52026379108428955 0.96513181924819946 0.011440321803092957
0.74261093139648438 0.94648295640945435 0.0092747705057263374
0.9620814323425293 0.97882384061813354 0.018921077251434326
0.044826045632362366 0.014920956455171108 0.32567510008811951
0.30035519599914551 0.010733062401413918 0.29589956998825073
0.50513380765914917 0.02036895789206028 0.26978442072868347
0.72573530673980713 0.061737913638353348 0.25852495431900024
0.95735293626785278 0.1265408992767334 0.24897633492946625
0.049432925879955292 0.275594562292099 0.30561307072639465
0.3070366382598877 0.22136205434799194 0.29893386363983154
0.50487953424453735 0.22975009679794312 0.25918135046958923
0.72279864549636841 0.28870412707328796 0.24458859860897064
0.95742994546890259 0.37390699982643127 0.23355522751808167
0.038102287799119949 0.48084592819213867 0.26953718066215515
0.28401651978492737 0.46360680460929871 0.25705417990684509
0.50018340349197388 0.4577392041683197 0.24839325249195099
0.72573769092559814 0.51776695251464844 0.23814535140991211
0.96127128601074219 0.60774397850036621 0.22461344301700592
0.036717988550662994 0.73051196336746216 0.25570157170295715
0.28189626336097717 0.7334485650062561 0.24267108738422394
0.51034086942672729 0.73041343688964844 0.2390822172164917
0.73078864812850952 0.739219069480896 0.23849938809871674
0.96127450466156006 0.83356249332427979 0.22249498963356018
0.038486137986183167 0.96294856071472168 0.24883805215358734
0.28458011150360107 0.96643155813217163 0.23207774758338928
0.52107495069503784 0.97153884172439575 0.22309960424900055
0.7432396411895752 0.96412605047225952 0.22344169020652771
0.96212536096572876 0.97568905353546143 0.22509860992431641
0.035870000720024109 0.014412554912269115 0.50020807981491089
0.28330332040786743 0.017488935962319374 0.49473303556442261
0.50470662117004395 0.02076110802590847 0.48847606778144836
0.72935765981674194 0.052853092551231384 0.48284426331520081
0.95912212133407593 0.11546953767538071 0.47229057550430298
0.045605767518281937 0.2468169629573822 0.48834168910980225
0.28689077496528625 0.23437079787254333 0.48676550388336182
0.50411450862884521 0.22346882522106171 0.48003497719764709
0.72794908285140991 0.28039419651031494 0.47210726141929626
0.96123981475830078 0.37079316377639771 0.45645067095756531
0.040277667343616486 0.4808402955532074 0.48669260740280151
0.28605696558952332 0.46314314007759094 0.48285239934921265
0.50202286243438721 0.42587223649024963 0.466146320104599
0.73161715269088745 0.52511358261108398 0.45825526118278503
0.96127450466156006 0.63794314861297607 0.44197750091552734
0.03643321618437767 0.73145222663879395 0.47994992136955261
0.28263792395591736 0.73141855001449585 0.47041109204292297
0.52132391929626465 0.73556661605834961 0.45876589417457581
0.73409521579742432 0.75026834011077881 0.45098903775215149
0.96131974458694458 0.87465494871139526 0.43990060687065125
0.036832667887210846 0.96127462387084961 0.46897655725479126
0.28392446041107178 0.96650558710098267 0.4532654881477356
0.53007620573043823 0.96991920471191406 0.44010248780250549
0.75131827592849731 0.9685479998588562 0.43755364418029785
0.96145462989807129 0.97033429145812988 0.43740850687026978
0.040156599134206772 0.054397284984588623 0.70087587833404541
0.28624531626701355 0.055641353130340576 0.6993224024772644
0.5116652250289917 0.051725558936595917 0.70522379875183105
0.73406481742858887 0.064695604145526886 0.70769608020782471
0.96127450466156006 0.10832120478153229 0.69986671209335327
0.04728291928768158 0.28690272569656372 0.69503277540206909
0.29001355171203613 0.28778326511383057 0.69270306825637817
0.51457875967025757 0.27984973788261414 0.69809919595718384
0.73400098085403442 0.29323622584342957 0.70237749814987183
0.96127450466156006 0.35693153738975525 0.69080269336700439
0.043474338948726654 0.51758098602294922 0.70562076568603516
0.29020649194717407 0.52048534154891968 0.69942796230316162
0.52228599786758423 0.52789461612701416 0.68709540367126465
0.73466837406158447 0.53927123546600342 0.68210279941558838
0.96127450466156006 0.63547253608703613 0.67121678590774536
0.040437046438455582 0.74168485403060913 0.7090529203414917
0.28449127078056335 0.74223130941390991 0.70188498497009277
0.5223088264465332 0.74512964487075806 0.68634605407714844
0.73632669448852539 0.75479996204376221 0.66256153583526611
0.96147990226745605 0.92438942193984985 0.64631021022796631
0.040517754852771759 0.96265500783920288 0.69610053300857544
0.28541457653045654 0.96723884344100952 0.68713986873626709
0.5336005687713623 0.96676117181777954 0.66942620277404785
0.75648677349090576 0.96354568004608154 0.64886808395385742
0.96127027273178101 0.97723084688186646 0.64204752445220947
0.045314054936170578 0.12714235484600067 0.9206387996673584
0.29136207699775696 0.12569978833198547 0.91866487264633179
0.51964855194091797 0.11596155911684036 0.92339867353439331
0.74104112386703491 0.11086506396532059 0.92736291885375977
0.96226519346237183 0.1268840879201889 0.92349922657012939
0.049159839749336243 0.3611697256565094 0.91794842481613159
0.29548078775405884 0.36994358897209167 0.91261148452758789
0.52580040693283081 0.37062612175941467 0.91350668668746948
0.74521124362945557 0.36220207810401917 0.91829633712768555
0.96242779493331909 0.37564936280250549 0.91765618324279785
0.043472200632095337 0.58676713705062866 0.92496758699417114
0.29022720456123352 0.60694259405136108 0.91391021013259888
0.53132486343383789 0.63730138540267944 0.90129917860031128
0.751606285572052 0.64083480834960938 0.89949518442153931
0.96147972345352173 0.64314883947372437 0.90262329578399658
0.039795432239770889 0.81371110677719116 0.92462819814682007
0.28407353162765503 0.8340764045715332 0.91631662845611572
0.53336131572723389 0.87356090545654297 0.90077352523803711
0.75673085451126099 0.92480331659317017 0.88015496730804443
0.96236670017242432 0.93875354528427124 0.87336808443069458
0.040993049740791321 0.97666794061660767 0.92400294542312622
0.28188389539718628 0.97872430086135864 0.91694492101669312
0.5332450270652771 0.97382664680480957 0.90041184425354004
0.75791376829147339 0.97988742589950562 0.87243139743804932
0.96421277523040771 0.98213940858840942 0.84262454509735107
