assets/lut/pixlsus sweet bubblegum.cube
# Created by: G'MIC (https://gmic.eu)
TITLE "sweet_bubblegum"
# LUT size
LUT_3D_SIZE 5
# Data domain
DOMAIN_MIN 0.0 0.0 0.0
DOMAIN_MAX 1.0 1.0 1.0
# LUT data points
0.048835784196853638 0.01562652550637722 0.045102093368768692
0.341085284948349 0.017622929066419601 0.045609805732965469
0.7380790114402771 0.020556805655360222 0.048039216548204422
0.93333727121353149 0.014992897398769855 0.045546393841505051
0.99725615978240967 0.024402139708399773 0.052757352590560913
0.041885871440172195 0.16134762763977051 0.044333528727293015
0.33980479836463928 0.17967842519283295 0.045396856963634491
0.73087668418884277 0.20330187678337097 0.050967123359441757
0.92819368839263916 0.22185516357421875 0.051361218094825745
0.997569739818573 0.24850322306156158 0.053404506295919418
0.041478443890810013 0.49967488646507263 0.04344584047794342
0.34082114696502686 0.53330111503601074 0.05126253142952919
0.73430919647216797 0.57481640577316284 0.053821802139282227
0.92358750104904175 0.60658586025238037 0.054289214313030243
0.99453723430633545 0.63940656185150146 0.0552840456366539
0.052998650819063187 0.80300235748291016 0.052617479115724564
0.35252130031585693 0.8160896897315979 0.055770963430404663
0.73567450046539307 0.84212464094161987 0.051171861588954926
0.92782491445541382 0.87473487854003906 0.049644980579614639
0.99724745750427246 0.89210414886474609 0.056456815451383591
0.061158601194620132 0.98590224981307983 0.059366531670093536
0.40606227517127991 0.99448806047439575 0.066378682851791382
0.77500778436660767 0.98670393228530884 0.05753001943230629
0.93488770723342896 0.99398499727249146 0.053791359066963196
0.99679279327392578 0.99277538061141968 0.058409716933965683
0.044936969876289368 0.01169216725975275 0.34278631210327148
0.34270265698432922 0.018216660246253014 0.34488597512245178
0.72588998079299927 0.01967073418200016 0.351602703332901
0.93120008707046509 0.019558176398277283 0.35790657997131348
0.99787700176239014 0.024392550811171532 0.37153139710426331
0.043290697038173676 0.17496985197067261 0.34792521595954895
0.34611368179321289 0.1921890527009964 0.34583225846290588
0.73080718517303467 0.20656909048557281 0.3563353419303894
0.93099331855773926 0.22314168512821198 0.36735126376152039
0.99824744462966919 0.25566330552101135 0.3894190788269043
0.050319209694862366 0.5179017186164856 0.34298914670944214
0.34711232781410217 0.54582154750823975 0.34334507584571838
0.73612403869628906 0.57864493131637573 0.36584621667861938
0.92753422260284424 0.61512523889541626 0.37931534647941589
0.99824696779251099 0.65266764163970947 0.39586541056632996
0.055057838559150696 0.80943095684051514 0.35119143128395081
0.36068928241729736 0.82089477777481079 0.36115327477455139
0.73375606536865234 0.86517900228500366 0.39033123850822449
0.93431836366653442 0.89171475172042847 0.39600083231925964
0.99926471710205078 0.90748691558837891 0.40964943170547485
0.056254997849464417 0.98270130157470703 0.38043960928916931
0.41845065355300903 0.99312376976013184 0.4110773503780365
0.78389269113540649 0.98990726470947266 0.40679022669792175
0.94673067331314087 0.99393439292907715 0.40711736679077148
0.99930202960968018 0.99540442228317261 0.41315171122550964
0.049031618982553482 0.017264377325773239 0.73964983224868774
0.35295644402503967 0.016970390453934669 0.73857492208480835
0.73584496974945068 0.021872665733098984 0.72749876976013184
0.92568117380142212 0.022278474643826485 0.75005322694778442
0.99405145645141602 0.029831262305378914 0.77378016710281372
0.048190291970968246 0.1872103363275528 0.73823308944702148
0.36171266436576843 0.20061163604259491 0.73190373182296753
0.73952382802963257 0.21316291391849518 0.72682875394821167
0.92982053756713867 0.23246344923973083 0.74470227956771851
0.99445480108261108 0.26352867484092712 0.76947849988937378
0.05377298966050148 0.54312866926193237 0.73808807134628296
0.36134940385818481 0.56748461723327637 0.7358698844909668
0.73674666881561279 0.59034287929534912 0.73840516805648804
0.92541003227233887 0.62303251028060913 0.76667994260787964
0.99857938289642334 0.65593743324279785 0.79071319103240967
0.054262962192296982 0.83166259527206421 0.73354321718215942
0.38932475447654724 0.86171960830688477 0.73700535297393799
0.73823255300521851 0.8683580756187439 0.74215990304946899
0.92655098438262939 0.90531432628631592 0.82517522573471069
0.99764537811279297 0.92610889673233032 0.84840601682662964
0.054926015436649323 0.98162370920181274 0.76602733135223389
0.39754068851470947 0.98658579587936401 0.78865045309066772
0.83975279331207275 0.98952800035476685 0.83581018447875977
0.94756227731704712 0.99259263277053833 0.83984935283660889
0.99647730588912964 0.99578511714935303 0.85501539707183838
0.046629901975393295 0.013985143974423409 0.94816237688064575
0.36862987279891968 0.017151119187474251 0.94970297813415527
0.75717854499816895 0.022309785708785057 0.93032705783843994
0.92895150184631348 0.014397205784916878 0.93352341651916504
0.99505144357681274 0.02734101191163063 0.95373594760894775
0.050367645919322968 0.1962907612323761 0.94185608625411987
0.3750612735748291 0.21501928567886353 0.9467235803604126
0.75804716348648071 0.22795458137989044 0.93052536249160767
0.93346691131591797 0.24798287451267242 0.93144345283508301
0.99451929330825806 0.284820556640625 0.95271211862564087
0.054289214313030243 0.56924903392791748 0.92929494380950928
0.37522768974304199 0.58996981382369995 0.93681246042251587
0.76352334022521973 0.60463196039199829 0.92596083879470825
0.93806344270706177 0.63521802425384521 0.92846477031707764
0.99796169996261597 0.67406433820724487 0.94561922550201416
0.054737284779548645 0.85231488943099976 0.93023192882537842
0.39754763245582581 0.8724440336227417 0.92718338966369629
0.81255704164505005 0.90039849281311035 0.9268803596496582
0.9325406551361084 0.91097366809844971 0.93105834722518921
0.99768614768981934 0.93782752752304077 0.96678811311721802
0.050822120159864426 0.99046885967254639 0.92552775144577026
0.39556014537811279 0.98976749181747437 0.93188571929931641
0.84209978580474854 0.9884001612663269 0.94162118434906006
0.96263819932937622 0.99387651681900024 0.96678513288497925
0.99835747480392456 0.99835240840911865 0.98804771900177002
0.056369692087173462 0.019858656451106071 0.99937790632247925
0.385316401720047 0.018874164670705795 1
0.77063417434692383 0.024804791435599327 0.99736392498016357
0.93444347381591797 0.016828529536724091 0.99906498193740845
0.99601095914840698 0.029961559921503067 0.99913221597671509
0.054913286119699478 0.20669902861118317 0.99827331304550171
0.38056039810180664 0.22084976732730865 0.99978458881378174
0.77547115087509155 0.23697198927402496 0.99882906675338745
0.94034886360168457 0.25299417972564697 0.99786806106567383
0.99807894229888916 0.27433788776397705 0.9998965859413147
0.055781509727239609 0.59223479032516479 0.99533534049987793
0.3861176073551178 0.61288672685623169 0.99575293064117432
0.79506230354309082 0.63165181875228882 0.99609166383743286
0.94704592227935791 0.65641874074935913 0.99512302875518799
0.99669355154037476 0.6778031587600708 0.9962230920791626
0.059777650982141495 0.87174797058105469 0.99862802028656006
0.40857908129692078 0.88954651355743408 0.99853730201721191
0.83571881055831909 0.91242074966430664 0.99854999780654907
0.96308577060699463 0.92929333448410034 0.9989694356918335
0.99873107671737671 0.93929708003997803 0.99945527315139771
0.05828583613038063 0.99078488349914551 0.99543613195419312
0.41146230697631836 0.99526655673980713 0.99780982732772827
0.84944319725036621 0.99468803405761719 0.99718862771987915
0.98929649591445923 0.99867022037506104 0.99761325120925903
0.99896657466888428 0.99853622913360596 0.9984474778175354
