assets/lut/pixlsus magenta yellow.cube
# Created by: G'MIC (https://gmic.eu)
TITLE "magenta_yellow"
# LUT size
LUT_3D_SIZE 13
# Data domain
DOMAIN_MIN 0.0 0.0 0.0
DOMAIN_MAX 1.0 1.0 1.0
# LUT data points
0.097288556396961212 0.070831656455993652 0.09713822603225708
0.19225873053073883 0.038662571460008621 0.067403502762317657
0.2538067102432251 0.026504261419177055 0.049642257392406464
0.31370776891708374 0.024207485839724541 0.041647728532552719
0.37428206205368042 0.027233198285102844 0.041175529360771179
0.43920418620109558 0.029916919767856598 0.040544487535953522
0.50768882036209106 0.033801224082708359 0.039122801274061203
0.57879263162612915 0.041457831859588623 0.038725491613149643
0.65237993001937866 0.053438898175954819 0.037268619984388351
0.72771209478378296 0.068961411714553833 0.034803923219442368
0.80409902334213257 0.086519606411457062 0.034492924809455872
0.88175696134567261 0.10739517211914062 0.032430373132228851
0.96071875095367432 0.12786073982715607 0.030401222407817841
0.070828981697559357 0.16460144519805908 0.068018458783626556
0.18228481709957123 0.14723339676856995 0.060592874884605408
0.25425204634666443 0.12172654271125793 0.050846457481384277
0.31447499990463257 0.10597151517868042 0.042851720005273819
0.37457573413848877 0.10244890302419662 0.039474606513977051
0.43789127469062805 0.10207580775022507 0.038530163466930389
0.50502610206604004 0.10467176139354706 0.038528695702552795
0.57577806711196899 0.11236254870891571 0.037306439131498337
0.64916783571243286 0.12562075257301331 0.035006251186132431
0.7254905104637146 0.14330270886421204 0.034541483968496323
0.80282092094421387 0.16362017393112183 0.03304729238152504
0.88014721870422363 0.18574106693267822 0.031039653345942497
0.95791631937026978 0.20711871981620789 0.029114801436662674
0.054884426295757294 0.22431831061840057 0.052208274602890015
0.16184252500534058 0.22232720255851746 0.047931551933288574
0.24432767927646637 0.20802026987075806 0.04532482847571373
0.31103101372718811 0.18902042508125305 0.041084244847297668
0.37303376197814941 0.17851909995079041 0.037520658224821091
0.43620777130126953 0.17323823273181915 0.036008752882480621
0.50268542766571045 0.17353680729866028 0.035263676196336746
0.57306927442550659 0.18145772814750671 0.03482220321893692
0.64727437496185303 0.19659630954265594 0.034372590482234955
0.72249108552932739 0.21616126596927643 0.032966271042823792
0.80048239231109619 0.23838534951210022 0.031151222065091133
0.87995171546936035 0.26186120510101318 0.029379092156887054
0.95735293626785278 0.28518086671829224 0.027611929923295975
0.047981157898902893 0.2863897979259491 0.045933935791254044
0.14694873988628387 0.28514218330383301 0.041407372802495956
0.2311156690120697 0.27765914797782898 0.038546528667211533
0.30330637097358704 0.26512044668197632 0.035789266228675842
0.3690609335899353 0.25343772768974304 0.033799324184656143
0.433768630027771 0.24512182176113129 0.033751364797353745
0.50055360794067383 0.24333415925502777 0.034635178744792938
0.57171475887298584 0.25204816460609436 0.034097064286470413
0.64514672756195068 0.26852831244468689 0.03278644010424614
0.72181373834609985 0.28921350836753845 0.031185988336801529
0.79913163185119629 0.31263548135757446 0.029505621641874313
0.87934058904647827 0.33741611242294312 0.028071997687220573
0.95735293626785278 0.36208358407020569 0.02645944245159626
0.04428514838218689 0.34497550129890442 0.04103420302271843
0.13740955293178558 0.34483164548873901 0.036618683487176895
0.22044411301612854 0.34175419807434082 0.033357225358486176
0.29534816741943359 0.33503904938697815 0.031287908554077148
0.36465358734130859 0.32694917917251587 0.030297612771391869
0.43193849921226501 0.32022461295127869 0.030407804995775223
0.50027340650558472 0.31892099976539612 0.031336721032857895
0.57167261838912964 0.32734799385070801 0.031324468553066254
0.64533889293670654 0.34332078695297241 0.030401341617107391
0.72181373834609985 0.36409133672714233 0.02939269132912159
0.79934239387512207 0.38740456104278564 0.028397608548402786
0.87967532873153687 0.41265827417373657 0.026861736550927162
0.95735293626785278 0.43828967213630676 0.025686601176857948
0.042785972356796265 0.40524747967720032 0.037757080048322678
0.13160641491413116 0.40613463521003723 0.032627630978822708
0.21343210339546204 0.40643545985221863 0.02906106598675251
0.28916710615158081 0.40487292408943176 0.027187002822756767
0.36119645833969116 0.40193003416061401 0.026956101879477501
0.43088319897651672 0.39888516068458557 0.027599574998021126
0.50084394216537476 0.39940094947814941 0.028219619765877724
0.57290506362915039 0.40680572390556335 0.028535835444927216
0.64774364233016968 0.42085149884223938 0.028627626597881317
0.72345870733261108 0.44051149487495422 0.028307057917118073
0.80180275440216064 0.46271881461143494 0.027444683015346527
0.88014703989028931 0.48771104216575623 0.026304446160793304
0.95735293626785278 0.5138353705406189 0.025214999914169312
0.042839769273996353 0.47466391324996948 0.035154171288013458
0.12836349010467529 0.47624734044075012 0.029724091291427612
0.20892581343650818 0.47858050465583801 0.025847550481557846
0.28583845496177673 0.48057350516319275 0.024544375017285347
0.35953631997108459 0.48149943351745605 0.024577511474490166
0.43122085928916931 0.48121586441993713 0.024818809702992439
0.50280815362930298 0.48272857069969177 0.025862107053399086
0.57536160945892334 0.48865985870361328 0.026808032765984535
0.64939391613006592 0.500282883644104 0.027042567729949951
0.7257457971572876 0.51813429594039917 0.027017749845981598
0.80294120311737061 0.53869462013244629 0.026694757863879204
0.88014703989028931 0.56303954124450684 0.02620341069996357
0.95788544416427612 0.58886986970901489 0.025192350149154663
0.042504686862230301 0.55847430229187012 0.032479964196681976
0.12682598829269409 0.55914872884750366 0.027795335277915001
0.20749850571155548 0.5611424446105957 0.024439584463834763
0.28513920307159424 0.56398898363113403 0.021891739219427109
0.35968387126922607 0.56636428833007812 0.021963112056255341
0.4330783486366272 0.56701231002807617 0.023243533447384834
0.50541836023330688 0.56788450479507446 0.024173317477107048
0.57838219404220581 0.57166123390197754 0.024749366566538811
0.65249377489089966 0.58007282018661499 0.025546189397573471
0.72804707288742065 0.59460818767547607 0.02618134394288063
0.80462563037872314 0.61473435163497925 0.026223694905638695
0.88239997625350952 0.63867884874343872 0.025824123993515968
0.96103590726852417 0.66417586803436279 0.025096774101257324
0.042337827384471893 0.64986240863800049 0.030664287507534027
0.12651696801185608 0.6491166353225708 0.026689207181334496
0.20777823030948639 0.64958798885345459 0.023937540128827095
0.28601217269897461 0.65185856819152832 0.021507352590560913
0.36174404621124268 0.65389925241470337 0.021507352590560913
0.43560677766799927 0.65377634763717651 0.021492991596460342
0.5086371898651123 0.65328389406204224 0.021629229187965393
0.58171802759170532 0.6544310450553894 0.022308798506855965
0.65558987855911255 0.65894013643264771 0.023327367380261421
0.73009586334228516 0.66937750577926636 0.024435484781861305
0.80686277151107788 0.68929272890090942 0.024854622781276703
0.88406860828399658 0.7152327299118042 0.024411505088210106
0.96127450466156006 0.74023252725601196 0.023902444168925285
0.042832765728235245 0.73752713203430176 0.030207930132746696
0.12687596678733826 0.73718774318695068 0.026593063026666641
0.20845614373683929 0.73711758852005005 0.023785460740327835
0.28616631031036377 0.73816984891891479 0.021481502801179886
0.36324474215507507 0.73902148008346558 0.020366130396723747
0.43832352757453918 0.73795819282531738 0.019186416640877724
0.51199984550476074 0.73630887269973755 0.018860641866922379
0.58525580167770386 0.73534101247787476 0.019132306799292564
0.65873175859451294 0.73575657606124878 0.019809318706393242
0.73288083076477051 0.73965972661972046 0.021247295662760735
0.80741035938262939 0.75906425714492798 0.021918712183833122
0.88416880369186401 0.79245579242706299 0.021110130473971367
0.96127450466156006 0.81762158870697021 0.021401289850473404
0.043359015136957169 0.81859910488128662 0.030296415090560913
0.12769243121147156 0.81862747669219971 0.026850935071706772
0.2089097797870636 0.81863105297088623 0.023478774353861809
0.28852018713951111 0.81905239820480347 0.020808082073926926
0.36540955305099487 0.81885820627212524 0.018349921330809593
0.44047999382019043 0.81853687763214111 0.017068061977624893
0.51502513885498047 0.81544440984725952 0.016239704564213753
0.58872908353805542 0.81326866149902344 0.015694307163357735
0.66206610202789307 0.80941659212112427 0.015690209344029427
0.73514652252197266 0.80448544025421143 0.016736257821321487
0.81017762422561646 0.81624084711074829 0.017223194241523743
0.88667559623718262 0.85728615522384644 0.015938105061650276
0.96127450466156006 0.89382630586624146 0.017621763050556183
0.043382354080677032 0.89399725198745728 0.030385095626115799
0.12850835919380188 0.89575940370559692 0.026815736666321754
0.20940618216991425 0.89585310220718384 0.022996820509433746
0.28987684845924377 0.89620226621627808 0.019442269578576088
0.36715686321258545 0.89594024419784546 0.016802499070763588
0.44310837984085083 0.89485561847686768 0.015155239030718803
0.51757895946502686 0.89168155193328857 0.013787991367280483
0.59180253744125366 0.88729989528656006 0.012888261117041111
0.6653892993927002 0.88044589757919312 0.012444529682397842
0.73850542306900024 0.87144565582275391 0.012505325488746166
0.81198078393936157 0.87162995338439941 0.012203246355056763
0.88643628358840942 0.89659899473190308 0.012690271250903606
0.96127450466156006 0.94793903827667236 0.017864527180790901
0.043349485844373703 0.96616435050964355 0.029856318607926369
0.12771159410476685 0.96855461597442627 0.026086844503879547
0.20918525755405426 0.97022765874862671 0.021781442686915398
0.28987857699394226 0.9705238938331604 0.017796071246266365
0.36715686321258545 0.96989589929580688 0.015183916315436363
0.44436275959014893 0.96820718050003052 0.013029659166932106
0.52026379108428955 0.96513181924819946 0.011440321803092957
0.59461790323257446 0.96016067266464233 0.010286219418048859
0.66875720024108887 0.95340842008590698 0.0096408920362591743
0.74261093139648438 0.94648295640945435 0.0092747705057263374
0.81626206636428833 0.9457133412361145 0.0091240527108311653
0.88939875364303589 0.95712649822235107 0.011088471859693527
0.9620814323425293 0.97882384061813354 0.018921077251434326
0.070904180407524109 0.038820095360279083 0.19760948419570923
0.18290849030017853 0.022189989686012268 0.18037509918212891
0.25152492523193359 0.01659596711397171 0.15016527473926544
0.31123125553131104 0.016309745609760284 0.13145433366298676
0.37325271964073181 0.019370643422007561 0.1247950866818428
0.43802821636199951 0.023423856124281883 0.12085085362195969
0.50605756044387817 0.028508264571428299 0.11768590658903122
0.57712173461914062 0.037410825490951538 0.11540167033672333
0.65077042579650879 0.050444331020116806 0.1125992089509964
0.72593849897384644 0.06733209639787674 0.11093322187662125
0.80294120311737061 0.086519606411457062 0.10841552168130875
0.88015502691268921 0.10758945345878601 0.10637005418539047
0.95842677354812622 0.12851883471012115 0.10363209992647171
0.065116077661514282 0.14669302105903625 0.18232618272304535
0.18015007674694061 0.11811310797929764 0.17765943706035614
0.25450402498245239 0.10259100049734116 0.15264323353767395
0.31442975997924805 0.094434060156345367 0.13330201804637909
0.3741762638092041 0.093511052429676056 0.12385883927345276
0.43744242191314697 0.095480673015117645 0.11853428184986115
0.50419938564300537 0.09987582266330719 0.11529722064733505
0.5746452808380127 0.1089678481221199 0.11252366751432419
0.64838367700576782 0.12326502799987793 0.11053209751844406
0.72391682863235474 0.14179766178131104 0.10817334055900574
0.80143278837203979 0.16342239081859589 0.10602014511823654
0.88010358810424805 0.18629245460033417 0.10349022597074509
0.95735311508178711 0.20948094129562378 0.10106908529996872
0.053575806319713593 0.22288168966770172 0.16061484813690186
0.16109523177146912 0.20490133762359619 0.15637320280075073
0.24579717218875885 0.1894182413816452 0.14550049602985382
0.31229853630065918 0.17746053636074066 0.13217020034790039
0.37370288372039795 0.17064923048019409 0.12154322862625122
0.43640190362930298 0.16802853345870972 0.11509373784065247
0.50250917673110962 0.17022818326950073 0.11202289164066315
0.57274383306503296 0.17928862571716309 0.11000917851924896
0.64589107036590576 0.19511941075325012 0.10756810754537582
0.72181373834609985 0.21536840498447418 0.10540203005075455
0.79903364181518555 0.23875135183334351 0.10302504152059555
0.87888193130493164 0.26350530982017517 0.10061235725879669
0.95735293626785278 0.28855165839195251 0.098144054412841797
0.04780515655875206 0.2874719500541687 0.14491114020347595
0.14669416844844818 0.27902659773826599 0.1399657130241394
0.23209066689014435 0.26797157526016235 0.13345052301883698
0.30443933606147766 0.25688475370407104 0.12505894899368286
0.37028321623802185 0.24691951274871826 0.1168450266122818
0.43456164002418518 0.24114955961704254 0.11137478053569794
0.50116258859634399 0.24148140847682953 0.10892103612422943
0.57163137197494507 0.25076895952224731 0.10688241571187973
0.64468526840209961 0.26756873726844788 0.10474907606840134
0.72181373834609985 0.28913921117782593 0.10251770168542862
0.79901963472366333 0.31369426846504211 0.10022909194231033
0.87802529335021973 0.34000089764595032 0.097663044929504395
0.95735293626785278 0.36653351783752441 0.095382213592529297
0.043747231364250183 0.34739205241203308 0.13277764618396759
0.13664935529232025 0.34303063154220581 0.12722790241241455
0.22023385763168335 0.33651584386825562 0.12157876789569855
0.2957426905632019 0.32879626750946045 0.11642574518918991
0.36527702212333679 0.32119840383529663 0.11128463596105576
0.43239346146583557 0.31580841541290283 0.1077457070350647
0.5003741979598999 0.31624239683151245 0.10564358532428741
0.57147479057312012 0.32519489526748657 0.10373561829328537
0.64465665817260742 0.34121206402778625 0.10194898396730423
0.72181373834609985 0.36384207010269165 0.10000777989625931
0.79902559518814087 0.38894334435462952 0.097826354205608368
0.87901371717453003 0.41579511761665344 0.095501452684402466
0.95735293626785278 0.44345799088478088 0.093021929264068604
0.041405770927667618 0.40772402286529541 0.12319324165582657
0.12958075106143951 0.40434786677360535 0.1166941300034523
0.21138198673725128 0.40086841583251953 0.11116020381450653
0.28834372758865356 0.39852958917617798 0.10761839896440506
0.36084410548210144 0.39590027928352356 0.10546726733446121
0.43041884899139404 0.39331579208374023 0.10371295362710953
0.50008898973464966 0.39473047852516174 0.10231050848960876
0.57208383083343506 0.40329059958457947 0.10113179683685303
0.6461150050163269 0.41843879222869873 0.099617540836334229
0.72196817398071289 0.4395294189453125 0.098195888102054596
0.80061370134353638 0.46405181288719177 0.096362106502056122
0.88011497259140015 0.49104920029640198 0.093996457755565643
0.95735293626785278 0.51918923854827881 0.09162081778049469
0.040085256099700928 0.47612985968589783 0.11608597636222839
0.12533631920814514 0.47363150119781494 0.10886614769697189
0.20581458508968353 0.47210884094238281 0.10309702903032303
0.28331276774406433 0.47385773062705994 0.10106220841407776
0.35811373591423035 0.47547471523284912 0.10050627589225769
0.43025285005569458 0.47561696171760559 0.10017813742160797
0.50127631425857544 0.4771360456943512 0.0998200923204422
0.57384800910949707 0.48428034782409668 0.099019564688205719
0.6485627293586731 0.49711531400680542 0.098318181931972504
0.72549998760223389 0.51575809717178345 0.097359254956245422
0.80294120311737061 0.53968530893325806 0.095519393682479858
0.88014799356460571 0.56599849462509155 0.092939220368862152
0.95827412605285645 0.59415042400360107 0.09069950133562088
0.03952828049659729 0.55790621042251587 0.11107596755027771
0.12368641048669815 0.55587422847747803 0.10452765971422195
0.20431582629680634 0.55597478151321411 0.099403560161590576
0.28211340308189392 0.55950421094894409 0.09676697850227356
0.3584921658039093 0.56283676624298096 0.096695065498352051
0.43148836493492126 0.56316190958023071 0.096966162323951721
0.50381982326507568 0.56322938203811646 0.097110658884048462
0.57663208246231079 0.56730371713638306 0.097192324697971344
0.65109735727310181 0.57694059610366821 0.097325295209884644
0.72641140222549438 0.59214526414871216 0.096543587744235992
0.80344372987747192 0.61505454778671265 0.094593703746795654
0.88210737705230713 0.64129126071929932 0.091962449252605438
0.96109044551849365 0.66923767328262329 0.089194953441619873
0.039949513971805573 0.64695161581039429 0.10807494819164276
0.12384530156850815 0.64599794149398804 0.10241299867630005
0.20474205911159515 0.64676684141159058 0.097965896129608154
0.28316357731819153 0.65004158020019531 0.096236318349838257
0.3597291111946106 0.65310311317443848 0.09568844735622406
0.43428805470466614 0.65219813585281372 0.095073103904724121
0.50716590881347656 0.65035009384155273 0.094737142324447632
0.5802268385887146 0.65071254968643188 0.094765454530715942
0.65393489599227905 0.65549975633621216 0.095172956585884094
0.7296643853187561 0.66738951206207275 0.095078021287918091
0.80686277151107788 0.68940466642379761 0.093331187963485718
0.88406860828399658 0.71770584583282471 0.089464642107486725
0.96127450466156006 0.74544340372085571 0.086035065352916718
0.040922861546278 0.73452591896057129 0.10654976218938828
0.12501543760299683 0.73476380109786987 0.10181881487369537
0.20593917369842529 0.73549598455429077 0.097279705107212067
0.285584956407547 0.73777812719345093 0.094583161175251007
0.36264529824256897 0.73921889066696167 0.092615298926830292
0.43691566586494446 0.7378990650177002 0.091695822775363922
0.51071304082870483 0.7349846363067627 0.090998664498329163
0.5839611291885376 0.73257076740264893 0.090865850448608398
0.65727871656417847 0.73197859525680542 0.091696403920650482
0.73108041286468506 0.73685038089752197 0.092590376734733582
0.80686277151107788 0.75908976793289185 0.090528346598148346
0.88406860828399658 0.79462516307830811 0.084871076047420502
0.96127450466156006 0.82265353202819824 0.079770244657993317
0.042015675455331802 0.81644004583358765 0.10607874393463135
0.12591102719306946 0.81798547506332397 0.10120782256126404
0.20740894973278046 0.81845104694366455 0.096605576574802399
0.28611469268798828 0.81936490535736084 0.092764370143413544
0.36336827278137207 0.8198091983795166 0.090087369084358215
0.43992549180984497 0.81858867406845093 0.087953738868236542
0.51406347751617432 0.81588476896286011 0.086583726108074188
0.58765542507171631 0.81187421083450317 0.086141161620616913
0.66067600250244141 0.80681735277175903 0.08639807254076004
0.73395591974258423 0.80310285091400146 0.087191365659236908
0.80816650390625 0.81860518455505371 0.085352987051010132
0.88442271947860718 0.85945212841033936 0.079053796827793121
0.96127450466156006 0.89565020799636841 0.073633737862110138
0.042792510241270065 0.89310342073440552 0.10556160658597946
0.12655393779277802 0.8955649733543396 0.1005246639251709
0.20825210213661194 0.89583253860473633 0.095312856137752533
0.28736385703086853 0.89647370576858521 0.090770959854125977
0.36609819531440735 0.89661908149719238 0.086977757513523102
0.4418167769908905 0.89582639932632446 0.084033936262130737
0.51716351509094238 0.89333713054656982 0.082028031349182129
0.59116840362548828 0.8885873556137085 0.080773390829563141
0.66459739208221436 0.88145613670349121 0.08015567809343338
0.73761183023452759 0.87391704320907593 0.079866267740726471
0.81142890453338623 0.87655287981033325 0.078183688223361969
0.88509482145309448 0.89875608682632446 0.075208671391010284
0.96127450466156006 0.95019316673278809 0.075671389698982239
0.042618066072463989 0.96641677618026733 0.1040799617767334
0.12656347453594208 0.96862989664077759 0.098947994410991669
0.2084185779094696 0.970348060131073 0.093349143862724304
0.28859001398086548 0.97106242179870605 0.088192060589790344
0.36715686321258545 0.97136110067367554 0.083706140518188477
0.44436275959014893 0.97042423486709595 0.080172084271907806
0.5200687050819397 0.96820151805877686 0.077485524117946625
0.59461504220962524 0.96397048234939575 0.07572154700756073
0.66867625713348389 0.95797759294509888 0.074627883732318878
0.7422519326210022 0.95184105634689331 0.07373955100774765
0.81592154502868652 0.95033544301986694 0.07260393351316452
0.88856583833694458 0.95500856637954712 0.073777951300144196
0.96173501014709473 0.97828131914138794 0.079917579889297485
0.054549947381019592 0.021684100851416588 0.26323536038398743
0.16228024661540985 0.014821295626461506 0.2566106915473938
0.24166740477085114 0.010586682707071304 0.23682133853435516
0.30759397149085999 0.011314227245748043 0.21799801290035248
0.37165918946266174 0.014297635294497013 0.20669688284397125
0.43713653087615967 0.018019000068306923 0.19936420023441315
0.50564956665039062 0.023969821631908417 0.19439435005187988
0.57679420709609985 0.033105678856372833 0.19057521224021912
0.64999550580978394 0.04716428741812706 0.18747453391551971
0.72573530673980713 0.064576439559459686 0.18467320501804352
0.80294120311737061 0.085097357630729675 0.18191960453987122
0.88014703989028931 0.1064356341958046 0.17924502491950989
0.957466721534729 0.12808944284915924 0.1763092577457428
0.058358225971460342 0.1212053969502449 0.25796559453010559
0.16503290832042694 0.10195912420749664 0.25711777806282043
0.24603623151779175 0.085902228951454163 0.24004082381725311
0.31159695982933044 0.082704059779644012 0.220531165599823
0.37372314929962158 0.08469121903181076 0.20653067529201508
0.43747025728225708 0.088404051959514618 0.19710411131381989
0.50434750318527222 0.094886079430580139 0.19117504358291626
0.57489782571792603 0.10540013015270233 0.18718846142292023
0.64841985702514648 0.12072613090276718 0.18402843177318573
0.72381728887557983 0.14010798931121826 0.18109999597072601
0.80102640390396118 0.16225521266460419 0.17833994328975677
0.88009637594223022 0.18599702417850494 0.17548230290412903
0.95735293626785278 0.21007567644119263 0.17250172793865204
0.054389804601669312 0.21332192420959473 0.24754126369953156
0.15598586201667786 0.19182088971138 0.24461275339126587
0.24316962063312531 0.16705244779586792 0.23635736107826233
0.31214135885238647 0.15982705354690552 0.22088912129402161
0.37453740835189819 0.15921376645565033 0.2050449550151825
0.43757063150405884 0.16063979268074036 0.1937808096408844
0.50386768579483032 0.16579699516296387 0.18742521107196808
0.57344198226928711 0.17669220268726349 0.18317998945713043
0.64676642417907715 0.19326615333557129 0.1800171434879303
0.72181642055511475 0.21450336277484894 0.17709352076053619
0.79902565479278564 0.23881222307682037 0.17426612973213196
0.87914454936981201 0.26458728313446045 0.17125934362411499
0.95735293626785278 0.29067853093147278 0.16821803152561188
0.04915345087647438 0.2853538990020752 0.23239824175834656
0.14526858925819397 0.27164429426193237 0.22797197103500366
0.23305207490921021 0.25022464990615845 0.22397352755069733
0.3069399893283844 0.23835596442222595 0.21478757262229919
0.37292525172233582 0.23428739607334137 0.20081005990505219
0.43681785464286804 0.23316375911235809 0.18970324099063873
0.50300461053848267 0.23729497194290161 0.18338483572006226
0.57283920049667358 0.24871838092803955 0.17906647920608521
0.6456875205039978 0.26664638519287109 0.17595168948173523
0.72181373834609985 0.28910738229751587 0.17313684523105621
0.799033522605896 0.31504005193710327 0.17028462886810303
0.87910157442092896 0.34241756796836853 0.16708514094352722
0.95735293626785278 0.37055113911628723 0.16406913101673126
0.044435866177082062 0.34775471687316895 0.21685943007469177
0.13634499907493591 0.33987724781036377 0.21207989752292633
0.22123192250728607 0.32727566361427307 0.20818574726581573
