assets/lut/pixlsus prussian blue.cube
# Created by: G'MIC (https://gmic.eu)
TITLE "prussian_blue"
# LUT size
LUT_3D_SIZE 13
# Data domain
DOMAIN_MIN 0.0 0.0 0.0
DOMAIN_MAX 1.0 1.0 1.0
# LUT data points
0.036974243819713593 0.040642037987709045 0.034547798335552216
0.11104600131511688 0.044663943350315094 0.042638666927814484
0.18555645644664764 0.045636914670467377 0.045239169150590897
0.26003429293632507 0.045767989009618759 0.046621523797512054
0.33546027541160583 0.045689616352319717 0.047056563198566437
0.41291257739067078 0.045599963515996933 0.046758241951465607
0.49092864990234375 0.04541638121008873 0.046568628400564194
0.56685870885848999 0.045335479080677032 0.04660460352897644
0.64068615436553955 0.045477055013179779 0.048945557326078415
0.71485614776611328 0.045686356723308563 0.050469193607568741
0.79083961248397827 0.045456200838088989 0.050305638462305069
0.86941713094711304 0.044539686292409897 0.04904194176197052
0.94945716857910156 0.042986221611499786 0.047102056443691254
0.043366212397813797 0.11436254531145096 0.042825166136026382
0.11895092576742172 0.11933017522096634 0.042865227907896042
0.19699850678443909 0.11722042411565781 0.043089203536510468
0.27313432097434998 0.11707956343889236 0.043390743434429169
0.34926328063011169 0.11676821112632751 0.043990310281515121
0.42683553695678711 0.11662741005420685 0.043964818120002747
0.50571072101593018 0.11684872210025787 0.043069697916507721
0.58137458562850952 0.11712818592786789 0.043941289186477661
0.65351665019989014 0.11773844808340073 0.046002794057130814
0.72524523735046387 0.11844151467084885 0.047714293003082275
0.79943728446960449 0.11865243315696716 0.048700667917728424
0.87730979919433594 0.11753074824810028 0.04845815896987915
0.95760852098464966 0.11621823906898499 0.047442611306905746
0.042360015213489532 0.18933181464672089 0.047347273677587509
0.11581787467002869 0.19498905539512634 0.043878771364688873
0.1946919709444046 0.1932227611541748 0.042661778628826141
0.2735120952129364 0.19313725829124451 0.041267246007919312
0.35065475106239319 0.19313725829124451 0.040324684232473373
0.42900192737579346 0.19287440180778503 0.040707815438508987
0.5092848539352417 0.1922067403793335 0.040417615324258804
0.58682113885879517 0.1924031525850296 0.040762852877378464
0.6597210168838501 0.19310733675956726 0.042503252625465393
0.73103958368301392 0.19313833117485046 0.044191997498273849
0.80381947755813599 0.19315484166145325 0.045237299054861069
0.88187044858932495 0.19300885498523712 0.04576626792550087
0.9633374810218811 0.19042865931987762 0.045821696519851685
0.043319940567016602 0.26148241758346558 0.050705630332231522
0.11548040062189102 0.26865449547767639 0.04642818495631218
0.19345496594905853 0.27018257975578308 0.042987897992134094
0.27051821351051331 0.27029761672019958 0.040449943393468857
0.34702885150909424 0.2703431248664856 0.039627853780984879
0.42474803328514099 0.26938369870185852 0.040309876203536987
0.50609201192855835 0.2671666145324707 0.03979898989200592
0.58558660745620728 0.26648497581481934 0.039532560855150223
0.66118568181991577 0.26754039525985718 0.039892353117465973
0.73409640789031982 0.2695758044719696 0.040923293679952621
0.80750119686126709 0.27001649141311646 0.041756812483072281
0.88588160276412964 0.26794612407684326 0.042348075658082962
0.96784859895706177 0.26632043719291687 0.042675063014030457
0.044752757996320724 0.33577302098274231 0.052994176745414734
0.11667143553495407 0.34301075339317322 0.048886317759752274
0.19313725829124451 0.34544187784194946 0.044593349099159241
0.2703431248664856 0.34520372748374939 0.041443124413490295
0.34585747122764587 0.34486398100852966 0.039713811129331589
0.42257636785507202 0.34411627054214478 0.040165577083826065
0.50262820720672607 0.34365740418434143 0.039975184947252274
0.58269953727722168 0.3436274528503418 0.039591096341609955
0.66089308261871338 0.3436274528503418 0.038849655538797379
0.73626536130905151 0.34367489814758301 0.038635913282632828
0.81217473745346069 0.34373170137405396 0.038723576813936234
0.89100104570388794 0.34362590312957764 0.038884509354829788
0.97132408618927002 0.34152674674987793 0.03949139267206192
0.045247066766023636 0.41305127739906311 0.05344308540225029
0.1166640967130661 0.41988274455070496 0.050448983907699585
0.19253893196582794 0.42237317562103271 0.046507950872182846
0.26980221271514893 0.42113631963729858 0.042916569858789444
0.34466388821601868 0.42083331942558289 0.041737813502550125
0.42126303911209106 0.42083331942558289 0.041045051068067551
0.50073093175888062 0.42083331942558289 0.040772922337055206
0.58049505949020386 0.42083331942558289 0.040318239480257034
0.65984749794006348 0.42083331942558289 0.038897540420293808
0.73818612098693848 0.42083331942558289 0.037869814783334732
0.81581038236618042 0.42083331942558289 0.037609655410051346
0.89469212293624878 0.41945657134056091 0.038158297538757324
0.97355258464813232 0.41695752739906311 0.038710411638021469
0.043943233788013458 0.49234813451766968 0.052252121269702911
0.11516633629798889 0.49851721525192261 0.050554778426885605
0.18964101374149323 0.50090658664703369 0.047843903303146362
0.26642155647277832 0.50141614675521851 0.045782126486301422
0.3436274528503418 0.49990954995155334 0.043356921523809433
0.42083331942558289 0.49830809235572815 0.042617350816726685
0.49940976500511169 0.49803921580314636 0.042159765958786011
0.57943278551101685 0.49803921580314636 0.040967591106891632
0.65931379795074463 0.49803921580314636 0.039330858737230301
0.73817020654678345 0.49803921580314636 0.03787212073802948
0.81685477495193481 0.49668896198272705 0.037220463156700134
0.89574497938156128 0.494180828332901 0.037511982023715973
0.97392648458480835 0.49411764740943909 0.038587622344493866
0.042195219546556473 0.5718809962272644 0.050937280058860779
0.11317209154367447 0.57716560363769531 0.050503391772508621
0.18749357759952545 0.57957947254180908 0.04914836585521698
0.26341822743415833 0.57949727773666382 0.047264892607927322
0.34111011028289795 0.5791705846786499 0.046455502510070801
0.42039865255355835 0.57840114831924438 0.044462885707616806
0.49883335828781128 0.57562810182571411 0.04273967444896698
0.5791935920715332 0.57524508237838745 0.04176577553153038
0.65881401300430298 0.57524508237838745 0.04001077264547348
0.73754346370697021 0.57479608058929443 0.038566917181015015
0.81558996438980103 0.57155042886734009 0.038080506026744843
0.89509516954421997 0.57132351398468018 0.038262341171503067
0.9723588228225708 0.57131087779998779 0.038710411638021469
0.040946003049612045 0.648853600025177 0.051244936883449554
0.11179305613040924 0.65455365180969238 0.051478113979101181
0.18542495369911194 0.6577451229095459 0.050590574741363525
0.26232317090034485 0.65857797861099243 0.048929058015346527
0.33966490626335144 0.65741431713104248 0.046838514506816864
0.41799554228782654 0.6563764214515686 0.04638315737247467
0.49820688366889954 0.65506654977798462 0.043713975697755814
0.5789562463760376 0.65245097875595093 0.042499080300331116
0.65701133012771606 0.65245097875595093 0.041047427803277969
0.73608529567718506 0.65098017454147339 0.039546564221382141
0.81432229280471802 0.64852941036224365 0.03883342444896698
0.89203286170959473 0.64852941036224365 0.038744937628507614
0.97022122144699097 0.64832466840744019 0.038775276392698288
0.040593612939119339 0.7245790958404541 0.052400700747966766
0.1108577772974968 0.73098653554916382 0.052428510040044785
0.18463218212127686 0.73508518934249878 0.051665183156728745
0.25876179337501526 0.73715341091156006 0.050129115581512451
0.33698120713233948 0.73738265037536621 0.047553118318319321
0.41675564646720886 0.7347901463508606 0.046568628400564194
0.49686822295188904 0.73349636793136597 0.045143816620111465
0.57687532901763916 0.73038583993911743 0.042721930891275406
0.65596526861190796 0.7296568751335144 0.042191538959741592
0.73341327905654907 0.72877973318099976 0.04091021791100502
0.8106997013092041 0.72576987743377686 0.040269229561090469
0.88865178823471069 0.72573530673980713 0.040234420448541641
0.96732538938522339 0.72541928291320801 0.040855962783098221
0.040654681622982025 0.80071431398391724 0.052699804306030273
0.11061176657676697 0.80753618478775024 0.052710693329572678
0.18356664478778839 0.81220406293869019 0.051619015634059906
0.25857841968536377 0.8146432638168335 0.050171587616205215
0.33578431606292725 0.81470590829849243 0.047544561326503754
0.41436019539833069 0.8143918514251709 0.046568628400564194
0.49415445327758789 0.81123143434524536 0.045223549008369446
0.57366520166397095 0.80998635292053223 0.042696066200733185
0.65207952260971069 0.80701106786727905 0.042639877647161484
0.72961676120758057 0.80683004856109619 0.042274683713912964
0.80711394548416138 0.8038032054901123 0.042108990252017975
0.88490521907806396 0.80294120311737061 0.0423431396484375
0.96337383985519409 0.80288302898406982 0.042602181434631348
0.040430646389722824 0.8781808614730835 0.051225084811449051
0.11060049384832382 0.88485550880432129 0.051544997841119766
0.18308822810649872 0.88973957300186157 0.050484031438827515
0.25855579972267151 0.89191174507141113 0.048990152776241302
0.3354145884513855 0.89194399118423462 0.046751357614994049
0.41293424367904663 0.89191174507141113 0.046440962702035904
0.49100181460380554 0.89095884561538696 0.043492037802934647
0.57008665800094604 0.88808894157409668 0.042647060006856918
0.64826059341430664 0.88623970746994019 0.042647060006856918
0.72591280937194824 0.88406860828399658 0.042647060006856918
0.80332934856414795 0.88303118944168091 0.042647060006856918
0.8812110424041748 0.8801533579826355 0.042647060006856918
0.95983964204788208 0.88014703989028931 0.042647060006856918
0.04020194336771965 0.95756804943084717 0.047605164349079132
0.11049722135066986 0.9636383056640625 0.04838130995631218
0.18286828696727753 0.96834999322891235 0.047803722321987152
0.25795677304267883 0.97016912698745728 0.046611260622739792
0.33261594176292419 0.97189474105834961 0.045557942241430283
0.41026628017425537 0.97017651796340942 0.043383222073316574
0.4890502393245697 0.96911764144897461 0.042647060006856918
0.56721001863479614 0.96730142831802368 0.042647060006856918
0.64474785327911377 0.96515011787414551 0.042647060006856918
0.72228378057479858 0.96236979961395264 0.042647060006856918
0.79987615346908569 0.96126514673233032 0.042647060006856918
0.87808811664581299 0.95884782075881958 0.042647060006856918
0.95698833465576172 0.95735293626785278 0.042647060006856918
0.018748892471194267 0.039440963417291641 0.068436704576015472
0.073995284736156464 0.050957608968019485 0.094334155321121216
0.15253293514251709 0.051995400339365005 0.11416082829236984
0.23266203701496124 0.051834959536790848 0.11997130513191223
0.31236127018928528 0.050949860364198685 0.12182570993900299
0.3924863338470459 0.049856595695018768 0.12325433641672134
0.47179737687110901 0.049077142030000687 0.1237313374876976
0.54834955930709839 0.049106314778327942 0.12481451779603958
0.62215995788574219 0.049336764961481094 0.12750542163848877
0.69635826349258423 0.049695421010255814 0.12890230119228363
0.77239030599594116 0.049685999751091003 0.1303698867559433
0.85014289617538452 0.048928368836641312 0.13003693521022797
0.92901098728179932 0.047706872224807739 0.12876488268375397
0.046904187649488449 0.09855613112449646 0.10650420933961868
0.11284300684928894 0.11608024686574936 0.11281256377696991
0.18679225444793701 0.12030280381441116 0.1217401847243309
0.26163685321807861 0.1204027533531189 0.12256009131669998
0.33957883715629578 0.11887510865926743 0.11989259719848633
0.41804730892181396 0.11817993223667145 0.11945424973964691
0.49725288152694702 0.11814434826374054 0.11881154030561447
0.57207268476486206 0.11864220350980759 0.12056184560060501
0.64267700910568237 0.11967043578624725 0.12407521158456802
0.71389567852020264 0.12072210758924484 0.12665614485740662
0.78791922330856323 0.12097752839326859 0.12821143865585327
0.8651239275932312 0.12042313814163208 0.12861672043800354
0.9440302848815918 0.11921778321266174 0.12825305759906769
0.052555624395608902 0.17164118587970734 0.12173493206501007
0.12022682279348373 0.1891171932220459 0.1199948638677597
0.19466924667358398 0.19593942165374756 0.12171189486980438
0.2723749577999115 0.19499559700489044 0.11959565430879593
0.35133975744247437 0.19298383593559265 0.11540832370519638
0.43073898553848267 0.19106514751911163 0.1154305562376976
0.50911682844161987 0.19101499021053314 0.1158088818192482
0.58483898639678955 0.19199423491954803 0.11651912331581116
0.65631657838821411 0.19306853413581848 0.11938397586345673
0.72725623846054077 0.19362436234951019 0.12173880636692047
0.80024170875549316 0.19395537674427032 0.12321703881025314
0.87723726034164429 0.19360156357288361 0.12432586401700974
0.95671999454498291 0.19258631765842438 0.12478151172399521
0.052735451608896255 0.24657583236694336 0.12792347371578217
0.12008471041917801 0.26211661100387573 0.12302117794752121
0.19338533282279968 0.27050191164016724 0.12001000344753265
0.27058655023574829 0.27140742540359497 0.11648450046777725
0.35044717788696289 0.2699924111366272 0.11245859414339066
0.43012917041778564 0.26655822992324829 0.11235496401786804
0.5095515251159668 0.26642155647277832 0.11276602745056152
0.58707189559936523 0.2664240300655365 0.11437336355447769
0.66304308176040649 0.26690840721130371 0.11554256081581116
0.73592746257781982 0.26856258511543274 0.11672807484865189
0.80974966287612915 0.26913106441497803 0.11796680837869644
0.88706642389297485 0.26798653602600098 0.11892811208963394
0.96683609485626221 0.26655352115631104 0.11995913833379745
0.053695350885391235 0.32163965702056885 0.1329880952835083
0.12207139283418655 0.33531045913696289 0.12818062305450439
0.19399368762969971 0.34412786364555359 0.12233986705541611
0.27018153667449951 0.34751173853874207 0.1172172874212265
0.34742474555969238 0.34729459881782532 0.11359646171331406
0.42593666911125183 0.34394428133964539 0.11242365837097168
0.50636792182922363 0.3436274528503418 0.11249425262212753
0.58659327030181885 0.3436274528503418 0.11243221908807755
0.66496032476425171 0.3436274528503418 0.11241482198238373
0.74117231369018555 0.3436274528503418 0.11293041706085205
0.81675547361373901 0.3436274528503418 0.11387647688388824
0.89454466104507446 0.3436274528503418 0.11506519466638565
0.9728814959526062 0.34221282601356506 0.11605748534202576
0.053565680980682373 0.39896929264068604 0.13617359101772308
0.12222110480070114 0.41106519103050232 0.13206462562084198
0.19386175274848938 0.41906589269638062 0.12598998844623566
0.26791125535964966 0.42249247431755066 0.12033438682556152
0.34400424361228943 0.42244908213615417 0.11683087795972824
0.42356160283088684 0.42086365818977356 0.11505719274282455
0.50331664085388184 0.42083331942558289 0.11384012550115585
0.58435291051864624 0.42083331942558289 0.11289253830909729
0.66454142332077026 0.42083331942558289 0.11202238500118256
0.74288135766983032 0.42083331942558289 0.11166868358850479
0.82037502527236938 0.42083102464675903 0.11192122846841812
0.89848846197128296 0.41944485902786255 0.11213963478803635
0.97529131174087524 0.41696920990943909 0.11374989151954651
0.051964268088340759 0.4778653085231781 0.13741527497768402
0.12044747918844223 0.48864203691482544 0.13423138856887817
0.19193178415298462 0.49598011374473572 0.12923255562782288
0.26644143462181091 0.49855813384056091 0.12427105009555817
0.3436274528503418 0.49855494499206543 0.1208018884062767
0.4211738109588623 0.49803966283798218 0.11828631162643433
0.50158476829528809 0.49803921580314636 0.11581455171108246
0.58214938640594482 0.49803921580314636 0.11386618763208389
0.66259545087814331 0.49803921580314636 0.11226416379213333
0.74188530445098877 0.49803921580314636 0.11134839802980423
0.82003211975097656 0.49647462368011475 0.11142316460609436
0.89858520030975342 0.49416998028755188 0.11200980097055435
0.97533512115478516 0.49411764740943909 0.11251213401556015
0.049287848174571991 0.55722260475158691 0.1380404531955719
0.11780431121587753 0.56707507371902466 0.1354660838842392
0.18956983089447021 0.57385545969009399 0.13185422122478485
0.26371675729751587 0.57775217294692993 0.12762682139873505
0.3405974805355072 0.5790289044380188 0.12393460422754288
0.42000755667686462 0.577586829662323 0.12056328356266022
0.49945834279060364 0.57553088665008545 0.11787033081054688
0.57995343208312988 0.57524508237838745 0.11519254744052887
0.66038554906845093 0.57524508237838745 0.11321478337049484
0.73928231000900269 0.57511711120605469 0.11203930526971817
0.81797641515731812 0.57167297601699829 0.11188852787017822
0.89580392837524414 0.57132351398468018 0.1120513454079628
0.97274386882781982 0.57132351398468018 0.11304724961519241
0.046839963644742966 0.63527804613113403 0.13841912150382996
0.11535439640283585 0.64538627862930298 0.13648940622806549
0.18705607950687408 0.65205401182174683 0.13347531855106354
0.26213103532791138 0.65590858459472656 0.12953543663024902
0.33910888433456421 0.65637511014938354 0.12581335008144379
0.41727030277252197 0.6563725471496582 0.12255002558231354
0.49766498804092407 0.65558159351348877 0.11937724053859711
0.57823163270950317 0.65270119905471802 0.11652960628271103
0.65747392177581787 0.65245097875595093 0.11466139554977417
0.73629391193389893 0.65218186378479004 0.11327623575925827
0.8142472505569458 0.64893072843551636 0.11281786113977432
0.8920174241065979 0.64852941036224365 0.11314963549375534
0.96978837251663208 0.64852941036224365 0.11480481177568436
0.044880196452140808 0.71334284543991089 0.13838751614093781
0.11366266012191772 0.72292423248291016 0.13700251281261444
0.18537552654743195 0.73003071546554565 0.13384383916854858
0.25899556279182434 0.73397201299667358 0.13026440143585205
0.33592501282691956 0.73651653528213501 0.12682084739208221
0.41531926393508911 0.73528015613555908 0.12353451550006866
0.49520650506019592 0.73360687494277954 0.12006080150604248
0.57538038492202759 0.73168724775314331 0.11796243488788605
0.65450632572174072 0.72966080904006958 0.1158875972032547
0.73245835304260254 0.72962480783462524 0.1149265244603157
0.8100275993347168 0.72694510221481323 0.11472995579242706
0.88771533966064453 0.72573530673980713 0.11521641165018082
0.96595567464828491 0.72573530673980713 0.11587295681238174
0.043184511363506317 0.79225760698318481 0.13744211196899414
0.11231391876935959 0.8015175461769104 0.13621076941490173
0.18380934000015259 0.8084530234336853 0.13332869112491608
0.25857198238372803 0.81291180849075317 0.12988047301769257
0.33556702733039856 0.81470590829849243 0.1266871839761734
0.41310429573059082 0.81465655565261841 0.12361094355583191
0.49248358607292175 0.81211894750595093 0.12024957686662674
0.57194173336029053 0.81060230731964111 0.11879912763834
0.65054565668106079 0.80765610933303833 0.11669293791055679
0.72831422090530396 0.80686277151107788 0.11596277356147766
0.80579894781112671 0.80531972646713257 0.11592616885900497
0.88351643085479736 0.80294120311737061 0.11621391773223877
0.96181648969650269 0.80294120311737061 0.11703985184431076
0.04190787672996521 0.87253987789154053 0.1345953643321991
0.11096863448619843 0.8810151219367981 0.13362033665180206
0.18298244476318359 0.88738912343978882 0.1313871443271637
0.25751367211341858 0.89160960912704468 0.12826107442378998
0.33261209726333618 0.89195507764816284 0.12517589330673218
0.41101917624473572 0.89192014932632446 0.12304122000932693
0.48995998501777649 0.89149928092956543 0.11992958188056946
0.56829959154129028 0.88829070329666138 0.11906789243221283
0.64665251970291138 0.88700014352798462 0.11721239238977432
0.72439324855804443 0.8840753436088562 0.11667155474424362
0.80197656154632568 0.88378965854644775 0.11687478423118591
0.8797607421875 0.88037192821502686 0.11784034967422485
0.95801293849945068 0.88014703989028931 0.11912602186203003
0.040131930261850357 0.95473003387451172 0.12981423735618591
0.1101255863904953 0.96191215515136719 0.1295272558927536
0.18220551311969757 0.96757572889328003 0.12795498967170715
0.25591981410980225 0.96993911266326904 0.12549865245819092
0.33186274766921997 0.9720272421836853 0.12342827022075653
0.40907222032546997 0.97087663412094116 0.12056343257427216
0.48679181933403015 0.96911764144897461 0.11977145820856094
0.56536448001861572 0.96754664182662964 0.1181507483124733
0.64365452527999878 0.96518599987030029 0.11680030077695847
0.72138452529907227 0.96245056390762329 0.11666786670684814
0.79891771078109741 0.96127450466156006 0.11742047965526581
0.87637060880661011 0.95930659770965576 0.11872268468141556
0.95503717660903931 0.95735293626785278 0.11977790296077728
0.0060492572374641895 0.043151151388883591 0.082861192524433136
0.032292909920215607 0.057289287447929382 0.11620057374238968
0.10012150555849075 0.062765128910541534 0.1531132310628891
0.1850484311580658 0.062577836215496063 0.17646229267120361
0.27168986201286316 0.060447826981544495 0.1883738785982132
0.35544919967651367 0.057655572891235352 0.19550873339176178
0.43672460317611694 0.05543619766831398 0.20052579045295715
0.51543653011322021 0.054480161517858505 0.20411688089370728
0.59253489971160889 0.054887391626834869 0.20595483481884003
0.66889923810958862 0.055497951805591583 0.20858712494373322
0.74560654163360596 0.055340021848678589 0.20888857543468475
0.82375252246856689 0.054626017808914185 0.20968462526798248
0.90246325731277466 0.053660642355680466 0.20959010720252991
0.032484404742717743 0.090450257062911987 0.13867858052253723
0.082126602530479431 0.11464553326368332 0.14874273538589478
0.14744901657104492 0.1262950599193573 0.17075622081756592
0.22778087854385376 0.12740924954414368 0.18981719017028809
0.31092920899391174 0.12511490285396576 0.19553251564502716
0.39119836688041687 0.12331490963697433 0.1978878378868103
0.47051188349723816 0.12228348851203918 0.1999288946390152
0.54696643352508545 0.12241350114345551 0.20202086865901947
0.62043648958206177 0.12334717065095901 0.20436564087867737
0.69390451908111572 0.12428998947143555 0.20647865533828735
0.76904523372650146 0.1246744766831398 0.2077522873878479
0.84630435705184937 0.12418721616268158 0.20842620730400085
0.9249846339225769 0.12330741435289383 0.20851118862628937
0.054404944181442261 0.15272368490695953 0.17646811902523041
0.12198999524116516 0.17611019313335419 0.18044614791870117
0.18755194544792175 0.19360856711864471 0.18987467885017395
0.26021859049797058 0.19740338623523712 0.19687844812870026
0.34102892875671387 0.194239541888237 0.19499886035919189
0.418326735496521 0.19295512139797211 0.19532608985900879
0.4949449896812439 0.19304083287715912 0.19622144103050232
0.5707249641418457 0.19377928972244263 0.19733896851539612
0.64372295141220093 0.19467149674892426 0.19907219707965851
0.71637481451034546 0.19566009938716888 0.2006123811006546
0.79056096076965332 0.19594170153141022 0.20221741497516632
0.86748009920120239 0.19557453691959381 0.20306800305843353
0.9458843469619751 0.19468928873538971 0.20330663025379181
0.062356192618608475 0.22610723972320557 0.19575366377830505
0.1302456259727478 0.24792079627513885 0.19572548568248749
0.19730368256568909 0.26609182357788086 0.19656704366207123
0.27041473984718323 0.27112391591072083 0.19594568014144897
0.35078844428062439 0.26921096444129944 0.19161811470985413
0.42800566554069519 0.26670321822166443 0.19124680757522583
0.50530481338500977 0.26668289303779602 0.192463219165802
0.58314377069473267 0.26703047752380371 0.19297507405281067
0.65932595729827881 0.26803344488143921 0.19320744276046753
0.73356187343597412 0.2690427303314209 0.19431883096694946
0.80799335241317749 0.26936733722686768 0.19538477063179016
0.88485020399093628 0.26863899827003479 0.19620984792709351
0.9633602499961853 0.26749047636985779 0.19745469093322754
0.065109297633171082 0.30158549547195435 0.20817562937736511
0.13190922141075134 0.32093724608421326 0.2058035135269165
0.19942429661750793 0.33775043487548828 0.20067539811134338
0.27013140916824341 0.34660038352012634 0.19506929814815521
0.34666642546653748 0.34754902124404907 0.19077613949775696
