assets/lut/pixlsus uzbek bukhara.cube
# Created by: G'MIC (https://gmic.eu)
TITLE "uzbek_bukhara"
# LUT size
LUT_3D_SIZE 13
# Data domain
DOMAIN_MIN 0.0 0.0 0.0
DOMAIN_MAX 1.0 1.0 1.0
# LUT data points
0.0020048252772539854 0.0025337967090308666 0.036193549633026123
0.0061883064918220043 0.003145614406093955 0.036326762288808823
0.029999870806932449 0.0028838063590228558 0.033088326454162598
0.07774747908115387 0.0035158793907612562 0.032742965966463089
0.13177098333835602 0.0030364990234375 0.035124160349369049
0.20275469124317169 0.0033755581825971603 0.041304793208837509
0.27922189235687256 0.0027304107788950205 0.036798708140850067
0.35895821452140808 0.001004447229206562 0.03252163901925087
0.44874411821365356 0.002153793117031455 0.030935833230614662
0.53731703758239746 0.0010479646734893322 0.025558831170201302
0.64688736200332642 0 0.020216997712850571
0.76683527231216431 0 0.01352456770837307
0.8831864595413208 0 0.0047311224043369293
0.0041366280056536198 0.019804831594228745 0.035645101219415665
0.014826920814812183 0.022288408130407333 0.03728446364402771
0.044398993253707886 0.021805603057146072 0.037359036505222321
0.094124272465705872 0.021857108920812607 0.038714300841093063
0.15261121094226837 0.020031290128827095 0.040700949728488922
0.22182570397853851 0.014393466524779797 0.044494837522506714
0.29339078068733215 0.0065731722861528397 0.041351720690727234
0.37265941500663757 0.003583182580769062 0.037235874682664871
0.46341606974601746 0.0051346272230148315 0.035944502800703049
0.55732500553131104 0.0048672244884073734 0.030737468972802162
0.65586155652999878 0.0015117570292204618 0.022990237921476364
0.77305978536605835 0 0.013366729021072388
0.8928648829460144 0 0.0060626910999417305
0.0040928861126303673 0.070095077157020569 0.033204171806573868
0.014538289979100227 0.07337748259305954 0.036549199372529984
0.053152751177549362 0.075905099511146545 0.043435487896203995
0.11059809476137161 0.075443699955940247 0.050085462629795074
0.17068718373775482 0.074597470462322235 0.055815573781728745
0.23953022062778473 0.064376994967460632 0.055035565048456192
0.30890184640884399 0.046441636979579926 0.047597981989383698
0.38860145211219788 0.02551645040512085 0.03937632218003273
0.48151949048042297 0.012346035800874233 0.036612357944250107
0.57725954055786133 0.007211767602711916 0.030267812311649323
0.68177187442779541 0.0075593236833810806 0.025176702067255974
0.79936003684997559 0.0050427457317709923 0.01570422574877739
0.91948771476745605 0.00091588636860251427 0.0051517263054847717
0.0028210808522999287 0.13180328905582428 0.033321890980005264
0.0090067693963646889 0.13231028616428375 0.036305014044046402
0.042600400745868683 0.1337544173002243 0.040640529245138168
0.11357260495424271 0.13788290321826935 0.052510220557451248
0.18520160019397736 0.14308212697505951 0.066108658909797668
0.25417244434356689 0.13918231427669525 0.066585570573806763
0.32432490587234497 0.12630531191825867 0.055376432836055756
0.41278555989265442 0.1052117720246315 0.043681290000677109
0.50517696142196655 0.065601885318756104 0.035948958247900009
0.6038661003112793 0.03000824898481369 0.026596369221806526
0.7162591814994812 0.021992836147546768 0.023261964321136475
0.83393228054046631 0.014064460061490536 0.016522141173481941
0.94886875152587891 0.0049291276372969151 0.0063971127383410931
0.0024641747586429119 0.20690630376338959 0.027005767449736595
0.0063512315973639488 0.20752473175525665 0.031600594520568848
0.025094544515013695 0.20813147723674774 0.036283351480960846
0.096547968685626984 0.21171507239341736 0.038228053599596024
0.18219040334224701 0.21997670829296112 0.052355941385030746
0.27065908908843994 0.22800371050834656 0.070050321519374847
0.35340040922164917 0.22579042613506317 0.069410540163516998
0.44569993019104004 0.20943303406238556 0.055761553347110748
0.54443854093551636 0.18092544376850128 0.041200973093509674
0.64612722396850586 0.14849853515625 0.022266194224357605
0.75511199235916138 0.10094161331653595 0.014434126205742359
0.87109571695327759 0.061613749712705612 0.012392201460897923
0.97290480136871338 0.028110399842262268 0.0057989084161818027
0.0011382458033040166 0.30097180604934692 0.013137353584170341
0.0047908257693052292 0.29921376705169678 0.021320821717381477
0.012947306968271732 0.29999622702598572 0.029252879321575165
0.060402650386095047 0.30448135733604431 0.024410173296928406
0.14942839741706848 0.3124946653842926 0.026146369054913521
0.26445722579956055 0.32507714629173279 0.034160196781158447
0.38410049676895142 0.3373081386089325 0.063232094049453735
0.49144604802131653 0.32920268177986145 0.059114210307598114
0.59042489528656006 0.3142448365688324 0.036263812333345413
0.69558155536651611 0.3008674681186676 0.015999080613255501
0.80250310897827148 0.26787799596786499 0.0098326141014695168
0.91345304250717163 0.22727592289447784 0.0063911289907991886
0.98618400096893311 0.19946497678756714 0.0035580205731093884
1.2925092050863896e-05 0.42267501354217529 0.011216571554541588
0.0016762677114456892 0.41701230406761169 0.01179688423871994
0.005192476324737072 0.41400200128555298 0.0094231702387332916
0.020959712564945221 0.42035862803459167 0.0072075636126101017
0.074397563934326172 0.43557697534561157 0.0072129042819142342
0.2133079469203949 0.44964650273323059 0.0054296753369271755
0.37448295950889587 0.46253028512001038 0.011325402185320854
0.52368217706680298 0.47144368290901184 0.02280108816921711
0.64606064558029175 0.47757831215858459 0.01610126905143261
0.75192981958389282 0.47079667448997498 0.01136093121021986
0.85437536239624023 0.44275066256523132 0.0092207062989473343
0.95577794313430786 0.41615816950798035 0.0031688166782259941
0.99315571784973145 0.40858271718025208 0.0011632433161139488
0 0.56601512432098389 0.0078998338431119919
0 0.565315842628479 0.0076281377114355564
0.0016366547206416726 0.56090956926345825 0.0033335816115140915
0.010504733771085739 0.56595772504806519 0.00090421788627281785
0.029048247262835503 0.58347785472869873 0.0016162648098543286
0.11490482836961746 0.59672552347183228 0.003485511289909482
0.33426052331924438 0.60247814655303955 0.0061928844079375267
0.52227950096130371 0.60925453901290894 0.0063328612595796585
0.67429172992706299 0.63011699914932251 0.0078029558062553406
0.79758137464523315 0.63731861114501953 0.0077629690058529377
0.89895826578140259 0.6194072961807251 0.0053410399705171585
0.97360360622406006 0.59329366683959961 0.00090514536714181304
0.99387562274932861 0.5943601131439209 0.00090674607781693339
0 0.71901345252990723 0.0042398488149046898
0 0.7255287766456604 0.004471468273550272
0.0011010861489921808 0.72368836402893066 0.0024472104851156473
0.0049519706517457962 0.72098201513290405 0.0018066555494442582
0.021817285567522049 0.73103892803192139 0.0015513101825490594
0.089457809925079346 0.73680925369262695 0.0024822009727358818
0.28275752067565918 0.7380717396736145 0.0044245999306440353
0.51175320148468018 0.74122589826583862 0.0043565337546169758
0.67077648639678955 0.75355058908462524 0.0051128012128174305
0.80547523498535156 0.76161402463912964 0.0048326528631150723
0.91276568174362183 0.7634844183921814 0.0029118256643414497
0.98030418157577515 0.75239956378936768 0.0005610297666862607
0.99113130569458008 0.73872637748718262 5.6008731917245314e-05
7.1806069172453135e-05 0.86703991889953613 0.00251007080078125
0.00023944331042002887 0.86638611555099487 0.0018875570967793465
0.00090979778906330466 0.86440122127532959 0.0015629787230864167
0.0012024225434288383 0.86211901903152466 0.0016481736674904823
0.029533656314015388 0.8643839955329895 0.001000512856990099
0.094649538397789001 0.86460459232330322 0.0012445786269381642
0.2570401132106781 0.86513602733612061 0.00090580357937142253
0.51262903213500977 0.86190807819366455 0.0016266916645690799
0.67838108539581299 0.85808944702148438 0.0038776621222496033
0.8020508885383606 0.85557854175567627 0.0039536119438707829
0.90615165233612061 0.85946071147918701 0.0028055678121745586
0.97742807865142822 0.86229884624481201 8.8366337877232581e-05
0.99182647466659546 0.85445016622543335 0
0.005171667318791151 0.96803492307662964 0.00098577758762985468
0.0051654442213475704 0.96186172962188721 0.0014097326202318072
0.0072877472266554832 0.95657634735107422 0.0014455158961936831
0.0066220453009009361 0.95643776655197144 0.0010369842639192939
0.049047209322452545 0.95840632915496826 0
0.16975106298923492 0.95760047435760498 0
0.33769938349723816 0.95852530002593994 0
0.5447733998298645 0.9541589617729187 1.8699496649787761e-05
0.69693762063980103 0.94671952724456787 0.001214255578815937
0.80601042509078979 0.94013124704360962 0.001701414817944169
0.90585768222808838 0.94281947612762451 0.00099051976576447487
0.96975147724151611 0.94111162424087524 0
0.99290043115615845 0.9387662410736084 0
0.055548366159200668 0.9986681342124939 0.0021586548537015915
0.055304136127233505 0.99860072135925293 0.0023150425404310226
0.079179920256137848 0.99622046947479248 0.0023241229355335236
0.098412834107875824 0.99471116065979004 0.0017557630781084299
0.16557894647121429 0.99476832151412964 0
0.29438069462776184 0.99418765306472778 0
0.44357433915138245 0.99408376216888428 0
0.60721904039382935 0.99130403995513916 0
0.72230625152587891 0.98979091644287109 0
0.82118010520935059 0.98840904235839844 0
0.91489779949188232 0.99233758449554443 0
0.97525888681411743 0.99493056535720825 1.4765122614335269e-05
0.9932829737663269 0.99427670240402222 0.00034773582592606544
0.12940330803394318 0.99997198581695557 0.0025384640321135521
0.12848088145256042 1 0.0035372565034776926
0.17305496335029602 0.99976646900177002 0.0033957387786358595
0.25833728909492493 0.99867856502532959 0.0021089292131364346
0.3425137996673584 0.99806749820709229 4.8229740059468895e-05
0.43509900569915771 0.99764859676361084 0
0.55297672748565674 0.99785226583480835 0
0.66533917188644409 0.99715429544448853 0
0.76407760381698608 0.99684464931488037 0
0.87138932943344116 0.99809819459915161 0
0.95707803964614868 0.99990379810333252 0
0.99099928140640259 0.99999785423278809 0.00098775222431868315
0.99572992324829102 0.99967759847640991 0.0014737148303538561
0.00091735238675028086 0.0013098025228828192 0.046528700739145279
0.004860597662627697 0.0013256896054372191 0.049580726772546768
0.030577072873711586 0.0027123694308102131 0.052722752094268799
0.080458924174308777 0.0030769796576350927 0.057975947856903076
0.13945625722408295 0.0036530587822198868 0.066910147666931152
0.20918025076389313 0.0041802949272096157 0.072942189872264862
0.28250578045845032 0.0023136662784963846 0.0720786452293396
0.36419773101806641 0.00094570085639134049 0.070053383708000183
0.45195600390434265 0.0020703633781522512 0.069608874619007111
0.5420987606048584 0.0011642605531960726 0.067008823156356812
0.6505882740020752 0 0.062212221324443817
0.76915031671524048 0 0.052756514400243759
0.88727539777755737 0 0.034194603562355042
0.0010824315249919891 0.016823368147015572 0.058484859764575958
0.008702416904270649 0.017309868708252907 0.059517983347177505
0.045084185898303986 0.02006976492702961 0.066632471978664398
0.096469581127166748 0.021453170105814934 0.07098165899515152
0.15715907514095306 0.019528990611433983 0.075817376375198364
0.22395399212837219 0.01346938218921423 0.078787095844745636
0.29509192705154419 0.0054330113343894482 0.076484054327011108
0.376202791929245 0.0038235383108258247 0.074019670486450195
0.46473264694213867 0.0046258815564215183 0.072940737009048462
0.55867350101470947 0.0043129567056894302 0.070985443890094757
0.66195142269134521 0.0025723625440150499 0.071321465075016022
0.77922481298446655 0.00016537834017071873 0.060221891850233078
0.8989747166633606 0 0.036583531647920609
0.0033603294286876917 0.071176685392856598 0.070626415312290192
0.012109719216823578 0.072214730083942413 0.073104217648506165
0.050095248967409134 0.071943007409572601 0.080604255199432373
0.1076556071639061 0.074955284595489502 0.086833029985427856
0.17092791199684143 0.071770675480365753 0.090947046875953674
0.24012751877307892 0.060570437461137772 0.090062610805034637
0.31098756194114685 0.041191671043634415 0.082583047449588776
0.39076322317123413 0.020043885335326195 0.076638780534267426
0.47903451323509216 0.0087252594530582428 0.074020102620124817
0.58031076192855835 0.0091144340112805367 0.073744967579841614
0.68845003843307495 0.008028397336602211 0.073567859828472137
0.80582720041275024 0.0044441670179367065 0.059056121855974197
0.92528873682022095 0.00080356973921880126 0.033826012164354324
0.0032686719205230474 0.13342665135860443 0.077522993087768555
0.010291185230016708 0.13419327139854431 0.080796107649803162
0.040635921061038971 0.13475845754146576 0.084350258111953735
0.11162501573562622 0.13721874356269836 0.092887893319129944
0.18443745374679565 0.14049260318279266 0.10455147176980972
0.25548404455184937 0.13482548296451569 0.10358856618404388
0.32983860373497009 0.11993372440338135 0.092747285962104797
0.41637182235717773 0.09664008766412735 0.085016213357448578
0.50662654638290405 0.062104631215333939 0.078454174101352692
0.60885727405548096 0.030830008909106255 0.073520436882972717
0.7224346399307251 0.021537855267524719 0.069452710449695587
0.84053081274032593 0.013043616898357868 0.057219605892896652
0.95271426439285278 0.0025955350138247013 0.038499720394611359
0.0024202235508710146 0.21079854667186737 0.071229375898838043
0.0073518040589988232 0.21081401407718658 0.075794592499732971
0.018334466964006424 0.21027731895446777 0.074332326650619507
0.089774355292320251 0.21203827857971191 0.081719972193241119
0.18286272883415222 0.22021092474460602 0.099496491253376007
0.27142238616943359 0.22462943196296692 0.11084099858999252
0.35590076446533203 0.22085908055305481 0.10855626314878464
0.45047971606254578 0.2048635333776474 0.10021018236875534
0.54608118534088135 0.17805831134319305 0.088044814765453339
0.6496661901473999 0.14251247048377991 0.070934966206550598
0.76328003406524658 0.10760603100061417 0.059631496667861938
0.87663024663925171 0.066842950880527496 0.050163913518190384
0.97421813011169434 0.029265100136399269 0.036328572779893875
0.0021843255963176489 0.30674454569816589 0.044946152716875076
0.0057956771925091743 0.30464604496955872 0.054485753178596497
0.0071284724399447441 0.30372461676597595 0.055914487689733505
0.055493582040071487 0.30660676956176758 0.061228074133396149
0.15298217535018921 0.31420671939849854 0.075872205197811127
0.26414006948471069 0.32468608021736145 0.08494008332490921
0.38389384746551514 0.33319559693336487 0.11261351406574249
0.4941498339176178 0.32625612616539001 0.11001878976821899
0.59330010414123535 0.31332069635391235 0.085469402372837067
0.69854724407196045 0.29427185654640198 0.063876241445541382
0.80746227502822876 0.264780193567276 0.046418387442827225
0.9170839786529541 0.2302301824092865 0.031188186258077621
0.98748475313186646 0.19644816219806671 0.023386353626847267
0.00012727624562103301 0.42538726329803467 0.019094519317150116
0.0017585305031388998 0.42085617780685425 0.028754096478223801
0.0028499229811131954 0.41948235034942627 0.027632798999547958
0.02463003434240818 0.42563667893409729 0.029180519282817841
0.073001697659492493 0.44209417700767517 0.034933306276798248
0.21357753872871399 0.44733241200447083 0.034289881587028503
0.38214045763015747 0.45688596367835999 0.059846721589565277
0.52825963497161865 0.47320735454559326 0.076964013278484344
0.65082067251205444 0.47967895865440369 0.057858619838953018
0.75556951761245728 0.46145665645599365 0.051670536398887634
0.85713469982147217 0.44350016117095947 0.038613114506006241
0.95785254240036011 0.42788323760032654 0.01369978953152895
0.99231821298599243 0.41081312298774719 0.010578424669802189
0 0.57526087760925293 0.010800634510815144
0 0.56972223520278931 0.01451822929084301
2.1093032046337612e-05 0.56500041484832764 0.011340616270899773
0.0052975374273955822 0.57157349586486816 0.0092558618634939194
0.017673715949058533 0.58890450000762939 0.006760825403034687
0.13183364272117615 0.5959930419921875 0.01149330846965313
0.34690013527870178 0.60037338733673096 0.025475909933447838
0.5208127498626709 0.61666810512542725 0.027171894907951355
0.67789435386657715 0.63467705249786377 0.02649344690144062
0.80003857612609863 0.63375329971313477 0.032609932124614716
0.89770221710205078 0.61901354789733887 0.020680595189332962
0.97410422563552856 0.60253113508224487 0.0054153893142938614
0.99454182386398315 0.59432071447372437 0.0075952569022774696
0 0.73169910907745361 0.0066522783599793911
0 0.72947901487350464 0.0087071890011429787
3.1415154353453545e-06 0.72492498159408569 0.007737133651971817
0.003090099198743701 0.72641384601593018 0.0068177166394889355
0.024505870416760445 0.73541754484176636 0.0051722060889005661
0.11373033374547958 0.73643332719802856 0.0061553055420517921
0.3196881115436554 0.73830562829971313 0.012016745284199715
0.52033358812332153 0.74533367156982422 0.014223195612430573
0.67579728364944458 0.75237387418746948 0.022408697754144669
0.8059687614440918 0.75833421945571899 0.019555214792490005
0.91103237867355347 0.76138246059417725 0.0087997736409306526
0.9771767258644104 0.74808913469314575 0.0035760467872023582
0.99476426839828491 0.73864132165908813 0.0043895049020648003
0.0015397015959024429 0.86757850646972656 0.0040420233272016048
0.0016721239080652595 0.86629617214202881 0.0046699824742972851
0.0018829645123332739 0.86391586065292358 0.0045653549022972584
0.003766288049519062 0.86099272966384888 0.0042971591465175152
0.036775894463062286 0.86154842376708984 0.0038720972370356321
0.12296885997056961 0.86133384704589844 0.0039307689294219017
0.31781303882598877 0.8627362847328186 0.0031518226023763418
0.52491259574890137 0.86335915327072144 0.0055189994163811207
0.67673391103744507 0.85784173011779785 0.0084329340606927872
0.80428856611251831 0.85589146614074707 0.0079863602295517921
0.90124160051345825 0.85789144039154053 0.0059320637956261635
0.97638082504272461 0.86188352108001709 0.0010467529064044356
0.99503952264785767 0.85745805501937866 0.001465337467379868
0.012042639777064323 0.96310681104660034 0.0039215688593685627
0.012975625693798065 0.95811969041824341 0.0039215688593685627
0.012213912792503834 0.95356923341751099 0.0039215688593685627
0.012611344456672668 0.95240235328674316 0.0038411905989050865
0.058258730918169022 0.95364832878112793 0.0017339967889711261
0.1885400265455246 0.951041579246521 0.0013231164775788784
0.37832245230674744 0.95290076732635498 0.00014343261136673391
0.56002265214920044 0.95212250947952271 0.00073732860619202256
0.69785994291305542 0.94268453121185303 0.0022189121227711439
0.80926400423049927 0.93925929069519043 0.0032535926438868046
0.90005362033843994 0.94005411863327026 0.0034301159903407097
0.97382992506027222 0.9427294135093689 0.00038516474887728691
0.99537134170532227 0.94063204526901245 0.0014800576027482748
0.068430505692958832 0.9947693943977356 0.0056347567588090897
0.067276328802108765 0.99330276250839233 0.006541951559484005
0.074730336666107178 0.99172568321228027 0.0056767035275697708
0.093525782227516174 0.99234127998352051 0.0040454939007759094
0.16874289512634277 0.99212086200714111 0.00029047048883512616
0.30558693408966064 0.98981565237045288 0
0.47379940748214722 0.99052196741104126 0
0.61386013031005859 0.99173259735107422 0
0.72720229625701904 0.9903101921081543 0
0.82821935415267944 0.98879873752593994 0
0.91642802953720093 0.99203979969024658 4.7062891098903492e-05
0.97206181287765503 0.99501544237136841 0.00095680088270455599
0.99112993478775024 0.9904778003692627 0.0034451354295015335
0.14030174911022186 0.99928939342498779 0.010611246339976788
0.13628573715686798 0.998576819896698 0.010403771884739399
0.1681482344865799 0.99772268533706665 0.0097462823614478111
0.23631967604160309 0.99789369106292725 0.0061724493280053139
0.33012241125106812 0.99741876125335693 0.0010125553235411644
0.43780848383903503 0.99682813882827759 0
0.55915504693984985 0.99778944253921509 0
0.67242199182510376 0.99784547090530396 0
0.7719264030456543 0.99713265895843506 0
0.87472271919250488 0.99745303392410278 0
0.96102666854858398 0.99924063682556152 4.2395498894620687e-05
0.98527950048446655 0.99999982118606567 0.0037018421571701765
0.99263280630111694 0.99866729974746704 0.0061512216925621033
6.5343519963789731e-05 0.0016094282036647201 0.081402450799942017
0.003320357296615839 0.00027236939058639109 0.088849343359470367
0.027385830879211426 0.0010597826912999153 0.094994939863681793
0.080114670097827911 0.0020431368611752987 0.10468633472919464
0.14360803365707397 0.0029335920698940754 0.11817945539951324
0.21152949333190918 0.0032605938613414764 0.12378095835447311
0.28318539261817932 0.0017961389385163784 0.12311547994613647
0.3679165244102478 0.00068902410566806793 0.12151685357093811
0.45472782850265503 0.0015369190368801355 0.11858192831277847
0.54396456480026245 0.0012939752778038383 0.11472353339195251
0.65257656574249268 7.0010915806051344e-05 0.11420074105262756
0.77196711301803589 0 0.11117670685052872
0.89352321624755859 0 0.098876401782035828
0.00031696393853053451 0.012302817776799202 0.098163187503814697
0.0072591891512274742 0.014653688296675682 0.10352641344070435
0.039265800267457962 0.016281142830848694 0.10988552868366241
0.09152878075838089 0.019422583281993866 0.1195170059800148
0.15339119732379913 0.017625711858272552 0.12669353187084198
0.22170610725879669 0.011414501816034317 0.12901231646537781
0.29453536868095398 0.0047911996953189373 0.12733632326126099
0.37955564260482788 0.0033496932592242956 0.12548591196537018
0.46835419535636902 0.0049793766811490059 0.123781718313694
0.56442666053771973 0.0052880831062793732 0.12224022299051285
0.66774964332580566 0.0027807645965367556 0.12400047481060028
0.78523033857345581 0.00018545411876402795 0.11772695928812027
0.90608590841293335 0 0.10268626362085342
0.0019871280528604984 0.064742021262645721 0.11867804080247879
0.0093473400920629501 0.066794887185096741 0.12127401679754257
0.041026558727025986 0.065195448696613312 0.12642717361450195
0.10102881491184235 0.070062257349491119 0.13484728336334229
0.16516727209091187 0.070018932223320007 0.1410636305809021
0.23411598801612854 0.056510642170906067 0.14024195075035095
0.3083859384059906 0.03639635443687439 0.13442613184452057
0.39518246054649353 0.017758073285222054 0.13088361918926239
0.4851774275302887 0.0092279622331261635 0.12911795079708099
0.58662766218185425 0.010379117913544178 0.12802574038505554
0.69486349821090698 0.0081494646146893501 0.12703850865364075
0.81256437301635742 0.0041655893437564373 0.11750664561986923
0.93109297752380371 0.00099002616479992867 0.10087702423334122
0.0015090942615643144 0.13673974573612213 0.13531084358692169
0.0058451485820114613 0.13483171164989471 0.13503098487854004
0.032479707151651382 0.1334674060344696 0.13610625267028809
0.1067383885383606 0.13417592644691467 0.14555950462818146
0.17944531142711639 0.13742327690124512 0.15546761453151703
0.25028985738754272 0.13199277222156525 0.15616738796234131
0.33002060651779175 0.11616456508636475 0.14903019368648529
0.42013993859291077 0.089668720960617065 0.14162413775920868
0.51156949996948242 0.055911988019943237 0.13634297251701355
0.6145775318145752 0.026135733351111412 0.13104969263076782
0.72966915369033813 0.015330340713262558 0.12595450878143311
0.84819960594177246 0.010115066543221474 0.11450778692960739
0.95667487382888794 0.0038145626895129681 0.097468011081218719
0.0018144495552405715 0.21422521770000458 0.13565285503864288
0.0051480610854923725 0.21508140861988068 0.13956147432327271
0.018860163167119026 0.21299034357070923 0.13724452257156372
0.087697230279445648 0.21135114133358002 0.14149841666221619
0.18125087022781372 0.21700380742549896 0.15619611740112305
0.2698943018913269 0.22394494712352753 0.17124532163143158
0.35621467232704163 0.21637329459190369 0.16630035638809204
0.45316028594970703 0.19779805839061737 0.15634573996067047
0.54981160163879395 0.17218755185604095 0.14554859697818756
0.65413063764572144 0.13062313199043274 0.13521458208560944
