assets/lut/pixlsus velvetia.cube
# Created by: G'MIC (https://gmic.eu)
TITLE "velvetia"
# LUT size
LUT_3D_SIZE 5
# Data domain
DOMAIN_MIN 0.0 0.0 0.0
DOMAIN_MAX 1.0 1.0 1.0
# LUT data points
0.03074098564684391 0.034952696412801743 0.041008025407791138
0.29100790619850159 0.022738631814718246 0.024602808058261871
0.52968728542327881 0.023897059261798859 0.021507950499653816
0.77222514152526855 0.023945095017552376 0.012920275330543518
0.98457366228103638 0.025520533323287964 0.014766154810786247
0.0091692907735705376 0.28630256652832031 0.031057246029376984
0.25806602835655212 0.28017470240592957 0.0089201387017965317
0.52453672885894775 0.24766398966312408 0.02158101461827755
0.77349525690078735 0.22989138960838318 0.017921358346939087
0.98834496736526489 0.22876527905464172 0.012513747438788414
0.0095627130940556526 0.53011786937713623 0.025451585650444031
0.20450758934020996 0.52405393123626709 0.017132941633462906
0.48783066868782043 0.52145469188690186 0.0049117296002805233
0.75620603561401367 0.49124696850776672 0.0085509801283478737
0.98897188901901245 0.46711686253547668 0.0097929565235972404
0.010113839991390705 0.7930755615234375 0.014033837243914604
0.17944872379302979 0.77416533231735229 0.011533370241522789
0.42725500464439392 0.76484137773513794 0.0069749271497130394
0.71519643068313599 0.76324182748794556 0.0031693552155047655
0.97932666540145874 0.73652833700180054 0.0041042850352823734
0.010904514230787754 0.99449771642684937 0.017762023955583572
0.16406065225601196 0.99092382192611694 0.016260812059044838
0.38380840420722961 0.98639845848083496 0.018099525943398476
0.67131268978118896 0.99188852310180664 0.015757780522108078
0.95772439241409302 0.98633146286010742 0.014384804293513298
0.014498571865260601 0.017304034903645515 0.29701381921768188
0.26747274398803711 0.016126310452818871 0.28091061115264893
0.52560961246490479 0.022748954594135284 0.24578630924224854
0.76560187339782715 0.021300163120031357 0.23100990056991577
0.9878430962562561 0.02708333358168602 0.2205805629491806
0.0075860866345465183 0.27627080678939819 0.28058293461799622
0.25332170724868774 0.26662358641624451 0.26893612742424011
0.53081768751144409 0.22879044711589813 0.23116546869277954
0.79263758659362793 0.20657390356063843 0.21125112473964691
0.99676275253295898 0.21084849536418915 0.20819264650344849
0.0025513593573123217 0.54125857353210449 0.2514379620552063
0.177596315741539 0.53837507963180542 0.23154504597187042
0.4930267333984375 0.53904068470001221 0.182501420378685
0.77272909879684448 0.48596006631851196 0.18009671568870544
0.99659091234207153 0.43709716200828552 0.19738435745239258
0.012132308445870876 0.79071420431137085 0.2370883971452713
0.13868585228919983 0.79639047384262085 0.2141026109457016
0.3892781138420105 0.79484814405441284 0.18306499719619751
0.71250557899475098 0.7892572283744812 0.14800018072128296
0.98646551370620728 0.73762506246566772 0.15787114202976227
0.011525262147188187 0.99797344207763672 0.22692196071147919
0.13168284296989441 0.99992281198501587 0.20442982017993927
0.32529214024543762 0.99904102087020874 0.18605409562587738
0.6355244517326355 0.99992817640304565 0.14765667915344238
0.95538592338562012 0.99341189861297607 0.14076565206050873
0.019967472180724144 0.016804235056042671 0.54333055019378662
0.21017099916934967 0.0033801808021962643 0.55366957187652588
0.49755430221557617 0.0077073341235518456 0.51812231540679932
0.75086045265197754 0.0087701836600899696 0.48887094855308533
0.98491406440734863 0.021915780380368233 0.46898579597473145
0.0035138598177582026 0.24968041479587555 0.54623812437057495
0.13599424064159393 0.18299219012260437 0.58282643556594849
0.48082885146141052 0.19083996117115021 0.52861040830612183
0.77549082040786743 0.17476086318492889 0.48246994614601135
0.99753499031066895 0.19685831665992737 0.44621634483337402
0 0.52090013027191162 0.52521687746047974
0.11659721285104752 0.49802857637405396 0.53484678268432617
0.4771668016910553 0.49949687719345093 0.49939972162246704
0.75584185123443604 0.457305908203125 0.45965424180030823
0.99174416065216064 0.40867137908935547 0.41511392593383789
8.2576974818948656e-05 0.78305512666702271 0.49262866377830505
0.071324698626995087 0.78735297918319702 0.48889404535293579
0.36470308899879456 0.77448093891143799 0.46362310647964478
0.70268243551254272 0.77254879474639893 0.42228582501411438
0.98460406064987183 0.73150002956390381 0.38072872161865234
0.0043692197650671005 0.9979436993598938 0.4657389223575592
0.10057894885540009 1 0.44023984670639038
0.28967508673667908 0.99982839822769165 0.418701171875
0.60606837272644043 0.99934512376785278 0.37382051348686218
0.94542521238327026 0.99876976013183594 0.3399871289730072
0.019436391070485115 0.012984571047127247 0.79180848598480225
0.18696014583110809 0.00045632754336111248 0.80624878406524658
0.44453656673431396 0.0006577435415238142 0.79361987113952637
0.72677719593048096 0.0040862439200282097 0.76693916320800781
0.98111534118652344 0.013765147887170315 0.74330651760101318
0.022017894312739372 0.23270353674888611 0.80398672819137573
0.11553652584552765 0.1547563374042511 0.85507690906524658
0.38513541221618652 0.13469138741493225 0.84139811992645264
0.72190225124359131 0.13969475030899048 0.79855817556381226
0.98978888988494873 0.15421761572360992 0.75171065330505371
0.017619352787733078 0.49011504650115967 0.7977789044380188
0.10065358132123947 0.4402715265750885 0.84317994117736816
0.37153717875480652 0.42720827460289001 0.80943053960800171
0.71150273084640503 0.42454373836517334 0.77168136835098267
0.98408049345016479 0.38126832246780396 0.73879444599151611
0.0030444276053458452 0.76221573352813721 0.76150393486022949
0.045030869543552399 0.74526947736740112 0.79245895147323608
0.31909111142158508 0.72880935668945312 0.76795154809951782
0.70792859792709351 0.72929972410202026 0.73050415515899658
0.9624335765838623 0.70045560598373413 0.70354074239730835
0.00044811473344452679 0.99522656202316284 0.73057621717453003
0.057325787842273712 0.99632924795150757 0.73960727453231812
0.2306453138589859 0.98593026399612427 0.72578686475753784
0.60202199220657349 0.97633427381515503 0.69647115468978882
0.92581242322921753 0.98150640726089478 0.67006224393844604
0.017511734738945961 0.021021598950028419 0.98189646005630493
0.17623783648014069 0.002416274044662714 0.98601406812667847
0.40044873952865601 0.00030930462526157498 0.98625713586807251
0.68102091550827026 0.003565111430361867 0.97938805818557739
0.95987999439239502 0.014761696569621563 0.97609204053878784
0.014238350093364716 0.22252398729324341 0.9936947226524353
0.12660473585128784 0.16242566704750061 0.99827969074249268
0.31739991903305054 0.1280350387096405 1
0.64196038246154785 0.1289563775062561 0.99556487798690796
0.95228731632232666 0.12824162840843201 0.99015724658966064
0.017769608646631241 0.46173587441444397 0.99831336736679077
0.12051672488451004 0.40634694695472717 0.9997820258140564
0.23239730298519135 0.32299301028251648 1
0.59813463687896729 0.32538691163063049 0.9997677206993103
0.94015723466873169 0.32153758406639099 0.99825042486190796
0.016239406540989876 0.73033541440963745 0.9905163049697876
0.083084240555763245 0.69619929790496826 0.99351310729980469
0.19930857419967651 0.64832079410552979 0.99970966577529907
0.60881739854812622 0.66838198900222778 0.99046558141708374
0.92226678133010864 0.66241651773452759 0.98456686735153198
0.0079940194264054298 0.9853929877281189 0.9839586615562439
0.065227314829826355 0.97950828075408936 0.99097132682800293
0.15528416633605957 0.95776081085205078 0.99827969074249268
0.57703304290771484 0.95880812406539917 0.98275333642959595
0.94055622816085815 0.96031808853149414 0.96103370189666748
