assets/lut/pixlsus delicatessen.cube
# Created by: G'MIC (https://gmic.eu)
TITLE "delicatessen"
# LUT size
LUT_3D_SIZE 5
# Data domain
DOMAIN_MIN 0.0 0.0 0.0
DOMAIN_MAX 1.0 1.0 1.0
# LUT data points
0.055500268936157227 0.059990692883729935 0.055707205086946487
0.21345169842243195 0.098214000463485718 0.098753519356250763
0.44986739754676819 0.083080247044563293 0.10193531960248947
0.71786624193191528 0.067000336945056915 0.12289247661828995
0.91324633359909058 0.05318119004368782 0.1502050906419754
0.10375700145959854 0.21440352499485016 0.094259299337863922
0.23667539656162262 0.23653657734394073 0.052037753164768219
0.49482476711273193 0.23174196481704712 0.045922793447971344
0.73647993803024292 0.23145610094070435 0.081315748393535614
0.89696967601776123 0.23495028913021088 0.13916495442390442
0.19904685020446777 0.39650693535804749 0.091420039534568787
0.30890819430351257 0.42619994282722473 0.06686670333147049
0.48814576864242554 0.486063152551651 0.041519764810800552
0.74511528015136719 0.4841218888759613 0.058311671018600464
0.88944321870803833 0.50479495525360107 0.098077200353145599
0.24155180156230927 0.56899744272232056 0.075655899941921234
0.37497192621231079 0.57226210832595825 0.07522110641002655
0.53670334815979004 0.61525142192840576 0.079708531498908997
0.76565825939178467 0.65838146209716797 0.075341276824474335
0.92832010984420776 0.72352588176727295 0.11972538381814957
0.22458824515342712 0.73091548681259155 0.064639195799827576
0.37033966183662415 0.70627230405807495 0.080450557172298431
0.54558479785919189 0.72116273641586304 0.086869530379772186
0.76338207721710205 0.76311987638473511 0.10225734114646912
0.94324105978012085 0.8330845832824707 0.16584588587284088
0.088359102606773376 0.12540608644485474 0.21104221045970917
0.2410057932138443 0.12402373552322388 0.23933394253253937
0.48566308617591858 0.088865123689174652 0.24361632764339447
0.72718846797943115 0.096554957330226898 0.24425891041755676
0.93169337511062622 0.090396672487258911 0.22597622871398926
0.076295159757137299 0.22794847190380096 0.23365405201911926
0.24091076850891113 0.23974466323852539 0.24636808037757874
0.4796750545501709 0.23585107922554016 0.24665853381156921
0.74036222696304321 0.23200267553329468 0.24608877301216125
0.94952762126922607 0.22708824276924133 0.24906079471111298
0.1673399955034256 0.3975999653339386 0.26167908310890198
0.29321816563606262 0.4320184588432312 0.25524416565895081
0.48165780305862427 0.4944610595703125 0.24179859459400177
0.75104165077209473 0.49871540069580078 0.24262125790119171
0.94725185632705688 0.50411760807037354 0.24461452662944794
0.2195509672164917 0.54891538619995117 0.26427188515663147
0.36009863018989563 0.56088614463806152 0.26016932725906372
0.53311276435852051 0.6182674765586853 0.24433772265911102
0.77452152967453003 0.69606846570968628 0.24244125187397003
0.95378077030181885 0.77431434392929077 0.26123973727226257
0.20519262552261353 0.72114694118499756 0.26088318228721619
0.36002153158187866 0.69492828845977783 0.25903201103210449
0.54804360866546631 0.71182513236999512 0.25247791409492493
0.77225065231323242 0.77741032838821411 0.2728239893913269
0.9529801607131958 0.86123478412628174 0.31319114565849304
0.084170922636985779 0.19242256879806519 0.42648938298225403
0.24273960292339325 0.19718427956104279 0.42695003747940063
0.47845706343650818 0.17217209935188293 0.42595669627189636
0.70997047424316406 0.16791865229606628 0.39200586080551147
0.90650314092636108 0.17783741652965546 0.37588909268379211
0.070414885878562927 0.24903769791126251 0.45379361510276794
0.23902057111263275 0.27983397245407104 0.45362403988838196
0.48354274034500122 0.27727481722831726 0.44359225034713745
0.72882437705993652 0.2687171995639801 0.43499085307121277
0.9179500937461853 0.29232093691825867 0.40409126877784729
0.13587573170661926 0.4242110550403595 0.49571162462234497
0.28013110160827637 0.46488696336746216 0.49260872602462769
0.49137851595878601 0.48405680060386658 0.47694125771522522
0.74912434816360474 0.50053554773330688 0.46207168698310852
0.95640093088150024 0.51138228178024292 0.47474545240402222
0.19215422868728638 0.55152231454849243 0.50612330436706543
0.32688724994659424 0.56788545846939087 0.50156056880950928
0.525229811668396 0.61822688579559326 0.49833580851554871
0.77631819248199463 0.72625839710235596 0.49896293878555298
0.96250456571578979 0.78313553333282471 0.53548908233642578
0.17531514167785645 0.70137715339660645 0.50655114650726318
0.3290640115737915 0.69961214065551758 0.49745815992355347
0.5347408652305603 0.72637331485748291 0.49314656853675842
0.77309542894363403 0.79382789134979248 0.50434285402297974
0.9650580883026123 0.92728209495544434 0.54349195957183838
0.084265567362308502 0.23622088134288788 0.62712341547012329
0.2452639639377594 0.24603483080863953 0.60869872570037842
0.461099773645401 0.2239140123128891 0.56961804628372192
0.68350541591644287 0.20521366596221924 0.53293007612228394
0.88137483596801758 0.20972776412963867 0.51804786920547485
0.12117927521467209 0.33829399943351746 0.65021151304244995
0.24826250970363617 0.36838114261627197 0.6249927282333374
0.45515570044517517 0.3548063337802887 0.57615119218826294
0.69085127115249634 0.34131541848182678 0.53908365964889526
0.88426530361175537 0.34363546967506409 0.52395039796829224
0.11651918292045593 0.45932605862617493 0.72365593910217285
0.27389106154441833 0.49895915389060974 0.70089000463485718
0.4696948230266571 0.53395122289657593 0.64666712284088135
0.71246767044067383 0.55716687440872192 0.59161674976348877
0.90643507242202759 0.56163269281387329 0.57141649723052979
0.14964443445205688 0.55713969469070435 0.72619414329528809
0.3012097179889679 0.58966851234436035 0.72089529037475586
0.5095258355140686 0.64936161041259766 0.70877957344055176
0.7471885085105896 0.73167139291763306 0.6819414496421814
0.93590986728668213 0.78553110361099243 0.67220968008041382
0.13595810532569885 0.69822561740875244 0.72547346353530884
0.29710638523101807 0.70390284061431885 0.71846133470535278
0.51244193315505981 0.74775320291519165 0.70685273408889771
0.74926882982254028 0.81810331344604492 0.71163415908813477
0.95971107482910156 0.93905031681060791 0.76505231857299805
0.079862229526042938 0.22525002062320709 0.77222216129302979
0.25183367729187012 0.24852819740772247 0.77131068706512451
0.45672565698623657 0.21414312720298767 0.7205355167388916
0.6814885139465332 0.19120588898658752 0.6831633448600769
0.88151174783706665 0.1801798939704895 0.6904599666595459
0.092520676553249359 0.35740649700164795 0.76842248439788818
0.25306829810142517 0.38978013396263123 0.76688891649246216
0.45459353923797607 0.37503990530967712 0.71746879816055298
0.68191814422607422 0.35355588793754578 0.6815686821937561
0.88057160377502441 0.35105001926422119 0.67792814970016479
0.12391430884599686 0.47219070792198181 0.80685633420944214
0.28019976615905762 0.51326018571853638 0.79496872425079346
0.47053492069244385 0.54498326778411865 0.76675504446029663
0.69797003269195557 0.55003517866134644 0.72299283742904663
0.90289419889450073 0.56189608573913574 0.70394366979598999
0.14751982688903809 0.57177472114562988 0.82784938812255859
0.29116597771644592 0.60264724493026733 0.81866258382797241
0.49318379163742065 0.66166102886199951 0.80883556604385376
0.7332955002784729 0.73914098739624023 0.79752236604690552
0.92340350151062012 0.77943676710128784 0.76082634925842285
0.12557762861251831 0.70836120843887329 0.85261273384094238
0.29400777816772461 0.71884500980377197 0.83852952718734741
0.49395519495010376 0.76521050930023193 0.83234000205993652
0.73814290761947632 0.84405398368835449 0.82246840000152588
0.94334417581558228 0.93591523170471191 0.83267670869827271
