assets/lut/pixlsus cinematic mexico.cube
# Created by: G'MIC (https://gmic.eu)
TITLE "cinematic_mexico"
# LUT size
LUT_3D_SIZE 13
# Data domain
DOMAIN_MIN 0.0 0.0 0.0
DOMAIN_MAX 1.0 1.0 1.0
# LUT data points
0.033000435680150986 0.026350777596235275 0.024312891066074371
0.087700009346008301 0.041012916713953018 0.018380558118224144
0.15786981582641602 0.068078048527240753 0.018091509118676186
0.22311186790466309 0.088180825114250183 0.01677258126437664
0.27379247546195984 0.093686170876026154 0.011407126672565937
0.33382853865623474 0.1023026704788208 0.0072301528416574001
0.40224039554595947 0.10942263156175613 0.0059015010483562946
0.46289888024330139 0.14123508334159851 0.011418899521231651
0.52031451463699341 0.18094651401042938 0.014878545887768269
0.57405537366867065 0.20885567367076874 0.018202492967247963
0.61603903770446777 0.21579650044441223 0.03106982633471489
0.65267699956893921 0.2117694765329361 0.037862502038478851
0.68880212306976318 0.20119419693946838 0.032463103532791138
0.051165398210287094 0.064243018627166748 0.049183998256921768
0.10032541304826736 0.078019969165325165 0.039356201887130737
0.1635819673538208 0.093432486057281494 0.020783038809895515
0.21781612932682037 0.10119941830635071 0.012878358364105225
0.27303791046142578 0.10669778287410736 0.0098828785121440887
0.32981711626052856 0.11865053325891495 0.0045653698034584522
0.39907148480415344 0.13312625885009766 0.0051797903142869473
0.45818996429443359 0.16408415138721466 0.006948418915271759
0.51414531469345093 0.20381848514080048 0.0093875359743833542
0.5659637451171875 0.2280159592628479 0.016850341111421585
0.60665303468704224 0.23734894394874573 0.026375429704785347
0.6438477635383606 0.23660139739513397 0.032814189791679382
0.68141895532608032 0.2316761314868927 0.032247040420770645
0.080918498337268829 0.12231123447418213 0.085527069866657257
0.12446863204240799 0.13044635951519012 0.076862514019012451
0.18085004389286041 0.13661055266857147 0.045418143272399902
0.2241264283657074 0.13794055581092834 0.023119399324059486
0.27760323882102966 0.14564646780490875 0.015632733702659607
0.34132924675941467 0.16087625920772552 0.014199933968484402
0.40219900012016296 0.19359895586967468 0.013677814044058323
0.46005070209503174 0.22376573085784912 0.011291309259831905
0.51854318380355835 0.23951965570449829 0.0089942030608654022
0.56464135646820068 0.2508552074432373 0.013614430092275143
0.60048282146453857 0.260710209608078 0.019513702020049095
0.63693618774414062 0.2649073600769043 0.024795517325401306
0.6776123046875 0.26286160945892334 0.025875017046928406
0.12963226437568665 0.17811305820941925 0.10189617425203323
0.16653911769390106 0.18371745944023132 0.10085038095712662
0.20491386950016022 0.18956157565116882 0.089737609028816223
0.24853046238422394 0.1961795836687088 0.059539075940847397
0.29371947050094604 0.20090822875499725 0.026285178959369659
0.35766923427581787 0.21451082825660706 0.016262592747807503
0.42210981249809265 0.24134817719459534 0.011479277163743973
0.48425808548927307 0.26371955871582031 0.011555137112736702
0.54221105575561523 0.28001660108566284 0.015921918675303459
0.58074569702148438 0.29186621308326721 0.014337008818984032
0.61138111352920532 0.29973462224006653 0.01348450593650341
0.64663362503051758 0.30568292737007141 0.02118549682199955
0.68319320678710938 0.30629324913024902 0.026526866480708122
0.17302463948726654 0.23601791262626648 0.11555724591016769
0.20463865995407104 0.23930637538433075 0.12137342244386673
0.23585033416748047 0.24806849658489227 0.1282113790512085
0.27046042680740356 0.26001110672950745 0.1269533634185791
0.31340146064758301 0.26248264312744141 0.079039506614208221
0.37900066375732422 0.27206522226333618 0.028993150219321251
0.43917009234428406 0.29396423697471619 0.012847421690821648
0.49397480487823486 0.31283619999885559 0.011629531159996986
0.56277108192443848 0.32870423793792725 0.023118965327739716
0.60137629508972168 0.34036344289779663 0.01916656456887722
0.62840414047241211 0.34870254993438721 0.013689003884792328
0.66319894790649414 0.35659682750701904 0.020222622901201248
0.69761943817138672 0.36194139719009399 0.029812278226017952
0.19876201450824738 0.29415899515151978 0.1283436119556427
0.234681636095047 0.29358428716659546 0.1369292140007019
0.26820415258407593 0.30085793137550354 0.14878562092781067
0.30129238963127136 0.31341421604156494 0.16151401400566101
0.34013548493385315 0.32478082180023193 0.14217516779899597
0.39866331219673157 0.33669853210449219 0.080591641366481781
0.46041810512542725 0.35607355833053589 0.043496780097484589
0.5079994797706604 0.3676852285861969 0.017357172444462776
0.56288301944732666 0.38134527206420898 0.016361385583877563
0.6142277717590332 0.3938446044921875 0.016144607216119766
0.65173321962356567 0.40843147039413452 0.018427770584821701
0.68591499328613281 0.41690716147422791 0.022908095270395279
0.72101938724517822 0.42539811134338379 0.024283271282911301
0.21874655783176422 0.35283973813056946 0.1379050612449646
0.25769951939582825 0.35077658295631409 0.14703908562660217
0.29636189341545105 0.35423934459686279 0.15494793653488159
0.3330211341381073 0.36589479446411133 0.16328053176403046
0.37302383780479431 0.38270860910415649 0.16274732351303101
0.42082244157791138 0.3983691930770874 0.13034270703792572
0.46984019875526428 0.41380095481872559 0.073402971029281616
0.51261818408966064 0.42688024044036865 0.034873843193054199
0.55662411451339722 0.43328115344047546 0.020499510690569878
0.62043082714080811 0.44842085242271423 0.027828201651573181
0.66816627979278564 0.47306075692176819 0.030942564830183983
0.70552480220794678 0.48114323616027832 0.030712531879544258
0.74027258157730103 0.48538312315940857 0.02289663627743721
0.23299776017665863 0.41279086470603943 0.14443722367286682
0.27152112126350403 0.41070437431335449 0.15297713875770569
0.31407022476196289 0.41298511624336243 0.16078375279903412
0.35632592439651489 0.42315959930419922 0.16784012317657471
0.39832517504692078 0.43727409839630127 0.17003621160984039
0.44109031558036804 0.44794180989265442 0.14489321410655975
0.48718163371086121 0.45770102739334106 0.097507506608963013
0.52170634269714355 0.47447618842124939 0.058143645524978638
0.55791497230529785 0.49397534132003784 0.032800666987895966
0.62517958879470825 0.50554412603378296 0.051213104277849197
0.67160177230834961 0.52541011571884155 0.047603458166122437
0.71526658535003662 0.53558832406997681 0.035990186035633087
0.75367653369903564 0.54101020097732544 0.022714188322424889
0.24078729748725891 0.47568878531455994 0.1466166228055954
0.28010958433151245 0.47335943579673767 0.15501262247562408
0.32482871413230896 0.47589969635009766 0.16406944394111633
0.37099531292915344 0.48136386275291443 0.17070044577121735
0.41433429718017578 0.48546740412712097 0.16842344403266907
0.45450225472450256 0.49132165312767029 0.14415910840034485
0.49732008576393127 0.50069421529769897 0.1075427457690239
0.53274041414260864 0.51913052797317505 0.072632759809494019
0.57781225442886353 0.540821373462677 0.060111474245786667
0.62453502416610718 0.55855154991149902 0.073100432753562927
0.66968047618865967 0.57175219058990479 0.073582656681537628
0.72079735994338989 0.58102715015411377 0.044544041156768799
0.75638777017593384 0.58678197860717773 0.036567118018865585
0.24456754326820374 0.53647017478942871 0.14486454427242279
0.28634008765220642 0.53320062160491943 0.15333308279514313
0.33058524131774902 0.53143799304962158 0.16015507280826569
0.37509262561798096 0.53025180101394653 0.16383248567581177
0.41801369190216064 0.53146469593048096 0.1599506139755249
0.46120253205299377 0.53569638729095459 0.13921813666820526
0.50667786598205566 0.54186505079269409 0.11058326810598373
0.5501941442489624 0.5578770637512207 0.093027211725711823
0.59357517957687378 0.57426261901855469 0.085999734699726105
0.62981593608856201 0.59884852170944214 0.10776694864034653
0.67239564657211304 0.61214542388916016 0.11557611078023911
0.72289007902145386 0.61878353357315063 0.080725200474262238
0.76717996597290039 0.63355869054794312 0.05640164390206337
0.24562431871891022 0.59361416101455688 0.14348267018795013
0.28698906302452087 0.58868098258972168 0.14873026311397552
0.33146750926971436 0.58438217639923096 0.15376318991184235
0.37652027606964111 0.57968193292617798 0.15536336600780487
0.42158094048500061 0.57876092195510864 0.1516956239938736
0.46570152044296265 0.58338940143585205 0.13673239946365356
0.5126069188117981 0.58823925256729126 0.11812420934438705
0.55959808826446533 0.59812194108963013 0.10848715156316757
0.60437208414077759 0.61244183778762817 0.1083834320306778
0.6451905369758606 0.62466573715209961 0.1287807822227478
0.68646633625030518 0.63246423006057739 0.14144720137119293
0.71782010793685913 0.64780741930007935 0.11604582518339157
0.7666468620300293 0.68124896287918091 0.087480999529361725
0.24077175557613373 0.65240156650543213 0.13998229801654816
0.28333130478858948 0.64377957582473755 0.14355729520320892
0.3278195858001709 0.63830840587615967 0.14721658825874329
0.37392261624336243 0.6339561939239502 0.1473272293806076
0.42019999027252197 0.63275367021560669 0.14434562623500824
0.46953591704368591 0.63416248559951782 0.1360490471124649
0.52095645666122437 0.63644653558731079 0.12439889460802078
0.57068538665771484 0.6429295539855957 0.11500944197177887
0.61569827795028687 0.6534808874130249 0.1222710981965065
0.65743827819824219 0.6605384349822998 0.13319964706897736
0.69781482219696045 0.66932743787765503 0.13793537020683289
0.73462140560150146 0.68460685014724731 0.12805221974849701
0.77885401248931885 0.71366137266159058 0.10630253702402115
0.23063170909881592 0.70709133148193359 0.13293205201625824
0.27691519260406494 0.69684845209121704 0.13669297099113464
0.32303842902183533 0.69067984819412231 0.13793213665485382
0.37142854928970337 0.68626642227172852 0.13583949208259583
0.41969728469848633 0.68528801202774048 0.13191567361354828
0.47251608967781067 0.68141764402389526 0.12953780591487885
0.52970331907272339 0.68010103702545166 0.12456589937210083
0.58318233489990234 0.68433326482772827 0.11455236375331879
0.62707251310348511 0.68993234634399414 0.12220977991819382
0.66837114095687866 0.69535523653030396 0.12856410443782806
0.71046650409698486 0.70452684164047241 0.12864077091217041
0.74975460767745972 0.71867865324020386 0.11908621340990067
0.7883526086807251 0.73757350444793701 0.095317244529724121
0.038133375346660614 0.044101506471633911 0.058548152446746826
0.088006727397441864 0.055157903581857681 0.055800300091505051
0.15861134231090546 0.078821144998073578 0.049888506531715393
0.22933723032474518 0.096399478614330292 0.043997984379529953
0.30129092931747437 0.10085085779428482 0.043670967221260071
0.36921724677085876 0.097205802798271179 0.040430855005979538
0.41925042867660522 0.10527294129133224 0.027005244046449661
0.47002133727073669 0.14501294493675232 0.02956339530646801
0.51515054702758789 0.19000962376594543 0.03792838379740715
0.56407791376113892 0.21478892862796783 0.051824592053890228
0.61457520723342896 0.22329835593700409 0.063124939799308777
0.65671604871749878 0.22216972708702087 0.070335298776626587
0.69523781538009644 0.21448370814323425 0.074671775102615356
0.044979948550462723 0.080488376319408417 0.076060980558395386
0.091633126139640808 0.085071250796318054 0.071716353297233582
0.16238580644130707 0.096738837659358978 0.055942624807357788
0.22957505285739899 0.1060827374458313 0.039705522358417511
0.29134419560432434 0.11526495218276978 0.029599597677588463
0.35930827260017395 0.11479795724153519 0.025528313592076302
0.41732877492904663 0.12548908591270447 0.019586481153964996
0.46209222078323364 0.17225523293018341 0.018124943599104881
0.4940318763256073 0.22616064548492432 0.02719726599752903
0.55487090349197388 0.2412894070148468 0.045822758227586746
0.60894870758056641 0.24984271824359894 0.060257032513618469
0.65025156736373901 0.25034648180007935 0.067924782633781433
0.68850553035736084 0.24506033957004547 0.07156042754650116
0.081071667373180389 0.13037645816802979 0.10762285441160202
0.11370354145765305 0.13320247828960419 0.10763823240995407
0.17214055359363556 0.14274373650550842 0.086836904287338257
0.23400713503360748 0.14613762497901917 0.053370997309684753
0.30005529522895813 0.15247610211372375 0.027169814333319664
0.3625887930393219 0.16201137006282806 0.021086554974317551
0.41858342289924622 0.17548716068267822 0.029065269976854324
0.46261218190193176 0.2136496901512146 0.01765359565615654
0.50397837162017822 0.24772085249423981 0.02252667024731636
0.56525254249572754 0.25935986638069153 0.039729204028844833
0.60969966650009155 0.27569812536239624 0.051590025424957275
0.64750808477401733 0.28145644068717957 0.060634642839431763
0.68499410152435303 0.27797394990921021 0.064300984144210815
0.1284824013710022 0.1834152489900589 0.13045081496238708
0.15731662511825562 0.18613308668136597 0.1341559886932373
0.19339311122894287 0.19931322336196899 0.13029490411281586
0.24477954208850861 0.20448033511638641 0.09953676164150238
0.31042715907096863 0.20757684111595154 0.049981448799371719
0.37920072674751282 0.2219538539648056 0.028135726228356361
0.43470615148544312 0.2361409068107605 0.028839949518442154
0.49522614479064941 0.25430658459663391 0.021361526101827621
0.54223620891571045 0.27048811316490173 0.029046690091490746
0.58057332038879395 0.29029762744903564 0.032698970288038254
0.61594641208648682 0.30819037556648254 0.035832542926073074
0.6514623761177063 0.31420338153839111 0.047209825366735458
0.68643707036972046 0.31467315554618835 0.05343608558177948
0.16656626760959625 0.24406039714813232 0.1506543904542923
0.1982208639383316 0.24646157026290894 0.15555964410305023
0.23098058998584747 0.25313779711723328 0.15792694687843323
0.26527100801467896 0.26550358533859253 0.15729878842830658
0.32415628433227539 0.27092751860618591 0.11241274327039719
0.39541292190551758 0.27971324324607849 0.053876373916864395
0.45109662413597107 0.29702597856521606 0.040355250239372253
0.51886993646621704 0.30746954679489136 0.031710740178823471
0.57163071632385254 0.31993919610977173 0.05412789061665535
0.60563498735427856 0.33523496985435486 0.049657516181468964
0.63033974170684814 0.34946587681770325 0.03252735361456871
0.66277402639389038 0.35675030946731567 0.041603401303291321
0.69678431749343872 0.36090371012687683 0.049735050648450851
0.19639496505260468 0.30434373021125793 0.16612082719802856
0.23321494460105896 0.30441829562187195 0.17126613855361938
0.26972734928131104 0.3072211742401123 0.17701162397861481
0.30202385783195496 0.31878864765167236 0.18490885198116302
0.34019613265991211 0.33362647891044617 0.17578665912151337
0.40650609135627747 0.34238588809967041 0.11945997923612595
0.47433075308799744 0.34986391663551331 0.07656414806842804
0.52713954448699951 0.36308276653289795 0.052069555968046188
0.57314956188201904 0.38144725561141968 0.041574187576770782
0.61325520277023315 0.3934190571308136 0.043180756270885468
0.65903377532958984 0.4054158627986908 0.049782007932662964
0.68714851140975952 0.41640350222587585 0.051748808473348618
0.71262449026107788 0.42292499542236328 0.055703900754451752
0.22014228999614716 0.3635285496711731 0.17717212438583374
0.26174315810203552 0.3634745180606842 0.18247641623020172
0.30058449506759644 0.36497572064399719 0.18835976719856262
0.33539766073226929 0.37427720427513123 0.19551248848438263
0.37288811802864075 0.39105656743049622 0.20157958567142487
0.42175981402397156 0.40547120571136475 0.17565679550170898
0.48515766859054565 0.41351598501205444 0.12013548612594604
0.53075844049453735 0.42885750532150269 0.091689914464950562
0.5857471227645874 0.44257661700248718 0.064134247601032257
0.62176388502120972 0.45598557591438293 0.04824535921216011
0.67343884706497192 0.46791937947273254 0.054507851600646973
0.70819419622421265 0.4796983003616333 0.058202691376209259
0.72877907752990723 0.48400023579597473 0.052880514413118362
0.23631878197193146 0.42310738563537598 0.18407784402370453
0.27722331881523132 0.42197877168655396 0.18883197009563446
0.31925761699676514 0.4229462742805481 0.19518472254276276
0.35944968461990356 0.42963036894798279 0.20258514583110809
0.40115410089492798 0.44287043809890747 0.21034206449985504
0.44495341181755066 0.45528972148895264 0.19216641783714294
0.49766653776168823 0.46501809358596802 0.14931385219097137
0.54145503044128418 0.48102244734764099 0.11246398091316223
0.58255946636199951 0.49967598915100098 0.076677031815052032
0.62650996446609497 0.5106474757194519 0.06521046906709671
0.67649847269058228 0.52719730138778687 0.06835339218378067
0.71554827690124512 0.53935205936431885 0.062438022345304489
0.74085479974746704 0.53909379243850708 0.044161193072795868
0.24782367050647736 0.48254853487014771 0.18887375295162201
0.28553274273872375 0.47961187362670898 0.19256716966629028
0.32794904708862305 0.47873565554618835 0.19856658577919006
0.3715800940990448 0.48108676075935364 0.2051703929901123
0.41517513990402222 0.48541751503944397 0.20774990320205688
0.45787221193313599 0.49561107158660889 0.18839165568351746
0.50666689872741699 0.50915080308914185 0.15825910866260529
0.54895895719528198 0.53297430276870728 0.11879213899374008
0.58853578567504883 0.56244784593582153 0.094331972301006317
0.63022059202194214 0.56388044357299805 0.10124221444129944
0.67326730489730835 0.57396107912063599 0.089147262275218964
0.7188793420791626 0.58725202083587646 0.063066370785236359
0.75503194332122803 0.58830475807189941 0.053590975701808929
0.25489622354507446 0.53981155157089233 0.1915404349565506
0.29106464982032776 0.53508961200714111 0.1938825398683548
0.33365675806999207 0.5314299464225769 0.19799503684043884
0.37711063027381897 0.5305171012878418 0.20254616439342499
0.42060014605522156 0.53233492374420166 0.20060324668884277
0.46576932072639465 0.53945767879486084 0.18305414915084839
0.51537257432937622 0.55204856395721436 0.16262520849704742
0.55877888202667236 0.57452678680419922 0.13477103412151337
0.59629994630813599 0.59515464305877686 0.11032743006944656
0.630706787109375 0.60889387130737305 0.10708223283290863
0.67487740516662598 0.61993950605392456 0.11981140077114105
0.72031867504119873 0.62581813335418701 0.10949335992336273
0.76946526765823364 0.63488370180130005 0.081783980131149292
0.25390926003456116 0.59628665447235107 0.19004109501838684
0.29209363460540771 0.58964681625366211 0.1914595365524292
0.33483245968818665 0.58500927686691284 0.19431167840957642
0.3788163959980011 0.58129853010177612 0.19743070006370544
0.42346227169036865 0.58105295896530151 0.19504351913928986
0.46911847591400146 0.58647280931472778 0.18049594759941101
0.51758050918579102 0.59473806619644165 0.16409569978713989
0.56418418884277344 0.60550481081008911 0.13973142206668854
0.60558921098709106 0.62132304906845093 0.11928782612085342
0.64405363798141479 0.63607358932495117 0.13157746195793152
0.68457287549972534 0.6510968804359436 0.16690190136432648
0.72809016704559326 0.66655027866363525 0.15537463128566742
0.77577632665634155 0.68813365697860718 0.12060663849115372
0.24885250627994537 0.65356194972991943 0.18717609345912933
0.28881293535232544 0.64368093013763428 0.18781769275665283
0.33105754852294922 0.63776904344558716 0.18961614370346069
0.37558889389038086 0.63423150777816772 0.19170469045639038
0.42163205146789551 0.63376623392105103 0.18973769247531891
0.47056153416633606 0.63695013523101807 0.1798490434885025
0.52087992429733276 0.64167255163192749 0.16555999219417572
0.57038193941116333 0.64745360612869263 0.14360767602920532
0.61687439680099487 0.65514981746673584 0.13268646597862244
0.6578221321105957 0.6688808798789978 0.15337197482585907
0.69760400056838989 0.68487203121185303 0.17460924386978149
0.73934996128082275 0.70969992876052856 0.17021670937538147
0.7832457423210144 0.73581182956695557 0.14188861846923828
0.24084740877151489 0.70544952154159546 0.18381945788860321
0.28294426202774048 0.6959308385848999 0.18438909947872162
0.32631158828735352 0.68933665752410889 0.18497274816036224
0.3728938102722168 0.68458187580108643 0.18530023097991943
0.42052283883094788 0.68354266881942749 0.18280716240406036
0.47283250093460083 0.6817852258682251 0.17667162418365479
0.52862650156021118 0.6825135350227356 0.16974590718746185
0.58062988519668579 0.68647599220275879 0.15635639429092407
0.62836849689483643 0.69401508569717407 0.15038357675075531
0.66887581348419189 0.70422941446304321 0.16301825642585754
0.70913964509963989 0.71820634603500366 0.17470379173755646
0.75074386596679688 0.73679620027542114 0.16881963610649109
0.79257696866989136 0.75403928756713867 0.15497672557830811
0.052872106432914734 0.081289716064929962 0.11178678274154663
0.09556414932012558 0.085867725312709808 0.10020919144153595
0.16214616596698761 0.11070358008146286 0.10231588035821915
0.23752671480178833 0.12156635522842407 0.097643531858921051
0.32949867844581604 0.10839230567216873 0.099001459777355194
0.39794722199440002 0.0983247309923172 0.094911925494670868
0.42349284887313843 0.11327369511127472 0.08064696192741394
0.47550278902053833 0.15380096435546875 0.076207511126995087
0.52088910341262817 0.19702976942062378 0.081515461206436157
0.5661017894744873 0.21935969591140747 0.096486739814281464
0.6196739673614502 0.22984500229358673 0.11011458933353424
0.66506952047348022 0.23165406286716461 0.11869578808546066
0.70493412017822266 0.22612255811691284 0.12354942411184311
0.045427463948726654 0.10714978724718094 0.12261749058961868
0.084399580955505371 0.10853687673807144 0.11565451323986053
0.16423405706882477 0.12477412819862366 0.1134844496846199
0.23726736009120941 0.13586039841175079 0.098049387335777283
0.30552545189857483 0.13312824070453644 0.069248363375663757
0.38764995336532593 0.11629047989845276 0.074622198939323425
0.4238734245300293 0.13310347497463226 0.063034087419509888
0.47066369652748108 0.18192209303379059 0.058930415660142899
0.50619709491729736 0.23154920339584351 0.070346668362617493
0.55957615375518799 0.24963560700416565 0.089998297393321991
0.61538279056549072 0.26023462414741516 0.10466836392879486
0.6587633490562439 0.26400521397590637 0.11355584859848022
0.69762980937957764 0.2592560350894928 0.11931651830673218
0.070668987929821014 0.14494974911212921 0.14008708298206329
0.096184857189655304 0.14923962950706482 0.14401605725288391
0.16364993155002594 0.15767167508602142 0.14164787530899048
0.24429598450660706 0.16474729776382446 0.11833277344703674
0.31620949506759644 0.16876298189163208 0.075786754488945007
0.38447427749633789 0.16704602539539337 0.061605058610439301
0.43066114187240601 0.18768365681171417 0.054006792604923248
0.47585985064506531 0.22057408094406128 0.042910870164632797
0.52018457651138306 0.25009873509407043 0.063754618167877197
0.57574242353439331 0.26613351702690125 0.091595910489559174
0.61930209398269653 0.28886398673057556 0.098416253924369812
0.65659940242767334 0.29747289419174194 0.10609118640422821
0.69301056861877441 0.29567724466323853 0.1131860762834549
0.11446551233530045 0.19761949777603149 0.1666143387556076
0.13785082101821899 0.20264782011508942 0.17220357060432434
0.1815321147441864 0.21220064163208008 0.17481905221939087
0.24909381568431854 0.21944093704223633 0.15953248739242554
0.32898721098899841 0.22362115979194641 0.11342920362949371
0.39948296546936035 0.22855296730995178 0.078095123171806335
0.4515795111656189 0.24641530215740204 0.07071278989315033
0.50118923187255859 0.26235902309417725 0.048069372773170471
0.54918462038040161 0.26952731609344482 0.065709955990314484
0.59285610914230347 0.29624944925308228 0.08205077052116394
0.62466472387313843 0.31900209188461304 0.085304886102676392
0.65916424989700317 0.32870644330978394 0.096672400832176208
0.69266736507415771 0.33109882473945618 0.10476259887218475
0.15595491230487823 0.25562247633934021 0.19218181073665619
0.18838496506214142 0.25700056552886963 0.19570548832416534
0.22595064342021942 0.26525700092315674 0.20149911940097809
0.26805013418197632 0.27911987900733948 0.19936980307102203
0.33567911386489868 0.2870713472366333 0.17033033072948456
