assets/lut/shamoonabbasi desert gold 37.cube
# Created by: G'MIC (https://gmic.eu)
TITLE "desert_gold_37"
# LUT size
LUT_3D_SIZE 13
# Data domain
DOMAIN_MIN 0.0 0.0 0.0
DOMAIN_MAX 1.0 1.0 1.0
# LUT data points
0.0047305687330663204 0.0021784764248877764 0.0040672151371836662
0.021859562024474144 0.0023838416673243046 0.0030154958367347717
0.043450344353914261 0.0017562716966494918 0.0032461427617818117
0.068670891225337982 0.0011692121624946594 0.0037142436485737562
0.10610102862119675 0.00035400391789153218 0.0025307449977844954
0.16684176027774811 0 0.00088532391237094998
0.24307182431221008 0 0
0.32788851857185364 0 0
0.41291278600692749 0 9.6070529252756387e-05
0.49910938739776611 0 0.0013615178177133203
0.58918893337249756 0 0.003352191299200058
0.68447232246398926 0 0.0038867427501827478
0.78616684675216675 0 0.0023119160905480385
0.0017683589830994606 0.018577022477984428 0.001340709044598043
0.017356527969241142 0.01907196082174778 0.001314066001214087
0.039747964590787888 0.016097947955131531 0.0028666628058999777
0.066590510308742523 0.013800228014588356 0.003663680050522089
0.10625384747982025 0.0095632364973425865 0.0028119555208832026
0.16473659873008728 0.0040968502871692181 0.00065175973577424884
0.23654899001121521 0.0014373330632224679 0
0.31673219799995422 4.4923668610863388e-05 0
0.39989206194877625 0 0
0.48520180583000183 0 0.00024639951880089939
0.57428973913192749 0 0.001291865948587656
0.66894495487213135 0 0.001609114115126431
0.77184212207794189 0 0.00020167032198514789
0.00028901943005621433 0.038372069597244263 0.0005509320180863142
0.012745756655931473 0.038448303937911987 0.0010340074077248573
0.035330947488546371 0.036644265055656433 0.0025475595612078905
0.063062570989131927 0.035224150866270065 0.0038202323485165834
0.10188357532024384 0.032668139785528183 0.0029809540137648582
0.15901868045330048 0.02509257011115551 0.00058991677360609174
0.22963331639766693 0.015981381759047508 0
0.30823186039924622 0.0058510424569249153 0
0.39110726118087769 0.00033988204086199403 0
0.47759136557579041 0 0
0.56805926561355591 0 1.5946930943755433e-05
0.66330653429031372 0 1.4391132026503328e-05
0.7680550217628479 0.00053072161972522736 0
0 0.060836941003799438 6.4625460254319478e-06
0.0078127989545464516 0.060513336211442947 0.00085289153503254056
0.031994089484214783 0.0605316162109375 0.0026228213682770729
0.061979420483112335 0.062061503529548645 0.0045753777958452702
0.10134582221508026 0.061442356556653976 0.0041912603192031384
0.15755210816860199 0.054975531995296478 0.001340335002169013
0.2276955246925354 0.045175530016422272 9.6938192655215971e-06
0.30648958683013916 0.032806023955345154 0
0.39128434658050537 0.019643103703856468 0
0.48097598552703857 0.013166958466172218 0
0.57557171583175659 0.013663258403539658 0
0.6749197244644165 0.016666591167449951 0
0.78358554840087891 0.0236358642578125 0
0 0.091949820518493652 0
0.0033369774464517832 0.091666668653488159 0.00044706754852086306
0.026761986315250397 0.093516677618026733 0.0028029049281030893
0.060155488550662994 0.097158394753932953 0.0056382720358669758
0.10164579749107361 0.10005681961774826 0.0066063972190022469
0.15901727974414825 0.09668278694152832 0.0051776212640106678
0.2305976003408432 0.090343713760375977 0.0020761527121067047
0.31161147356033325 0.081847064197063446 0.00053233728976920247
0.40069794654846191 0.073118336498737335 0.00017359116463921964
0.49591943621635437 0.067489668726921082 9.1911766503471881e-05
0.59626370668411255 0.065792784094810486 0.00029494342743419111
0.70224291086196899 0.067551359534263611 0.00063255161512643099
0.81594693660736084 0.073544219136238098 0.00022804409672971815
0 0.1348717212677002 0
0.00037777470424771309 0.13610042631626129 9.8553828138392419e-05
0.017696874216198921 0.14069576561450958 0.0030207314994186163
0.053352043032646179 0.14833830296993256 0.0063952128402888775
0.098764009773731232 0.15487885475158691 0.0084621356800198555
0.15821170806884766 0.15678133070468903 0.0084277130663394928
0.23277027904987335 0.15445378422737122 0.0067527620121836662
0.31910184025764465 0.14985819160938263 0.0042770835570991039
0.41446408629417419 0.14534282684326172 0.0024751999881118536
0.51692312955856323 0.1414693146944046 0.0019350089132785797
0.624306321144104 0.13737784326076508 0.0030308743007481098
0.73733484745025635 0.1353587806224823 0.0038350273389369249
0.85635751485824585 0.13994137942790985 0.0033268649131059647
0 0.19203929603099823 0
0 0.19680678844451904 0
0.012608188204467297 0.20553256571292877 0.0024607190862298012
0.047273658215999603 0.2166794091463089 0.0066749420948326588
0.094777859747409821 0.2268528938293457 0.0094118155539035797
0.15663962066173553 0.23293869197368622 0.010372939519584179
0.23473815619945526 0.23364867269992828 0.0085086598992347717
0.32595264911651611 0.23161393404006958 0.006279665045440197
0.42711493372917175 0.22903615236282349 0.0041430303826928139
0.53626358509063721 0.22571611404418945 0.003413959639146924
0.65193957090377808 0.2210882306098938 0.0039099003188312054
0.77338260412216187 0.21799378097057343 0.0039215688593685627
0.89853751659393311 0.21978802978992462 0.0039215688593685627
0 0.26324832439422607 0
9.8404227173887193e-05 0.27270281314849854 0
0.013024677522480488 0.28608778119087219 0.0026843200903385878
0.04527614638209343 0.30020883679389954 0.0073671229183673859
0.09252435714006424 0.31282606720924377 0.0098992437124252319
0.15591175854206085 0.32121780514717102 0.010532229207456112
0.23581092059612274 0.32437258958816528 0.0079199550673365593
0.33040454983711243 0.32433363795280457 0.0045835757628083229
0.43533387780189514 0.3230309784412384 0.0024030199274420738
0.54999285936355591 0.32026109099388123 0.0025377161800861359
0.67380309104919434 0.31597104668617249 0.0039118449203670025
0.80471891164779663 0.31152206659317017 0.0039215688593685627
0.93728464841842651 0.31163761019706726 0.0038486404810100794
0 0.34675943851470947 1.8669577912078239e-05
0.0012661503860726953 0.3617343008518219 0.0015510559314861894
0.015055458061397076 0.37988340854644775 0.0051494822837412357
0.044200658798217773 0.39743280410766602 0.0086133917793631554
0.090185932815074921 0.41210046410560608 0.010375767014920712
0.1536116749048233 0.42217132449150085 0.0096538765355944633
0.23403392732143402 0.42740005254745483 0.0059042838402092457
0.32918199896812439 0.42904645204544067 0.0012401954736560583
0.43580520153045654 0.42914900183677673 0.00011058134259656072
0.55400729179382324 0.42767930030822754 0.00024437997490167618
0.68509596586227417 0.42314136028289795 0.0018239039927721024
0.82614994049072266 0.41747114062309265 0.0022031296975910664
0.96325212717056274 0.41522809863090515 0.001078871195204556
6.7677217884920537e-05 0.44528180360794067 0.0010986328125
0.002739147050306201 0.46462917327880859 0.0042218677699565887
0.014859637245535851 0.48695212602615356 0.0076994355767965317
0.041242770850658417 0.50758057832717896 0.010754813440144062
0.085165135562419891 0.52443075180053711 0.011345807462930679
0.14741306006908417 0.5360221266746521 0.0091553628444671631
0.22685858607292175 0.54295045137405396 0.0044222064316272736
0.32090160250663757 0.54654586315155029 0.00022744570742361248
0.4274316132068634 0.54837363958358765 0
0.54714608192443848 0.54790222644805908 0
0.68292331695556641 0.54346710443496704 0.00027401495026424527
0.83235424757003784 0.53633344173431396 0.00020380955538712442
0.97239017486572266 0.53164398670196533 0
2.3336971935350448e-05 0.56099426746368408 0.0002362419618293643
0.0016545015387237072 0.58234846591949463 0.0036531335208564997
0.011277083307504654 0.60705083608627319 0.0079753054305911064
0.03593793511390686 0.6300276517868042 0.011616411618888378
0.078432194888591766 0.64812934398651123 0.01146113034337759
0.13958017528057098 0.66075974702835083 0.0081576928496360779
0.21753862500190735 0.66906392574310303 0.0030101253651082516
0.309989333152771 0.67419201135635376 1.2566061741381418e-05
0.41490393877029419 0.67733019590377808 0
0.53355634212493896 0.67813372611999512 0
0.67033559083938599 0.67470592260360718 0
0.82406067848205566 0.66698372364044189 0
0.96946030855178833 0.66132843494415283 0
0 0.68923884630203247 0
0.00046207202831283212 0.71189552545547485 0.00059444952057674527
0.0076380111277103424 0.73732447624206543 0.0050920522771775723
0.031164819374680519 0.76095038652420044 0.0092637008056044579
0.072876900434494019 0.77970790863037109 0.0092987511307001114
0.13351407647132874 0.79276937246322632 0.0056900624185800552
0.21076391637325287 0.80148863792419434 0.00088465074077248573
0.3023286759853363 0.80732029676437378 0
0.40703615546226501 0.81113064289093018 0
0.52491742372512817 0.81262516975402832 0
0.66079986095428467 0.81002521514892578 0
0.81345903873443604 0.80334120988845825 0
0.962471604347229 0.79809361696243286 0
0 0.82470577955245972 0
0.00041500915540382266 0.84762090444564819 0
0.007309633307158947 0.8731732964515686 0.00060866115381941199
0.031197132542729378 0.89673870801925659 0.0038765850476920605
0.07323107123374939 0.91508382558822632 0.0043690400198101997
0.1338178813457489 0.92794966697692871 0.0011874180054292083
0.21081395447254181 0.93672728538513184 0
0.30213814973831177 0.94256877899169922 0
0.40743210911750793 0.9459196925163269 0
0.52648860216140747 0.94706284999847412 0
0.66128617525100708 0.94531714916229248 0
0.8092191219329834 0.94109010696411133 0
0.95763695240020752 0.93717503547668457 0
0.0049847173504531384 0.0018089743098244071 0.017856912687420845
0.020732026547193527 0.0036286148242652416 0.015849543735384941
0.041567243635654449 0.003171135438606143 0.015438513830304146
0.069554075598716736 0.0017944485880434513 0.013772777281701565
0.11045879125595093 0.00032988903694786131 0.011141369119286537
0.16976040601730347 0 0.0060246335342526436
0.24401850998401642 0 0.00087998335948213935
0.3267248272895813 0 0
0.41266697645187378 0 0
0.50102347135543823 0 0
0.59340614080429077 0 0.00045115154352970421
0.68988490104675293 0 0.002112220274284482
0.79071706533432007 0 0.00036094515235163271
0.0024935253895819187 0.017496325075626373 0.014301165007054806
0.017638741061091423 0.019192205742001534 0.014526830986142159
0.038974747061729431 0.018387049436569214 0.015542826615273952
0.066850818693637848 0.014492169953882694 0.014989591203629971
0.10796865075826645 0.0095559516921639442 0.011669069528579712
0.16586390137672424 0.0039436938241124153 0.0059403362683951855
0.23728042840957642 0.00095989753026515245 0.00064933625981211662
0.31718918681144714 0 0
0.40100952982902527 0 0
0.48766940832138062 0 0
0.57859134674072266 0 2.9919196009586813e-08
0.67459589242935181 0 7.4797986826524721e-07
0.77756136655807495 0 0
0.00079637416638433933 0.037579778581857681 0.011187026277184486
0.014410310424864292 0.038480393588542938 0.012744304724037647
0.036140322685241699 0.038181588053703308 0.015374291688203812
0.064186841249465942 0.035885561257600784 0.015811935067176819
0.10376600176095963 0.031391758471727371 0.012557968497276306
0.16081590950489044 0.023429661989212036 0.0063875233754515648
0.23140183091163635 0.014924995601177216 0.0006965487846173346
0.3101162314414978 0.0062064076773822308 0
0.39347493648529053 0.00090279674623161554 0
0.48063945770263672 1.4810000720899552e-05 0
0.57220876216888428 0 0
0.66968542337417603 2.6927275030175224e-05 0
0.77544224262237549 0.00093436148017644882 0
4.5596851123264059e-05 0.060503613203763962 0.0078128743916749954
0.010689514689147472 0.061498738825321198 0.010922016575932503
0.03453146293759346 0.06228230893611908 0.013856461271643639
0.062991276383399963 0.063107945024967194 0.015873134136199951
0.10164687037467957 0.061190258711576462 0.014714094810187817
0.15902590751647949 0.053588014096021652 0.0095055075362324715
0.22996750473976135 0.044889457523822784 0.00209833774715662
0.30922111868858337 0.034815873950719833 0.00023350435367319733
0.39459067583084106 0.024286637082695961 5.0354003178654239e-05
0.48482340574264526 0.018060870468616486 0
0.58011460304260254 0.016732728108763695 0
0.68124192953109741 0.018690669909119606 0
0.79067593812942505 0.024220036342740059 0
0 0.091666668653488159 0.0038516325876116753
0.0062273959629237652 0.09264788031578064 0.0076701147481799126
0.0311304721981287 0.095278047025203705 0.011980557814240456
0.06263916939496994 0.098629862070083618 0.015684643760323524
0.10243518650531769 0.10047945380210876 0.017440436407923698
0.16145679354667664 0.095456518232822418 0.016445564106106758
0.23358061909675598 0.089972071349620819 0.010875985957682133
0.31476250290870667 0.08424108475446701 0.0061114290729165077
0.40460172295570374 0.07723681628704071 0.0039900983683764935
0.50049394369125366 0.071764849126338959 0.0029009352438151836
0.60137718915939331 0.06873428076505661 0.0025291142519563437
0.70807409286499023 0.068465277552604675 0.0026549394242465496
0.82196915149688721 0.072842724621295929 0.0023262770846486092
0 0.13533614575862885 0.00058566825464367867
0.0020457548089325428 0.13863904774188995 0.0034907471854239702
0.022875139489769936 0.14387361705303192 0.0090934000909328461
0.055760476738214493 0.1508956104516983 0.014792334288358688
0.099179193377494812 0.15724538266658783 0.018965538591146469
0.15881022810935974 0.15875206887722015 0.020563282072544098
0.23522423207759857 0.15643589198589325 0.018943531438708305
0.32246440649032593 0.15329240262508392 0.015055188909173012
0.41891366243362427 0.14963133633136749 0.011222420260310173
0.52217334508895874 0.14519311487674713 0.0087525909766554832
0.63023489713668823 0.14008989930152893 0.008099888451397419
0.74341475963592529 0.13719485700130463 0.0077040879987180233
0.86223042011260986 0.13926613330841064 0.0068293404765427113
0 0.19405147433280945 0
0.00034490847610868514 0.20133914053440094 0.00041456034523434937
0.015832340344786644 0.21047201752662659 0.0056707942858338356
0.048552211374044418 0.22100856900215149 0.013001535087823868
0.094499357044696808 0.23118679225444794 0.018711509183049202
0.15591266751289368 0.2379128485918045 0.021634973585605621
0.23613223433494568 0.23856630921363831 0.022518502548336983
0.32969868183135986 0.23653557896614075 0.019139965996146202
0.43250226974487305 0.2337912917137146 0.014887970872223377
0.54257005453109741 0.22989217936992645 0.011651177890598774
0.65854865312576294 0.22421707212924957 0.010545424185693264
0.77962440252304077 0.21986851096153259 0.0093611627817153931
0.90420055389404297 0.21995621919631958 0.0082129836082458496
0 0.26641786098480225 0
0.00012654323654714972 0.2789294421672821 0
0.013010391965508461 0.29259017109870911 0.0039387722499668598
0.044675819575786591 0.30637931823730469 0.011997821740806103
0.091048702597618103 0.31861487030982971 0.018187355250120163
0.15526631474494934 0.32698997855186462 0.0212821364402771
0.2376672774553299 0.33017325401306152 0.021029768511652946
0.3344208300113678 0.32984122633934021 0.017451850697398186
0.44120845198631287 0.328226238489151 0.012967053800821304
0.55689400434494019 0.32501813769340515 0.0096494788303971291
0.68063050508499146 0.3199523389339447 0.0077763875015079975
0.81021732091903687 0.31492200493812561 0.0065250322222709656
0.94149267673492432 0.31355643272399902 0.0052520004101097584
0 0.35113856196403503 0
0.00062213971978053451 0.36829736828804016 0.00072337134042754769
0.011988531798124313 0.38718721270561218 0.0056298049166798592
0.040838651359081268 0.40463882684707642 0.012283609248697758
0.086887523531913757 0.41912752389907837 0.017346775159239769
0.15169942378997803 0.42911052703857422 0.018995143473148346
0.23460189998149872 0.43402409553527832 0.016713669523596764
0.33253985643386841 0.43515092134475708 0.011092451401054859
0.44150826334953308 0.4348277747631073 0.0063206390477716923
0.56099414825439453 0.43284156918525696 0.0036077462136745453
0.69164061546325684 0.42795759439468384 0.0019537534099072218
0.83034652471542358 0.42207711935043335 0.00097560510039329529
0.96465492248535156 0.41907662153244019 0.00036962173180654645
0 0.45039737224578857 0.00023176903778221458
0.00027750051231123507 0.47150534391403198 0.0036344639956951141
0.0092537077143788338 0.49500182271003723 0.0075451568700373173
0.03468385711312294 0.51622843742370605 0.01248245220631361
0.07878519594669342 0.533191978931427 0.015732917934656143
0.14261235296726227 0.54466712474822998 0.015233327634632587
0.22474649548530579 0.55102777481079102 0.011155102401971817
0.32212230563163757 0.55379968881607056 0.0048205205239355564
0.43192639946937561 0.55468004941940308 0.00089794979430735111
0.55400079488754272 0.55350363254547119 4.833445927943103e-05
0.68976783752441406 0.54880237579345703 0
0.83589857816696167 0.5420525074005127 0
0.97233355045318604 0.5375065803527832 0
0 0.5660521388053894 2.5132123482762836e-05
1.6455556988148601e-06 0.58996039628982544 0.0020228216890245676
0.0033532236702740192 0.6166536808013916 0.0067199855111539364
0.025238322094082832 0.64087718725204468 0.011449507437646389
0.067737385630607605 0.65924632549285889 0.012839283794164658
0.13050003349781036 0.67148387432098389 0.011043773032724857
0.21177887916564941 0.67871689796447754 0.0056739808060228825
0.308023601770401 0.68281358480453491 0.00061937217833474278
0.41735577583312988 0.68468087911605835 0
0.54000157117843628 0.68426632881164551 0
0.67803466320037842 0.67977809906005859 0
0.82826966047286987 0.67281204462051392 0
0.9701608419418335 0.66721904277801514 0
0 0.69486802816390991 0
0 0.72078138589859009 5.3151448810240254e-05
0.00039301853394135833 0.74925512075424194 0.0030887529719620943
0.015583845786750317 0.77504169940948486 0.0091332979500293732
0.057591952383518219 0.79377436637878418 0.010232079774141312
0.12034782022237778 0.80572801828384399 0.0062386607751250267
0.20098535716533661 0.81312543153762817 0.0010203642304986715
0.29650083184242249 0.81747817993164062 0
0.40553158521652222 0.81964725255966187 0
0.52835553884506226 0.81962716579437256 0
0.66633659601211548 0.81591552495956421 0
0.8166930079460144 0.80958759784698486 0
0.9637836217880249 0.80404132604598999 0
0 0.83125442266464233 0
0 0.85764032602310181 0
0.00015353034541476518 0.88669580221176147 0.00023594275990035385
0.012218176387250423 0.91260123252868652 0.0037051630206406116
0.053938593715429306 0.93094813823699951 0.0045241862535476685
0.11696755141019821 0.94216388463973999 0.0010178808588534594
0.19713583588600159 0.94863700866699219 0
0.2921907901763916 0.95219850540161133 0
0.40119057893753052 0.95424759387969971 0
0.52443426847457886 0.95408338308334351 0
0.6611095666885376 0.95154011249542236 0
0.80911850929260254 0.94739317893981934 0
0.95726317167282104 0.94324588775634766 0
0.0056428350508213043 0.0019474403234198689 0.035888642072677612
0.019987756386399269 0.004491723608225584 0.033920947462320328
0.040863245725631714 0.0043700425885617733 0.031108362600207329
0.071258321404457092 0.0020566005259752274 0.030054355040192604
0.11473702639341354 0.00019531250291038305 0.02494182251393795
0.17348910868167877 0 0.01674581877887249
0.24493789672851562 0 0.0062512713484466076
0.32554462552070618 0 0.00015414369408972561
0.41157510876655579 0 0
0.5019800066947937 0 0
0.59740644693374634 0 7.7789906072212034e-07
0.69598221778869629 0 0.00020400402718223631
0.79618501663208008 0 0
0.0036117702256888151 0.017085401341319084 0.033495765179395676
0.018328139558434486 0.019640246406197548 0.034079890698194504
0.039229791611433029 0.019029431045055389 0.034222081303596497
0.068822093307971954 0.014658834785223007 0.031798031181097031
0.11124756932258606 0.0087378406897187233 0.026585627347230911
0.16878443956375122 0.0028409322258085012 0.017634851858019829
0.23873533308506012 0.00028375364490784705 0.0072823320515453815
0.31769120693206787 0 0.00047682219883427024
0.40158951282501221 0 0
0.48937094211578369 0 0
0.58272075653076172 0 0
0.68094229698181152 0 0
0.78450340032577515 0 0
0.0018424688605591655 0.037223890423774719 0.029866445809602737
0.015477468259632587 0.038631036877632141 0.032424956560134888
0.037159580737352371 0.039031501859426498 0.034357722848653793
0.066349312663078308 0.036456357687711716 0.033435449004173279
0.10712352395057678 0.030624674633145332 0.02857462503015995
0.16414998471736908 0.021735351532697678 0.019948877394199371
0.23443351686000824 0.012685543857514858 0.0097078811377286911
0.31299281120300293 0.0051075955852866173 0.0023969763424247503
0.39622622728347778 0.0015401353593915701 6.2531114963348955e-05
0.48359599709510803 0.00048349416465498507 0
0.57656478881835938 0.00034466912620700896 0
0.67660725116729736 0.00055455224355682731 0
0.78393411636352539 0.0018827251624315977 0
0.00060273712733760476 0.060652580112218857 0.024722618982195854
0.013370214961469173 0.062591016292572021 0.028589121997356415
0.035452075302600861 0.064768411219120026 0.031034117564558983
0.063555985689163208 0.065764486789703369 0.031399566680192947
0.1037755012512207 0.061601735651493073 0.030821288004517555
0.16201667487621307 0.052684035152196884 0.025268718600273132
0.23361846804618835 0.043634932488203049 0.015848122537136078
0.31352785229682922 0.035483162850141525 0.0084370328113436699
0.39903628826141357 0.028046013787388802 0.0035892562009394169
0.4895990788936615 0.023185010999441147 0.0010045518865808845
0.58573728799819946 0.021424446254968643 0.00039756624028086662
0.68882054090499878 0.022263830527663231 0.00043466605711728334
0.79953670501708984 0.02673104964196682 0.00043466605711728334
1.6515396055183373e-05 0.091851390898227692 0.017521427944302559
0.0093862349167466164 0.094680041074752808 0.02219734899699688
0.03247649222612381 0.097952902317047119 0.026906689628958702
0.062219180166721344 0.10161499679088593 0.030892569571733475
0.10340936481952667 0.1013430580496788 0.034374400973320007
0.16289253532886505 0.095833569765090942 0.033407937735319138
0.23651890456676483 0.090954720973968506 0.027772866189479828
0.31938385963439941 0.087122641503810883 0.020844597369432449
0.40973430871963501 0.081817388534545898 0.015231188386678696
0.50629144906997681 0.076684318482875824 0.011254763230681419
0.60819363594055176 0.072790168225765228 0.0095216790214180946
0.71605730056762695 0.071603484451770782 0.0091558117419481277
0.83048719167709351 0.074725449085235596 0.0082987621426582336
0 0.13694079220294952 0.0090437047183513641
0.0049159331247210503 0.1415352076292038 0.013929673470556736
0.026551101356744766 0.14700977504253387 0.021027239039540291
0.057859890162944794 0.15390591323375702 0.028336558490991592
0.10086838901042938 0.15889601409435272 0.034449260681867599
0.16167682409286499 0.1595383882522583 0.038549058139324188
0.23878680169582367 0.15930794179439545 0.037871029227972031
0.32709786295890808 0.15834052860736847 0.033183932304382324
0.42459967732429504 0.15477383136749268 0.027037167921662331
0.52857017517089844 0.14948394894599915 0.022337311878800392
0.63763284683227539 0.1440398246049881 0.020095495507121086
0.75138002634048462 0.14053885638713837 0.018807759508490562
0.87003964185714722 0.14134208858013153 0.016942312940955162
0 0.19725805521011353 0.0021224077790975571
0.0019700892735272646 0.20619238913059235 0.0055160671472549438
0.020156336948275566 0.21557696163654327 0.014160126447677612
0.051687575876712799 0.2253890186548233 0.024354014545679092
0.097078345715999603 0.23473961651325226 0.032987453043460846
0.16024081408977509 0.24120278656482697 0.039116907864809036
0.24100565910339355 0.24336965382099152 0.042291902005672455
0.33528369665145874 0.24286428093910217 0.0394783616065979
0.4391939640045166 0.24000009894371033 0.033049341291189194
0.54996263980865479 0.23518741130828857 0.027179598808288574
0.66642385721206665 0.22921435534954071 0.023134881630539894
0.78723937273025513 0.22434289753437042 0.021375887095928192
0.91118890047073364 0.22317786514759064 0.018880672752857208
0 0.27133181691169739 0.00051161821465939283
0.00098405720200389624 0.2857954204082489 0.0015967425424605608
0.016179611906409264 0.29933109879493713 0.0099553130567073822
0.046804271638393402 0.31208342313766479 0.02162405289709568
0.093579761683940887 0.32403889298439026 0.03141358494758606
