assets/lut/shamoonabbasi turkiest 42.cube
# Created by: G'MIC (https://gmic.eu)
TITLE "turkiest_42"
# LUT size
LUT_3D_SIZE 7
# Data domain
DOMAIN_MIN 0.0 0.0 0.0
DOMAIN_MAX 1.0 1.0 1.0
# LUT data points
0.0029077716171741486 0.0042953342199325562 0.0031985114328563213
0.0067242938093841076 0.0072147892788052559 0.0058557996526360512
0.016948206350207329 0.019875485450029373 0.011174788698554039
0.10733545571565628 0.048869892954826355 0.01224905252456665
0.68632709980010986 0.0013314191019162536 0
0.97965550422668457 0 0.0051989834755659103
0.99967330694198608 0 0.044187042862176895
0.0083791101351380348 0.021953178569674492 0.012738799676299095
0.011589514091610909 0.030399531126022339 0.012461762875318527
0.049519199877977371 0.061750881373882294 0.014750701375305653
0.35970667004585266 0.025853250175714493 0.0017869388684630394
0.83416098356246948 0.00027106789639219642 0
0.99467182159423828 7.4797985689656343e-06 0.012276354245841503
0.99985569715499878 0.00099877745378762484 0.052649389952421188
3.7339155824156478e-05 0.19749933481216431 0.0088669126853346825
0.0095451949164271355 0.20604127645492554 0.0030680936761200428
0.16072849929332733 0.19158273935317993 0.0017764969961717725
0.4566914439201355 0.14255529642105103 0
0.7638888955116272 0.083533301949501038 0
0.98192709684371948 0.031076019629836082 0.0022327497135847807
0.99990808963775635 0.038633234798908234 0.023451052606105804
0.0022513146977871656 0.33679145574569702 0.0053398581221699715
0.039794459939002991 0.35419628024101257 0.0027954401448369026
0.2280069887638092 0.33990812301635742 0.00018128039664588869
0.45710054039955139 0.31640976667404175 0
0.71259504556655884 0.27862280607223511 0
0.93785160779953003 0.24310477077960968 0
0.99954938888549805 0.25150799751281738 0.0011642157332971692
0.080474480986595154 0.50739973783493042 0
0.1253272145986557 0.52056002616882324 3.0517578125e-05
0.27882984280586243 0.51998621225357056 0.0001919017086038366
0.48182934522628784 0.51551663875579834 0
0.69492685794830322 0.50595450401306152 0
0.89332038164138794 0.49128457903862 0
0.99381029605865479 0.49113038182258606 0
0.19702751934528351 0.71836453676223755 0
0.27217060327529907 0.73363310098648071 0
0.38532313704490662 0.73875141143798828 0
0.53852874040603638 0.7424544095993042 0
0.67366898059844971 0.73777669668197632 0
0.8600541353225708 0.72494637966156006 0
0.992653489112854 0.70620417594909668 0.0023568696342408657
0.50283956527709961 0.93351274728775024 0
0.53304773569107056 0.93880075216293335 0
0.56980890035629272 0.93767803907394409 0
0.68000394105911255 0.93895101547241211 0
0.78950673341751099 0.93034565448760986 0
0.90173095464706421 0.91268467903137207 0
0.99520713090896606 0.90153753757476807 0.035103246569633484
0.0040527940727770329 0.0067172781564295292 0.0060633043758571148
0.003767604473978281 0.0049406015314161777 0.004302335437387228
0.020517969503998756 0.028302451595664024 0.025070773437619209
0.14470182359218597 0.042445972561836243 0.023712711408734322
0.70356863737106323 0.00018047257617581636 0.010695528239011765
0.97915244102478027 0 0.0061067170463502407
1 0 0.04790249839425087
0.0080263325944542885 0.025888046249747276 0.017419224604964256
0.0078328298404812813 0.045382015407085419 0.029275961220264435
0.065488316118717194 0.071362800896167755 0.047491110861301422
0.42162203788757324 0.029230348765850067 0.041928265243768692
0.81436115503311157 0.0023107042070478201 0.028229059651494026
0.99224305152893066 3.3659092878224328e-05 0.020122334361076355
1 0.0016685485607013106 0.042086821049451828
0 0.20106218755245209 0.049447633326053619
0.0051375445909798145 0.21380670368671417 0.057062067091464996
0.14369331300258636 0.19947056472301483 0.05219307541847229
0.44337621331214905 0.15267251431941986 0.027175290510058403
0.75599884986877441 0.085012726485729218 0.016058828681707382
0.97446465492248535 0.026557203382253647 0.012385319918394089
0.99975907802581787 0.085436634719371796 0.037471771240234375
0.0071212318725883961 0.34508618712425232 0.049101512879133224
0.027541650459170341 0.35779961943626404 0.047319434583187103
0.20474472641944885 0.34176132082939148 0.047962203621864319
0.44414159655570984 0.32505342364311218 0.023851625621318817
0.70142835378646851 0.29219251871109009 0.011173682287335396
0.93535000085830688 0.25317448377609253 0.0029027003329247236
0.99915927648544312 0.26310577988624573 0.01143990270793438
0.077218040823936462 0.51130551099777222 0.025802074000239372
0.11630608141422272 0.5287049412727356 0.023553242906928062
0.27340021729469299 0.5276380181312561 0.025145811960101128
0.46161377429962158 0.52300888299942017 0.011682547628879547
0.67960011959075928 0.51220810413360596 0.0073371138423681259
0.89236056804656982 0.50154441595077515 0.0090283267199993134
0.99478530883789062 0.49664634466171265 0.0023221783339977264
0.18521986901760101 0.71959817409515381 0.0047180177643895149
0.23897665739059448 0.74375563859939575 0.0059355492703616619
0.34474998712539673 0.74650305509567261 0.0095467362552881241
0.48773038387298584 0.75040352344512939 0.012173297815024853
0.66227489709854126 0.74510419368743896 0.0035869074054062366
0.85188120603561401 0.7310645580291748 0.0042813620530068874
0.98746508359909058 0.70685917139053345 0.0036009843461215496
0.39637574553489685 0.92870044708251953 0.00038871017750352621
0.38346835970878601 0.92519313097000122 0
0.5238766074180603 0.93639564514160156 0
0.66181313991546631 0.93839675188064575 0.00036615110002458096
0.79006791114807129 0.93118250370025635 0
0.9061463475227356 0.91710609197616577 3.8894954741408583e-06
0.99370658397674561 0.89934331178665161 0.037828631699085236
0.0057680914178490639 0.0079455506056547165 0.0079634422436356544
0.0082851480692625046 0.01071605272591114 0.0096241822466254234
0.019637523218989372 0.03510163351893425 0.047288782894611359
0.17082718014717102 0.041208948940038681 0.11257168650627136
0.66453838348388672 0.00023085650173015893 0.14333680272102356
0.95652776956558228 0 0.11836772412061691
0.99908697605133057 0 0.13383574783802032
0.0078198304399847984 0.039708860218524933 0.039978791028261185
0.0079923290759325027 0.06461557000875473 0.071531511843204498
0.060759302228689194 0.08233749121427536 0.13343891501426697
0.32713228464126587 0.045650586485862732 0.17811086773872375
0.72020924091339111 0.0057783839292824268 0.1871226578950882
0.96674871444702148 0 0.15927307307720184
0.99617171287536621 0.0026288649532943964 0.18092763423919678
0 0.21277874708175659 0.15795263648033142
0.0011290156980976462 0.22494864463806152 0.17891392111778259
0.069751858711242676 0.21457450091838837 0.19899715483188629
0.39711850881576538 0.16623987257480621 0.17082124948501587
0.71767795085906982 0.083822347223758698 0.15024368464946747
0.9558638334274292 0.04828522726893425 0.13132156431674957
0.99769324064254761 0.019581453874707222 0.15281744301319122
0.003476056968793273 0.35034185647964478 0.17102189362049103
0.013927758671343327 0.35440614819526672 0.18358670175075531
0.18846268951892853 0.34788638353347778 0.18285399675369263
0.40613758563995361 0.33593535423278809 0.17004898190498352
0.67764431238174438 0.30673989653587341 0.13453173637390137
0.9202272891998291 0.26975619792938232 0.11234304308891296
0.99754887819290161 0.27319857478141785 0.11783958971500397
0.05152352899312973 0.51831901073455811 0.16168537735939026
0.072962939739227295 0.54237085580825806 0.18159307539463043
0.23930597305297852 0.53544777631759644 0.17841210961341858
0.42410182952880859 0.53495407104492188 0.16645863652229309
0.64881211519241333 0.52411192655563354 0.14474864304065704
0.87468874454498291 0.51387417316436768 0.10252996534109116
0.99367028474807739 0.50900423526763916 0.086425185203552246
0.14230495691299438 0.73089063167572021 0.13689005374908447
0.1711362898349762 0.75364315509796143 0.14769893884658813
0.26720613241195679 0.74805855751037598 0.14109374582767487
0.43584164977073669 0.75787371397018433 0.14667585492134094
0.62300229072570801 0.74601173400878906 0.12194064259529114
0.82617276906967163 0.72608280181884766 0.075009286403656006
0.9875369668006897 0.70134210586547852 0.028635332360863686
0.088772594928741455 0.91248238086700439 0.035295657813549042
0.049117818474769592 0.91895776987075806 0.025057654827833176
0.15578737854957581 0.91856586933135986 0.017566351220011711
0.35407841205596924 0.91496938467025757 0.015816498547792435
0.56089150905609131 0.89469212293624878 0.012168390676379204
0.85393530130386353 0.90650194883346558 0.0038787990342825651
0.98831623792648315 0.89945918321609497 0.037170290946960449
0.010793409310281277 0.02436097152531147 0.0272369384765625
0.011443343944847584 0.023269698023796082 0.027171056717634201
0.019601963460445404 0.045668791979551315 0.082271113991737366
0.1881750077009201 0.048909354954957962 0.21704411506652832
0.47862330079078674 0.013040295802056789 0.28920450806617737
0.81596654653549194 0 0.3157464861869812
0.99396902322769165 0 0.31870168447494507
0.0044356253929436207 0.063024528324604034 0.090749524533748627
0.0035574070643633604 0.084767721593379974 0.14206607639789581
0.047030624002218246 0.10092468559741974 0.24352064728736877
0.288056880235672 0.074616149067878723 0.31485253572463989
0.55024814605712891 0.023856757208704948 0.34867697954177856
0.85634982585906982 0.0028974495362490416 0.36555123329162598
0.98820334672927856 0.0039719822816550732 0.38854578137397766
0 0.22788457572460175 0.30331778526306152
9.7716088930610567e-05 0.24429401755332947 0.33436214923858643
0.0065271113999187946 0.24423569440841675 0.35462778806686401
0.27045989036560059 0.20053285360336304 0.33587554097175598
0.58235615491867065 0.13938473165035248 0.35307452082633972
0.87729561328887939 0.075515866279602051 0.35616910457611084
0.98753875494003296 0.065013334155082703 0.36309018731117249
0.0012519238516688347 0.3575805127620697 0.32397067546844482
0.0048410603776574135 0.36864703893661499 0.33968347311019897
0.071989975869655609 0.37376037240028381 0.38666772842407227
0.18040519952774048 0.37010177969932556 0.39673945307731628
0.62221348285675049 0.31568992137908936 0.33934056758880615
0.89661085605621338 0.27419865131378174 0.3160226047039032
0.99403387308120728 0.27520290017127991 0.31398695707321167
0.044794823974370956 0.53253448009490967 0.32205879688262939
0.093047171831130981 0.54662549495697021 0.3407667875289917
0.23151949048042297 0.5391499400138855 0.3401373028755188
0.39955329895019531 0.54120373725891113 0.34853082895278931
0.61571222543716431 0.53601092100143433 0.33989214897155762
0.86599355936050415 0.52565288543701172 0.29370543360710144
0.99585425853729248 0.5148511528968811 0.26992061734199524
0.11755402386188507 0.74242770671844482 0.3355216383934021
0.16042831540107727 0.74644708633422852 0.34084358811378479
0.26125860214233398 0.74973827600479126 0.34839525818824768
0.40390941500663757 0.75058150291442871 0.34729215502738953
0.59197753667831421 0.74674504995346069 0.34274238348007202
0.80072236061096191 0.72806161642074585 0.29267048835754395
0.99184161424636841 0.69753545522689819 0.21471506357192993
0.017705401405692101 0.9045836329460144 0.24109798669815063
0.0427817702293396 0.9033779501914978 0.28438696265220642
0.038851059973239899 0.90798658132553101 0.26824131608009338
0.24482981860637665 0.89556080102920532 0.25929045677185059
0.46169564127922058 0.88686943054199219 0.207588791847229
0.68403565883636475 0.87629097700119019 0.092103175818920135
0.97521102428436279 0.88509416580200195 0.060002990067005157
0.00043263155384920537 0.059064812958240509 0.12950259447097778
0.0011870739981532097 0.057910889387130737 0.12450598925352097
0.014040748588740826 0.06558680534362793 0.22520744800567627
0.18488426506519318 0.058165337890386581 0.4056706428527832
0.42766141891479492 0.027968088164925575 0.47626006603240967
0.66515737771987915 0.0019708969630300999 0.49711495637893677
0.95222699642181396 0 0.54583793878555298
0 0.094898983836174011 0.24552196264266968
0 0.10919436067342758 0.32397845387458801
0.028582030907273293 0.11489461362361908 0.4346068799495697
0.22942225635051727 0.095487959682941437 0.51720857620239258
0.48058018088340759 0.063921786844730377 0.55227702856063843
0.71584701538085938 0.02057463675737381 0.56453710794448853
0.95808464288711548 0.0039178435690701008 0.58977800607681274
0 0.2405334860086441 0.48164170980453491
0 0.26177215576171875 0.51618462800979614
0.0027312035672366619 0.26673278212547302 0.53982245922088623
0.067939594388008118 0.26419958472251892 0.55561894178390503
0.48701202869415283 0.18990518152713776 0.55517274141311646
0.73605602979660034 0.15077206492424011 0.58273828029632568
0.95375180244445801 0.092555008828639984 0.5978550910949707
0 0.41375458240509033 0.60791730880737305
0 0.43388989567756653 0.63307195901870728
0.0050542345270514488 0.43714624643325806 0.63580316305160522
0.015517335385084152 0.44706776738166809 0.63629984855651855
0.45844709873199463 0.36052080988883972 0.57691353559494019
0.77718085050582886 0.32488858699798584 0.5929485559463501
0.97292405366897583 0.29175132513046265 0.60899138450622559
0.0034276924561709166 0.55181330442428589 0.55870193243026733
0.01305414829403162 0.57136523723602295 0.57841455936431885
0.092817343771457672 0.57894879579544067 0.6148601770401001
0.086064808070659637 0.59527772665023804 0.67334437370300293
0.21677602827548981 0.60242533683776855 0.67096436023712158
0.80094659328460693 0.53499424457550049 0.585976243019104
0.99168670177459717 0.50216054916381836 0.57909196615219116
0.093580968677997589 0.7354511022567749 0.5258362889289856
0.13050857186317444 0.74760222434997559 0.53804856538772583
0.23911583423614502 0.75002729892730713 0.54987114667892456
0.38006466627120972 0.75337541103363037 0.56345993280410767
0.55793243646621704 0.75069206953048706 0.56799697875976562
0.76283037662506104 0.73240745067596436 0.54231446981430054
0.97616684436798096 0.68561452627182007 0.45321595668792725
0.013679489493370056 0.89476042985916138 0.47280174493789673
0.017282867804169655 0.89705318212509155 0.49137458205223083
0.017041658982634544 0.89796948432922363 0.4879482090473175
0.10946514457464218 0.89383316040039062 0.47908899188041687
0.38777652382850647 0.88064301013946533 0.45944315195083618
0.62212175130844116 0.86263424158096313 0.41245919466018677
0.9045068621635437 0.84721994400024414 0.29801777005195618
0 0.07861810177564621 0.41749635338783264
0 0.07999342679977417 0.43126598000526428
0.00072008022107183933 0.081859126687049866 0.53589081764221191
0.08126349002122879 0.080023519694805145 0.68428492546081543
0.31751635670661926 0.063218735158443451 0.73728293180465698
0.59567594528198242 0.031519226729869843 0.75341975688934326
0.86058366298675537 0.0010790057713165879 0.75967526435852051
0 0.11149347573518753 0.61726289987564087
0 0.12268377840518951 0.68872910737991333
0.0020465776324272156 0.12038816511631012 0.74253720045089722
0.069406010210514069 0.11470993608236313 0.77376550436019897
0.36038494110107422 0.11187189072370529 0.80189603567123413
0.63680964708328247 0.071771688759326935 0.81379646062850952
0.88816338777542114 0.0075238244608044624 0.79979473352432251
0 0.24135519564151764 0.73987269401550293
0 0.2543436586856842 0.77397304773330688
0.0007115383050404489 0.24470905959606171 0.75994235277175903
0.074256196618080139 0.23673248291015625 0.78466236591339111
0.36708313226699829 0.23028050363063812 0.79692274332046509
0.63698935508728027 0.20903843641281128 0.81467092037200928
0.90279346704483032 0.14828287065029144 0.82643848657608032
0 0.39034056663513184 0.75995337963104248
0 0.40558913350105286 0.78940421342849731
0 0.40348583459854126 0.78166764974594116
0.05707385390996933 0.41039812564849854 0.80595332384109497
0.25571510195732117 0.42764395475387573 0.83309638500213623
0.64417511224746704 0.37808898091316223 0.83272272348403931
0.91762262582778931 0.35492506623268127 0.83369559049606323
0 0.5969313383102417 0.8258633017539978
5.9838389461219776e-06 0.6051819920539856 0.8330804705619812
0.00066042132675647736 0.60657286643981934 0.83562666177749634
0.014218094758689404 0.62783277034759521 0.85044723749160767
0.19614267349243164 0.63786131143569946 0.85462594032287598
0.31519001722335815 0.64058959484100342 0.85518491268157959
0.90461033582687378 0.53708565235137939 0.83401751518249512
0.0013006322551518679 0.76418435573577881 0.81762087345123291
0.0040033678524196148 0.77797561883926392 0.82328993082046509
0.016263684257864952 0.78102844953536987 0.8318171501159668
0.038529131561517715 0.7815055251121521 0.84165769815444946
0.10075946897268295 0.78266680240631104 0.84565776586532593
0.39078259468078613 0.76874011754989624 0.83165711164474487
0.88210016489028931 0.67481476068496704 0.80050384998321533
0.00064716715132817626 0.88686525821685791 0.69280362129211426
0.00078449625289067626 0.88401180505752563 0.72426891326904297
0.00282262172549963 0.88673305511474609 0.73764914274215698
0.029029741883277893 0.87915313243865967 0.73401415348052979
0.19311502575874329 0.86634927988052368 0.73217332363128662
0.55630850791931152 0.84899425506591797 0.71821486949920654
0.88741046190261841 0.86062604188919067 0.7693820595741272
0 0.084206074476242065 0.6588248610496521
0 0.086787126958370209 0.67439848184585571
0.00098229199647903442 0.086455956101417542 0.73168963193893433
0.023180687800049782 0.089264154434204102 0.8291316032409668
0.22421674430370331 0.08837573230266571 0.86506599187850952
0.5273737907409668 0.070699058473110199 0.87960231304168701
0.81926268339157104 0.0048075658269226551 0.89292186498641968
0 0.11021716892719269 0.73311012983322144
0 0.12340237200260162 0.77693164348602295
0.00061045627808198333 0.11351406574249268 0.80658113956451416
0.040631327778100967 0.11775611340999603 0.84940236806869507
0.32763820886611938 0.12633179128170013 0.86781984567642212
0.62241053581237793 0.083338372409343719 0.88384485244750977
0.85640329122543335 0.0066798641346395016 0.89411765336990356
0 0.24306555092334747 0.82473337650299072
0 0.25789052248001099 0.82611382007598877
0.002642074367031455 0.2508130669593811 0.83761906623840332
0.10731172561645508 0.24401620030403137 0.84477561712265015
0.32645148038864136 0.24415920674800873 0.86379587650299072
0.61306297779083252 0.22248098254203796 0.88524287939071655
0.88511663675308228 0.16252836585044861 0.8965531587600708
0 0.40814542770385742 0.84006232023239136
0 0.42288956046104431 0.83876574039459229
0.0017297184094786644 0.40815195441246033 0.84242630004882812
0.088796533644199371 0.40215998888015747 0.85302567481994629
0.33682653307914734 0.40062803030014038 0.86841851472854614
0.61151140928268433 0.3951205313205719 0.88705247640609741
0.90356671810150146 0.36134690046310425 0.90094423294067383
0 0.5770760178565979 0.84915673732757568
0 0.59522730112075806 0.85072332620620728
1.2446384971553925e-05 0.59394025802612305 0.85426384210586548
0.03417612612247467 0.59583538770675659 0.86334693431854248
0.3494509756565094 0.60164016485214233 0.87400275468826294
0.22500978410243988 0.65667450428009033 0.88342821598052979
0.88173145055770874 0.54713141918182373 0.89100515842437744
0 0.75627011060714722 0.85167425870895386
0 0.77168363332748413 0.83908605575561523
0 0.76829445362091064 0.8458288311958313
0.0059903464280068874 0.77636468410491943 0.86557328701019287
0.069787763059139252 0.78581827878952026 0.87046879529953003
0.24479658901691437 0.77334165573120117 0.86245971918106079
0.84180349111557007 0.67819482088088989 0.85374623537063599
0 0.88554155826568604 0.78920060396194458
0 0.88754314184188843 0.78680664300918579
0 0.88626879453659058 0.78470659255981445
0.00011901855759788305 0.88063448667526245 0.78220611810684204
0.13027793169021606 0.87049514055252075 0.77451598644256592
0.51773542165756226 0.85922706127166748 0.77271276712417603
0.86826425790786743 0.86243855953216553 0.82096296548843384
