assets/lut/shamoonabbasi turkiest 42.cube
# Created by: G'MIC (https://gmic.eu)
TITLE "turkiest_42"
# LUT size
LUT_3D_SIZE 13
# Data domain
DOMAIN_MIN 0.0 0.0 0.0
DOMAIN_MAX 1.0 1.0 1.0
# LUT data points
0.0029077716171741486 0.0042953342199325562 0.0031985114328563213
0.0042922375723719597 0.005597731564193964 0.0042577856220304966
0.0067242938093841076 0.0072147892788052559 0.0058557996526360512
0.0081688230857253075 0.0085569946095347404 0.0078263524919748306
0.016948206350207329 0.019875485450029373 0.011174788698554039
0.031331319361925125 0.039069022983312607 0.016450559720396996
0.10733545571565628 0.048869892954826355 0.01224905252456665
0.3657832145690918 0.024356422945857048 0.003249194473028183
0.68632709980010986 0.0013314191019162536 0
0.90136861801147461 0 5.834242983837612e-05
0.97965550422668457 0 0.0051989834755659103
0.99375641345977783 0 0.01886800117790699
0.99967330694198608 0 0.044187042862176895
0.0060168099589645863 0.010458598844707012 0.0077155469916760921
0.0073028714396059513 0.011497677303850651 0.0082289306446909904
0.0087378555908799171 0.012447596527636051 0.0095397047698497772
0.011269259266555309 0.01254984550178051 0.010156519711017609
0.026322368532419205 0.030373936519026756 0.013822293840348721
0.075090698897838593 0.048231445252895355 0.013664484955370426
0.27039262652397156 0.028739944100379944 0.0048693637363612652
0.57324826717376709 0.0062259151600301266 0.00062299240380525589
0.82313317060470581 0.00036615110002458096 0
0.94959443807601929 0 0.00018328498117625713
0.99270766973495483 0 0.011052374728024006
0.99546152353286743 0 0.029477452859282494
0.99926918745040894 0 0.049430415034294128
0.0083791101351380348 0.021953178569674492 0.012738799676299095
0.0091890972107648849 0.026555243879556656 0.011223512701690197
0.011589514091610909 0.030399531126022339 0.012461762875318527
0.019294813275337219 0.044244550168514252 0.014276796020567417
0.049519199877977371 0.061750881373882294 0.014750701375305653
0.14176987111568451 0.06442578136920929 0.0086706271395087242
0.35970667004585266 0.025853250175714493 0.0017869388684630394
0.62810432910919189 0.0036076863761991262 0
0.83416098356246948 0.00027106789639219642 0
0.95245647430419922 0 0.00027483771555125713
0.99467182159423828 7.4797985689656343e-06 0.012276354245841503
0.99638807773590088 0.00016934264567680657 0.033268213272094727
0.99985569715499878 0.00099877745378762484 0.052649389952421188
0.0035194994416087866 0.097022682428359985 0.016819104552268982
0.0064269718714058399 0.11066366732120514 0.0090137859806418419
0.0090492395684123039 0.11767207086086273 0.0088362898677587509
0.027384275570511818 0.12412990629673004 0.010756922885775566
0.11457701772451401 0.12483806163072586 0.0064658820629119873
0.25439441204071045 0.10682157427072525 0.0018521626479923725
0.43573230504989624 0.065310470759868622 0.00021404190920293331
0.63421231508255005 0.032438717782497406 0
0.80757248401641846 0.019676972180604935 0
0.92656934261322021 0.0061435475945472717 6.0541489801835269e-05
0.98876237869262695 0.0023289399687200785 0.008149225264787674
0.9963148832321167 0.0077888187952339649 0.025723820552229881
1 0.016494974493980408 0.039907895028591156
3.7339155824156478e-05 0.19749933481216431 0.0088669126853346825
0.0027281069196760654 0.20334145426750183 0.0034409018699079752
0.0095451949164271355 0.20604127645492554 0.0030680936761200428
0.040834464132785797 0.20100842416286469 0.0034576416946947575
0.16072849929332733 0.19158273935317993 0.0017764969961717725
0.30416536331176758 0.17274469137191772 0
0.4566914439201355 0.14255529642105103 0
0.61032086610794067 0.10787788778543472 0
0.7638888955116272 0.083533301949501038 0
0.89204484224319458 0.053190149366855621 0
0.98192709684371948 0.031076019629836082 0.0022327497135847807
0.99555099010467529 0.033768747001886368 0.012244610115885735
0.99990808963775635 0.038633234798908234 0.023451052606105804
0.00035249299253337085 0.27431383728981018 0.0063657122664153576
0.0053278603591024876 0.28002923727035522 0.003092537634074688
0.019573047757148743 0.2804909348487854 0.002175499452278018
0.07104937732219696 0.27341848611831665 0.003328600199893117
0.19664536416530609 0.26271384954452515 0.0015538084553554654
0.32613867521286011 0.24646976590156555 0
0.45459625124931335 0.22679081559181213 0
0.59589725732803345 0.20269101858139038 0
0.73649418354034424 0.17639033496379852 0
0.85943353176116943 0.15339688956737518 0
0.95806431770324707 0.13440090417861938 0.00014901254326105118
0.99137145280838013 0.12664832174777985 0.0044388268142938614
0.99931371212005615 0.11349114775657654 0.010621059685945511
0.0022513146977871656 0.33679145574569702 0.0053398581221699715
0.0082158111035823822 0.35372817516326904 0.0034686517901718616
0.039794459939002991 0.35419628024101257 0.0027954401448369026
0.11765474826097488 0.34872126579284668 0.0018982082838192582
0.2280069887638092 0.33990812301635742 0.00018128039664588869
0.3418927788734436 0.32764127850532532 0
0.45710054039955139 0.31640976667404175 0
0.58636164665222168 0.29553240537643433 0
0.71259504556655884 0.27862280607223511 0
0.83179092407226562 0.26332288980484009 0
0.93785160779953003 0.24310477077960968 0
0.9850425124168396 0.24641047418117523 0.00010687136091291904
0.99954938888549805 0.25150799751281738 0.0011642157332971692
0.023326095193624496 0.41108834743499756 0.0014517690287902951
0.025375800207257271 0.43134555220603943 0.0009964887285605073
0.073572449386119843 0.43171471357345581 0.00052693684119731188
0.15556801855564117 0.42752650380134583 0.00011189778888365254
0.25072172284126282 0.42385438084602356 0
0.35486575961112976 0.41668084263801575 1.6335879990947433e-05
0.45960769057273865 0.41287177801132202 4.434024594957009e-05
0.5826876163482666 0.39877378940582275 0
0.69929832220077515 0.39090275764465332 0
0.8132941722869873 0.37991252541542053 0
0.91235232353210449 0.36756530404090881 0
0.98459309339523315 0.37059295177459717 0
0.99859607219696045 0.37503734230995178 0
0.080474480986595154 0.50739973783493042 0
0.087029159069061279 0.51989138126373291 0
0.1253272145986557 0.52056002616882324 3.0517578125e-05
0.19600413739681244 0.51720786094665527 0.0004193474305793643
0.27882984280586243 0.51998621225357056 0.0001919017086038366
0.38166344165802002 0.51601088047027588 0
0.48182934522628784 0.51551663875579834 0
0.5821528434753418 0.51140338182449341 0
0.69492685794830322 0.50595450401306152 0
0.79684466123580933 0.4999043345451355 0
0.89332038164138794 0.49128457903862 0
0.97174811363220215 0.4886220395565033 0
0.99381029605865479 0.49113038182258606 0
0.14010338485240936 0.60943692922592163 0
0.16031281650066376 0.61706435680389404 0
0.19257809221744537 0.62124687433242798 3.9493337681051344e-05
0.25389602780342102 0.62194925546646118 0.00029243019525893033
0.33627116680145264 0.62663215398788452 2.7465819584904239e-05
0.42655083537101746 0.62673836946487427 0
0.51425307989120483 0.62722498178482056 0
0.58874499797821045 0.62822484970092773 0
0.68390822410583496 0.62221193313598633 0
0.78216570615768433 0.618186354637146 0
0.87989157438278198 0.61032235622406006 0
0.95721042156219482 0.60364502668380737 0
0.98960959911346436 0.60634249448776245 0
0.19702751934528351 0.71836453676223755 0
0.22938995063304901 0.72721105813980103 0
0.27217060327529907 0.73363310098648071 0
0.30955427885055542 0.73379397392272949 0
0.38532313704490662 0.73875141143798828 0
0.46825850009918213 0.74209564924240112 0
0.53852874040603638 0.7424544095993042 0
0.60111451148986816 0.74369245767593384 0
0.67366898059844971 0.73777669668197632 0
0.76746636629104614 0.73490816354751587 0
0.8600541353225708 0.72494637966156006 0
0.9495396614074707 0.71162694692611694 0.00011140412243548781
0.992653489112854 0.70620417594909668 0.0023568696342408657
0.26333713531494141 0.83566325902938843 0
0.32436645030975342 0.84633660316467285 0
0.36443707346916199 0.85520797967910767 0
0.33592471480369568 0.84952867031097412 0
0.41434821486473083 0.85500097274780273 0
0.4923197329044342 0.858318030834198 0
0.54852211475372314 0.85706114768981934 0
0.61049771308898926 0.85505390167236328 0
0.68711161613464355 0.85283279418945312 0
0.75831782817840576 0.83885180950164795 0
0.8462030291557312 0.8300665020942688 0
0.95492678880691528 0.83165311813354492 6.9233014073688537e-05
0.99560415744781494 0.80777835845947266 0.0097264610230922699
0.50283956527709961 0.93351274728775024 0
0.53183776140213013 0.93607163429260254 0
0.53304773569107056 0.93880075216293335 0
0.52752840518951416 0.93523323535919189 0
0.56980890035629272 0.93767803907394409 0
0.63958054780960083 0.94243448972702026 0
0.68000394105911255 0.93895101547241211 0
0.72422969341278076 0.93216747045516968 0
0.78950673341751099 0.93034565448760986 0
0.8417631983757019 0.92223751544952393 0
0.90173095464706421 0.91268467903137207 0
0.96935641765594482 0.91479545831680298 0.0033757227938622236
0.99520713090896606 0.90153753757476807 0.035103246569633484
0.003916512243449688 0.0057396981865167618 0.0047643925063312054
0.0039215688593685627 0.0053618336096405983 0.004327048547565937
0.0038803848437964916 0.0049336003139615059 0.004110388457775116
0.0075729368254542351 0.0087704826146364212 0.0076737646013498306
0.016533361747860909 0.02048155851662159 0.013396244496107101
0.032321810722351074 0.039160963147878647 0.01735871285200119
0.12110894918441772 0.047522392123937607 0.012274708598852158
0.39532908797264099 0.0200831089168787 0.0024399999529123306
0.69681137800216675 0.00062091305153444409 0
0.88880568742752075 0 0
0.9830937385559082 0 0.0031948613468557596
0.99735373258590698 0 0.015255557373166084
1 0 0.053214892745018005
0.0070288563147187233 0.010759645141661167 0.0082266563549637794
0.0067466734908521175 0.010198196396231651 0.0080892676487565041
0.0073968474753201008 0.0092214401811361313 0.0083709117025136948
0.012702373787760735 0.016236279159784317 0.013840873725712299
0.03106142021715641 0.034098517149686813 0.017971217632293701
0.084457039833068848 0.048357419669628143 0.015609651803970337
0.30307862162590027 0.025989562273025513 0.0085498886182904243
0.59922939538955688 0.0040852567180991173 0.0014885547570884228
0.82585722208023071 0.00020113178470637649 3.8012334698578343e-05
0.95602935552597046 0 0.00067316688364371657
0.99410122632980347 0 0.010079432278871536
0.99662637710571289 0 0.029313899576663971
0.99989765882492065 0 0.05424131453037262
0.0091729555279016495 0.023800704628229141 0.013516519218683243
0.0079973554238677025 0.028040852397680283 0.012348579242825508
0.0083855120465159416 0.035765044391155243 0.01730053499341011
0.019824398681521416 0.049120750278234482 0.01934998482465744
0.056465595960617065 0.065561242401599884 0.019297834485769272
0.16656284034252167 0.063738070428371429 0.013364261016249657
0.3999055027961731 0.022977761924266815 0.0082594025880098343
0.64238542318344116 0.0050957025960087776 0.0026726068463176489
0.82804197072982788 0.0006389842601493001 0.00093751796521246433
0.95062601566314697 5.370495273382403e-05 0.0012262382078915834
0.99368143081665039 4.0540508052799851e-05 0.012279720045626163
0.99664372205734253 0.00061741250101476908 0.030572583898901939
0.99999964237213135 0.0023387086112052202 0.048293497413396835
0.0038724711630493402 0.10316646844148636 0.024311993271112442
0.0046747992746531963 0.11753109097480774 0.017561489716172218
0.0069354935549199581 0.12411831319332123 0.017619682475924492
0.029122805222868919 0.12933601438999176 0.016945542767643929
0.1198589876294136 0.12938055396080017 0.015766233205795288
0.26166298985481262 0.11097350716590881 0.010676424950361252
0.44613897800445557 0.064854532480239868 0.0060093896463513374
0.63113194704055786 0.035973656922578812 0.0028910916298627853
0.80646359920501709 0.010305292904376984 0.0017527262680232525
0.9253687858581543 0.0035175248049199581 0.0012193716829642653
0.98842263221740723 0.0035183178260922432 0.0086824903264641762
0.99650806188583374 0.012039663270115852 0.024323496967554092
1 0.030808107927441597 0.037713758647441864
0 0.19916291534900665 0.019744275137782097
0.00081619562115520239 0.2073642909526825 0.012500897981226444
0.0067400014959275723 0.2097683846950531 0.0076353335753083229
0.048172581940889359 0.20545344054698944 0.011521253734827042
0.16293272376060486 0.19481217861175537 0.011564770713448524
0.30837517976760864 0.17688301205635071 0.0069111543707549572
0.45838072896003723 0.14910018444061279 0.0022820266894996166
0.61322593688964844 0.11483906954526901 0.0015718797221779823
0.77561986446380615 0.074971593916416168 0.00064997951267287135
0.89599663019180298 0.050018835812807083 0.001408057170920074
0.98346233367919922 0.031997397541999817 0.0031642988324165344
0.99554407596588135 0.052510969340801239 0.013522548601031303
0.9996490478515625 0.074408784508705139 0.024656452238559723
0.0011486726580187678 0.27548536658287048 0.018523572012782097
0.0040569528937339783 0.28188058733940125 0.011932044290006161
0.019219491630792618 0.28343278169631958 0.0097237983718514442
0.081361584365367889 0.27590155601501465 0.016912288963794708
0.19565224647521973 0.26417839527130127 0.012709179893136024
0.32520818710327148 0.24808171391487122 0.0047279358841478825
0.45541244745254517 0.23269882798194885 0.0029331881087273359
0.59309417009353638 0.2090027779340744 0.0010476504685357213
0.73631578683853149 0.18087419867515564 0.00063177372794598341
0.85895651578903198 0.1555478572845459 0.0014560025883838534
0.96256506443023682 0.12800532579421997 0.0014770508278161287
0.99304234981536865 0.13897079229354858 0.0068271411582827568
0.99932754039764404 0.15530411899089813 0.012256951071321964
0.0087578268721699715 0.34375786781311035 0.017604108899831772
0.0068516600877046585 0.35484948754310608 0.010371518321335316
0.033049937337636948 0.35706457495689392 0.01040324755012989
0.11204147338867188 0.34969404339790344 0.016967698931694031
0.22604525089263916 0.34126085042953491 0.0088565303012728691
0.33925604820251465 0.32800638675689697 0.0037036072462797165
0.45857945084571838 0.31814950704574585 0.0024694106541574001
0.58482891321182251 0.30182906985282898 0.00058538396842777729
0.7097855806350708 0.28575080633163452 0.00020392923033796251
0.83302241563796997 0.26673439145088196 0.0011158214183524251
0.9401434063911438 0.243952676653862 8.4581559349317104e-05
0.98610925674438477 0.25093051791191101 0.00052497716387733817
0.99953913688659668 0.25954985618591309 0.001575903850607574
0.035947296768426895 0.41949960589408875 0.0093540120869874954
0.024925725534558296 0.43169733881950378 0.0045561399310827255
0.060598038136959076 0.43609616160392761 0.0030390270985662937
0.15510334074497223 0.43103566765785217 0.0045300950296223164
0.25308176875114441 0.42951014637947083 0.0022149479482322931
0.35463479161262512 0.42090758681297302 0.001901469542644918
0.46190363168716431 0.41496738791465759 0.0026726366486400366
0.58164745569229126 0.40566742420196533 0.0017076529329642653
0.69889086484909058 0.39520138502120972 0.00063738354947417974
0.81387650966644287 0.3820917010307312 0.00065772858215495944
0.91328221559524536 0.37554177641868591 5.0039852794725448e-05
0.98145347833633423 0.37485024333000183 0
0.99784624576568604 0.3792431652545929 0
0.085918843746185303 0.50841736793518066 0.0020654567051678896
0.088535919785499573 0.52263998985290527 0.0022226970177143812
0.12243294715881348 0.52495086193084717 0.0021776685025542974
0.19381211698055267 0.52128452062606812 0.004755102563649416
0.28318953514099121 0.52449190616607666 0.0035246007610112429
0.37975850701332092 0.52114266157150269 0.0016787810018286109
0.47432041168212891 0.5190880298614502 0.0015518786385655403
0.57530021667480469 0.51638376712799072 0.0018037982517853379
0.68997788429260254 0.50879108905792236 0.0017051247414201498
0.79536986351013184 0.50413316488265991 0.0022383746691048145
0.89515185356140137 0.49666652083396912 0.00075408339034765959
0.96808373928070068 0.49307921528816223 0
0.99479490518569946 0.49763733148574829 0
0.14020092785358429 0.60972094535827637 0.0012818280374631286
0.1626429557800293 0.62617218494415283 0.00095123588107526302
0.20103408396244049 0.62814795970916748 0.0015734803164377809
0.2535284161567688 0.62707066535949707 0.0038260365836322308
0.32849892973899841 0.63013941049575806 0.0040221270173788071
0.41565150022506714 0.63036453723907471 0.0029248853679746389
0.49922806024551392 0.62999743223190308 0.00094507256289944053
0.57809913158416748 0.62982285022735596 4.7721114242449403e-05
0.67948043346405029 0.62595421075820923 0.00072082818951457739
0.78125947713851929 0.62252116203308105 0.0017922495026141405
0.87962085008621216 0.61776077747344971 0.0014294942375272512
0.95662039518356323 0.6114966869354248 0
0.99307453632354736 0.60956412553787231 2.2753547455067746e-05
0.194037064909935 0.71972048282623291 0.0004536797059699893
0.23174995183944702 0.73366868495941162 0.00028435201966203749
0.28394919633865356 0.74218964576721191 0.00014928182645235211
0.32540348172187805 0.74320375919342041 0.0016883400967344642
0.38476017117500305 0.74474161863327026 0.0019811294041574001
0.45538052916526794 0.74557626247406006 0.0012483334867283702
0.52259761095046997 0.74602973461151123 9.7581454610917717e-05
0.58650249242782593 0.74607443809509277 0
0.67395895719528198 0.74356585741043091 6.5822227952594403e-06
0.76909559965133667 0.74258732795715332 0.00036668963730335236
0.86221379041671753 0.73288136720657349 0.00040696086944080889
0.94914788007736206 0.72402507066726685 0.0014021331444382668
0.99142557382583618 0.71306967735290527 0.004959525540471077
0.26590585708618164 0.83545321226119995 0.0001736061240080744
0.29831340909004211 0.84796291589736938 7.8822115028742701e-05
0.3808649480342865 0.86116117238998413 0
0.39816054701805115 0.86145025491714478 0
0.41693612933158875 0.85942548513412476 0.00020915012282785028
0.47303810715675354 0.85992491245269775 0.00011815089965239167
0.54596328735351562 0.85925692319869995 0
0.60411816835403442 0.85898280143737793 0
0.69653975963592529 0.85628104209899902 0
0.78069531917572021 0.84730041027069092 0
0.85077118873596191 0.83392822742462158 0
0.95300936698913574 0.83308184146881104 0.0025617561768740416
0.99386197328567505 0.81810033321380615 0.018321720883250237
0.49422803521156311 0.93213522434234619 0
0.50350344181060791 0.93337136507034302 0
0.53032177686691284 0.93842744827270508 0
0.54559338092803955 0.93806111812591553 0
0.56734883785247803 0.93699413537979126 0
0.6260453462600708 0.94004648923873901 0
0.67688137292861938 0.93847328424453735 0
0.72895509004592896 0.9335828423500061 0
0.79016530513763428 0.93128490447998047 0
0.85512262582778931 0.925312340259552 0
0.9105713963508606 0.91453492641448975 0
0.96750432252883911 0.91035205125808716 0.0057402066886425018
0.99486464262008667 0.90360516309738159 0.038291405886411667
0.0040527940727770329 0.0067172781564295292 0.0060633043758571148
0.0040890560485422611 0.0060829911381006241 0.0055724498815834522
0.003767604473978281 0.0049406015314161777 0.004302335437387228
0.0091493939980864525 0.012910027988255024 0.012798668816685677
0.020517969503998756 0.028302451595664024 0.025070773437619209
0.040497828274965286 0.042446330189704895 0.028860908001661301
0.14470182359218597 0.042445972561836243 0.023712711408734322
0.41711297631263733 0.015770092606544495 0.012886406853795052
0.70356863737106323 0.00018047257617581636 0.010695528239011765
0.89821022748947144 0 0.0060150595381855965
0.97915244102478027 0 0.0061067170463502407
0.99852174520492554 0 0.017133122310042381
1 0 0.04790249839425087
0.0068674874491989613 0.011510467156767845 0.0090741775929927826
0.0076272105798125267 0.012046155519783497 0.010020790621638298
0.0073999739252030849 0.0093897953629493713 0.0089782262220978737
0.014526830986142159 0.0243391003459692 0.023619603365659714
0.030824474990367889 0.038351066410541534 0.033935517072677612
0.11944415420293808 0.044341262429952621 0.043208595365285873
0.34083408117294312 0.016433805227279663 0.040475178509950638
0.60464143753051758 0.0023394566960632801 0.027488529682159424
0.81901746988296509 0 0.021385043859481812
0.94659507274627686 0 0.019236082211136818
0.99251121282577515 0 0.015673274174332619
0.99915504455566406 0 0.025264142081141472
1 0 0.052458550781011581
0.0080263325944542885 0.025888046249747276 0.017419224604964256
0.0088474797084927559 0.033957298845052719 0.021581657230854034
0.0078328298404812813 0.045382015407085419 0.029275961220264435
0.018147876486182213 0.060873981565237045 0.043090939521789551
0.065488316118717194 0.071362800896167755 0.047491110861301422
0.20129992067813873 0.062241587787866592 0.04549071192741394
0.42162203788757324 0.029230348765850067 0.041928265243768692
0.63893240690231323 0.0081194406375288963 0.035832826048135757
0.81436115503311157 0.0023107042070478201 0.028229059651494026
0.93969118595123291 0.00035473692696541548 0.021331742405891418
0.99224305152893066 3.3659092878224328e-05 0.020122334361076355
0.99670273065567017 0.00051558250561356544 0.031117876991629601
1 0.0016685485607013106 0.042086821049451828
0.0033627529628574848 0.11156971007585526 0.046928122639656067
0.0019778232090175152 0.12662424147129059 0.052559182047843933
0.0053785135969519615 0.13443928956985474 0.057647015899419785
0.024447886273264885 0.13546715676784515 0.058089446276426315
0.11510617285966873 0.13285763561725616 0.053465105593204498
0.26509198546409607 0.11317212134599686 0.042351815849542618
0.44519534707069397 0.068647034466266632 0.032134171575307846
0.62796235084533691 0.035307835787534714 0.025533130392432213
0.78966468572616577 0.011920839548110962 0.025314854457974434
0.91200834512710571 0.0080280974507331848 0.022556513547897339
0.98601621389389038 0.004071463830769062 0.018370833247900009
0.99596583843231201 0.011093199253082275 0.028051743283867836
0.99997663497924805 0.029741264879703522 0.039369352161884308
0 0.20106218755245209 0.049447633326053619
0 0.21103869378566742 0.055080592632293701
0.0051375445909798145 0.21380670368671417 0.057062067091464996
0.035305485129356384 0.20760570466518402 0.054607465863227844
0.14369331300258636 0.19947056472301483 0.05219307541847229
0.28962677717208862 0.18286557495594025 0.042547322809696198
0.44337621331214905 0.15267251431941986 0.027175290510058403
0.60539144277572632 0.11773137003183365 0.01420180406421423
0.75599884986877441 0.085012726485729218 0.016058828681707382
0.88113141059875488 0.055708866566419601 0.018082128837704659
0.97446465492248535 0.026557203382253647 0.012385319918394089
0.99554359912872314 0.048888113349676132 0.022095026448369026
0.99975907802581787 0.085436634719371796 0.037471771240234375
0.0009396870736964047 0.27578654885292053 0.04386432096362114
0.0035741019528359175 0.28457891941070557 0.049744952470064163
0.018008451908826828 0.28566959500312805 0.054960258305072784
0.064428426325321198 0.27711403369903564 0.055479384958744049
0.17549984157085419 0.26813825964927673 0.053208667784929276
0.30433306097984314 0.25430428981781006 0.041799150407314301
0.43736061453819275 0.23665457963943481 0.020990170538425446
0.58058732748031616 0.21429452300071716 0.01469294261187315
0.72331416606903076 0.18603983521461487 0.010758538730442524
0.84847605228424072 0.15819627046585083 0.0091697098687291145
0.95443272590637207 0.12661713361740112 0.0075592338107526302
0.99270248413085938 0.13946172595024109 0.01678822748363018
0.99987685680389404 0.16264678537845612 0.026720833033323288
0.0071212318725883961 0.34508618712425232 0.049101512879133224
0.0055779102258384228 0.35705462098121643 0.043426156044006348
0.027541650459170341 0.35779961943626404 0.047319434583187103
0.087748795747756958 0.34732890129089355 0.051062937825918198
0.20474472641944885 0.34176132082939148 0.047962203621864319
0.31981709599494934 0.33203414082527161 0.03546142578125
0.44414159655570984 0.32505342364311218 0.023851625621318817
0.57422763109207153 0.30827131867408752 0.021595286205410957
0.70142835378646851 0.29219251871109009 0.011173682287335396
0.82275855541229248 0.27479648590087891 0.0062144412659108639
0.93535000085830688 0.25317448377609253 0.0029027003329247236
