assets/lut/shamoonabbasi morroco 16.cube
# Created by: G'MIC (https://gmic.eu)
TITLE "morroco_16"
# LUT size
LUT_3D_SIZE 7
# Data domain
DOMAIN_MIN 0.0 0.0 0.0
DOMAIN_MAX 1.0 1.0 1.0
# LUT data points
0.0021590439137071371 0.0024324753321707249 0.0072814789600670338
0.054795809090137482 2.8004365958622657e-05 0.0031664380803704262
0.15358102321624756 0 0.00018687528790906072
0.26786831021308899 0.0027833825442939997 0.0012351840268820524
0.42146685719490051 0.00027717140619643033 0.0003408394695725292
0.62754887342453003 0 0
0.86479270458221436 0 0
0.0010215609800070524 0.056989230215549469 0.0012018840061500669
0.053067628294229507 0.057626418769359589 0.0015206729294732213
0.16059005260467529 0.053323812782764435 0.0048534017987549305
0.28112432360649109 0.052188362926244736 0.010079073719680309
0.43860140442848206 0.034659937024116516 0.0055076000280678272
0.64263242483139038 0.016819972544908524 0
0.87912130355834961 0.024104144424200058 0
0.0052446853369474411 0.14943820238113403 0.0036311428993940353
0.059173271059989929 0.15884773433208466 0.0018174564465880394
0.16071058809757233 0.16259521245956421 0.0018832486821338534
0.28867533802986145 0.15994127094745636 0.0019808001816272736
0.45203366875648499 0.14481502771377563 0
0.65603131055831909 0.12330877035856247 0
0.89245486259460449 0.1177993044257164 0
0.0055477367714047432 0.26899421215057373 0.0059267678298056126
0.059264719486236572 0.27750846743583679 0.004161834716796875
0.15595452487468719 0.28474888205528259 0.0014230167726054788
0.28810504078865051 0.28754249215126038 0
0.45458441972732544 0.28136828541755676 0
0.66255265474319458 0.26442000269889832 0
0.90432238578796387 0.25124678015708923 0.00041315416456200182
0.0021305757109075785 0.41552275419235229 0.0046003903262317181
0.04650941863656044 0.4254208505153656 0.0035473094321787357
0.13471399247646332 0.4357660710811615 0.0044321548193693161
0.2706301212310791 0.44651398062705994 0.00032797420863062143
0.44762459397315979 0.44961601495742798 0
0.66228985786437988 0.43924006819725037 0
0.91464835405349731 0.42314794659614563 0.0044922772794961929
0.00017269358795601875 0.59341078996658325 0.00068839575396850705
0.027624571695923805 0.61065733432769775 0
0.1051189973950386 0.63070535659790039 0
0.24191208183765411 0.64793407917022705 0
0.43206799030303955 0.65596491098403931 0
0.65925115346908569 0.65175098180770874 0
0.91844671964645386 0.64243263006210327 0
0.00053616694640368223 0.79901123046875 0
0.01899026520550251 0.82628887891769409 0
0.086813904345035553 0.85617572069168091 0
0.21612353622913361 0.88119953870773315 0.00014702291809953749
0.40961849689483643 0.89486587047576904 0.00031135408789850771
0.65017646551132202 0.89598262310028076 0
0.91485947370529175 0.89351850748062134 0
0.0022581811062991619 0.00020267262880224735 0.064393259584903717
0.053793333470821381 0.0025006912183016539 0.057095680385828018
0.15078993141651154 0.0034495634026825428 0.042285904288291931
0.26974540948867798 0.0045987446792423725 0.030598495155572891
0.42224037647247314 0.0029643189627677202 0.015474940650165081
0.62125569581985474 0 0.0022344102617353201
0.8599550724029541 0 0
0.0026780820917338133 0.056113552302122116 0.054298881441354752
0.058628890663385391 0.058959465473890305 0.060408156365156174
0.16424286365509033 0.058051194995641708 0.059735391288995743
0.28698492050170898 0.054744765162467957 0.052755005657672882
0.44297844171524048 0.044343013316392899 0.037851534783840179
0.64334321022033691 0.02927328459918499 0.017276344820857048
0.88029336929321289 0.026233373209834099 0.0023869832511991262
0.0022819370497018099 0.15372228622436523 0.056192629039287567
0.058252297341823578 0.16366273164749146 0.058601036667823792
0.16488645970821381 0.16534486413002014 0.058434206992387772
0.29466751217842102 0.16224236786365509 0.053533993661403656
0.45624804496765137 0.15173481404781342 0.039119239896535873
0.65803432464599609 0.12994052469730377 0.029193833470344543
0.89467388391494751 0.11752451211214066 0.022693021222949028
0.0023039274383336306 0.27072045207023621 0.054909020662307739
0.056467842310667038 0.28348508477210999 0.056477148085832596
0.15607412159442902 0.29227522015571594 0.054741580039262772
0.29090073704719543 0.29362896084785461 0.051612105220556259
0.45828703045845032 0.28808563947677612 0.045757204294204712
0.66392308473587036 0.27225324511528015 0.041142169386148453
0.90788298845291138 0.25537654757499695 0.043023742735385895
0.00041396197048015893 0.41583487391471863 0.042709022760391235
0.040345523506402969 0.43196147680282593 0.04460868239402771
0.13147398829460144 0.44644469022750854 0.048392187803983688
0.27365291118621826 0.45418545603752136 0.047863949090242386
0.45390012860298157 0.45653891563415527 0.042610678821802139
0.66691005229949951 0.45009449124336243 0.040852818638086319
0.92120575904846191 0.43329465389251709 0.048790965229272842
0 0.59646832942962646 0.020414045080542564
0.013169696554541588 0.62026119232177734 0.015502361580729485
0.093653358519077301 0.64265388250350952 0.023131545633077621
0.24452267587184906 0.65605592727661133 0.032455969601869583
0.44452419877052307 0.66296857595443726 0.031071636825799942
0.66779214143753052 0.66486108303070068 0.031006786972284317
0.92843782901763916 0.65429681539535522 0.032875493168830872
0 0.80784541368484497 0.0029345343355089426
0.00024055031826719642 0.84036672115325928 0
0.063810877501964569 0.8713831901550293 0.0015951418317854404
0.21318995952606201 0.89217299222946167 0.02306620217859745
0.41565448045730591 0.90742689371109009 0.034407597035169601
0.6518750786781311 0.91681748628616333 0.032550469040870667
0.92005819082260132 0.91129392385482788 0.03317711129784584
0.0032165825832635164 0.00073756795609369874 0.15866178274154663
0.053449653089046478 0.0001285328617086634 0.15849810838699341
0.15054050087928772 2.8722427032334963e-06 0.14883553981781006
0.27408018708229065 0 0.13395750522613525
0.4242953360080719 0 0.11801846325397491
0.61328130960464478 0 0.092074252665042877
0.85146510601043701 1.8669577912078239e-05 0.055332258343696594
0.0022671569604426622 0.05507386103272438 0.1607825756072998
0.056790459901094437 0.055022865533828735 0.16770680248737335
0.16407881677150726 0.051859296858310699 0.16516889631748199
0.29167655110359192 0.045714031904935837 0.15645763278007507
0.44761905074119568 0.033190138638019562 0.14312537014484406
0.64200514554977417 0.023572450503706932 0.11771014332771301
0.87748759984970093 0.022862019017338753 0.086161293089389801
0.0021773993503302336 0.15442614257335663 0.15610218048095703
0.05865783616900444 0.164244145154953 0.161890909075737
0.16824962198734283 0.16647355258464813 0.16447992622852325
0.29692316055297852 0.16114488244056702 0.16141976416110992
0.45914921164512634 0.14964292943477631 0.14890825748443604
0.65933811664581299 0.12780332565307617 0.13187362253665924
0.89713996648788452 0.11346818506717682 0.11455874145030975
0.004189599771052599 0.27239534258842468 0.1441686749458313
0.057840175926685333 0.28788799047470093 0.15314540266990662
0.15882489085197449 0.29747462272644043 0.16024176776409149
0.29372075200080872 0.29684045910835266 0.16392351686954498
0.46271196007728577 0.29034706950187683 0.15916064381599426
0.66802018880844116 0.27822551131248474 0.14460912346839905
0.91405916213989258 0.25975948572158813 0.13454331457614899
0.0023712606634944677 0.41644090414047241 0.12071765214204788
0.043906446546316147 0.43747475743293762 0.13421723246574402
0.13565732538700104 0.45436596870422363 0.14673051238059998
0.27895563840866089 0.46038848161697388 0.1561906635761261
0.46085169911384583 0.46119219064712524 0.15988980233669281
0.67605310678482056 0.45805364847183228 0.15130351483821869
0.93203473091125488 0.44324490427970886 0.1453167051076889
0 0.60122644901275635 0.081330396234989166
0.017583331093192101 0.62807148694992065 0.09130413830280304
0.099386833608150482 0.65171605348587036 0.11042873561382294
0.25149470567703247 0.66367435455322266 0.13319443166255951
0.45135781168937683 0.66883814334869385 0.15003916621208191
0.67944544553756714 0.67587745189666748 0.14368355274200439
0.93997776508331299 0.66996312141418457 0.13955123722553253
0 0.81768107414245605 0.047659453004598618
0.0013153225881978869 0.85098659992218018 0.04882589727640152
0.070024274289608002 0.88165950775146484 0.072510093450546265
0.22269126772880554 0.90193885564804077 0.10816698521375656
0.42692992091178894 0.9189460277557373 0.13114148378372192
0.66297441720962524 0.93452078104019165 0.13477639853954315
0.92999076843261719 0.93262237310409546 0.13827638328075409
0.0050481311045587063 0.0010345010086894035 0.28633293509483337
0.052659831941127777 0 0.28503891825675964
0.14419670403003693 0.0011388591956347227 0.27396568655967712
0.26833087205886841 0.0013197356602177024 0.2637907862663269
0.42189136147499084 0 0.25185182690620422
0.61377310752868652 0 0.22229108214378357
0.8469967246055603 0 0.18198445439338684
0.0018784466665238142 0.056991785764694214 0.29025295376777649
0.053468354046344757 0.05384744331240654 0.29501444101333618
0.15584486722946167 0.055435627698898315 0.29302063584327698
0.28700247406959534 0.052154242992401123 0.28647717833518982
0.44529956579208374 0.037831969559192657 0.2760736346244812
0.64157724380493164 0.018274599686264992 0.25365817546844482
0.87627023458480835 0.01598377525806427 0.21959590911865234
0.0010343214962631464 0.15542091429233551 0.2857968807220459
0.055136349052190781 0.16422732174396515 0.29334518313407898
0.16571968793869019 0.16513599455356598 0.29717525839805603
0.29829305410385132 0.16232192516326904 0.29567801952362061
0.45992898941040039 0.15315927565097809 0.28559237718582153
0.66211056709289551 0.12604708969593048 0.26794672012329102
0.90083777904510498 0.10929831862449646 0.24489913880825043
0.0047155343927443027 0.2736203670501709 0.27231854200363159
0.058569964021444321 0.28928402066230774 0.28630846738815308
0.16203464567661285 0.29870304465293884 0.29684904217720032
0.29744723439216614 0.30050858855247498 0.30213436484336853
0.46618103981018066 0.29603099822998047 0.29721543192863464
0.67489063739776611 0.28015279769897461 0.28037881851196289
0.92094236612319946 0.26156488060951233 0.2633514404296875
0.0051684509962797165 0.41800794005393982 0.24761921167373657
0.047907363623380661 0.43996265530586243 0.27013522386550903
0.14202576875686646 0.45871633291244507 0.28611227869987488
0.2842138409614563 0.46692147850990295 0.2973778247833252
0.46593496203422546 0.46832054853439331 0.30182218551635742
0.68551933765411377 0.46247243881225586 0.29083940386772156
0.93972456455230713 0.44936046004295349 0.27945184707641602
0.00017879709776025265 0.60423344373703003 0.20362687110900879
0.024861279875040054 0.63116097450256348 0.22767303884029388
0.11010056734085083 0.65693682432174683 0.25198939442634583
0.25924167037010193 0.67211282253265381 0.27542844414710999
0.45683488249778748 0.67988300323486328 0.29111990332603455
0.69027411937713623 0.68434637784957886 0.2871665358543396
0.94988864660263062 0.68052810430526733 0.28223100304603577
0 0.82393145561218262 0.15778626501560211
0.0096579752862453461 0.85554569959640503 0.17989754676818848
0.084900021553039551 0.88712257146835327 0.21273623406887054
0.23450064659118652 0.91075879335403442 0.24747642874717712
0.43871966004371643 0.92903316020965576 0.27163273096084595
0.68037045001983643 0.94341790676116943 0.27846762537956238
0.94610506296157837 0.94717687368392944 0.28284972906112671
0.0018322514370083809 0 0.4627319872379303
0.046887714415788651 0 0.45448321104049683
0.13176526129245758 0.003118238179013133 0.44262009859085083
0.25399458408355713 0.0070789260789752007 0.43236285448074341
0.41366997361183167 0.00048193839029408991 0.41808536648750305
0.61312055587768555 0 0.38944444060325623
0.84565889835357666 0 0.35892799496650696
0.0010287116747349501 0.048443321138620377 0.45992299914360046
0.048660501837730408 0.049517478793859482 0.46139496564865112
0.14197248220443726 0.059632230550050735 0.45833900570869446
0.27297475934028625 0.059631962329149246 0.45256909728050232
0.43745595216751099 0.043771512806415558 0.44182881712913513
0.64226424694061279 0.022087665274739265 0.41735294461250305
0.88037222623825073 0.013340849429368973 0.38775581121444702
0.0022936053574085236 0.15026958286762238 0.45271769165992737
0.052485283464193344 0.15797647833824158 0.46056815981864929
0.15254609286785126 0.16228163242340088 0.46566778421401978
0.28928479552268982 0.15986025333404541 0.46480005979537964
0.45672529935836792 0.14571274816989899 0.45773333311080933
0.66413730382919312 0.12252387404441833 0.43758106231689453
0.90474432706832886 0.10869739204645157 0.4130917489528656
0.0056095798499882221 0.27276718616485596 0.43972030282020569
0.056032471358776093 0.28723910450935364 0.45432749390602112
0.15585203468799591 0.29642647504806519 0.46583437919616699
0.29392552375793457 0.29790815711021423 0.47279331088066101
0.46606904268264771 0.29154288768768311 0.46867227554321289
0.67890757322311401 0.27519664168357849 0.45218485593795776
0.92482918500900269 0.25922349095344543 0.43342858552932739
0.0041287289932370186 0.41995179653167725 0.41912174224853516
0.04769916832447052 0.44064217805862427 0.44058412313461304
0.14591003954410553 0.45969873666763306 0.45493355393409729
0.28700947761535645 0.46923896670341492 0.46828460693359375
0.468870609998703 0.46965661644935608 0.47240212559700012
0.69066023826599121 0.46106922626495361 0.46303260326385498
0.94351649284362793 0.44675141572952271 0.45410612225532532
0 0.6055411696434021 0.38520756363868713
0.018925879150629044 0.63254392147064209 0.4113001823425293
0.1138051375746727 0.66022133827209473 0.43012833595275879
0.26424923539161682 0.6774330735206604 0.45202267169952393
0.4606415331363678 0.68630778789520264 0.46451666951179504
0.69532555341720581 0.68656736612319946 0.46334743499755859
0.95411407947540283 0.67902481555938721 0.46277230978012085
0 0.82587862014770508 0.34343919157981873
0.0035301507450640202 0.85951024293899536 0.36650288105010986
0.085720658302307129 0.89267456531524658 0.3977496325969696
0.24052178859710693 0.91790741682052612 0.4301011860370636
0.44548651576042175 0.93661880493164062 0.45232433080673218
0.68820804357528687 0.94825053215026855 0.46028345823287964
0.95231801271438599 0.95156872272491455 0.46719104051589966
0.00073529413202777505 0 0.67841869592666626
0.041366755962371826 0 0.66928625106811523
0.11849191784858704 0.0020015642512589693 0.66100573539733887
0.23658806085586548 0.0071436865255236626 0.65051716566085815
0.39998343586921692 0.00099361641332507133 0.63086605072021484
0.60257554054260254 0 0.60110056400299072
0.83365553617477417 0 0.57437658309936523
0.0013881010236218572 0.037342716008424759 0.67447835206985474
0.043272487819194794 0.046132616698741913 0.67474496364593506
0.12662318348884583 0.057356815785169601 0.67382949590682983
0.25395607948303223 0.056966055184602737 0.67012423276901245
0.42330601811408997 0.042082887142896652 0.65641456842422485
0.6323125958442688 0.025265458971261978 0.62904196977615356
0.87032628059387207 0.020081942901015282 0.60120069980621338
0.0030388326849788427 0.1413532942533493 0.66431236267089844
0.044127669185400009 0.1506667286157608 0.67351192235946655
0.13640162348747253 0.15526935458183289 0.68116897344589233
0.27236232161521912 0.14983920753002167 0.68420416116714478
0.44536712765693665 0.13554444909095764 0.67657327651977539
0.65719270706176758 0.1185702458024025 0.6547621488571167
0.89859044551849365 0.1097978949546814 0.63127756118774414
0.005048803985118866 0.26535049080848694 0.6540144681930542
0.045670200139284134 0.28138434886932373 0.66801798343658447
0.14426387846469879 0.28903186321258545 0.68018585443496704
0.28348273038864136 0.28880059719085693 0.68843299150466919
0.45787367224693298 0.2837384045124054 0.68633008003234863
0.67234474420547485 0.27062591910362244 0.67215144634246826
0.92077958583831787 0.25341048836708069 0.65757918357849121
0.0044780508615076542 0.41585588455200195 0.6338341236114502
0.04385274276137352 0.43670690059661865 0.65555453300476074
0.14522571861743927 0.45478934049606323 0.66841143369674683
0.28442445397377014 0.4641450047492981 0.68485122919082642
0.46416926383972168 0.46673557162284851 0.6886412501335144
0.68315201997756958 0.46195888519287109 0.68257969617843628
0.93677306175231934 0.44526177644729614 0.67701071500778198
0 0.60537254810333252 0.60538607835769653
0.012334756553173065 0.63269400596618652 0.63237631320953369
0.11302216351032257 0.65853172540664673 0.65215754508972168
0.26718088984489441 0.67579454183578491 0.67487037181854248
0.4609723687171936 0.68398791551589966 0.68634116649627686
0.6896480917930603 0.68606841564178467 0.6869080662727356
0.94528543949127197 0.68140208721160889 0.68764746189117432
0 0.82669365406036377 0.56954264640808105
1.7951517293113284e-05 0.86301815509796143 0.5928693413734436
0.082801565527915955 0.89508044719696045 0.62460416555404663
0.24618683755397797 0.92048943042755127 0.65745276212692261
0.4470241367816925 0.94142937660217285 0.67904603481292725
0.68437868356704712 0.9489513635635376 0.69071424007415771
0.9463152289390564 0.94908088445663452 0.69829303026199341
0.0027729857247322798 0 0.92218160629272461
0.04477914422750473 0 0.91380798816680908
0.11679290980100632 0.0013585707638412714 0.90784561634063721
0.22997544705867767 0.0077205882407724857 0.89829981327056885
0.39420121908187866 0.0025162191595882177 0.87534523010253906
0.59369832277297974 0.00068027270026504993 0.84464913606643677
0.81979155540466309 0.0047056907787919044 0.81861478090286255
0.0044137691147625446 0.026813117787241936 0.92345041036605835
0.045660369098186493 0.040558476001024246 0.92158764600753784
0.12311811000108719 0.05364564061164856 0.92214465141296387
0.24600546061992645 0.054092556238174438 0.91920274496078491
0.41467005014419556 0.043091792613267899 0.90426957607269287
0.62081098556518555 0.03739205002784729 0.87538796663284302
0.85416799783706665 0.042584918439388275 0.84822958707809448
0.0059660519473254681 0.12594056129455566 0.91929006576538086
0.046485617756843567 0.13864916563034058 0.92539781332015991
0.13234448432922363 0.14646553993225098 0.93175733089447021
0.26464766263961792 0.14188110828399658 0.93547564744949341
0.43827617168426514 0.12926234304904938 0.92878574132919312
0.64905434846878052 0.12256509810686111 0.90584802627563477
0.8885272741317749 0.12285881489515305 0.88284796476364136
0.0050351163372397423 0.2496991753578186 0.91579592227935791
0.045653458684682846 0.26770311594009399 0.92520511150360107
0.13921566307544708 0.27868920564651489 0.93458837270736694
0.2774251401424408 0.28005030751228333 0.94140362739562988
0.45294755697250366 0.27697491645812988 0.93918931484222412
0.66802692413330078 0.26740974187850952 0.92734205722808838
0.9163740873336792 0.2543182373046875 0.91477376222610474
0.001174866920337081 0.40799680352210999 0.89847058057785034
0.039132766425609589 0.4282970130443573 0.91845095157623291
0.13828264176845551 0.44668611884117126 0.93078231811523438
0.28258082270622253 0.45753088593482971 0.94161903858184814
0.46162226796150208 0.46334204077720642 0.94520515203475952
0.67854517698287964 0.46019768714904785 0.94060200452804565
0.93047618865966797 0.44832009077072144 0.93481922149658203
0 0.60393702983856201 0.86725318431854248
0.015227388590574265 0.62791627645492554 0.90068227052688599
0.12063326686620712 0.65144580602645874 0.91869848966598511
0.27626526355743408 0.66995400190353394 0.93741673231124878
0.46180111169815063 0.68395781517028809 0.94741106033325195
0.68386590480804443 0.68536144495010376 0.95079189538955688
0.93665534257888794 0.68610769510269165 0.94765973091125488
0.00090761372121050954 0.82692861557006836 0.82724225521087646
0.013224882073700428 0.8586617112159729 0.85828644037246704
0.10914865881204605 0.88838279247283936 0.89009696245193481
0.26724368333816528 0.91610085964202881 0.91986942291259766
0.4559333324432373 0.94287943840026855 0.94046366214752197
0.68509304523468018 0.94595587253570557 0.95462828874588013
0.94325286149978638 0.94766318798065186 0.95647400617599487
