assets/lut/shamoonabbasi coffee 44.cube
# Created by: G'MIC (https://gmic.eu)
TITLE "coffee_44"
# LUT size
LUT_3D_SIZE 13
# Data domain
DOMAIN_MIN 0.0 0.0 0.0
DOMAIN_MAX 1.0 1.0 1.0
# LUT data points
0.014843734912574291 0.016905376687645912 0.0057198167778551579
0.056764025241136551 0.016933964565396309 0.0077907489612698555
0.11104384809732437 0.018971476703882217 0.0073802722617983818
0.1939099133014679 0.018847595900297165 0.0041394401341676712
0.29758629202842712 0.017110038548707962 0.0011797886108979583
0.4095616340637207 0.013605828396975994 5.0443763029761612e-05
0.52082639932632446 0.0089711509644985199 0
0.62525373697280884 0.003786618122830987 0
0.72117018699645996 0.00056429096730425954 0
0.8103337287902832 0.00014935662329662591 0
0.88738566637039185 0.00056089513236656785 0
0.93959832191467285 0.0042897392995655537 0.001931553240865469
0.96637022495269775 0.015169180929660797 0.0070366505533456802
0.019520822912454605 0.057138018310070038 0.0081931166350841522
0.062161002308130264 0.055481810122728348 0.012190710753202438
0.11416248977184296 0.059797145426273346 0.012357823550701141
0.19859744608402252 0.06210549920797348 0.0087895710021257401
0.30432453751564026 0.060632083564996719 0.0044257072731852531
0.41682267189025879 0.055405080318450928 0.0015647589461877942
0.52605444192886353 0.047090791165828705 0.00025823255418799818
0.62652599811553955 0.034614324569702148 0
0.71878170967102051 0.021123729646205902 0
0.80773705244064331 0.014974182471632957 0
0.88668704032897949 0.018608422949910164 2.0225375919835642e-05
0.93869048357009888 0.028410069644451141 0.0032555374782532454
0.96256649494171143 0.043310023844242096 0.008925972506403923
0.020900007337331772 0.10484763979911804 0.0084842611104249954
0.071288213133811951 0.10562250763177872 0.015024910680949688
0.13221164047718048 0.11387147754430771 0.017729306593537331
0.21739694476127625 0.12193690240383148 0.01732228510081768
0.32267540693283081 0.12378315627574921 0.013732162304222584
0.43405196070671082 0.11870138347148895 0.0088514592498540878
0.54021930694580078 0.10944551974534988 0.0037872462999075651
0.63599658012390137 0.094479307532310486 0.00081757188308984041
0.72511434555053711 0.075634732842445374 5.6367760407738388e-05
0.81253951787948608 0.063968092203140259 0
0.88869237899780273 0.06422220915555954 0
0.93594545125961304 0.073036476969718933 0.0027928370982408524
0.95456570386886597 0.088001802563667297 0.0082815280184149742
0.020122138783335686 0.17123912274837494 0.0069915321655571461
0.07915845513343811 0.17870821058750153 0.014830435626208782
0.15033385157585144 0.19287924468517303 0.022579357028007507
0.24118310213088989 0.20728883147239685 0.027303822338581085
0.34922453761100769 0.21347928047180176 0.026612374931573868
0.46064549684524536 0.21124167740345001 0.021750282496213913
0.56358593702316284 0.20400795340538025 0.013242324814200401
0.6545490026473999 0.18812057375907898 0.0049622929655015469
0.73895460367202759 0.16347669064998627 0.0010318382410332561
0.82217574119567871 0.14383359253406525 1.4540728443535045e-05
0.89395773410797119 0.13849020004272461 0
0.93293595314025879 0.14300090074539185 0.0012119218008592725
0.94264692068099976 0.15469948947429657 0.0059803384356200695
0.021082110702991486 0.25493139028549194 0.0064286775887012482
0.087780699133872986 0.27008655667304993 0.013620264828205109
0.16863702237606049 0.29084524512290955 0.023818820714950562
0.2677062451839447 0.31193602085113525 0.033084839582443237
0.37964081764221191 0.32544693350791931 0.037064645439386368
0.49177736043930054 0.32906574010848999 0.034336060285568237
0.59209597110748291 0.32584530115127563 0.025022799149155617
0.67894566059112549 0.31400936841964722 0.012912824749946594
0.7582898736000061 0.28740605711936951 0.0040884129703044891
0.83497929573059082 0.25716373324394226 0.00044537713984027505
0.89794319868087769 0.24291729927062988 0
0.92672163248062134 0.24333147704601288 0
0.92822510004043579 0.24710144102573395 0.0021680046338587999
0.025607584044337273 0.34892800450325012 0.0076063266023993492
0.10038533061742783 0.37091675400733948 0.012734521180391312
0.18957525491714478 0.39635002613067627 0.021528176963329315
0.29520449042320251 0.42272183299064636 0.033539343625307083
0.40874123573303223 0.44295284152030945 0.042654208838939667
0.51897966861724854 0.45131650567054749 0.044207196682691574
0.6166841983795166 0.4537598192691803 0.038284659385681152
0.70209479331970215 0.45115721225738525 0.02634500153362751
0.78139567375183105 0.43492984771728516 0.014418433420360088
0.85259097814559937 0.39926746487617493 0.0063634687103331089
0.9028555154800415 0.37225687503814697 0.00095698039513081312
0.92131996154785156 0.37148723006248474 5.1730286941165105e-05
0.92100310325622559 0.36598455905914307 0.0017483280971646309
0.035721138119697571 0.44785526394844055 0.01045671384781599
0.12040876597166061 0.47493213415145874 0.013629135675728321
0.21615369617938995 0.50177299976348877 0.018811259418725967
0.32286286354064941 0.52758681774139404 0.029191603884100914
0.43266379833221436 0.54861855506896973 0.040857024490833282
0.53710037469863892 0.55999642610549927 0.049474410712718964
0.63050693273544312 0.56516587734222412 0.052675671875476837
0.71420103311538696 0.56654787063598633 0.050505049526691437
0.7933124303817749 0.56242817640304565 0.043218124657869339
0.86391246318817139 0.54270702600479126 0.032113663852214813
0.90867596864700317 0.51653671264648438 0.021041391417384148
0.9233822226524353 0.50730711221694946 0.015624431893229485
0.92101716995239258 0.49682289361953735 0.021859487518668175
0.050167936831712723 0.54678857326507568 0.013451594859361649
0.14494109153747559 0.57766401767730713 0.014914688654243946
0.245292067527771 0.60333490371704102 0.015228271484375
0.34967553615570068 0.62466299533843994 0.021144388243556023
0.45278090238571167 0.64326691627502441 0.034551180899143219
0.54927915334701538 0.65500128269195557 0.050838951021432877
0.63660842180252075 0.65861380100250244 0.065322235226631165
0.71641385555267334 0.65841025114059448 0.075883068144321442
0.79369825124740601 0.65829753875732422 0.078157998621463776
0.86592686176300049 0.65313899517059326 0.070682495832443237
0.91292697191238403 0.6395496129989624 0.065085723996162415
0.92688709497451782 0.63196104764938354 0.066286943852901459
0.92206507921218872 0.62817472219467163 0.075659029185771942
0.067665517330169678 0.64753466844558716 0.014474965631961823
0.16921763122081757 0.67960828542709351 0.012792520225048065
0.27139651775360107 0.70189619064331055 0.011149926111102104
0.37196201086044312 0.71773850917816162 0.013742170296609402
0.46820363402366638 0.7335631251335144 0.028808249160647392
0.55780696868896484 0.74553686380386353 0.051701504737138748
0.63935524225234985 0.74784982204437256 0.07420223206281662
0.71596026420593262 0.74540913105010986 0.092473693192005157
0.79262292385101318 0.74392831325531006 0.10356926918029785
0.86573398113250732 0.73956352472305298 0.10976675897836685
0.91608381271362305 0.73227608203887939 0.11797325313091278
0.93004268407821655 0.72996127605438232 0.12662960588932037
0.92309606075286865 0.72933512926101685 0.13533692061901093
0.087481491267681122 0.75160461664199829 0.012354682199656963
0.19238212704658508 0.78187793493270874 0.012316176667809486
0.29347538948059082 0.79888159036636353 0.0093893762677907944
0.3881831169128418 0.80818122625350952 0.011053945869207382
0.47871130704879761 0.8204960823059082 0.027507975697517395
0.56292456388473511 0.83296388387680054 0.054974976927042007
0.63950604200363159 0.83702409267425537 0.083320364356040955
0.71156144142150879 0.83373785018920898 0.1070961132645607
0.78382468223571777 0.82823050022125244 0.12727311253547668
0.85537111759185791 0.81892997026443481 0.14823807775974274
0.91037195920944214 0.80754667520523071 0.17084282636642456
0.92905557155609131 0.80214160680770874 0.18492791056632996
0.92257165908813477 0.80168801546096802 0.19080245494842529
0.10470922291278839 0.84693139791488647 0.011274764314293861
0.21296252310276031 0.87700164318084717 0.013394015841186047
0.31224995851516724 0.88812398910522461 0.011861075647175312
0.40169861912727356 0.88938069343566895 0.013482576236128807
0.48705515265464783 0.89547485113143921 0.03084767609834671
0.56621438264846802 0.90480268001556396 0.060842119157314301
0.63742178678512573 0.90715277194976807 0.092896588146686554
0.70301342010498047 0.90337485074996948 0.12269746512174606
0.76758217811584473 0.89864784479141235 0.15240223705768585
0.83474379777908325 0.88762360811233521 0.18576341867446899
0.89313805103302002 0.87142956256866455 0.21852682530879974
0.92069500684738159 0.86343270540237427 0.23418591916561127
0.92194485664367676 0.86469352245330811 0.23476316034793854
0.1152486726641655 0.92275124788284302 0.010707870125770569
0.22460386157035828 0.94939810037612915 0.015126531012356281
0.32394099235534668 0.95717513561248779 0.016729436814785004
0.41242682933807373 0.95273351669311523 0.02110322006046772
0.49404129385948181 0.94868290424346924 0.037172820419073105
0.5684657096862793 0.94621521234512329 0.0647759810090065
0.63487887382507324 0.94096606969833374 0.098629593849182129
0.69522178173065186 0.93456929922103882 0.13443519175052643
0.75483649969100952 0.93213611841201782 0.17027264833450317
0.81779360771179199 0.92556875944137573 0.21092015504837036
0.8754584789276123 0.91273283958435059 0.25294297933578491
0.91067326068878174 0.90694200992584229 0.2767585813999176
0.92124336957931519 0.91086012125015259 0.28435161709785461
0.1188712939620018 0.97570812702178955 0.010701064020395279
0.22576525807380676 0.99296754598617554 0.015485666692256927
0.32534924149513245 0.99628716707229614 0.020069809630513191
0.41500505805015564 0.99148714542388916 0.027196832001209259
0.49581018090248108 0.97934478521347046 0.04149588942527771
0.56795543432235718 0.96486544609069824 0.065622292459011078
0.63263344764709473 0.94983142614364624 0.09839504212141037
0.69173437356948853 0.9381377100944519 0.13676838576793671
0.75095075368881226 0.93458366394042969 0.17279508709907532
0.81212764978408813 0.93347573280334473 0.21127644181251526
0.86837267875671387 0.92889928817749023 0.25296297669410706
0.9075053334236145 0.92839163541793823 0.28735476732254028
0.92317402362823486 0.93689835071563721 0.31718012690544128
0.016050480306148529 0.013543327338993549 0.03690769150853157
0.0557083860039711 0.014984325505793095 0.039941661059856415
0.11104929447174072 0.015988906845450401 0.040779728442430496
0.19310024380683899 0.015184693969786167 0.035540007054805756
0.29683640599250793 0.013220573775470257 0.026430241763591766
0.4108428955078125 0.010324680246412754 0.017982093617320061
0.52708977460861206 0.0068263034336268902 0.012260062620043755
0.63530361652374268 0.0021835626102983952 0.0082588642835617065
0.7327268123626709 1.7233456674148329e-05 0.0037240271922200918
0.82220900058746338 0 0.00060321582714095712
0.89801114797592163 1.9028608221560717e-05 0
0.94605785608291626 0.0014531303895637393 0.0031499676406383514
0.9681779146194458 0.0067743486724793911 0.014674033038318157
0.019021501764655113 0.053265471011400223 0.036207415163516998
0.057706587016582489 0.053402770310640335 0.040341336280107498
0.11237667500972748 0.055308636277914047 0.041663825511932373
0.19601812958717346 0.05544014647603035 0.038040339946746826
0.30182662606239319 0.052680686116218567 0.030340889468789101
0.41638728976249695 0.046576794236898422 0.022356219589710236
0.52889555692672729 0.037700295448303223 0.015149763785302639
0.63232201337814331 0.024870479479432106 0.0087967813014984131
0.72561001777648926 0.010584483854472637 0.0041075311601161957
0.81606191396713257 0.0054069370962679386 0.00074382108869031072
0.89527148008346558 0.0083973752334713936 0
0.94348305463790894 0.015460504218935966 0.0030459235422313213
0.96249479055404663 0.026092184707522392 0.01362717617303133
0.019884131848812103 0.097797662019729614 0.034014981240034103
0.065419532358646393 0.09880414605140686 0.041669584810733795
0.12513309717178345 0.10711632668972015 0.045287024229764938
0.21099412441253662 0.11296388506889343 0.044328771531581879
0.31775286793708801 0.11184411495923996 0.039006400853395462
0.4314066469669342 0.10459277778863907 0.031818702816963196
0.53949218988418579 0.093841254711151123 0.022804051637649536
0.63707643747329712 0.077209025621414185 0.01374028529971838
0.72754168510437012 0.056846573948860168 0.006432641763240099
0.81719768047332764 0.045020833611488342 0.0010660657426342368
0.89468103647232056 0.044627126306295395 0
0.93873298168182373 0.05042571946978569 0.0016711365897208452
0.95245355367660522 0.062114011496305466 0.011678194627165794
0.019968129694461823 0.16281589865684509 0.032798033207654953
0.074430055916309357 0.17007596790790558 0.042069632560014725
0.14257612824440002 0.18412375450134277 0.050760559737682343
0.23308506608009338 0.19643746316432953 0.054838038980960846
0.34314653277397156 0.19940808415412903 0.051701504737138748
0.45723456144332886 0.19418838620185852 0.045641325414180756
0.56082570552825928 0.18459527194499969 0.035336513072252274
0.65107768774032593 0.16568996012210846 0.023587768897414207
0.73601824045181274 0.13943518698215485 0.012884865514934063
0.8215140700340271 0.12068100273609161 0.0032250946387648582
0.89410871267318726 0.11385342478752136 0
0.93145221471786499 0.11397301405668259 0.00028566847322508693
0.93911665678024292 0.12138528376817703 0.0080917207524180412
0.022852221503853798 0.24880315363407135 0.035093747079372406
0.086529798805713654 0.26384139060974121 0.044507987797260284
0.16407392919063568 0.28321850299835205 0.055006317794322968
0.26135745644569397 0.30174753069877625 0.06306176632642746
0.37469112873077393 0.3124542236328125 0.065047211945056915
0.48989936709403992 0.31341433525085449 0.061210468411445618
0.5896601676940918 0.30585706233978271 0.051073439419269562
0.6726222038269043 0.28741112351417542 0.037085305899381638
0.75056260824203491 0.25725573301315308 0.022654963657259941
0.82907569408416748 0.22911331057548523 0.007712136022746563
0.89368212223052979 0.21308468282222748 0.00016985126421786845
0.92316365242004395 0.20527598261833191 6.582222908946278e-07
0.92506104707717896 0.20529726147651672 0.0033890369813889265
0.03029327467083931 0.34874507784843445 0.041234079748392105
0.10398954153060913 0.37078654766082764 0.049637619405984879
0.19041052460670471 0.39356964826583862 0.058542646467685699
0.29237180948257446 0.4158269464969635 0.068022966384887695
0.4059063196182251 0.43283161520957947 0.074996665120124817
0.51903891563415527 0.43918263912200928 0.075998120009899139
0.61545479297637939 0.4355652928352356 0.068478874862194061
0.69555586576461792 0.42309975624084473 0.054575692862272263
0.7712177038192749 0.3971673846244812 0.037577252835035324
0.844127357006073 0.35933795571327209 0.018231455236673355
0.89974713325500488 0.3278973400592804 0.0023630477953702211
0.9215729832649231 0.31619423627853394 0
0.91986936330795288 0.30948072671890259 0.00093697942793369293
0.043334003537893295 0.45471236109733582 0.047920197248458862
0.12813407182693481 0.48222807049751282 0.055119384080171585
0.2204979807138443 0.50457382202148438 0.061011161655187607
0.32343646883964539 0.52534651756286621 0.068271473050117493
0.43273046612739563 0.54290485382080078 0.077599950134754181
0.53827482461929321 0.55177199840545654 0.08397287130355835
0.6305127739906311 0.5517691969871521 0.084190249443054199
0.71074193716049194 0.54574871063232422 0.076998226344585419
0.78623193502426147 0.53112000226974487 0.06277204304933548
0.85589790344238281 0.50073122978210449 0.042127914726734161
0.90641516447067261 0.46403598785400391 0.020596612244844437
0.92472916841506958 0.44148984551429749 0.0074208877049386501
0.92131084203720093 0.42957726120948792 0.0096673257648944855
0.059655912220478058 0.56052017211914062 0.051418617367744446
0.15282101929187775 0.58886861801147461 0.055956792086362839
0.25022107362747192 0.60890311002731323 0.058641936630010605
0.35260877013206482 0.62547928094863892 0.063318274915218353
0.45631298422813416 0.64030742645263672 0.073599949479103088
0.55365103483200073 0.64955967664718628 0.086534120142459869
0.64024060964584351 0.65055215358734131 0.096464388072490692
0.71783280372619629 0.64779806137084961 0.099448904395103455
0.79175072908401489 0.64288920164108276 0.09237176924943924
0.85972797870635986 0.62888777256011963 0.077320754528045654
0.9084705114364624 0.60215038061141968 0.061560820788145065
0.92500460147857666 0.58056551218032837 0.051038868725299835
0.92126810550689697 0.57424455881118774 0.055659860372543335
0.076476678252220154 0.66319745779037476 0.051230516284704208
0.1760333925485611 0.6904175877571106 0.053667660802602768
0.27675649523735046 0.70702952146530151 0.053503356873989105
0.37735733389854431 0.71903973817825317 0.056491747498512268
0.47567585110664368 0.731364905834198 0.068554386496543884
0.56668108701705933 0.74119085073471069 0.087740756571292877
0.64710164070129395 0.74379712343215942 0.10574331879615784
0.72086077928543091 0.74040168523788452 0.11713934689760208
0.7926640510559082 0.73589897155761719 0.11940143257379532
0.86105811595916748 0.72910177707672119 0.11844509094953537
0.910633385181427 0.71832460165023804 0.11864358931779861
0.927684485912323 0.70815175771713257 0.11882780492305756
0.92231184244155884 0.7050468921661377 0.12357693910598755
0.091268889605998993 0.76018303632736206 0.051286149770021439
0.19761697947978973 0.78751277923583984 0.053003903478384018
0.30024492740631104 0.80115437507629395 0.051573224365711212
0.39666968584060669 0.80722451210021973 0.052487857639789581
0.48971343040466309 0.81687217950820923 0.06669018417596817
0.57540535926818848 0.82798916101455688 0.090672619640827179
0.65082383155822754 0.8335646390914917 0.11566280573606491
0.71928972005844116 0.83256912231445312 0.13570873439311981
0.78675174713134766 0.82456856966018677 0.15024340152740479
0.85392802953720093 0.8145567774772644 0.16793836653232574
0.90673232078552246 0.80259472131729126 0.19050981104373932
0.92726141214370728 0.79552918672561646 0.20280581712722778
0.92255508899688721 0.795673668384552 0.20617596805095673
0.1041329950094223 0.84909451007843018 0.051399409770965576
0.21605578064918518 0.8766028881072998 0.055686008185148239
0.32065972685813904 0.88773947954177856 0.055324256420135498
0.41328239440917969 0.88682246208190918 0.055523112416267395
0.50094932317733765 0.8900570273399353 0.070041388273239136
0.58135509490966797 0.89698797464370728 0.096065372228622437
0.65123772621154785 0.90263676643371582 0.12587571144104004
0.71315973997116089 0.90403813123703003 0.15561285614967346
0.77305638790130615 0.89830619096755981 0.18639837205410004
0.83505350351333618 0.88543075323104858 0.228544682264328
0.88781440258026123 0.86833208799362183 0.28312879800796509
0.91507881879806519 0.86028933525085449 0.31104353070259094
0.91960585117340088 0.86212092638015747 0.30771750211715698
0.11299896240234375 0.92188829183578491 0.052414402365684509
0.22733016312122345 0.94726049900054932 0.059338364750146866
0.33357250690460205 0.95526331663131714 0.062643758952617645
0.42628282308578491 0.94966071844100952 0.065587691962718964
0.50975614786148071 0.94165676832199097 0.07732265442609787
0.58542829751968384 0.9355086088180542 0.10016482323408127
0.65095943212509155 0.93119621276855469 0.13187091052532196
0.70749801397323608 0.92886584997177124 0.16970586776733398
0.76248621940612793 0.92795860767364502 0.21172100305557251
0.81913870573043823 0.92148715257644653 0.2735973596572876
0.86909830570220947 0.91023635864257812 0.36201116442680359
0.90369081497192383 0.90474539995193481 0.41582351922988892
0.91807073354721069 0.90892940759658813 0.41875863075256348
0.11830734461545944 0.97457170486450195 0.055826403200626373
0.23016807436943054 0.99181461334228516 0.062723778188228607
0.33507898449897766 0.99496489763259888 0.068019896745681763
0.42850181460380554 0.98747372627258301 0.073085799813270569
0.51150053739547729 0.96997779607772827 0.082915060222148895
0.58566433191299438 0.95009845495223999 0.101382777094841
0.64886033535003662 0.9330369234085083 0.1320222020149231
0.70544624328613281 0.92327940464019775 0.17290894687175751
0.76096618175506592 0.92318761348724365 0.21493855118751526
0.81752908229827881 0.92491477727890015 0.27328005433082581
0.87029385566711426 0.92215192317962646 0.35552304983139038
0.90954917669296265 0.92272698879241943 0.42289319634437561
0.92434978485107422 0.93306654691696167 0.45963913202285767
0.015119754709303379 0.0075582466088235378 0.076706334948539734
0.053439706563949585 0.010538153350353241 0.085303962230682373
0.10847170650959015 0.01224167738109827 0.092338278889656067
0.18896691501140594 0.012031510472297668 0.090153604745864868
0.29157111048698425 0.011360033415257931 0.078279279172420502
0.4071078896522522 0.01009032316505909 0.064832486212253571
0.52744150161743164 0.0079771755263209343 0.053873099386692047
0.64196860790252686 0.004301153589040041 0.043512500822544098
0.74323362112045288 0.00029491350869648159 0.030485460534691811
0.83256947994232178 0 0.017688481137156487
0.90352696180343628 0 0.010421154089272022
0.94556725025177002 0.00012268366117496043 0.015831427648663521
0.96260017156600952 0.001568468869663775 0.030676567927002907
0.015156510286033154 0.044840119779109955 0.068440258502960205
0.052078306674957275 0.047483585774898529 0.077074639499187469
0.10725214332342148 0.049897421151399612 0.085456684231758118
0.18969094753265381 0.049983769655227661 0.085487082600593567
0.29420274496078491 0.04842110350728035 0.076450660824775696
0.40996575355529785 0.04391186311841011 0.065695412456989288
0.52698647975921631 0.036040615290403366 0.054078646004199982
0.63684827089309692 0.024081675335764885 0.040356893092393875
0.73676741123199463 0.011116147972643375 0.026979947462677956
0.82846760749816895 0.0045860139653086662 0.014784285798668861
0.90187454223632812 0.0040049683302640915 0.007798557635396719
0.94224953651428223 0.006459210067987442 0.012506193481385708
0.95514547824859619 0.013292663730680943 0.027016643434762955
0.015771394595503807 0.089802250266075134 0.061437271535396576
0.057300716638565063 0.09252108633518219 0.070827051997184753
0.11566613614559174 0.099683351814746857 0.079104587435722351
0.20093819499015808 0.10403647273778915 0.081002973020076752
0.30723932385444641 0.10444069653749466 0.075693435966968536
0.42186182737350464 0.098783291876316071 0.0687393918633461
0.53351622819900513 0.088106714189052582 0.058266028761863708
0.63632494211196899 0.071189180016517639 0.043598789721727371
0.73289632797241211 0.051226940006017685 0.028943544253706932
0.8256874680519104 0.037798397243022919 0.014588643796741962
0.9013521671295166 0.033345270901918411 0.0051609710790216923
0.93787437677383423 0.034591302275657654 0.0086313281208276749
0.9453696608543396 0.042969107627868652 0.022708578035235405
0.017472943291068077 0.15285143256187439 0.061359569430351257
0.06641262024641037 0.16005638241767883 0.070077739655971527
0.13116490840911865 0.17184922099113464 0.079200178384780884
0.22045886516571045 0.18197117745876312 0.083993904292583466
0.32949557900428772 0.18704439699649811 0.082276225090026855
0.44371253252029419 0.18402454257011414 0.076762527227401733
0.54966801404953003 0.17465025186538696 0.067982181906700134
0.64356309175491333 0.15483063459396362 0.055459428578615189
0.73172199726104736 0.12733554840087891 0.039623662829399109
0.82119166851043701 0.10704217106103897 0.020150607451796532
0.89467030763626099 0.097045332193374634 0.0049492479301989079
0.92931962013244629 0.093112736940383911 0.0045625725761055946
0.93427622318267822 0.098449766635894775 0.017072640359401703
0.021384969353675842 0.23879346251487732 0.06809476763010025
0.080045782029628754 0.25240013003349304 0.076314635574817657
0.15310381352901459 0.26912015676498413 0.08583870530128479
0.24715091288089752 0.2856132984161377 0.093049176037311554
0.35831382870674133 0.29684892296791077 0.095349632203578949
0.47285547852516174 0.2991679310798645 0.091662570834159851
