assets/lut/shamoonabbasi city 7.cube
# Created by: G'MIC (https://gmic.eu)
TITLE "city_7"
# LUT size
LUT_3D_SIZE 7
# Data domain
DOMAIN_MIN 0.0 0.0 0.0
DOMAIN_MAX 1.0 1.0 1.0
# LUT data points
0.01347820833325386 0.039972148835659027 0.036563992500305176
0.039799395948648453 0.043156042695045471 0.031181380152702332
0.15555831789970398 0.050798453390598297 0.011198440566658974
0.35065895318984985 0.057128936052322388 0
0.50670367479324341 0.06881231814622879 0
0.62318813800811768 0.069937624037265778 0
0.71587377786636353 0.062436271458864212 0.00035394408041611314
0.0043650008738040924 0.081681735813617706 0.050073422491550446
0.038298618048429489 0.091072142124176025 0.043878562748432159
0.20002645254135132 0.10509072244167328 0.01517779752612114
0.43052724003791809 0.11771805584430695 0.00051338347839191556
0.61109167337417603 0.13460679352283478 0
0.73928177356719971 0.13656817376613617 0
0.83150959014892578 0.13133327662944794 0
0 0.15790183842182159 0.079076461493968964
0.017314566299319267 0.17737960815429688 0.055565495043992996
0.22485141456127167 0.21005500853061676 0.0016838522860780358
0.49566340446472168 0.23161736130714417 0.00057845772244036198
0.68764817714691162 0.25675696134567261 0.0024899800773710012
0.82263427972793579 0.26651731133460999 0
0.8960568904876709 0.28306406736373901 0.0058287973515689373
0.00030124140903353691 0.28783833980560303 0.11244940757751465
0.013102767057716846 0.32098162174224854 0.084375865757465363
0.21449969708919525 0.38534951210021973 0.0060574249364435673
0.53890001773834229 0.42325469851493835 6.4625460254319478e-06
0.73469197750091553 0.45386028289794922 0.0030091677326709032
0.86474806070327759 0.45772841572761536 0
0.93124938011169434 0.46832758188247681 0.0002996856055688113
6.9233014073688537e-05 0.42897778749465942 0.15161527693271637
0.0099412212148308754 0.4821287989616394 0.11206117272377014
0.2331414669752121 0.57379531860351562 0.0030423032585531473
0.59141498804092407 0.60698884725570679 0
0.78658467531204224 0.63100337982177734 0
0.90880757570266724 0.63278913497924805 0.00022624894336331636
0.97295951843261719 0.63641482591629028 0.00051769183482974768
2.4114870029734448e-05 0.5063246488571167 0.1830521821975708
0.004537919070571661 0.56321501731872559 0.12213753908872604
0.23629651963710785 0.65983259677886963 0.00086726766312494874
0.59534025192260742 0.70431298017501831 0.00028665579156950116
0.79648417234420776 0.73507732152938843 0.0010227577295154333
0.92987442016601562 0.75405049324035645 0.0036506352480500937
0.99603825807571411 0.76187592744827271 0.00014216105046216398
0.001321261515840888 0.53011941909790039 0.20008474588394165
4.3951295083388686e-05 0.59956669807434082 0.13406990468502045
0.18300071358680725 0.70885241031646729 0.00035880593350157142
0.59578448534011841 0.75904601812362671 5.9509278798941523e-05
0.81906932592391968 0.79538154602050781 0.0024056527763605118
0.95930629968643188 0.81733685731887817 0.0094918794929981232
0.99945080280303955 0.82232367992401123 0.00018961289606522769
0.0086466921493411064 0.044800911098718643 0.074365623295307159
0.038698278367519379 0.048223160207271576 0.074444681406021118
0.16293027997016907 0.055524174124002457 0.061180219054222107
0.38714092969894409 0.054620407521724701 0.026326932013034821
0.54814964532852173 0.063409231603145599 0.019330836832523346
0.6815040111541748 0.044282935559749603 0.019613258540630341
0.79175281524658203 0.013076632283627987 0.028471613302826881
0.0032061259262263775 0.093446247279644012 0.093570441007614136
0.045807048678398132 0.099264003336429596 0.09730326384305954
0.20385175943374634 0.11595609784126282 0.082897752523422241
0.45499664545059204 0.12800219655036926 0.054750122129917145
0.64916008710861206 0.13636422157287598 0.03956177830696106
0.81295466423034668 0.10173459351062775 0.022026332095265388
0.93015831708908081 0.054389368742704391 0.012673875316977501
0.00029081455431878567 0.17370547354221344 0.12824580073356628
0.047275543212890625 0.18877662718296051 0.129323810338974
0.23079954087734222 0.22724625468254089 0.085385583341121674
0.51945322751998901 0.2475532740354538 0.061997342854738235
0.73075574636459351 0.26272600889205933 0.049962840974330902
0.90506410598754883 0.25750195980072021 0.010620431043207645
0.98455804586410522 0.25390255451202393 0.0015104106860235333
0.0006160960765555501 0.31444838643074036 0.16840565204620361
0.040934588760137558 0.33829775452613831 0.17546381056308746
0.24422653019428253 0.41070052981376648 0.10126796364784241
0.55912750959396362 0.45270049571990967 0.06161956861615181
0.76035779714584351 0.47832643985748291 0.054776061326265335
0.91826015710830688 0.48750931024551392 0.0053469939157366753
0.98388803005218506 0.47859418392181396 0
0 0.46304967999458313 0.234047532081604
0.013840664178133011 0.51370441913604736 0.2175428569316864
0.23834027349948883 0.60980892181396484 0.092430770397186279
0.60807466506958008 0.64363342523574829 0.059538327157497406
0.80165791511535645 0.66316038370132446 0.059183202683925629
0.94261366128921509 0.66782867908477783 0.024713344871997833
0.99917268753051758 0.66315644979476929 0
5.4452932090498507e-05 0.53493183851242065 0.27734574675559998
0 0.59421104192733765 0.24628065526485443
0.18437956273555756 0.70728087425231934 0.04790211096405983
0.60063451528549194 0.75011873245239258 0.0063712028786540031
0.82081526517868042 0.77122396230697632 0.034441810101270676
0.95918446779251099 0.78637635707855225 0.012521871365606785
1 0.79322105646133423 0
6.5343519963789731e-05 0.56076705455780029 0.30466783046722412
0.0093761971220374107 0.62671315670013428 0.27674975991249084
0.17662891745567322 0.74736940860748291 0.076874949038028717
0.58824789524078369 0.81012225151062012 6.0287176893325523e-05
0.84650176763534546 0.83871042728424072 0
0.98781716823577881 0.85472351312637329 0
1 0.85738176107406616 2.5281718990299851e-05
0.00024509805371053517 0.069265447556972504 0.15367843210697174
0.024711279198527336 0.062249097973108292 0.16940394043922424
0.1724170446395874 0.059791069477796555 0.17567388713359833
0.40450415015220642 0.055868949741125107 0.16079725325107574
0.58533298969268799 0.054062098264694214 0.15977326035499573
0.72612136602401733 0.028753317892551422 0.16567853093147278
0.82964545488357544 0 0.18090476095676422
0 0.11771173030138016 0.19089561700820923
0.043481521308422089 0.12235982716083527 0.19405877590179443
0.20831863582134247 0.13021016120910645 0.22143571078777313
0.47225576639175415 0.14265768229961395 0.21249401569366455
0.69168496131896973 0.13367754220962524 0.21574907004833221
0.86437678337097168 0.083856888115406036 0.22111135721206665
0.95656180381774902 0.044618971645832062 0.22796490788459778
0 0.20233896374702454 0.23626728355884552
0.053950920701026917 0.21806398034095764 0.24688392877578735
0.24171814322471619 0.25358611345291138 0.25591856241226196
0.54184889793395996 0.27074643969535828 0.24355389177799225
0.79898643493652344 0.26406687498092651 0.23832510411739349
0.96008360385894775 0.24976834654808044 0.2283976674079895
0.99988585710525513 0.25385868549346924 0.22614991664886475
0 0.34918716549873352 0.29478469491004944
0.053856957703828812 0.38197773694992065 0.31478983163833618
0.26183336973190308 0.4464259147644043 0.30287247896194458
0.56319212913513184 0.49277108907699585 0.2815186083316803
0.80949580669403076 0.50938516855239868 0.23718366026878357
0.97862857580184937 0.50635957717895508 0.16071458160877228
1 0.49388083815574646 0.12133524566888809
3.3748852729331702e-05 0.50075095891952515 0.38278886675834656
0.042285110801458359 0.55113524198532104 0.39554533362388611
0.22008931636810303 0.65295326709747314 0.32074654102325439
0.5891299843788147 0.69333404302597046 0.26875141263008118
0.80372142791748047 0.69964110851287842 0.28266295790672302
0.97830212116241455 0.70496070384979248 0.16824740171432495
1 0.70118886232376099 0.10419069230556488
0.0055704005062580109 0.57440513372421265 0.43451201915740967
0.00054135790560394526 0.62902003526687622 0.43339821696281433
0.1277567595243454 0.74958354234695435 0.30825561285018921
0.57065820693969727 0.81010788679122925 0.18859569728374481
0.83303338289260864 0.82820016145706177 0.17904394865036011
0.97756499052047729 0.83199334144592285 0.1957816481590271
0.99915343523025513 0.83653718233108521 0.15046943724155426
0 0.60655903816223145 0.46864360570907593
0 0.67613577842712402 0.47076800465583801
0.11252681910991669 0.79335266351699829 0.35990935564041138
0.54417717456817627 0.86086928844451904 0.22316785156726837
0.83886134624481201 0.88729488849639893 0.19874577224254608
0.99025905132293701 0.89673668146133423 0.17912253737449646
0.99988704919815063 0.89405196905136108 0.25004836916923523
0 0.11556322872638702 0.26410356163978577
0.0089718988165259361 0.10242971032857895 0.29281765222549438
0.16454291343688965 0.06664566695690155 0.36485344171524048
0.41357532143592834 0.063696004450321198 0.35559526085853577
0.60798788070678711 0.056545644998550415 0.36411121487617493
0.7474098801612854 0.034122705459594727 0.37390601634979248
0.85203605890274048 0 0.40233564376831055
0.00015468223136849701 0.16804669797420502 0.32461804151535034
0.039189822971820831 0.17138287425041199 0.33162885904312134
0.19498614966869354 0.14984719455242157 0.43773347139358521
0.48745074868202209 0.16249248385429382 0.42837366461753845
0.70340865850448608 0.15013925731182098 0.45320242643356323
0.87309569120407104 0.094431966543197632 0.4897344708442688
0.96602416038513184 0.052160855382680893 0.51554542779922485
0.00068030261900275946 0.25543674826622009 0.3844817578792572
0.044075790792703629 0.26813021302223206 0.40470454096794128
0.21315239369869232 0.28273969888687134 0.49493184685707092
0.54257327318191528 0.30217292904853821 0.49896669387817383
0.79699438810348511 0.28669184446334839 0.52466034889221191
0.95017451047897339 0.26953354477882385 0.54181468486785889
0.99972724914550781 0.2712554931640625 0.54877614974975586
0 0.40310022234916687 0.4665953516960144
0.057012055069208145 0.43547430634498596 0.4909396767616272
0.28860706090927124 0.48910751938819885 0.51096677780151367
0.56799805164337158 0.53140735626220703 0.53249722719192505
0.81312727928161621 0.54195708036422729 0.51637738943099976
0.9630240797996521 0.53619623184204102 0.50147485733032227
0.99748116731643677 0.52653259038925171 0.49216777086257935
0.00019997989875264466 0.55989968776702881 0.56183147430419922
0.055949684232473373 0.60468065738677979 0.5876198410987854
0.24912035465240479 0.68817198276519775 0.59258842468261719
0.5581250786781311 0.74089509248733521 0.54488033056259155
0.80187278985977173 0.7476617693901062 0.54238677024841309
0.97159373760223389 0.74406510591506958 0.49048280715942383
0.99926841259002686 0.74069619178771973 0.4646640419960022
0.0048797908239066601 0.63030081987380981 0.61275744438171387
0.0012873930390924215 0.68079656362533569 0.63484132289886475
0.078308403491973877 0.79290300607681274 0.61482495069503784
0.50278562307357788 0.85643500089645386 0.54669201374053955
0.7997702956199646 0.87353014945983887 0.53021383285522461
0.96211391687393188 0.8785814642906189 0.53250986337661743
1 0.88005262613296509 0.51747989654541016
0 0.66021424531936646 0.64383876323699951
0 0.73189878463745117 0.67915672063827515
0.042521681636571884 0.84080147743225098 0.66798603534698486
0.4728567898273468 0.90136408805847168 0.59469246864318848
0.78788965940475464 0.92612093687057495 0.57867026329040527
0.96172207593917847 0.93815392255783081 0.55573892593383789
0.99992650747299194 0.93396002054214478 0.59656602144241333
0 0.1533762514591217 0.35745498538017273
0.0044980966486036777 0.14318709075450897 0.39308249950408936
0.1578972190618515 0.074235506355762482 0.51715618371963501
0.41897717118263245 0.079007439315319061 0.51541399955749512
0.61285609006881714 0.081318110227584839 0.52469748258590698
0.75658774375915527 0.057978130877017975 0.54429447650909424
0.86924177408218384 0.0017746121156960726 0.58658134937286377
0 0.21130438148975372 0.43042075634002686
0.011149417608976364 0.2147250771522522 0.45881706476211548
0.18804772198200226 0.15662623941898346 0.63440454006195068
0.51215976476669312 0.17192903161048889 0.62050235271453857
0.70562738180160522 0.17860871553421021 0.6333010196685791
0.87528139352798462 0.116971455514431 0.68345987796783447
0.98234379291534424 0.052036959677934647 0.72950762510299683
0 0.30006623268127441 0.5064970850944519
0.022365989163517952 0.31647792458534241 0.53158801794052124
0.17309221625328064 0.30555573105812073 0.70508158206939697
0.56140494346618652 0.31104090809822083 0.72906374931335449
0.79619514942169189 0.30822634696960449 0.73750162124633789
0.94625866413116455 0.289764404296875 0.76082217693328857
1 0.28045809268951416 0.77554839849472046
0 0.45435050129890442 0.59297031164169312
0.049061451107263565 0.48271450400352478 0.62110966444015503
0.25191184878349304 0.53747987747192383 0.68138134479522705
0.54371893405914307 0.56198817491531372 0.74361950159072876
0.79645270109176636 0.56451278924942017 0.74642753601074219
0.95040994882583618 0.55685138702392578 0.74268382787704468
1 0.54792451858520508 0.73572647571563721
0.00018208821711596102 0.6080506443977356 0.68788242340087891
0.06176280602812767 0.64163285493850708 0.70979362726211548
0.27318653464317322 0.71416068077087402 0.74549448490142822
0.55010819435119629 0.76083385944366455 0.74875861406326294
0.78525018692016602 0.77528774738311768 0.74258381128311157
0.94597083330154419 0.77380943298339844 0.72680419683456421
1 0.75954431295394897 0.7104942798614502
0.0099664721637964249 0.66652154922485352 0.72627472877502441
0.0048568723723292351 0.71195590496063232 0.75648027658462524
0.09176858514547348 0.81426429748535156 0.78981888294219971
0.45007383823394775 0.884388267993927 0.77025246620178223
0.77575266361236572 0.9025692343711853 0.75275486707687378
0.94282788038253784 0.90946334600448608 0.74902862310409546
0.99969732761383057 0.90992921590805054 0.73643219470977783
0.0043968050740659237 0.69221502542495728 0.75121390819549561
0 0.75917381048202515 0.79884558916091919
0.025484571233391762 0.86668926477432251 0.83923780918121338
0.4123634397983551 0.9304158091545105 0.80581796169281006
0.76881170272827148 0.95231884717941284 0.7860674262046814
0.93794488906860352 0.96408450603485107 0.78323853015899658
0.99823254346847534 0.96482664346694946 0.79720896482467651
0 0.18712413311004639 0.43065068125724792
0.00017502729315310717 0.18384374678134918 0.47154209017753601
0.15173989534378052 0.079497195780277252 0.65202867984771729
0.43734279274940491 0.078368991613388062 0.64480972290039062
0.63742494583129883 0.071372553706169128 0.65790987014770508
0.77770763635635376 0.050864081829786301 0.68311887979507446
0.87901169061660767 0.0072468030266463757 0.72344756126403809
1.9058526959270239e-05 0.2423742413520813 0.5132300853729248
0.00055346020963042974 0.25008812546730042 0.54918676614761353
0.18334835767745972 0.13718095421791077 0.80569440126419067
0.53816825151443481 0.1381484717130661 0.79640597105026245
0.74609959125518799 0.14220021665096283 0.79654300212860107
0.89033353328704834 0.11243205517530441 0.82690858840942383
0.97802335023880005 0.0676766037940979 0.87130856513977051
2.1781173927593045e-05 0.33514180779457092 0.59433871507644653
0.0011651432141661644 0.35221183300018311 0.63760876655578613
0.10906495898962021 0.31481572985649109 0.86748343706130981
0.56241148710250854 0.30036112666130066 0.90014898777008057
0.81145012378692627 0.30452844500541687 0.89313852787017822
0.94714254140853882 0.2990487813949585 0.90188026428222656
1 0.28852641582489014 0.91409522294998169
0 0.48903077840805054 0.68038445711135864
0.02080179937183857 0.51454675197601318 0.71545135974884033
0.15560173988342285 0.56588613986968994 0.82843732833862305
0.51158648729324341 0.57715851068496704 0.910797119140625
0.78600984811782837 0.579875648021698 0.90097922086715698
0.94022834300994873 0.57152539491653442 0.89491379261016846
1 0.55951374769210815 0.8874625563621521
0.00010793349065352231 0.63134443759918213 0.75620251893997192
0.035705476999282837 0.66646331548690796 0.78565710783004761
0.21378834545612335 0.74112933874130249 0.85154300928115845
0.50019484758377075 0.78358668088912964 0.90158510208129883
0.7619362473487854 0.79468929767608643 0.88892471790313721
0.92871558666229248 0.78922569751739502 0.88125371932983398
0.9992525577545166 0.77737480401992798 0.87143552303314209
0.0073845209553837776 0.68410295248031616 0.78533250093460083
0.002282370813190937 0.72843766212463379 0.82468682527542114
0.094002500176429749 0.83071386814117432 0.88969618082046509
0.42156898975372314 0.90095227956771851 0.90874862670898438
0.75199669599533081 0.92079126834869385 0.89639097452163696
0.92373919486999512 0.92687749862670898 0.88905984163284302
0.99473202228546143 0.92542630434036255 0.88219410181045532
0.01001129113137722 0.7093845009803772 0.80604833364486694
0 0.77276849746704102 0.86409366130828857
0.019319720566272736 0.88057690858840942 0.93171983957290649
0.35172849893569946 0.94854748249053955 0.93542563915252686
0.74699455499649048 0.96614617109298706 0.91857099533081055
0.91740387678146362 0.97679340839385986 0.91027742624282837
0.99138689041137695 0.97936230897903442 0.91048896312713623
0.001883278600871563 0.21537528932094574 0.48150947690010071
0.00019194658671040088 0.20134648680686951 0.54320728778839111
0.15669867396354675 0.054525651037693024 0.77482426166534424
0.45967203378677368 0.048696435987949371 0.77364861965179443
0.66870605945587158 0.032909482717514038 0.78745853900909424
0.80811762809753418 0.01174138393253088 0.80845487117767334
0.88926082849502563 0.010071040131151676 0.82381892204284668
0.0035219679120928049 0.27441245317459106 0.55787771940231323
0.0011313494760543108 0.27414527535438538 0.6087602972984314
0.17206446826457977 0.12101910263299942 0.92201417684555054
0.55891954898834229 0.11857717484235764 0.91626536846160889
0.78001940250396729 0.1091596707701683 0.91914331912994385
0.91896456480026245 0.078332625329494476 0.94179350137710571
0.98689621686935425 0.072766490280628204 0.95747685432434082
0.0035909614525735378 0.36505529284477234 0.64818763732910156
0 0.3780522346496582 0.7020193338394165
0.094530962407588959 0.33258026838302612 0.9413754940032959
0.55959063768386841 0.31152600049972534 0.98536723852157593
0.81687307357788086 0.30713844299316406 0.98784941434860229
0.94858890771865845 0.2992304265499115 0.99465411901473999
0.99824875593185425 0.31338006258010864 0.99352854490280151
0 0.51402479410171509 0.73302757740020752
0 0.5449950098991394 0.77849328517913818
0.03972727432847023 0.58614540100097656 0.93320900201797485
0.49240639805793762 0.58983397483825684 0.99525243043899536
0.77414524555206299 0.58470779657363892 0.99359607696533203
0.92734497785568237 0.57529479265213013 0.99365144968032837
0.99688810110092163 0.57096272706985474 0.98927968740463257
0 0.6468501091003418 0.79837006330490112
0.001968323951587081 0.68191331624984741 0.83703887462615967
0.096504583954811096 0.75266748666763306 0.9337843656539917
0.42893514037132263 0.7887122631072998 0.99593484401702881
0.74167871475219727 0.79854553937911987 0.98610943555831909
0.9121938943862915 0.79406154155731201 0.98316973447799683
0.99240988492965698 0.78854018449783325 0.97761112451553345
0.0023110033944249153 0.70107036828994751 0.82534885406494141
0.0030366186983883381 0.7424846887588501 0.86644238233566284
0.058561049401760101 0.83671450614929199 0.94540154933929443
0.38089343905448914 0.90743452310562134 0.98795551061630249
0.73015564680099487 0.93161588907241821 0.98187804222106934
0.90821534395217896 0.93369042873382568 0.97487819194793701
0.9850342869758606 0.93498885631561279 0.96925938129425049
0.0017202937742695212 0.72520071268081665 0.8427741527557373
0.00010699103586375713 0.7850031852722168 0.89724445343017578
0 0.89229446649551392 0.97255837917327881
0.30733782052993774 0.95886516571044922 0.99670475721359253
0.73419618606567383 0.97690075635910034 0.98718512058258057
0.90396767854690552 0.98450809717178345 0.97823840379714966
0.97919505834579468 0.98745977878570557 0.97560364007949829
