assets/lut/shamoonabbasi industrial 33.cube
# Created by: G'MIC (https://gmic.eu)
TITLE "industrial_33"
# LUT size
LUT_3D_SIZE 7
# Data domain
DOMAIN_MIN 0.0 0.0 0.0
DOMAIN_MAX 1.0 1.0 1.0
# LUT data points
0.013019426725804806 0.018713260069489479 0.016687026247382164
0.062832057476043701 0.021076621487736702 0.014140394516289234
0.27044501900672913 0.075368009507656097 0.0083379410207271576
0.45396131277084351 0.13490332663059235 0.0084359860047698021
0.55944043397903442 0.16943685710430145 0.010324111208319664
0.62165087461471558 0.18963815271854401 0.011764706112444401
0.65137261152267456 0.20002800226211548 0.012579166330397129
0.018553566187620163 0.068106330931186676 0.059005063027143478
0.05625775083899498 0.062360126525163651 0.043395202606916428
0.21452204883098602 0.083108909428119659 0.016147419810295105
0.4057801365852356 0.13011099398136139 0.0087194107472896576
0.54329979419708252 0.17703936994075775 0.0078431377187371254
0.6155204176902771 0.19676409661769867 0.010047105140984058
0.6596648097038269 0.21005463600158691 0.011741369031369686
0.026267856359481812 0.18918387591838837 0.15371190011501312
0.052345771342515945 0.17595931887626648 0.13767196238040924
0.18690125644207001 0.17321139574050903 0.075954198837280273
0.41111192107200623 0.20646472275257111 0.012309414334595203
0.54932725429534912 0.21836143732070923 0.0078431377187371254
0.62369441986083984 0.22042575478553772 0.0078431377187371254
0.67637699842453003 0.23161201179027557 0.0078890928998589516
0.062182318419218063 0.35686632990837097 0.28966853022575378
0.071204543113708496 0.34024521708488464 0.27420279383659363
0.14090684056282043 0.32489311695098877 0.24124963581562042
0.4157988429069519 0.35024252533912659 0.12271441519260406
0.61849802732467651 0.38123536109924316 0.01021163072437048
0.68988549709320068 0.35967922210693359 0.0020846647676080465
0.72952920198440552 0.33436158299446106 0.003553921589627862
0.083720125257968903 0.50371086597442627 0.41308629512786865
0.11434794217348099 0.4936428964138031 0.39799690246582031
0.16004323959350586 0.4910351037979126 0.38674825429916382
0.32285568118095398 0.4924030601978302 0.33929899334907532
0.61839121580123901 0.51374310255050659 0.17646521329879761
0.75907528400421143 0.52877920866012573 0.020621072500944138
0.81528443098068237 0.51054877042770386 0.00019453460117802024
0.07331828773021698 0.62038075923919678 0.51453280448913574
0.12337477505207062 0.60846400260925293 0.49668210744857788
0.17219698429107666 0.60466337203979492 0.48557808995246887
0.28824344277381897 0.61398202180862427 0.45503363013267517
0.50824463367462158 0.60450512170791626 0.40516051650047302
0.75097644329071045 0.62331849336624146 0.23146986961364746
0.86741048097610474 0.62876945734024048 0.029187146574258804
0.065201118588447571 0.70255666971206665 0.58524155616760254
0.110525943338871 0.70298326015472412 0.58271622657775879
0.179549440741539 0.70252817869186401 0.57360094785690308
0.255820631980896 0.70821589231491089 0.55738615989685059
0.44772469997406006 0.72388941049575806 0.505482017993927
0.64002996683120728 0.72279661893844604 0.48887819051742554
0.89030098915100098 0.74515509605407715 0.30842068791389465
0.017887100577354431 0.043662890791893005 0.051626093685626984
0.059655074030160904 0.037723943591117859 0.046886488795280457
0.2681090235710144 0.052485357969999313 0.032263990491628647
0.4581855833530426 0.12163306027650833 0.018744764849543571
0.56665003299713135 0.1612398773431778 0.017794530838727951
0.62781155109405518 0.18632414937019348 0.018006792291998863
0.65746200084686279 0.19942867755889893 0.021908987313508987
0.022113889455795288 0.0838288813829422 0.087793417274951935
0.0532798171043396 0.070022046566009521 0.069576352834701538
0.21491619944572449 0.072683624923229218 0.040948756039142609
0.41240289807319641 0.12114840000867844 0.025082413107156754
0.54425132274627686 0.16779285669326782 0.022610459476709366
0.61843007802963257 0.1924574226140976 0.018762819468975067
0.65985548496246338 0.20546673238277435 0.017871931195259094
0.016522590070962906 0.21239478886127472 0.18784104287624359
0.039882000535726547 0.19863702356815338 0.16820959746837616
0.19375365972518921 0.1766321063041687 0.094190768897533417
0.41934093832969666 0.20006124675273895 0.028821459040045738
0.55439454317092896 0.21044172346591949 0.019179819151759148
0.6263236403465271 0.21731449663639069 0.016057452186942101
0.67256331443786621 0.22834441065788269 0.016387086361646652
0.014397714287042618 0.3795783519744873 0.32587549090385437
0.037065915763378143 0.37031117081642151 0.30980870127677917
0.14170302450656891 0.34441977739334106 0.26469415426254272
0.4311128556728363 0.35811504721641541 0.12541146576404572
0.62392449378967285 0.37539997696876526 0.0080517483875155449
0.69228446483612061 0.35514134168624878 0.0060572903603315353
0.7295040488243103 0.32398098707199097 0.0077786315232515335
0.013980581425130367 0.52267241477966309 0.45066002011299133
0.036290653049945831 0.52244341373443604 0.44020721316337585
0.12732782959938049 0.50896346569061279 0.41242879629135132
0.32346385717391968 0.50295603275299072 0.34971052408218384
0.63505560159683228 0.52032792568206787 0.1717933863401413
0.75862807035446167 0.52701437473297119 0.017586024478077888
0.81203216314315796 0.50130122900009155 0.0020998038817197084
0.0063499598763883114 0.62324535846710205 0.54569137096405029
0.030909115448594093 0.62772971391677856 0.53739339113235474
0.11064686626195908 0.62932282686233521 0.52164721488952637
0.28966924548149109 0.62312811613082886 0.46785777807235718
0.51638209819793701 0.61390554904937744 0.40785586833953857
0.76085418462753296 0.63049638271331787 0.22963623702526093
0.8697504997253418 0.62769174575805664 0.02725302055478096
0.012519283220171928 0.70536357164382935 0.61886787414550781
0.020482501015067101 0.72157543897628784 0.62200498580932617
0.073644526302814484 0.73563081026077271 0.62208479642868042
0.24391181766986847 0.72290349006652832 0.58173322677612305
0.44276028871536255 0.73622876405715942 0.51709318161010742
0.64534825086593628 0.73161858320236206 0.4923458993434906
0.87812429666519165 0.74252426624298096 0.31543567776679993
0.045565824955701828 0.10848160088062286 0.14809297025203705
0.06583297997713089 0.10147066414356232 0.14053672552108765
0.20881803333759308 0.11674346774816513 0.16755209863185883
0.46203586459159851 0.10019118338823318 0.13710135221481323
0.59401750564575195 0.12600977718830109 0.08909904956817627
0.65193873643875122 0.15479135513305664 0.050863496959209442
0.6734689474105835 0.1786133199930191 0.036329276859760284
0.046174336224794388 0.14109236001968384 0.18483127653598785
0.065779052674770355 0.1309712678194046 0.17114752531051636
0.18599982559680939 0.12546510994434357 0.16467286646366119
0.43671354651451111 0.10416544228792191 0.11935518682003021
0.58174329996109009 0.13233070075511932 0.068830855190753937
0.63994759321212769 0.17115825414657593 0.050612818449735641
0.66943854093551636 0.19419185817241669 0.041006378829479218
0.026691257953643799 0.25570043921470642 0.26989898085594177
0.04886564239859581 0.2436528205871582 0.25407800078392029
0.20422393083572388 0.22832866013050079 0.22316333651542664
0.43520200252532959 0.2108905017375946 0.15329167246818542
0.56747269630432129 0.20756417512893677 0.11088805645704269
0.63987261056900024 0.20889858901500702 0.075340151786804199
0.68524473905563354 0.22009958326816559 0.054565310478210449
0.0030281215440481901 0.40240240097045898 0.37394770979881287
0.0069221495650708675 0.40318644046783447 0.37133720517158508
0.12463769316673279 0.41496148705482483 0.36373186111450195
0.44947171211242676 0.39036506414413452 0.21971863508224487
0.64493900537490845 0.37950816750526428 0.098286651074886322
0.71181714534759521 0.35250484943389893 0.07137317955493927
0.7493404746055603 0.32198530435562134 0.049292515963315964
0 0.53811168670654297 0.49473905563354492
0.002181139076128602 0.54404419660568237 0.49765604734420776
0.058563396334648132 0.56451719999313354 0.4968281090259552
0.32690232992172241 0.54185682535171509 0.41188737750053406
0.65796029567718506 0.54572981595993042 0.22960484027862549
0.78890699148178101 0.53813141584396362 0.050308946520090103
0.83360546827316284 0.51004612445831299 0.023729721084237099
0 0.64366614818572998 0.59322619438171387
0.00044319301377981901 0.64695745706558228 0.59290677309036255
0.026083134114742279 0.66132593154907227 0.58877980709075928
0.27879977226257324 0.65533280372619629 0.53074461221694946
0.52891069650650024 0.64587497711181641 0.44772377610206604
0.77875596284866333 0.65195965766906738 0.2696017324924469
0.89731842279434204 0.64250344038009644 0.044150050729513168
0 0.72347986698150635 0.66743844747543335
0.00052117742598056793 0.7324633002281189 0.67222422361373901
0.014611188322305679 0.75004571676254272 0.67508375644683838
0.2307557612657547 0.77398884296417236 0.65921187400817871
0.43823432922363281 0.76563924551010132 0.56991547346115112
0.65699285268783569 0.76151710748672485 0.52438724040985107
0.91083228588104248 0.78071826696395874 0.37537044286727905
0.093861132860183716 0.18512974679470062 0.24740643799304962
0.10512030869722366 0.17891012132167816 0.24137809872627258
0.18645764887332916 0.20239897072315216 0.28140252828598022
0.33933669328689575 0.22583788633346558 0.30854558944702148
0.51969677209854126 0.209538534283638 0.30141383409500122
0.64414972066879272 0.17175821959972382 0.26244571805000305
0.69780093431472778 0.14952355623245239 0.2190660685300827
0.10023568570613861 0.23091594874858856 0.30270299315452576
0.11557971686124802 0.22007592022418976 0.28839245438575745
0.18903012573719025 0.22663424909114838 0.29810643196105957
0.3385377824306488 0.23314535617828369 0.31262499094009399
0.52626258134841919 0.20017938315868378 0.28669223189353943
0.65478765964508057 0.15880474448204041 0.23540782928466797
0.71004873514175415 0.15121732652187347 0.18688270449638367
0.079546146094799042 0.33869984745979309 0.40796878933906555
0.101401686668396 0.33236223459243774 0.40193691849708557
0.21442054212093353 0.32635104656219482 0.38986712694168091
0.38852763175964355 0.3096928596496582 0.36939758062362671
0.56590574979782104 0.25527989864349365 0.31125539541244507
0.67466443777084351 0.20291759073734283 0.24585519731044769
0.73188340663909912 0.18937185406684875 0.19475442171096802
0.026041621342301369 0.45914804935455322 0.48851484060287476
0.03731924295425415 0.45881539583206177 0.48434102535247803
0.18366535007953644 0.47110134363174438 0.48761901259422302
0.43702030181884766 0.45914271473884583 0.45393094420433044
0.61981081962585449 0.42729902267456055 0.38540670275688171
0.70046538114547729 0.39594519138336182 0.33445993065834045
0.75223678350448608 0.34766468405723572 0.2705654501914978
0.0014586205361410975 0.55716711282730103 0.54368966817855835
0.0047797407023608685 0.56458944082260132 0.54654711484909058
0.10376925021409988 0.60567605495452881 0.5775335431098938
0.3709675669670105 0.61163699626922607 0.56427901983261108
0.63662326335906982 0.58923566341400146 0.4487653374671936
0.77074587345123291 0.5683664083480835 0.35180297493934631
0.84019148349761963 0.54287004470825195 0.28430876135826111
0 0.65532529354095459 0.62716764211654663
8.9757586465566419e-06 0.65974622964859009 0.62684279680252075
0.050383280962705612 0.69515299797058105 0.65572124719619751
0.32176104187965393 0.72263997793197632 0.65946751832962036
0.5349118709564209 0.69638121128082275 0.56215304136276245
0.77088958024978638 0.68791002035140991 0.44998869299888611
0.90022569894790649 0.67229509353637695 0.29989108443260193
0 0.73197382688522339 0.69619441032409668
0 0.74702972173690796 0.70776563882827759
0.015725469216704369 0.77557063102722168 0.7309567928314209
0.293425053358078 0.81777364015579224 0.74751967191696167
0.4928683340549469 0.80815458297729492 0.68992596864700317
0.65320807695388794 0.8069877028465271 0.62458854913711548
0.89959502220153809 0.80928534269332886 0.53945410251617432
0.13227766752243042 0.24899008870124817 0.33080103993415833
0.15172396600246429 0.25165063142776489 0.33264806866645813
0.21999970078468323 0.27010610699653625 0.36671179533004761
0.31420958042144775 0.28783044219017029 0.3923923671245575
0.42314231395721436 0.30153730511665344 0.40834292769432068
0.50694549083709717 0.30204707384109497 0.41327232122421265
0.56333094835281372 0.2875325083732605 0.39839521050453186
0.14421930909156799 0.30688557028770447 0.39970499277114868
0.16188123822212219 0.30195048451423645 0.39329108595848083
0.23694305121898651 0.31068947911262512 0.40570524334907532
0.32204112410545349 0.31299486756324768 0.42065334320068359
0.42819377779960632 0.31375443935394287 0.41717547178268433
0.51883625984191895 0.30451479554176331 0.41369920969009399
0.58645021915435791 0.28972563147544861 0.39749804139137268
0.13678058981895447 0.41602149605751038 0.51506149768829346
0.15726076066493988 0.41158461570739746 0.51301145553588867
0.26147130131721497 0.41580188274383545 0.50954627990722656
0.37962496280670166 0.41334268450737 0.50674724578857422
0.48316249251365662 0.39163687825202942 0.48553591966629028
0.56082576513290405 0.34577152132987976 0.44768035411834717
0.63836443424224854 0.31318384408950806 0.41374427080154419
0.082188628613948822 0.53010034561157227 0.6066509485244751
0.1040053591132164 0.52769029140472412 0.60447472333908081
0.24338948726654053 0.53757941722869873 0.61073720455169678
0.43403273820877075 0.54039400815963745 0.60406625270843506
0.56748396158218384 0.52335786819458008 0.58036267757415771
0.66746306419372559 0.48602873086929321 0.53802919387817383
0.74129998683929443 0.43454140424728394 0.48497405648231506
0.023433864116668701 0.60716742277145386 0.65163737535476685
0.024143816903233528 0.61842793226242065 0.66094297170639038
0.19237393140792847 0.63907808065414429 0.67037779092788696
0.42751222848892212 0.64684128761291504 0.66469663381576538
0.61316531896591187 0.63642734289169312 0.6376376748085022
0.72718167304992676 0.61982637643814087 0.59820443391799927
0.80547749996185303 0.60696035623550415 0.55858021974563599
0.0058935275301337242 0.67845547199249268 0.6846001148223877
0.0069786072708666325 0.68131387233734131 0.68181836605072021
0.1299942284822464 0.72797203063964844 0.71976572275161743
0.40265658497810364 0.74906706809997559 0.73016315698623657
0.57737791538238525 0.74235492944717407 0.71015214920043945
0.73937082290649414 0.72779661417007446 0.64448332786560059
0.86018246412277222 0.71666622161865234 0.58395606279373169
0 0.74649763107299805 0.72988033294677734
0.00056780647719278932 0.76023691892623901 0.73978590965270996
0.07010854035615921 0.81392419338226318 0.78582298755645752
0.37728846073150635 0.84496831893920898 0.81210494041442871
0.56295055150985718 0.85783684253692627 0.81131899356842041
0.6741911768913269 0.85619479417800903 0.77613198757171631
0.88813745975494385 0.85114341974258423 0.73959970474243164
0.16367936134338379 0.30621007084846497 0.40231046080589294
0.20089387893676758 0.31884124875068665 0.41582712531089783
0.28443115949630737 0.34251564741134644 0.45869061350822449
0.3305174708366394 0.33398386836051941 0.46020761132240295
0.3940487802028656 0.34405761957168579 0.46193981170654297
0.46396425366401672 0.35234978795051575 0.47309941053390503
0.49910253286361694 0.35320991277694702 0.47902178764343262
0.17564083635807037 0.37330546975135803 0.48287317156791687
0.20092687010765076 0.37181749939918518 0.47635233402252197
0.30355769395828247 0.39415696263313293 0.50290477275848389
0.35358801484107971 0.38089752197265625 0.5063285231590271
0.41427156329154968 0.37298926711082458 0.49282312393188477
0.47480535507202148 0.3649182915687561 0.48363843560218811
0.5150635838508606 0.36352360248565674 0.48540568351745605
0.17104417085647583 0.474659264087677 0.59082281589508057
0.19592386484146118 0.47407916188240051 0.59132504463195801
0.30812948942184448 0.48753839731216431 0.59477508068084717
0.41129261255264282 0.48560267686843872 0.59221720695495605
0.47374776005744934 0.47000321745872498 0.58538150787353516
0.52929556369781494 0.43900430202484131 0.55353200435638428
0.56043797731399536 0.40255910158157349 0.52453947067260742
0.13021941483020782 0.57703232765197754 0.67798382043838501
0.16335117816925049 0.57783865928649902 0.67941951751708984
0.29593068361282349 0.58701181411743164 0.68812853097915649
0.45563855767250061 0.59764182567596436 0.68794113397598267
0.55474567413330078 0.59282433986663818 0.68097800016403198
0.62159937620162964 0.57136791944503784 0.6567261815071106
0.67433416843414307 0.53467309474945068 0.6243780255317688
0.074080385267734528 0.65561175346374512 0.73638248443603516
0.11187543720006943 0.65892165899276733 0.74212241172790527
0.26895827054977417 0.67396408319473267 0.75273150205612183
0.45579257607460022 0.68747377395629883 0.75717604160308838
0.5952528715133667 0.6881071925163269 0.7476046085357666
0.68949311971664429 0.67885202169418335 0.73024165630340576
0.77762341499328613 0.66377222537994385 0.70505398511886597
0.021649094298481941 0.71355998516082764 0.7660096287727356
0.066756211221218109 0.72238707542419434 0.77554672956466675
0.23351231217384338 0.7529761791229248 0.79876577854156494
0.45953923463821411 0.7709842324256897 0.80343925952911377
0.60890311002731323 0.77569997310638428 0.80057322978973389
0.72321939468383789 0.76430338621139526 0.7761380672454834
0.83030182123184204 0.75626987218856812 0.74398666620254517
0.0030994191765785217 0.77074426412582397 0.79133599996566772
0.01865355484187603 0.78621041774749756 0.80093890428543091
0.17869420349597931 0.82937538623809814 0.83568757772445679
0.47135987877845764 0.85955369472503662 0.85697346925735474
0.62344926595687866 0.88479870557785034 0.87721925973892212
0.71092373132705688 0.9029160737991333 0.88367539644241333
0.90280485153198242 0.89838063716888428 0.83914732933044434
0.18395900726318359 0.34365969896316528 0.44951909780502319
0.25025433301925659 0.38193768262863159 0.48945802450180054
0.34082108736038208 0.40890207886695862 0.53271007537841797
0.35723859071731567 0.37970340251922607 0.51763683557510376
0.39000812172889709 0.36640289425849915 0.49586242437362671
0.44533917307853699 0.3768748939037323 0.50229406356811523
0.47366362810134888 0.37924337387084961 0.50427234172821045
0.19686309993267059 0.43013426661491394 0.54958963394165039
0.23942813277244568 0.43283218145370483 0.54716658592224121
0.34215003252029419 0.45106351375579834 0.56427741050720215
0.3872925341129303 0.43685480952262878 0.56814014911651611
0.41641911864280701 0.41577818989753723 0.54877012968063354
0.45742085576057434 0.40112361311912537 0.52824944257736206
0.49566382169723511 0.39775988459587097 0.52398306131362915
0.19358411431312561 0.52024185657501221 0.64734011888504028
0.22365888953208923 0.52613300085067749 0.65354841947555542
0.33953583240509033 0.54016488790512085 0.65824192762374878
0.43611061573028564 0.54096722602844238 0.65671849250793457
0.48627516627311707 0.53022950887680054 0.66050690412521362
0.52401435375213623 0.50315433740615845 0.63163107633590698
0.5419541597366333 0.45554473996162415 0.58206069469451904
0.16435204446315765 0.60570460557937622 0.72082006931304932
0.20736528933048248 0.61458969116210938 0.73333525657653809
0.33772438764572144 0.62997597455978394 0.75111293792724609
0.46376365423202515 0.64318263530731201 0.75670647621154785
0.55077260732650757 0.65013319253921509 0.76851481199264526
0.61333906650543213 0.6342543363571167 0.75561368465423584
0.65639591217041016 0.61098647117614746 0.72069495916366577
0.12231955677270889 0.67994707822799683 0.78155845403671265
0.1680179238319397 0.68680316209793091 0.79262524843215942
0.32327389717102051 0.71211951971054077 0.81859469413757324
0.4528675377368927 0.73445409536361694 0.84414100646972656
0.56226569414138794 0.74871551990509033 0.86237442493438721
0.66191184520721436 0.73457920551300049 0.84056812524795532
0.73929893970489502 0.72547668218612671 0.82207447290420532
0.080583579838275909 0.74456650018692017 0.83229148387908936
0.12175743281841278 0.75290107727050781 0.8412211537361145
0.30957269668579102 0.78334105014801025 0.87101858854293823
0.45732420682907104 0.82348734140396118 0.91255158185958862
0.57940882444381714 0.83687430620193481 0.92490196228027344
0.69153648614883423 0.82755506038665771 0.91523510217666626
0.79992216825485229 0.81182658672332764 0.88675272464752197
0.040049191564321518 0.7926936149597168 0.85142725706100464
0.086841866374015808 0.81557905673980713 0.88031947612762451
0.29888856410980225 0.84720492362976074 0.90748292207717896
0.50421077013015747 0.88377010822296143 0.93035972118377686
0.66163516044616699 0.92481625080108643 0.9700813889503479
0.75935548543930054 0.9474988579750061 0.9868779182434082
0.9086838960647583 0.96054363250732422 0.97570812702178955
