assets/lut/shamoonabbasi green 15.cube
# Created by: G'MIC (https://gmic.eu)
TITLE "green_15"
# LUT size
LUT_3D_SIZE 7
# Data domain
DOMAIN_MIN 0.0 0.0 0.0
DOMAIN_MAX 1.0 1.0 1.0
# LUT data points
0.070588238537311554 0.11764705926179886 0.11764705926179886
0.085190311074256897 0.12064950913190842 0.11232082545757294
0.21905989944934845 0.12764677405357361 0.11063303053379059
0.40420684218406677 0.1487855464220047 0.10368694365024567
0.69366937875747681 0.19842548668384552 0.07669251412153244
0.8921513557434082 0.25651064515113831 0.074751831591129303
0.9904789924621582 0.29290199279785156 0.11221464723348618
0.062925718724727631 0.12801831960678101 0.11771707236766815
0.093137256801128387 0.13117833435535431 0.11509014666080475
0.23016661405563354 0.14994601905345917 0.11032524704933167
0.42103725671768188 0.18630474805831909 0.09475988894701004
0.70699185132980347 0.24229323863983154 0.063328653573989868
0.89201396703720093 0.27796202898025513 0.070919349789619446
0.98694425821304321 0.31159019470214844 0.1077672615647316
0.025596544146537781 0.19169613718986511 0.14454209804534912
0.061569303274154663 0.19178202748298645 0.1302955150604248
0.23734205961227417 0.22710792720317841 0.089925684034824371
0.45471957325935364 0.29378911852836609 0.049044020473957062
0.71724259853363037 0.33892631530761719 0.021000999957323074
0.88692981004714966 0.34736469388008118 0.046552829444408417
0.98490983247756958 0.36140352487564087 0.10190857201814651
0.0064978506416082382 0.29287916421890259 0.18300433456897736
0.025666704401373863 0.27731418609619141 0.15906824171543121
0.18307332694530487 0.29770556092262268 0.10743670165538788
0.43418574333190918 0.37746331095695496 0.030656866729259491
0.71964031457901001 0.43329343199729919 0.0038985905703157187
0.9009968638420105 0.42623278498649597 0.033531486988067627
0.99435275793075562 0.43337729573249817 0.11633341014385223
0.0015008813934400678 0.44095644354820251 0.23928281664848328
0.0020592035725712776 0.41027235984802246 0.2166903018951416
0.037962011992931366 0.41552573442459106 0.17953751981258392
0.21975232660770416 0.47274929285049438 0.11796602606773376
0.63459193706512451 0.56239199638366699 0.01662120409309864
0.89301919937133789 0.56730908155441284 0.0083533339202404022
0.99562859535217285 0.5812227725982666 0.14806912839412689
0.033040497452020645 0.60609370470046997 0.34761369228363037
0.019104452803730965 0.6019476056098938 0.34094363451004028
0.011000913567841053 0.60594797134399414 0.31893813610076904
0.082052029669284821 0.62762361764907837 0.31085303425788879
0.45065388083457947 0.68135571479797363 0.25181543827056885
0.83218449354171753 0.72462195158004761 0.058202631771564484
0.98671305179595947 0.71728873252868652 0.018187697976827621
0.31249484419822693 0.74106901884078979 0.52084082365036011
0.33713892102241516 0.73897141218185425 0.52184665203094482
0.37355303764343262 0.73946934938430786 0.52060961723327637
0.40013027191162109 0.75253915786743164 0.51509952545166016
0.47818571329116821 0.76345837116241455 0.48473533987998962
0.72046381235122681 0.82038450241088867 0.41279411315917969
0.9493069052696228 0.83984500169754028 0.16084322333335876
0.071154303848743439 0.11829014122486115 0.12604351341724396
0.098376043140888214 0.12021758407354355 0.1182050034403801
0.22315731644630432 0.14011399447917938 0.11144918948411942
0.42285257577896118 0.1769794225692749 0.097015321254730225
0.72243243455886841 0.24909855425357819 0.059998501092195511
0.90230339765548706 0.29020881652832031 0.067508161067962646
0.99570661783218384 0.31543216109275818 0.11125588417053223
0.061746202409267426 0.13469313085079193 0.13453191518783569
0.097380243241786957 0.13804897665977478 0.1258758008480072
0.24051997065544128 0.16254352033138275 0.11259191483259201
0.4412987232208252 0.2219698429107666 0.089337684214115143
0.72524863481521606 0.2826114296913147 0.044281799346208572
0.89844334125518799 0.31029170751571655 0.063197672367095947
0.98983955383300781 0.32501712441444397 0.10963917523622513
0.032924234867095947 0.20379576086997986 0.16263876855373383
0.073862440884113312 0.19630710780620575 0.15110607445240021
0.2362416535615921 0.22921726107597351 0.11494598537683487
0.45287433266639709 0.30081969499588013 0.059109736233949661
0.72062748670578003 0.35436138510704041 0.014726915396749973
0.88382327556610107 0.36010080575942993 0.046500470489263535
0.9853026270866394 0.37100395560264587 0.10377040505409241
0.005749930627644062 0.30203342437744141 0.20172005891799927
0.02937723882496357 0.28395745158195496 0.18483036756515503
0.17923849821090698 0.29806548357009888 0.14255377650260925
0.42499694228172302 0.37174975872039795 0.068061366677284241
0.71933519840240479 0.4393308162689209 0.0052127162925899029
0.90244954824447632 0.43383795022964478 0.032176509499549866
0.99227237701416016 0.44239729642868042 0.12321516871452332
0 0.44588485360145569 0.24946142733097076
0.0015248616691678762 0.41752251982688904 0.23359201848506927
0.022091509774327278 0.41553735733032227 0.19947297871112823
0.23145823180675507 0.47789770364761353 0.15334974229335785
0.64113801717758179 0.56827062368392944 0.018085794523358345
0.89732736349105835 0.57369935512542725 0.015822751447558403
0.99699604511260986 0.58761131763458252 0.15056988596916199
0.012605689465999603 0.60860955715179443 0.35420897603034973
0.017248909920454025 0.60473895072937012 0.35273301601409912
0.038030706346035004 0.61250489950180054 0.33622989058494568
0.10248202085494995 0.63353455066680908 0.33184415102005005
0.4620300829410553 0.68224596977233887 0.28794398903846741
0.82761895656585693 0.72194349765777588 0.092992968857288361
0.99326848983764648 0.72605806589126587 0.014929947443306446
0.33754897117614746 0.74573594331741333 0.53722083568572998
0.34567901492118835 0.74296361207962036 0.53431826829910278
0.39422580599784851 0.74223262071609497 0.53310525417327881
0.41787752509117126 0.7543187141418457 0.52332097291946411
0.48178914189338684 0.7619442343711853 0.50003170967102051
0.71745187044143677 0.8202393651008606 0.43673866987228394
0.95957309007644653 0.85795944929122925 0.25962507724761963
0.087452039122581482 0.13371527194976807 0.191136434674263
0.12520334124565125 0.13358765840530396 0.1845637708902359
0.2326170802116394 0.14675427973270416 0.16563864052295685
0.43820333480834961 0.19385254383087158 0.14668871462345123
0.74675184488296509 0.29236993193626404 0.060679208487272263
0.92243319749832153 0.33850869536399841 0.065318629145622253
0.99507999420166016 0.36132794618606567 0.12412812560796738
0.076566509902477264 0.15061503648757935 0.19998738169670105
0.11690651625394821 0.15225337445735931 0.19201335310935974
0.2286125123500824 0.17333777248859406 0.17729349434375763
0.42540386319160461 0.21957634389400482 0.16012477874755859
0.74433094263076782 0.31856855750083923 0.064015328884124756
0.91006875038146973 0.35812598466873169 0.055880855768918991
0.99221813678741455 0.37599349021911621 0.11995282769203186
0.027632394805550575 0.22357696294784546 0.22415719926357269
0.085091836750507355 0.2145027220249176 0.21032685041427612
0.21606704592704773 0.23427291214466095 0.19327656924724579
0.42514774203300476 0.29275631904602051 0.17979748547077179
0.72189807891845703 0.37296736240386963 0.089303635060787201
0.89280426502227783 0.39709100127220154 0.043814025819301605
0.99143826961517334 0.40306445956230164 0.1095149889588356
0.001968323951587081 0.3300538957118988 0.26805293560028076
0.043604187667369843 0.30555778741836548 0.24839083850383759
0.17339681088924408 0.30367904901504517 0.22231073677539825
0.404682457447052 0.36418536305427551 0.18653136491775513
0.70989936590194702 0.44160676002502441 0.11477278172969818
0.90790212154388428 0.46196037530899048 0.052563462406396866
0.99418151378631592 0.47381439805030823 0.13899052143096924
0 0.47126805782318115 0.30474996566772461
0.0039195339195430279 0.4427584707736969 0.28676334023475647
0.053062617778778076 0.43802681565284729 0.26870036125183105
0.21828494966030121 0.48040968179702759 0.24790459871292114
0.63971257209777832 0.57032668590545654 0.169643834233284
0.89542466402053833 0.59015470743179321 0.092587083578109741
0.99556809663772583 0.60925227403640747 0.16861839592456818
0.041065305471420288 0.6212470531463623 0.39920639991760254
0.050952102988958359 0.61836832761764526 0.39825105667114258
0.13906800746917725 0.62257003784179688 0.40152904391288757
0.25297778844833374 0.64063316583633423 0.40555959939956665
0.48997098207473755 0.68106526136398315 0.39162096381187439
0.81682223081588745 0.72594690322875977 0.29080489277839661
0.98495721817016602 0.73492348194122314 0.1916927844285965
0.37187087535858154 0.75216692686080933 0.56075042486190796
0.38172048330307007 0.74839454889297485 0.55721116065979004
0.44170278310775757 0.7485358715057373 0.56371027231216431
0.47147586941719055 0.75552773475646973 0.5606270432472229
0.510262131690979 0.7533683180809021 0.52702575922012329
0.71916913986206055 0.81656599044799805 0.49992659687995911
0.95344191789627075 0.85923135280609131 0.4131142795085907
0.11998054385185242 0.15610614418983459 0.27866756916046143
0.16384036839008331 0.15605878829956055 0.27968707680702209
0.28088116645812988 0.15410681068897247 0.27523916959762573
0.43458229303359985 0.16657088696956635 0.2649635374546051
0.71988946199417114 0.26842334866523743 0.21558386087417603
0.93378138542175293 0.3698449432849884 0.12777236104011536
0.99908292293548584 0.40325930714607239 0.151137575507164
0.095226898789405823 0.17317827045917511 0.2847023606300354
0.14910209178924561 0.17550927400588989 0.27857697010040283
0.27952075004577637 0.18289065361022949 0.28136539459228516
0.4213009774684906 0.20597557723522186 0.27039873600006104
0.70748615264892578 0.30108755826950073 0.22808462381362915
0.91952681541442871 0.38350027799606323 0.13143183290958405
0.99488919973373413 0.40710747241973877 0.13083353638648987
0.017601162195205688 0.24421714246273041 0.30651241540908813
0.076679840683937073 0.23544885218143463 0.29027438163757324
0.22971285879611969 0.24315851926803589 0.27917292714118958
0.37124645709991455 0.27770006656646729 0.27187883853912354
0.68031889200210571 0.36148145794868469 0.24947459995746613
0.88995993137359619 0.41770842671394348 0.14053860306739807
0.99161666631698608 0.43563222885131836 0.12976008653640747
0.0019230562029406428 0.35192835330963135 0.35936149954795837
0.030994130298495293 0.33164507150650024 0.33276185393333435
0.18908184766769409 0.3202795684337616 0.30311256647109985
0.37063172459602356 0.35783007740974426 0.29758164286613464
0.67998319864273071 0.44760286808013916 0.30748805403709412
0.89558637142181396 0.491617351770401 0.24555307626724243
0.99078160524368286 0.5115472674369812 0.19532011449337006
0.0002571853983681649 0.4948154091835022 0.38103657960891724
0.0054935980588197708 0.47356903553009033 0.35901275277137756
0.11984854191541672 0.46892571449279785 0.3497140109539032
0.27772906422615051 0.49463939666748047 0.3474782407283783
0.62218570709228516 0.5792040228843689 0.34940460324287415
0.87908214330673218 0.62286531925201416 0.37282398343086243
0.99122339487075806 0.65103697776794434 0.34581908583641052
0.14600509405136108 0.63637197017669678 0.46121612191200256
0.13323324918746948 0.63625234365463257 0.45648232102394104
0.27966636419296265 0.63957899808883667 0.4742509126663208
0.3900037407875061 0.65167725086212158 0.48858639597892761
0.5219232439994812 0.67830187082290649 0.4793362021446228
0.80691206455230713 0.73474198579788208 0.45879578590393066
0.97645860910415649 0.75903445482254028 0.43275555968284607
0.41460764408111572 0.76449239253997803 0.59534889459609985
0.42328643798828125 0.76247376203536987 0.59153264760971069
0.46964162588119507 0.75934809446334839 0.59373515844345093
0.52066904306411743 0.76399749517440796 0.60350197553634644
0.55172371864318848 0.76500195264816284 0.58108997344970703
0.71922069787979126 0.81443464756011963 0.5605044960975647
0.94532924890518188 0.86884009838104248 0.52255916595458984
0.2162284255027771 0.20340336859226227 0.48075848817825317
0.2666257917881012 0.19988396763801575 0.48199149966239929
0.40796205401420593 0.19893011450767517 0.50435614585876465
0.55649447441101074 0.20347782969474792 0.52373039722442627
0.70977288484573364 0.28249096870422363 0.47791540622711182
0.85162663459777832 0.44022843241691589 0.44506266713142395
0.96965008974075317 0.52433931827545166 0.44745016098022461
0.1948656290769577 0.22554589807987213 0.48501819372177124
0.25424692034721375 0.22614364326000214 0.48780140280723572
0.39077332615852356 0.22843553125858307 0.50034642219543457
0.54084908962249756 0.23580676317214966 0.52351909875869751
0.68900835514068604 0.30317163467407227 0.47333666682243347
0.82842200994491577 0.44113996624946594 0.43827441334724426
0.94608896970748901 0.50562900304794312 0.42172938585281372
0.084768973290920258 0.27699866890907288 0.48873645067214966
0.151131272315979 0.27379968762397766 0.48321297764778137
0.32482334971427917 0.29265585541725159 0.48180860280990601
0.46868705749511719 0.30868750810623169 0.49390697479248047
0.6375281810760498 0.35168659687042236 0.46488988399505615
0.80040901899337769 0.45775133371353149 0.43770930171012878
0.93819445371627808 0.52094703912734985 0.42132830619812012
0.023025108501315117 0.36234894394874573 0.51513326168060303
0.05676332488656044 0.34328639507293701 0.48891180753707886
0.23164208233356476 0.34571197628974915 0.4799741804599762
0.40057343244552612 0.37737095355987549 0.48925229907035828
0.60519868135452271 0.43670380115509033 0.48390817642211914
0.78500020503997803 0.54093039035797119 0.4943443238735199
0.9397658109664917 0.6018683910369873 0.50251811742782593
0.0095233246684074402 0.49733608961105347 0.52420234680175781
0.019768001511693001 0.48615729808807373 0.51311266422271729
0.14638391137123108 0.49213740229606628 0.50603634119033813
0.34722140431404114 0.52046400308609009 0.51129829883575439
0.56817740201950073 0.57193446159362793 0.53023612499237061
0.80193966627120972 0.66333293914794922 0.58691096305847168
0.96852457523345947 0.71924799680709839 0.60830360651016235
0.21734397113323212 0.65115422010421753 0.5673903226852417
0.25399103760719299 0.65152031183242798 0.56546062231063843
0.37628117203712463 0.66036641597747803 0.57268595695495605
0.48098042607307434 0.67539411783218384 0.58967787027359009
0.56774401664733887 0.6794847846031189 0.5888979434967041
0.76862120628356934 0.73760181665420532 0.60118097066879272
0.96481668949127197 0.79420429468154907 0.63292908668518066
0.44871264696121216 0.78699105978012085 0.66101741790771484
0.45929795503616333 0.7808525562286377 0.65358048677444458
0.49803683161735535 0.78135967254638672 0.65417248010635376
0.54065060615539551 0.78759312629699707 0.6591876745223999
0.60111689567565918 0.78068965673446655 0.65769708156585693
0.70006400346755981 0.80044519901275635 0.6403357982635498
0.92686355113983154 0.87462246417999268 0.64526629447937012
0.34366491436958313 0.30405738949775696 0.64018601179122925
0.38196897506713867 0.31235754489898682 0.64163339138031006
0.48160314559936523 0.3288322389125824 0.65395826101303101
0.58613616228103638 0.35249233245849609 0.66959565877914429
0.74796909093856812 0.40395575761795044 0.67694491147994995
0.83784323930740356 0.5140678882598877 0.63658624887466431
0.94136577844619751 0.58186191320419312 0.62497621774673462
0.33504599332809448 0.32436996698379517 0.64679324626922607
0.36377319693565369 0.3257366418838501 0.64196944236755371
0.46316596865653992 0.33863896131515503 0.64750480651855469
0.56855779886245728 0.36955592036247253 0.6640087366104126
0.72490125894546509 0.4107782244682312 0.66658854484558105
0.81087523698806763 0.50010240077972412 0.62128031253814697
0.90641695261001587 0.56684327125549316 0.60494405031204224
0.28533083200454712 0.36620864272117615 0.64301347732543945
0.31725597381591797 0.36363053321838379 0.63385623693466187
0.42535242438316345 0.38671746850013733 0.63370722532272339
0.52448731660842896 0.40807148814201355 0.64402085542678833
0.67877799272537231 0.43059635162353516 0.64810061454772949
0.77386343479156494 0.50258821249008179 0.60644412040710449
0.86400097608566284 0.56856298446655273 0.5949779748916626
0.20621524751186371 0.39648622274398804 0.6383674144744873
0.2343306839466095 0.38910916447639465 0.62468451261520386
0.36765137314796448 0.41527506709098816 0.62361955642700195
0.48123347759246826 0.45736104249954224 0.63184601068496704
0.64814811944961548 0.49694687128067017 0.64754050970077515
0.76714730262756348 0.56339627504348755 0.62313026189804077
0.88065850734710693 0.62868374586105347 0.63328081369400024
0.18467868864536285 0.49116575717926025 0.6344524621963501
0.19324132800102234 0.48233324289321899 0.62517678737640381
0.30042654275894165 0.49161255359649658 0.61797809600830078
0.41645288467407227 0.52289372682571411 0.62553119659423828
0.58375364542007446 0.58225828409194946 0.64150214195251465
0.74622732400894165 0.64508152008056641 0.65720582008361816
0.8951951265335083 0.71324759721755981 0.68470412492752075
0.31301525235176086 0.63914120197296143 0.66263973712921143
0.33892413973808289 0.6424858570098877 0.66126471757888794
0.40418782830238342 0.65321123600006104 0.66757422685623169
0.4843105673789978 0.66766929626464844 0.67635232210159302
0.57346600294113159 0.68421781063079834 0.67216163873672485
0.70619696378707886 0.70961576700210571 0.67298877239227295
0.90979284048080444 0.79763263463973999 0.74139517545700073
0.43722730875015259 0.77667975425720215 0.73783409595489502
0.44274505972862244 0.77731138467788696 0.73347204923629761
0.48089596629142761 0.78197622299194336 0.73171508312225342
0.53077590465545654 0.79225939512252808 0.73713976144790649
0.60757207870483398 0.80132925510406494 0.73631507158279419
0.70018184185028076 0.79493755102157593 0.72043615579605103
0.85413879156112671 0.84377902746200562 0.73605632781982422
0.49537944793701172 0.46617415547370911 0.76365309953689575
0.51058417558670044 0.46621412038803101 0.75747907161712646
0.5779845118522644 0.48719769716262817 0.77097612619400024
0.65373235940933228 0.5122302770614624 0.78775852918624878
0.77024626731872559 0.54304605722427368 0.80151128768920898
0.91632980108261108 0.5825006365776062 0.81420010328292847
0.96314436197280884 0.63018691539764404 0.76542121171951294
0.49851271510124207 0.48075902462005615 0.76015937328338623
0.51291614770889282 0.4806152880191803 0.75964593887329102
0.56990009546279907 0.49456804990768433 0.76483052968978882
0.63989716768264771 0.51511615514755249 0.77889221906661987
0.74644672870635986 0.53840690851211548 0.78593206405639648
0.88284605741500854 0.56719279289245605 0.78826248645782471
0.9138796329498291 0.60356050729751587 0.74682080745697021
0.47989791631698608 0.50388157367706299 0.76564878225326538
0.48768147826194763 0.49482080340385437 0.74988245964050293
0.54341262578964233 0.50952792167663574 0.7448309063911438
0.60158580541610718 0.52524018287658691 0.75291883945465088
0.69761878252029419 0.54057425260543823 0.75848096609115601
0.82636719942092896 0.56301814317703247 0.75778621435165405
0.89234006404876709 0.61197656393051147 0.72862797975540161
0.44330748915672302 0.51715481281280518 0.76286256313323975
0.44723707437515259 0.503673255443573 0.74494552612304688
0.502582848072052 0.51781183481216431 0.73247051239013672
0.57677376270294189 0.55190688371658325 0.74493300914764404
0.68516898155212402 0.5782591700553894 0.75705111026763916
0.83350563049316406 0.607383131980896 0.76838517189025879
0.92773240804672241 0.66467511653900146 0.7646559476852417
0.3679240345954895 0.53533482551574707 0.73203229904174805
0.36316326260566711 0.52388447523117065 0.71743130683898926
0.41840848326683044 0.53613817691802979 0.71723431348800659
0.51029682159423828 0.57656228542327881 0.73812049627304077
0.63665211200714111 0.62582457065582275 0.7598189115524292
0.81632131338119507 0.67595702409744263 0.79807883501052856
0.92891877889633179 0.72830212116241455 0.80558538436889648
0.39914244413375854 0.64902585744857788 0.75219058990478516
0.41918292641639709 0.65305912494659424 0.75765562057495117
0.45508098602294922 0.66411948204040527 0.7603832483291626
0.50120586156845093 0.67933791875839233 0.77768725156784058
0.57122313976287842 0.68291288614273071 0.77169513702392578
0.70790559053421021 0.70768064260482788 0.77142244577407837
0.86538738012313843 0.76249885559082031 0.80434638261795044
0.44041016697883606 0.79409933090209961 0.84490007162094116
0.44616842269897461 0.78755629062652588 0.83037048578262329
0.47626253962516785 0.78063762187957764 0.81627726554870605
0.51332175731658936 0.77204722166061401 0.80449986457824707
0.57448464632034302 0.80173873901367188 0.83669203519821167
0.67448759078979492 0.79681116342544556 0.81024372577667236
0.79366093873977661 0.81148999929428101 0.80188030004501343
