assets/lut/shamoonabbasi vintage 163.cube
# Created by: G'MIC (https://gmic.eu)
TITLE "vintage_163"
# LUT size
LUT_3D_SIZE 7
# Data domain
DOMAIN_MIN 0.0 0.0 0.0
DOMAIN_MAX 1.0 1.0 1.0
# LUT data points
0.081832408905029297 0.063191510736942291 0.06180940568447113
0.19586627185344696 0.068703636527061462 0.06780967116355896
0.31196904182434082 0.074156470596790314 0.075340256094932556
0.43061545491218567 0.08206881582736969 0.084963567554950714
0.55034404993057251 0.093719005584716797 0.094756543636322021
0.66946101188659668 0.10772574692964554 0.10625261813402176
0.7873956561088562 0.12030094861984253 0.11616236716508865
0.1125243678689003 0.18922029435634613 0.083207868039608002
0.22755822539329529 0.19465717673301697 0.090147249400615692
0.34622928500175476 0.19965237379074097 0.10078507661819458
0.46774598956108093 0.20669844746589661 0.11266316473484039
0.58842271566390991 0.21812024712562561 0.12398812919855118
0.70817792415618896 0.23144608736038208 0.13548949360847473
0.82692152261734009 0.24349761009216309 0.14531062543392181
0.14456364512443542 0.31674239039421082 0.10555614531040192
0.26299780607223511 0.32336810231208801 0.11475023627281189
0.38283529877662659 0.32943552732467651 0.12624813616275787
0.50467628240585327 0.33627653121948242 0.13924391567707062
0.62581157684326172 0.34600847959518433 0.15097607672214508
0.74561268091201782 0.35669365525245667 0.16257442533969879
0.86461138725280762 0.36689320206642151 0.17221757769584656
0.17947423458099365 0.4470980167388916 0.12991459667682648
0.29998388886451721 0.4555867612361908 0.14043493568897247
0.42082342505455017 0.46369931101799011 0.15149559080600739
0.54208225011825562 0.47142690420150757 0.16359241306781769
0.66290527582168579 0.47910007834434509 0.17603354156017303
0.78288960456848145 0.48724383115768433 0.18744462728500366
0.90227484703063965 0.49577099084854126 0.19634880125522614
0.21448186039924622 0.57893240451812744 0.15459568798542023
0.33727914094924927 0.58870428800582886 0.16626979410648346
0.4586818516254425 0.59802007675170898 0.17720235884189606
0.57974159717559814 0.60641002655029297 0.18850341439247131
0.70036053657531738 0.61379081010818481 0.20004928112030029
0.82046693563461304 0.62128722667694092 0.21056225895881653
0.94026708602905273 0.62911200523376465 0.21855063736438751
0.24801664054393768 0.71096807718276978 0.17881967127323151
0.37297973036766052 0.72153908014297485 0.19133478403091431
0.49570134282112122 0.73138177394866943 0.2024901807308197
0.61697757244110107 0.74031859636306763 0.21313276886940002
0.73769742250442505 0.74834233522415161 0.22353459894657135
0.85786938667297363 0.75590658187866211 0.232569620013237
0.97686123847961426 0.76350778341293335 0.23956772685050964
0.27862787246704102 0.84331780672073364 0.20133422315120697
0.40607205033302307 0.85423260927200317 0.21467411518096924
0.53023606538772583 0.86445015668869019 0.22613401710987091
0.65249478816986084 0.87387144565582275 0.23636844754219055
0.77363872528076172 0.88242644071578979 0.24563509225845337
0.89398926496505737 0.89037555456161499 0.2534087598323822
0.99761366844177246 0.89803290367126465 0.25928029417991638
0.081918366253376007 0.064046226441860199 0.1395479142665863
0.19658203423023224 0.070811554789543152 0.14542628824710846
0.31380411982536316 0.077531225979328156 0.15298603475093842
0.43517294526100159 0.086241252720355988 0.16139936447143555
0.55643671751022339 0.097990207374095917 0.17016230523586273
0.67633640766143799 0.11183381825685501 0.1818845272064209
0.79512107372283936 0.1243448480963707 0.19381514191627502
0.11513577401638031 0.1897173672914505 0.1619928777217865
0.2281595766544342 0.19534532725811005 0.16769793629646301
0.34925219416618347 0.20194408297538757 0.17825092375278473
0.47283825278282166 0.21045446395874023 0.18919636309146881
0.59483563899993896 0.22237692773342133 0.1993735134601593
0.71500235795974731 0.23602411150932312 0.21125710010528564
0.83450794219970703 0.24876642227172852 0.2229507714509964
0.14993882179260254 0.3177487850189209 0.18650518357753754
0.26622319221496582 0.32489588856697083 0.1943848580121994
0.38745829463005066 0.33227559924125671 0.2051718682050705
0.51090449094772339 0.34074202179908752 0.21668781340122223
0.63238281011581421 0.35098272562026978 0.2282097339630127
0.75258374214172363 0.36252704262733459 0.2397971898317337
0.8722425103187561 0.3737785816192627 0.25066730380058289
0.18680918216705322 0.44928988814353943 0.21296510100364685
0.30564823746681213 0.45849341154098511 0.22220027446746826
0.42636981606483459 0.4678252637386322 0.23192387819290161
0.54846739768981934 0.47697556018829346 0.24272193014621735
0.66940855979919434 0.48486745357513428 0.25515294075012207
0.7896384596824646 0.49368703365325928 0.26657330989837646
0.90976148843765259 0.50311601161956787 0.2762998640537262
0.22431275248527527 0.58186465501785278 0.23990741372108459
0.34522569179534912 0.59225857257843018 0.2501615583896637
0.46567556262016296 0.60258668661117554 0.25971335172653198
0.58681017160415649 0.61187386512756348 0.27006211876869202
0.70741909742355347 0.61970120668411255 0.28125196695327759
0.82771128416061401 0.62752407789230347 0.2918565571308136
0.94804608821868896 0.63572597503662109 0.30055361986160278
0.26011413335800171 0.71417957544326782 0.26648494601249695
0.3836495578289032 0.72507011890411377 0.27786347270011902
0.50489377975463867 0.73558109998703003 0.28770896792411804
0.62553209066390991 0.74531662464141846 0.29736942052841187
0.74612319469451904 0.75360798835754395 0.3071654736995697
0.86654162406921387 0.76156163215637207 0.316354900598526
0.98413455486297607 0.76937824487686157 0.32396113872528076
0.2926640510559082 0.84643793106079102 0.29119583964347839
0.41882133483886719 0.85746794939041138 0.30366885662078857
0.54166841506958008 0.86823737621307373 0.3140684962272644
0.6629326343536377 0.87819796800613403 0.3231874406337738
0.78355926275253296 0.8872610330581665 0.33201175928115845
0.9039381742477417 0.89545351266860962 0.33976849913597107
0.99947255849838257 0.90341460704803467 0.34609881043434143
0.085276678204536438 0.065027080476284027 0.21822910010814667
0.19831372797489166 0.073721863329410553 0.22544814646244049
0.3171989917755127 0.081915728747844696 0.23280136287212372
0.43857738375663757 0.091070301830768585 0.23984518647193909
0.56063729524612427 0.10220734775066376 0.24675066769123077
0.68092656135559082 0.11514979600906372 0.25800281763076782
0.80046540498733521 0.1271560937166214 0.27070790529251099
0.12000829726457596 0.19008803367614746 0.24278970062732697
0.23361481726169586 0.1980731189250946 0.25035977363586426
0.35447782278060913 0.20560713112354279 0.25976788997650146
0.47824487090110779 0.21483482420444489 0.26850074529647827
0.59983038902282715 0.22664512693881989 0.27643236517906189
0.72006797790527344 0.24000905454158783 0.28740385174751282
0.83989351987838745 0.25269439816474915 0.29966577887535095
0.15588772296905518 0.31864804029464722 0.26849508285522461
0.270955890417099 0.32755258679389954 0.27708443999290466
0.3934997022151947 0.3348689079284668 0.28770136833190918
0.51750534772872925 0.34408694505691528 0.29729768633842468
0.63825660943984985 0.35551562905311584 0.30634936690330505
0.75816518068313599 0.36749663949012756 0.31676796078681946
0.87805074453353882 0.37934505939483643 0.32777458429336548
0.19398809969425201 0.45134958624839783 0.29587611556053162
0.31045347452163696 0.4613567590713501 0.30506715178489685
0.43123525381088257 0.47079560160636902 0.31432041525840759
0.55364251136779785 0.48025310039520264 0.32380640506744385
0.67570561170578003 0.48932632803916931 0.33415216207504272
0.79598093032836914 0.49909508228302002 0.34439739584922791
0.91595739126205444 0.50929218530654907 0.35435503721237183
0.23273909091949463 0.58443844318389893 0.32441616058349609
0.35196980834007263 0.59520524740219116 0.33403915166854858
0.47139522433280945 0.60599654912948608 0.34265005588531494
0.59178978204727173 0.61585807800292969 0.35150235891342163
0.71367675065994263 0.62410551309585571 0.36181575059890747
0.83446985483169556 0.63254410028457642 0.37150156497955322
0.95487231016159058 0.64141029119491577 0.38043156266212463
0.27021807432174683 0.71671730279922485 0.35295924544334412
0.39237222075462341 0.72760152816772461 0.3635154664516449
0.51213794946670532 0.73871517181396484 0.37234610319137573
0.63230466842651367 0.74894857406616211 0.38081714510917664
0.75332021713256836 0.75762712955474854 0.3898119330406189
0.87399709224700928 0.76586836576461792 0.39847064018249512
0.98922830820083618 0.77408772706985474 0.40632444620132446
0.30399757623672485 0.84882670640945435 0.37964543700218201
0.42927414178848267 0.8597601056098938 0.39147448539733887
0.55085557699203491 0.87099260091781616 0.40066570043563843
0.67126369476318359 0.88156634569168091 0.40868654847145081
0.79187005758285522 0.8908379077911377 0.41668909788131714
0.91244101524353027 0.89941257238388062 0.42437085509300232
1 0.9076879620552063 0.43096762895584106
0.089505091309547424 0.068481877446174622 0.298787921667099
0.20181174576282501 0.079223215579986572 0.30739811062812805
0.31955996155738831 0.088387399911880493 0.31521302461624146
0.44144582748413086 0.097290202975273132 0.32221093773841858
0.5641675591468811 0.10753350704908371 0.32953521609306335
0.68491077423095703 0.11917742341756821 0.33931255340576172
0.80480164289474487 0.13037985563278198 0.35032945871353149
0.12708334624767303 0.1922699362039566 0.32505437731742859
0.23986400663852692 0.20293192565441132 0.3339465856552124
0.35862475633621216 0.21187713742256165 0.34319370985031128
0.48173493146896362 0.2205498218536377 0.35121634602546692
0.60384148359298706 0.23133642971515656 0.3587038516998291
0.7250678539276123 0.24362106621265411 0.36828356981277466
0.84544217586517334 0.2559630274772644 0.3793066143989563
0.16407772898674011 0.32070469856262207 0.35144069790840149
0.27603483200073242 0.33198884129524231 0.36093512177467346
0.3968193531036377 0.34008583426475525 0.37136927247047424
0.52137070894241333 0.34838974475860596 0.38030710816383362
0.64337348937988281 0.35885101556777954 0.38832813501358032
0.76383703947067261 0.37070810794830322 0.39719939231872559
0.88393950462341309 0.38288673758506775 0.40719121694564819
0.20183117687702179 0.45447421073913574 0.37918820977210999
0.31649953126907349 0.46491989493370056 0.38894051313400269
0.43522217869758606 0.47397753596305847 0.3984031081199646
0.55818909406661987 0.48291391134262085 0.40717595815658569
0.6820063591003418 0.49146020412445068 0.41668954491615295
0.80191165208816528 0.5020897388458252 0.42488375306129456
0.92173367738723755 0.51316606998443604 0.43398383259773254
0.24045054614543915 0.5877687931060791 0.40841874480247498
0.35836648941040039 0.5982060432434082 0.41829895973205566
0.47581619024276733 0.60853922367095947 0.42671114206314087
0.59670770168304443 0.61834710836410522 0.43500557541847229
0.72055923938751221 0.62621712684631348 0.44471371173858643
0.84107071161270142 0.63541746139526367 0.45274814963340759
0.96133601665496826 0.64506310224533081 0.46119433641433716
0.27803382277488708 0.71948421001434326 0.43824627995491028
0.39907163381576538 0.73016059398651123 0.44879007339477539
0.5180962085723877 0.74133861064910889 0.45716077089309692
0.63781416416168213 0.75154834985733032 0.46480140089988708
0.75953978300094604 0.76019322872161865 0.47309610247612
0.88104265928268433 0.76848107576370239 0.48118346929550171
0.99309462308883667 0.77723455429077148 0.48895537853240967
0.31218060851097107 0.85116040706634521 0.46622511744499207
0.43712756037712097 0.86182481050491333 0.47802790999412537
0.55713057518005371 0.87350136041641235 0.48627600073814392
0.67708814144134521 0.88433492183685303 0.4936087429523468
0.79837185144424438 0.89372712373733521 0.50112819671630859
0.91965800523757935 0.90218871831893921 0.50847703218460083
1 0.91069024801254272 0.51513147354125977
0.095976568758487701 0.074695676565170288 0.38034695386886597
0.20849375426769257 0.086436793208122253 0.39013326168060303
0.32407009601593018 0.096026308834552765 0.39881798624992371
0.44535702466964722 0.10403899848461151 0.40657827258110046
0.56779217720031738 0.1131579652428627 0.41439592838287354
0.68859535455703735 0.1235843151807785 0.42329639196395874
0.80849039554595947 0.13411159813404083 0.43266963958740234
0.13516351580619812 0.19836588203907013 0.40796852111816406
0.24768829345703125 0.2096630185842514 0.41785186529159546
0.36398553848266602 0.21889704465866089 0.42721465229988098
0.48542329668998718 0.22708241641521454 0.43554836511611938
0.60756176710128784 0.23602713644504547 0.44352549314498901
0.72894495725631714 0.24667094647884369 0.45225921273231506
0.8497956395149231 0.25857171416282654 0.46171146631240845
0.1725391298532486 0.3257744312286377 0.43519571423530579
0.28552058339118958 0.33670130372047424 0.445433109998703
0.40266644954681396 0.34527114033699036 0.45562475919723511
0.52491194009780884 0.3530934751033783 0.46461012959480286
0.6476445198059082 0.36180222034454346 0.47278162837028503
0.76891767978668213 0.37223821878433228 0.48092213273048401
0.88892388343811035 0.38422283530235291 0.48988091945648193
0.2096821516752243 0.45883002877235413 0.46281418204307556
0.32442468404769897 0.4684394896030426 0.47340413928031921
0.44115814566612244 0.4763084352016449 0.48382028937339783
0.56307339668273926 0.48459884524345398 0.49285188317298889
0.68800508975982666 0.49265429377555847 0.50186121463775635
0.80812603235244751 0.50279903411865234 0.5091862678527832
0.92797291278839111 0.51436936855316162 0.51737129688262939
0.24714958667755127 0.59155946969985962 0.4920651912689209
0.3638613224029541 0.60139703750610352 0.5025712251663208
0.48018553853034973 0.61074340343475342 0.51172488927841187
0.60108667612075806 0.619925856590271 0.52018314599990845
0.72603029012680054 0.62749803066253662 0.52953922748565674
0.84730541706085205 0.63655489683151245 0.53719264268875122
0.96801722049713135 0.64660096168518066 0.54513728618621826
0.28264376521110535 0.72296136617660522 0.52208346128463745
0.40283447504043579 0.73353171348571777 0.53282135725021362
0.52214699983596802 0.74419087171554565 0.54126137495040894
0.64155435562133789 0.75415647029876709 0.54899424314498901
0.7639690637588501 0.76239562034606934 0.55724233388900757
0.88678628206253052 0.77027064561843872 0.56532967090606689
0.99597960710525513 0.77903068065643311 0.57308822870254517
0.31563112139701843 0.85469633340835571 0.55040103197097778
0.44039934873580933 0.86558908224105835 0.56189984083175659
0.56077808141708374 0.8768315315246582 0.57049006223678589
0.68062758445739746 0.88737791776657104 0.57801657915115356
0.80269104242324829 0.8963964581489563 0.58545124530792236
0.92480373382568359 0.90453946590423584 0.59285074472427368
1 0.91299360990524292 0.59971374273300171
0.10463766753673553 0.081674151122570038 0.46219998598098755
0.21903263032436371 0.093143239617347717 0.47283211350440979
0.33325064182281494 0.10204093903303146 0.48233789205551147
0.45174041390419006 0.11008182913064957 0.49094626307487488
0.57209306955337524 0.11845646053552628 0.4992535412311554
0.69224667549133301 0.12826637923717499 0.50782924890518188
0.81198644638061523 0.13848820328712463 0.51635032892227173
0.14350131154060364 0.2048381119966507 0.49121397733688354
0.25788837671279907 0.21623177826404572 0.5017467737197876
0.37261030077934265 0.22552289068698883 0.51139682531356812
0.49112200736999512 0.23321567475795746 0.52019244432449341
0.61141538619995117 0.24084019660949707 0.52856439352035522
0.73201477527618408 0.24996639788150787 0.53707766532897949
0.85278642177581787 0.26147094368934631 0.54579311609268188
0.1794934868812561 0.33029258251190186 0.51928526163101196
0.29492992162704468 0.34151571989059448 0.52984112501144409
0.41033783555030823 0.35081428289413452 0.53987210988998413
0.52951878309249878 0.35857981443405151 0.54891258478164673
0.65031367540359497 0.36568751931190491 0.55740809440612793
0.77192044258117676 0.37351611256599426 0.56579548120498657
0.8929445743560791 0.3857589066028595 0.57434052228927612
0.21532914042472839 0.46159392595291138 0.54723024368286133
0.33181622624397278 0.47190767526626587 0.55790567398071289
0.44724038243293762 0.48083224892616272 0.56799817085266113
0.56552267074584961 0.48935431241989136 0.57662862539291382
0.68859541416168213 0.49663692712783813 0.58554267883300781
0.8116028904914856 0.50483912229537964 0.59418177604675293
0.93228042125701904 0.51603907346725464 0.60250687599182129
0.25053703784942627 0.59431761503219604 0.57608383893966675
0.36779338121414185 0.60465681552886963 0.58679676055908203
0.483621746301651 0.61440032720565796 0.59589791297912598
0.60242342948913574 0.62415903806686401 0.6036984920501709
0.72569644451141357 0.63168555498123169 0.61293745040893555
0.85066062211990356 0.63933473825454712 0.62218159437179565
0.97282510995864868 0.64915525913238525 0.63052856922149658
0.2840365469455719 0.72627085447311401 0.60536050796508789
0.40601927042007446 0.73722165822982788 0.61615699529647827
0.52237170934677124 0.74786365032196045 0.624988853931427
0.6422315239906311 0.75776427984237671 0.63289260864257812
0.76553332805633545 0.76602375507354736 0.64145636558532715
0.88998508453369141 0.77345520257949829 0.65014493465423584
0.99750328063964844 0.7820974588394165 0.65801465511322021
0.31519442796707153 0.85847651958465576 0.63318020105361938
0.44010961055755615 0.86980617046356201 0.64462578296661377
0.56084316968917847 0.88083410263061523 0.65382319688796997
0.68194907903671265 0.8910413384437561 0.66185456514358521
0.80442112684249878 0.89988476037979126 0.66973048448562622
0.92768943309783936 0.90790873765945435 0.67737704515457153
1 0.91632223129272461 0.68438488245010376
0.11014121770858765 0.086543560028076172 0.54386955499649048
0.22634074091911316 0.097566314041614532 0.55534833669662476
0.34093138575553894 0.10627114027738571 0.56552553176879883
0.45679971575737 0.11442579329013824 0.57489645481109619
0.57621139287948608 0.12273175269365311 0.5836372971534729
0.69490736722946167 0.13241223990917206 0.59217196702957153
0.81294077634811401 0.14238952100276947 0.60000371932983398
0.14800146222114563 0.20950257778167725 0.5740625262260437
0.26491627097129822 0.22130061686038971 0.58516776561737061
0.37953588366508484 0.23091022670269012 0.59535461664199829
0.49638745188713074 0.23883481323719025 0.60444027185440063
0.6150813102722168 0.24626699090003967 0.61325728893280029
0.73480778932571411 0.25486773252487183 0.62180185317993164
0.8545343279838562 0.26554358005523682 0.62994647026062012
0.18300475180149078 0.33339682221412659 0.60322028398513794
0.30146950483322144 0.34605079889297485 0.61401200294494629
0.41696405410766602 0.35639658570289612 0.62405908107757568
0.53394210338592529 0.3646996021270752 0.63313287496566772
0.65364629030227661 0.37139993906021118 0.64203596115112305
0.77375048398971558 0.37885525822639465 0.65065246820449829
0.89490562677383423 0.39002496004104614 0.65899044275283813
0.21713180840015411 0.46373507380485535 0.63160288333892822
0.3363395631313324 0.47535812854766846 0.6425291895866394
0.45258399844169617 0.48582959175109863 0.6521531343460083
0.56950265169143677 0.49471995234489441 0.6610526442527771
0.69093352556228638 0.5021209716796875 0.6700858473777771
0.81309443712234497 0.50984781980514526 0.67912298440933228
0.93544578552246094 0.52047640085220337 0.68752747774124146
0.2502589225769043 0.59622079133987427 0.66002118587493896
0.37097951769828796 0.60768651962280273 0.67085671424865723
0.48750001192092896 0.61823576688766479 0.68028217554092407
0.60646599531173706 0.62800770998001099 0.6887086033821106
0.72831594944000244 0.63606476783752441 0.69793212413787842
0.85222887992858887 0.64425617456436157 0.70729142427444458
0.9740033745765686 0.65398579835891724 0.71577209234237671
0.28193739056587219 0.72885400056838989 0.68837541341781616
0.40505522489547729 0.7405659556388855 0.69951045513153076
0.52507102489471436 0.75151932239532471 0.70888912677764893
0.64463603496551514 0.76144099235534668 0.71741712093353271
0.76685309410095215 0.77012389898300171 0.72617596387863159
0.89092129468917847 0.7782890796661377 0.73506277799606323
0.99752134084701538 0.78724086284637451 0.74286031723022461
0.31163132190704346 0.86163437366485596 0.71551179885864258
0.43757355213165283 0.87341421842575073 0.72723370790481567
0.5601993203163147 0.88456469774246216 0.73697817325592041
0.68176007270812988 0.89475524425506592 0.74565345048904419
0.80447012186050415 0.90384835004806519 0.75392991304397583
0.92760771512985229 0.91230988502502441 0.76191180944442749
1 0.92084765434265137 0.76873975992202759
