assets/lut/shamoonabbasi directions 23.cube
# Created by: G'MIC (https://gmic.eu)
TITLE "directions_23"
# LUT size
LUT_3D_SIZE 5
# Data domain
DOMAIN_MIN 0.0 0.0 0.0
DOMAIN_MAX 1.0 1.0 1.0
# LUT data points
0.019607843831181526 0.034988958388566971 0.043330531567335129
0.032838471233844757 0.045600380748510361 0.054484155029058456
0.11251117289066315 0.055153686553239822 0.059135153889656067
0.26835429668426514 0.049366865307092667 0.057917263358831406
0.54197424650192261 0.0079722236841917038 0.045239482074975967
0.051198024302721024 0.096638128161430359 0.094708509743213654
0.094119325280189514 0.13279271125793457 0.1160300001502037
0.21804407238960266 0.16164451837539673 0.1033036932349205
0.48215281963348389 0.13160048425197601 0.095507062971591949
0.76616877317428589 0.10810991376638412 0.069866135716438293
0.075494833290576935 0.25533530116081238 0.14065007865428925
0.20473551750183105 0.31664058566093445 0.16951897740364075
0.39687511324882507 0.40482214093208313 0.16635602712631226
0.64592266082763672 0.46660023927688599 0.11665520817041397
0.8791128396987915 0.47180894017219543 0.087933547794818878
0.19051903486251831 0.5358855128288269 0.18886294960975647
0.40845146775245667 0.57560068368911743 0.24906061589717865
0.60226470232009888 0.65060114860534668 0.25385412573814392
0.7777101993560791 0.71812891960144043 0.22788450121879578
0.93242084980010986 0.75955325365066528 0.15676172077655792
0.53697919845581055 0.8028794527053833 0.33626681566238403
0.66030389070510864 0.81766104698181152 0.4228513240814209
0.77871179580688477 0.85354351997375488 0.45221149921417236
0.88983482122421265 0.89209449291229248 0.44934943318367004
0.98831182718276978 0.92375224828720093 0.35426428914070129
0.019607843831181526 0.040196586400270462 0.055685319006443024
0.033865880221128464 0.052597492933273315 0.068994693458080292
0.1025347113609314 0.059731949120759964 0.086303666234016418
0.24880710244178772 0.06044330820441246 0.090939708054065704
0.49657484889030457 0.038864899426698685 0.097218260169029236
0.055157888680696487 0.11138778179883957 0.118080735206604
0.10274124145507812 0.14619559049606323 0.14694595336914062
0.16823802888393402 0.18747508525848389 0.17388574779033661
0.42768731713294983 0.18201711773872375 0.18194931745529175
0.6970595121383667 0.18931159377098083 0.17350058257579803
0.069379277527332306 0.28843510150909424 0.20134586095809937
0.26719501614570618 0.33642327785491943 0.2740882933139801
0.39448139071464539 0.41567313671112061 0.31385394930839539
0.61178672313690186 0.48523792624473572 0.30015659332275391
0.85760027170181274 0.49620887637138367 0.29110300540924072
0.19125495851039886 0.55940431356430054 0.27737069129943848
0.45716390013694763 0.58500176668167114 0.36353036761283875
0.62782448530197144 0.65594363212585449 0.40836560726165771
0.76819753646850586 0.72380524873733521 0.42503818869590759
0.91250836849212646 0.77104228734970093 0.40716478228569031
0.51704555749893188 0.81728148460388184 0.40088489651679993
0.67088931798934937 0.82616370916366577 0.51505178213119507
0.78626364469528198 0.85543400049209595 0.57409220933914185
0.88745760917663574 0.89490979909896851 0.59379440546035767
0.98589009046554565 0.9291875958442688 0.55089485645294189
0.019557759165763855 0.048680998384952545 0.1054995059967041
0.043158527463674545 0.066443242132663727 0.11628785729408264
0.10544431954622269 0.071277469396591187 0.14151284098625183
0.28184491395950317 0.057849481701850891 0.16341212391853333
0.52807414531707764 0.0071670082397758961 0.15171216428279877
0.018925506621599197 0.12701046466827393 0.16890859603881836
0.10809409618377686 0.16099363565444946 0.17478011548519135
0.18180844187736511 0.20645776391029358 0.20750449597835541
0.38289767503738403 0.22598561644554138 0.25330629944801331
0.64067333936691284 0.23956617712974548 0.25690943002700806
0.020493151620030403 0.32277464866638184 0.25686687231063843
0.29334744811058044 0.35933995246887207 0.31320461630821228
0.42173904180526733 0.43797895312309265 0.3587314784526825
0.5579230785369873 0.51052999496459961 0.40047189593315125
0.82186216115951538 0.51982074975967407 0.42304939031600952
0.087733082473278046 0.59364056587219238 0.33733490109443665
0.48314648866653442 0.60891377925872803 0.44179213047027588
0.6739916205406189 0.67103523015975952 0.53490203619003296
0.75759530067443848 0.73064130544662476 0.58804959058761597
0.87545108795166016 0.78378796577453613 0.59156674146652222
0.48047071695327759 0.83256661891937256 0.48449629545211792
0.66793477535247803 0.8384820818901062 0.58868134021759033
0.79261130094528198 0.85227292776107788 0.65703678131103516
0.88928461074829102 0.89685380458831787 0.69735032320022583
0.96665781736373901 0.92891174554824829 0.69561338424682617
0.0017554040532559156 0.064635992050170898 0.20953954756259918
0.031783878803253174 0.077693521976470947 0.22164662182331085
0.12831099331378937 0.10228641331195831 0.25238972902297974
0.28519228100776672 0.083562187850475311 0.29350367188453674
0.54151409864425659 0.016661310568451881 0.30591532588005066
0.0040008546784520149 0.14961402118206024 0.27226713299751282
0.088832274079322815 0.18190105259418488 0.28983405232429504
0.22774352133274078 0.23107576370239258 0.31654649972915649
0.40822944045066833 0.24418357014656067 0.35062387585639954
0.66152852773666382 0.2071814239025116 0.35886585712432861
0.0034572076983749866 0.33690956234931946 0.36525207757949829
0.18970261514186859 0.39493247866630554 0.38625884056091309
0.44379153847694397 0.45806801319122314 0.40109109878540039
0.58455294370651245 0.53211945295333862 0.44936227798461914
0.78506815433502197 0.54806870222091675 0.5148322582244873
0.0047066034749150276 0.62307602167129517 0.43660923838615417
0.41113650798797607 0.64799392223358154 0.50272345542907715
0.68566799163818359 0.68581217527389526 0.58200597763061523
0.77030855417251587 0.74830728769302368 0.63500040769577026
0.83784210681915283 0.80074042081832886 0.67819619178771973
0.2453417181968689 0.85329347848892212 0.53579401969909668
0.62143093347549438 0.85648751258850098 0.63983923196792603
0.81029695272445679 0.86515134572982788 0.72569829225540161
0.9023481011390686 0.89546042680740356 0.77651351690292358
0.96189254522323608 0.9376102089881897 0.8157888650894165
0 0.091429829597473145 0.37093010544776917
0.0086200935766100883 0.096382170915603638 0.37527179718017578
0.14733250439167023 0.12382595241069794 0.39358979463577271
0.35855972766876221 0.15384049713611603 0.44700157642364502
0.58349853754043579 0.10736815631389618 0.47930189967155457
0 0.18226130306720734 0.41506412625312805
0.046863824129104614 0.20514938235282898 0.42820349335670471
0.27303832769393921 0.26549741625785828 0.45431578159332275
0.47666221857070923 0.31658935546875 0.50149089097976685
0.6859319806098938 0.29283913969993591 0.53630441427230835
0 0.36336526274681091 0.48466295003890991
0.12232492119073868 0.40476921200752258 0.50006282329559326
0.43021580576896667 0.47144877910614014 0.54007995128631592
0.62591558694839478 0.53167706727981567 0.57350677251815796
0.7749253511428833 0.53873181343078613 0.58649176359176636
6.4625460254319478e-06 0.62324541807174683 0.58599239587783813
0.15817220509052277 0.66499334573745728 0.61167275905609131
0.63070917129516602 0.70349204540252686 0.64793479442596436
0.78483587503433228 0.76606476306915283 0.67114078998565674
0.84905779361724854 0.81483489274978638 0.70834243297576904
0.008156241849064827 0.86096042394638062 0.63874524831771851
0.42434316873550415 0.8842465877532959 0.67923110723495483
0.78364306688308716 0.88016563653945923 0.76569610834121704
0.9194188117980957 0.91711819171905518 0.81561338901519775
0.95600378513336182 0.93959015607833862 0.83126252889633179
