assets/lut/shamoonabbasi green 15.cube
# Created by: G'MIC (https://gmic.eu)
TITLE "green_15"
# LUT size
LUT_3D_SIZE 13
# Data domain
DOMAIN_MIN 0.0 0.0 0.0
DOMAIN_MAX 1.0 1.0 1.0
# LUT data points
0.070588238537311554 0.11764705926179886 0.11764705926179886
0.070588238537311554 0.11764705926179886 0.11764705926179886
0.085190311074256897 0.12064950913190842 0.11232082545757294
0.14986853301525116 0.12311133742332458 0.11451213806867599
0.21905989944934845 0.12764677405357361 0.11063303053379059
0.29726552963256836 0.13568221032619476 0.1096009761095047
0.40420684218406677 0.1487855464220047 0.10368694365024567
0.54002803564071655 0.16874675452709198 0.092728197574615479
0.69366937875747681 0.19842548668384552 0.07669251412153244
0.81695777177810669 0.22929927706718445 0.068526081740856171
0.8921513557434082 0.25651064515113831 0.074751831591129303
0.95116275548934937 0.2783111035823822 0.091079309582710266
0.9904789924621582 0.29290199279785156 0.11221464723348618
0.070588238537311554 0.11764705926179886 0.11764705926179886
0.070588238537311554 0.11795329302549362 0.11764705926179886
0.086317978799343109 0.12118175625801086 0.11318118870258331
0.15011101961135864 0.12507335841655731 0.11500688642263412
0.21888577938079834 0.13011209666728973 0.11101517081260681
0.296438068151474 0.13897992670536041 0.10808349400758743
0.40773478150367737 0.15609301626682281 0.1020628958940506
0.55057829618453979 0.18013228476047516 0.08950544148683548
0.69997197389602661 0.20888663828372955 0.072921827435493469
0.8166964054107666 0.23437750339508057 0.069057896733283997
0.89238733053207397 0.25786921381950378 0.077483624219894409
0.95362794399261475 0.27839875221252441 0.091457918286323547
0.99185049533843994 0.2967885434627533 0.1120462641119957
0.062925718724727631 0.12801831960678101 0.11771707236766815
0.065146550536155701 0.12732021510601044 0.11642089486122131
0.093137256801128387 0.13117833435535431 0.11509014666080475
0.15716364979743958 0.14055201411247253 0.11215294897556305
0.23016661405563354 0.14994601905345917 0.11032524704933167
0.31002986431121826 0.16343562304973602 0.10256458073854446
0.42103725671768188 0.18630474805831909 0.09475988894701004
0.56552690267562866 0.21643905341625214 0.079039357602596283
0.70699185132980347 0.24229323863983154 0.063328653573989868
0.81646203994750977 0.26174712181091309 0.060383230447769165
0.89201396703720093 0.27796202898025513 0.070919349789619446
0.95152157545089722 0.29564058780670166 0.087245166301727295
0.98694425821304321 0.31159019470214844 0.1077672615647316
0.041682641953229904 0.15569509565830231 0.12257247418165207
0.047550905495882034 0.15391719341278076 0.12078887224197388
0.078759916126728058 0.1565573513507843 0.11848566681146622
0.15623478591442108 0.16918279230594635 0.10878324508666992
0.23831820487976074 0.18594728410243988 0.099388331174850464
0.32733315229415894 0.20999577641487122 0.089427381753921509
0.44278988242149353 0.2389821857213974 0.080920182168483734
0.57890039682388306 0.26837596297264099 0.056690800935029984
0.71005469560623169 0.29094997048377991 0.041984349489212036
0.81607413291931152 0.30421999096870422 0.043516434729099274
0.89098399877548218 0.31204637885093689 0.058767534792423248
0.94828426837921143 0.32136553525924683 0.081703692674636841
0.98572200536727905 0.3308664858341217 0.10563390702009201
0.025596544146537781 0.19169613718986511 0.14454209804534912
0.032825827598571777 0.19122686982154846 0.14071112871170044
0.061569303274154663 0.19178202748298645 0.1302955150604248
0.14030663669109344 0.2047906219959259 0.11312457919120789
0.23734205961227417 0.22710792720317841 0.089925684034824371
0.33929407596588135 0.26085007190704346 0.071282707154750824
0.45471957325935364 0.29378911852836609 0.049044020473957062
0.58892345428466797 0.32188007235527039 0.028357427567243576
0.71724259853363037 0.33892631530761719 0.021000999957323074
0.81431806087493896 0.34532371163368225 0.027427613735198975
0.88692981004714966 0.34736469388008118 0.046552829444408417
0.94317781925201416 0.35474687814712524 0.073854930698871613
0.98490983247756958 0.36140352487564087 0.10190857201814651
0.012054233811795712 0.23251147568225861 0.15687786042690277
0.022339479997754097 0.23495350778102875 0.15564748644828796
0.044571176171302795 0.23271834850311279 0.14385847747325897
0.11268608272075653 0.24059166014194489 0.12297967821359634
0.21843345463275909 0.26494839787483215 0.092375889420509338
0.33238682150840759 0.29963341355323792 0.056834127753973007
0.45424234867095947 0.33828473091125488 0.027539405971765518
0.58681559562683105 0.37096935510635376 0.0099149215966463089
0.72316169738769531 0.3838733434677124 0.0061445645987987518
0.82046347856521606 0.38474941253662109 0.013952681794762611
0.8909376859664917 0.38210991024971008 0.036979854106903076
0.94637441635131836 0.38873380422592163 0.072209753096103668
0.98816722631454468 0.39577528834342957 0.10530250519514084
0.0064978506416082382 0.29287916421890259 0.18300433456897736
0.015374202281236649 0.28650215268135071 0.17281238734722137
0.025666704401373863 0.27731418609619141 0.15906824171543121
0.066253110766410828 0.27321118116378784 0.1390790194272995
0.18307332694530487 0.29770556092262268 0.10743670165538788
0.30345436930656433 0.33672288060188293 0.068468593060970306
0.43418574333190918 0.37746331095695496 0.030656866729259491
0.58726423978805542 0.41989439725875854 0.0085308896377682686
0.71964031457901001 0.43329343199729919 0.0038985905703157187
0.82840138673782349 0.42929542064666748 0.0077611734159290791
0.9009968638420105 0.42623278498649597 0.033531486988067627
0.95788270235061646 0.42984703183174133 0.079062320291996002
0.99435275793075562 0.43337729573249817 0.11633341014385223
0.0041801300831139088 0.35960915684700012 0.21213160455226898
0.006084830965846777 0.34687528014183044 0.19881448149681091
0.010273832827806473 0.33483332395553589 0.18244300782680511
0.026758531108498573 0.32529178261756897 0.16228450834751129
0.10741604119539261 0.34358566999435425 0.137929767370224
0.21634620428085327 0.37784010171890259 0.10622330009937286
0.36675751209259033 0.42275014519691467 0.059863954782485962
0.5449942946434021 0.47339087724685669 0.014114305377006531
0.70562702417373657 0.4934689998626709 0.0023586945608258247
0.82204133272171021 0.49433845281600952 0.0023079367820173502
0.90375649929046631 0.49129793047904968 0.022620914503931999
0.96422725915908813 0.4936676025390625 0.084052562713623047
0.99662947654724121 0.49842104315757751 0.15044558048248291
0.0015008813934400678 0.44095644354820251 0.23928281664848328
0.0023301218170672655 0.42464905977249146 0.2283044159412384
0.0020592035725712776 0.41027235984802246 0.2166903018951416
0.011091374792158604 0.4075661301612854 0.19823019206523895
0.037962011992931366 0.41552573442459106 0.17953751981258392
0.081577688455581665 0.43259128928184509 0.16148309409618378
0.21975232660770416 0.47274929285049438 0.11796602606773376
0.41990494728088379 0.52690523862838745 0.059504009783267975
0.63459193706512451 0.56239199638366699 0.01662120409309864
0.79362785816192627 0.57149344682693481 0.002043107058852911
0.89301919937133789 0.56730908155441284 0.0083533339202404022
0.96194863319396973 0.57010173797607422 0.054135147482156754
0.99562859535217285 0.5812227725982666 0.14806912839412689
0.0018614525906741619 0.52894347906112671 0.28356239199638367
0.0042031379416584969 0.51680928468704224 0.27972990274429321
0.0055843428708612919 0.51113700866699219 0.27257168292999268
0.0069227032363414764 0.51133215427398682 0.25647759437561035
0.01200504694133997 0.5168461799621582 0.23604363203048706
0.023758204653859138 0.52640241384506226 0.22644688189029694
0.075504645705223083 0.54664403200149536 0.2118561714887619
0.27381575107574463 0.59005200862884521 0.17622840404510498
0.53126692771911621 0.63026392459869385 0.10031383484601974
0.73742413520812988 0.64796000719070435 0.03027559258043766
0.86787968873977661 0.64843070507049561 0.0071627898141741753
0.95127654075622559 0.64860492944717407 0.013100388459861279
0.98994237184524536 0.65064948797225952 0.062775991857051849
0.033040497452020645 0.60609370470046997 0.34761369228363037
0.0375492163002491 0.60443115234375 0.34554657340049744
0.019104452803730965 0.6019476056098938 0.34094363451004028
0.0081066358834505081 0.60113310813903809 0.33093518018722534
0.011000913567841053 0.60594797134399414 0.31893813610076904
0.036875929683446884 0.61432313919067383 0.31257233023643494
0.082052029669284821 0.62762361764907837 0.31085303425788879
0.22672387957572937 0.65073180198669434 0.29781955480575562
0.45065388083457947 0.68135571479797363 0.25181543827056885
0.66698795557022095 0.71281284093856812 0.153641477227211
0.83218449354171753 0.72462195158004761 0.058202631771564484
0.93633836507797241 0.72099977731704712 0.015638867393136024
0.98671305179595947 0.71728873252868652 0.018187697976827621
0.12302190810441971 0.67533344030380249 0.43181416392326355
0.17157408595085144 0.67839592695236206 0.4376431405544281
0.14616216719150543 0.67710912227630615 0.4332461953163147
0.15212421119213104 0.67733216285705566 0.4311467707157135
0.1598408967256546 0.68122631311416626 0.4279574453830719
0.19158780574798584 0.6860663890838623 0.42087802290916443
0.2530667781829834 0.69403326511383057 0.42091038823127747
0.31318318843841553 0.70467656850814819 0.41233578324317932
0.44327804446220398 0.726276695728302 0.39406669139862061
0.61074966192245483 0.75413227081298828 0.34070116281509399
0.77345740795135498 0.78039008378982544 0.2389787882566452
0.90192544460296631 0.78943437337875366 0.11965780705213547
0.98148107528686523 0.78806376457214355 0.029590291902422905
0.31249484419822693 0.74106901884078979 0.52084082365036011
0.33160409331321716 0.74442988634109497 0.52620851993560791
0.33713892102241516 0.73897141218185425 0.52184665203094482
0.35076373815536499 0.73367667198181152 0.51967835426330566
0.37355303764343262 0.73946934938430786 0.52060961723327637
0.38374879956245422 0.74753504991531372 0.51653510332107544
0.40013027191162109 0.75253915786743164 0.51509952545166016
0.42798486351966858 0.75519281625747681 0.50604838132858276
0.47818571329116821 0.76345837116241455 0.48473533987998962
0.58566385507583618 0.78671395778656006 0.45758378505706787
0.72046381235122681 0.82038450241088867 0.41279411315917969
0.84665161371231079 0.84891188144683838 0.33585983514785767
0.9493069052696228 0.83984500169754028 0.16084322333335876
0.070588238537311554 0.11764705926179886 0.11829929798841476
0.071445032954216003 0.11764705926179886 0.11735595762729645
0.086440756916999817 0.12107715755701065 0.11274575442075729
0.15111170709133148 0.1241954118013382 0.11460237950086594
0.21718031167984009 0.13016285002231598 0.11094769090414047
0.29935246706008911 0.1389678418636322 0.10854498296976089
0.40770190954208374 0.15416154265403748 0.10196352005004883
0.55059880018234253 0.1795283704996109 0.088336452841758728
0.69952017068862915 0.21219727396965027 0.071495354175567627
0.81173795461654663 0.23993931710720062 0.066219449043273926
0.89733374118804932 0.26315191388130188 0.070472061634063721
0.95355343818664551 0.28322908282279968 0.089674286544322968
0.99159908294677734 0.29928728938102722 0.11171329021453857
0.070588238537311554 0.11766877770423889 0.11832107603549957
0.0714288130402565 0.11796728521585464 0.11801763623952866
0.089495368301868439 0.12158866971731186 0.11380809545516968
0.1520666778087616 0.12555146217346191 0.11362771689891815
0.21982665359973907 0.1325564980506897 0.11060313880443573
0.29884713888168335 0.14306817948818207 0.10716912895441055
0.40862008929252625 0.16257347166538239 0.10087820142507553
0.55448645353317261 0.18967229127883911 0.086394995450973511
0.70716375112533569 0.21642173826694489 0.067786209285259247
0.81531763076782227 0.24325032532215118 0.066182635724544525
0.89967972040176392 0.26648327708244324 0.074879154562950134
0.95185202360153198 0.28632202744483948 0.092404760420322418
0.99198830127716064 0.30225226283073425 0.11234185844659805
0.063246212899684906 0.1288377046585083 0.1197686567902565
0.065384790301322937 0.12925253808498383 0.11981628835201263
0.092873305082321167 0.13195471465587616 0.11550191044807434
0.15938445925712585 0.14070987701416016 0.11138706654310226
0.23294322192668915 0.1519785076379776 0.10888588428497314
0.31318974494934082 0.16833303868770599 0.10153298825025558
0.42349669337272644 0.19533172249794006 0.093994319438934326
0.56471866369247437 0.22682653367519379 0.075078226625919342
0.71060597896575928 0.25369927287101746 0.056547246873378754
0.81683731079101562 0.27003017067909241 0.056655526161193848
0.89427828788757324 0.28637063503265381 0.069154210388660431
0.95072805881500244 0.30439192056655884 0.08708471804857254
0.98693597316741943 0.31682831048965454 0.10790514200925827
0.045961044728755951 0.15714283287525177 0.12582200765609741
0.053488548845052719 0.15725937485694885 0.1252056211233139
0.079450048506259918 0.15807183086872101 0.11971043795347214
0.15691781044006348 0.17182421684265137 0.11177791655063629
0.24210536479949951 0.1889512687921524 0.10108606517314911
0.33457115292549133 0.21637478470802307 0.089752018451690674
0.44266745448112488 0.24409922957420349 0.081202097237110138
0.58075457811355591 0.27623981237411499 0.053685732185840607
0.7146836519241333 0.29492780566215515 0.038138728588819504
0.81616228818893433 0.30663236975669861 0.040633182972669601
0.88734102249145508 0.31726035475730896 0.058081548660993576
0.94525289535522461 0.32880333065986633 0.081179194152355194
0.98424667119979858 0.33768472075462341 0.10465102642774582
0.029016816988587379 0.19313701987266541 0.14791920781135559
0.03504142165184021 0.19187465310096741 0.14653730392456055
0.06785893440246582 0.19443909823894501 0.13502785563468933
0.140891432762146 0.20628596842288971 0.11975673586130142
0.23872914910316467 0.22864484786987305 0.096212215721607208
0.3407895565032959 0.2602897584438324 0.072095461189746857
0.45252972841262817 0.29434838891029358 0.04930553212761879
0.58508127927780151 0.32547515630722046 0.027882460504770279
0.7165868878364563 0.33953434228897095 0.018800998106598854
0.81442046165466309 0.34610140323638916 0.025922678411006927
0.88470578193664551 0.3508819043636322 0.046762578189373016
0.94129198789596558 0.35773074626922607 0.073826193809509277
0.98350882530212402 0.36518722772598267 0.10181643813848495
0.012430931441485882 0.23894000053405762 0.16493700444698334
0.021518900990486145 0.23839034140110016 0.16408078372478485
0.051368847489356995 0.23441627621650696 0.15139622986316681
0.11785296350717545 0.24118116497993469 0.12983506917953491
0.21950748562812805 0.26268520951271057 0.099999450147151947
0.33303496241569519 0.29866403341293335 0.06283240020275116
0.44976046681404114 0.33658263087272644 0.029166622087359428
0.57860755920410156 0.36903560161590576 0.0092276632785797119
0.71979999542236328 0.38349363207817078 0.00537872314453125
0.81629472970962524 0.38740041851997375 0.014779198914766312
0.88808858394622803 0.38738679885864258 0.037272047251462936
0.94467800855636597 0.38976219296455383 0.071098104119300842
0.98694431781768799 0.39669165015220642 0.10515814274549484
0.0069984435103833675 0.29306250810623169 0.18755301833152771
0.01413288526237011 0.28870555758476257 0.18141546845436096
0.025655454024672508 0.27953103184700012 0.16691364347934723
0.073896624147891998 0.27710780501365662 0.14547631144523621
0.1818159818649292 0.29651078581809998 0.11601013690233231
0.30075725913047791 0.33164554834365845 0.076615415513515472
0.43195736408233643 0.37467586994171143 0.035677831619977951
0.58002221584320068 0.41816189885139465 0.0082804514095187187
0.71583569049835205 0.43384897708892822 0.0035025803372263908
0.82182902097702026 0.43189287185668945 0.006283988244831562
0.89954090118408203 0.42784804105758667 0.028119929134845734
0.95472246408462524 0.4309699535369873 0.07742367684841156
0.99333059787750244 0.4347955584526062 0.11796660721302032
0.0038341896142810583 0.35215237736701965 0.21226076781749725
0.0052950992248952389 0.34457555413246155 0.20248137414455414
0.008414548821747303 0.33463960886001587 0.18856528401374817
0.025503885000944138 0.32641232013702393 0.16831955313682556
0.11052297055721283 0.34141558408737183 0.14192196726799011
0.21866066753864288 0.37287130951881409 0.11135704070329666
0.36805233359336853 0.41975992918014526 0.065192803740501404
0.54603666067123413 0.47075030207633972 0.01617005281150341
0.70316404104232788 0.49154007434844971 0.00089847343042492867
0.81934094429016113 0.49287942051887512 0.0026028503198176622
0.90552747249603271 0.49302041530609131 0.024153616279363632
0.96827960014343262 0.49677813053131104 0.092604450881481171
0.99588382244110107 0.50053155422210693 0.14911894500255585
0.00024803011910989881 0.4380527138710022 0.23388741910457611
0.00039952594670467079 0.42368617653846741 0.22790813446044922
0.0017636617412790656 0.41113993525505066 0.21931749582290649
0.006153495516628027 0.40694800019264221 0.20080728828907013
0.030348265543580055 0.41411706805229187 0.18178734183311462
0.083898879587650299 0.43291577696800232 0.16605448722839355
0.21284519135951996 0.47400844097137451 0.12631864845752716
0.42635497450828552 0.52958512306213379 0.053379897028207779
0.63675040006637573 0.56554168462753296 0.0097698736935853958
0.7950516939163208 0.57204288244247437 0.0021157059818506241
0.89544838666915894 0.57004934549331665 0.012953066267073154
0.96315371990203857 0.57290405035018921 0.055557940155267715
0.99568182229995728 0.58258074522018433 0.14420054852962494
0.00053990684682503343 0.52731430530548096 0.2820189893245697
0.00077948474790900946 0.51949012279510498 0.27959904074668884
0.0028225169517099857 0.51201659440994263 0.27263206243515015
0.0051945406012237072 0.51163196563720703 0.25761109590530396
0.0111172990873456 0.51894557476043701 0.23833942413330078
0.029560912400484085 0.5301622748374939 0.22840653359889984
0.084783129394054413 0.55082124471664429 0.21465767920017242
0.28765219449996948 0.59272247552871704 0.177699014544487
0.53524082899093628 0.63150614500045776 0.098947428166866302
0.73879754543304443 0.64862525463104248 0.031801801174879074
0.86881649494171143 0.64896130561828613 0.010672341100871563
0.94858080148696899 0.65018773078918457 0.016453029587864876
0.99207168817520142 0.65490126609802246 0.06512451171875
0.02154858224093914 0.6048092246055603 0.34687462449073792
0.026998767629265785 0.60681408643722534 0.34660837054252625
0.01519280206412077 0.60308229923248291 0.34248390793800354
0.014216643758118153 0.60245734453201294 0.33219817280769348
0.023018466308712959 0.60897552967071533 0.3189939558506012
0.04512748122215271 0.6179395318031311 0.31726723909378052
0.085472509264945984 0.6293218731880188 0.31372305750846863
0.23581874370574951 0.65309762954711914 0.30536642670631409
0.45782178640365601 0.68327134847640991 0.26276740431785583
0.66800802946090698 0.7117544412612915 0.15895740687847137
0.82778501510620117 0.72235548496246338 0.065010815858840942
0.93339997529983521 0.72096437215805054 0.021191122010350227
0.9886975884437561 0.72048693895339966 0.016377586871385574
0.11584097146987915 0.67658406496047974 0.43275955319404602
0.14080320298671722 0.67905235290527344 0.43598207831382751
0.12994399666786194 0.67694979906082153 0.43289119005203247
0.1639527827501297 0.67703884840011597 0.43239700794219971
0.17919114232063293 0.67963361740112305 0.42724490165710449
0.19611437618732452 0.68813753128051758 0.4259679913520813
0.25734052062034607 0.69438380002975464 0.42411738634109497
0.32373395562171936 0.70379489660263062 0.41895955801010132
0.44548892974853516 0.72489410638809204 0.39786413311958313
0.6080697774887085 0.75259196758270264 0.34294930100440979
0.77210432291030884 0.77896428108215332 0.24702125787734985
0.90297782421112061 0.79084604978561401 0.12390381842851639
0.98320484161376953 0.79271399974822998 0.047710180282592773
0.32491037249565125 0.74292606115341187 0.5268782377243042
0.33111211657524109 0.74544715881347656 0.52838271856307983
0.33952918648719788 0.74129819869995117 0.52667170763015747
0.36567828059196472 0.73892426490783691 0.52815598249435425
0.37235584855079651 0.73841637372970581 0.52004235982894897
0.38748839497566223 0.74741572141647339 0.51702213287353516
0.40354904532432556 0.75382113456726074 0.51666259765625
0.42674964666366577 0.75417494773864746 0.50901180505752563
0.47895270586013794 0.76477378606796265 0.49136495590209961
0.58651983737945557 0.78895246982574463 0.46490663290023804
0.7221570611000061 0.82023483514785767 0.41885101795196533
0.85108029842376709 0.84820866584777832 0.33876544237136841
0.95317435264587402 0.8529621958732605 0.20032572746276855
0.071154303848743439 0.11829014122486115 0.12604351341724396
0.072849228978157043 0.11775775998830795 0.12332361191511154
0.098376043140888214 0.12021758407354355 0.1182050034403801
0.15677502751350403 0.12719002366065979 0.11644291877746582
0.22315731644630432 0.14011399447917938 0.11144918948411942
0.31007063388824463 0.15342345833778381 0.10695867985486984
0.42285257577896118 0.1769794225692749 0.097015321254730225
0.57555639743804932 0.21670256555080414 0.07516816258430481
0.72243243455886841 0.24909855425357819 0.059998501092195511
0.82404553890228271 0.27226367592811584 0.058082938194274902
0.90230339765548706 0.29020881652832031 0.067508161067962646
0.96177273988723755 0.30498883128166199 0.092202536761760712
0.99570661783218384 0.31543216109275818 0.11125588417053223
0.070282265543937683 0.12036340683698654 0.13117599487304688
0.073622174561023712 0.11968486756086349 0.12827302515506744
0.10124221444129944 0.12195210158824921 0.12050064653158188
0.15929563343524933 0.12950393557548523 0.11469201743602753
0.23033685982227325 0.14408610761165619 0.11102887243032455
0.31804022192955017 0.16395536065101624 0.10628997534513474
0.42478734254837036 0.18848414719104767 0.096258305013179779
0.56900167465209961 0.22250604629516602 0.077233336865901947
0.71896207332611084 0.25677970051765442 0.056146152317523956
0.82255154848098755 0.28105509281158447 0.054542601108551025
0.90070128440856934 0.29606717824935913 0.067916661500930786
0.95877206325531006 0.30642744898796082 0.09086938202381134
0.99132436513900757 0.31804287433624268 0.1114763617515564
0.061746202409267426 0.13469313085079193 0.13453191518783569
0.066956527531147003 0.13375094532966614 0.13244900107383728
0.097380243241786957 0.13804897665977478 0.1258758008480072
0.16355833411216736 0.14529374241828918 0.11742722988128662
0.24051997065544128 0.16254352033138275 0.11259191483259201
0.33121371269226074 0.1904781311750412 0.10387251526117325
0.4412987232208252 0.2219698429107666 0.089337684214115143
0.58941352367401123 0.25792139768600464 0.063500858843326569
0.72524863481521606 0.2826114296913147 0.044281799346208572
0.82534646987915039 0.29888582229614258 0.046964474022388458
0.89844334125518799 0.31029170751571655 0.063197672367095947
0.95541602373123169 0.31718489527702332 0.086652018129825592
0.98983955383300781 0.32501712441444397 0.10963917523622513
0.049350034445524216 0.16545680165290833 0.14379741251468658
0.059370812028646469 0.16446594893932343 0.14347332715988159
0.089081689715385437 0.16508056223392487 0.13612975180149078
0.16035185754299164 0.1777472198009491 0.12738595902919769
0.24366284906864166 0.19447596371173859 0.11251718550920486
0.34019365906715393 0.22651611268520355 0.096926324069499969
0.45705229043960571 0.26238492131233215 0.080127641558647156
0.59720951318740845 0.29757922887802124 0.046556942164897919
0.7230217456817627 0.31743511557579041 0.027902012690901756
0.82133972644805908 0.32560810446739197 0.033759981393814087
0.88910609483718872 0.33330172300338745 0.05422503873705864
0.94632565975189209 0.33995771408081055 0.079299107193946838
0.98611819744110107 0.34494516253471375 0.10579162091016769
0.032924234867095947 0.20379576086997986 0.16263876855373383
0.04311516135931015 0.20116196572780609 0.16088211536407471
0.073862440884113312 0.19630710780620575 0.15110607445240021
0.1413390189409256 0.209397092461586 0.13627484440803528
