assets/lut/shamoonabbasi drop green tint 14.cube
# Created by: G'MIC (https://gmic.eu)
TITLE "drop_green_tint_14"
# LUT size
LUT_3D_SIZE 7
# Data domain
DOMAIN_MIN 0.0 0.0 0.0
DOMAIN_MAX 1.0 1.0 1.0
# LUT data points
0.00034089930704794824 0.0066459653899073601 0.00017269358795601875
0.06395440548658371 0.010239844210445881 0.0061615291051566601
0.22863833606243134 0.002570043783634901 0.00081193214282393456
0.36534285545349121 0 0.00079490809002891183
0.50088596343994141 0.0042245006188750267 0.0058233225718140602
0.5808221697807312 0.011711584404110909 0.0086747417226433754
0.58670783042907715 0.0093246456235647202 0.0094965463504195213
0.0046172346919775009 0.041239913552999496 0.0071805617772042751
0.039148531854152679 0.038162965327501297 0.0041527990251779556
0.21525445580482483 0.025932163000106812 0.006802278570830822
0.36732271313667297 0.0083580613136291504 0.0065701953135430813
0.4958636462688446 0.00066600128775462508 0.0085236048325896263
0.58354085683822632 2.6209214411210269e-05 0.011764706112444401
0.59224027395248413 0 0.011471632868051529
0.0009789859177544713 0.14942038059234619 0.00397466029971838
0.0005734761361964047 0.15308541059494019 0.0051496466621756554
0.12993203103542328 0.15741968154907227 0.0078431377187371254
0.38002434372901917 0.13766716420650482 0.008141850121319294
0.52353686094284058 0.094697393476963043 0.0078431377187371254
0.59540766477584839 0.042344246059656143 0.00799560546875
0.6037222146987915 0.031137878075242043 0.0078431377187371254
0.0037499521858990192 0.28555521368980408 0.0095207663252949715
0.0019206476863473654 0.2898978590965271 0.0084499139338731766
0.0059254514053463936 0.30587014555931091 0.007958386093378067
0.27398279309272766 0.35760989785194397 0.01191819179803133
0.59253442287445068 0.34226009249687195 0.015124048106372356
0.69651228189468384 0.2487170398235321 0.010465015657246113
0.68757873773574829 0.19783762097358704 0.01254571694880724
0.0078431377187371254 0.47916096448898315 0.013552572578191757
0.0014267716323956847 0.48167023062705994 0.01736215315759182
0 0.48025590181350708 0.016695538535714149
0.050876136869192123 0.517192542552948 0.019094953313469887
0.49945396184921265 0.59275132417678833 0.047101505100727081
0.79621940851211548 0.56014555692672729 0.053698461502790451
0.84419077634811401 0.48737898468971252 0.050438795238733292
0.0078431377187371254 0.64526468515396118 0.033457841724157333
0.010125867091119289 0.64884179830551147 0.036800235509872437
0.006038411520421505 0.65202611684799194 0.03719247505068779
0.0015605402877554297 0.65435248613357544 0.038124758750200272
0.23402281105518341 0.70822763442993164 0.071492843329906464
0.76597243547439575 0.76431089639663696 0.11345949023962021
0.92128688097000122 0.74390572309494019 0.12209188193082809
0.0078431377187371254 0.72552597522735596 0.047673363238573074
0.0077820122241973877 0.72849267721176147 0.048415824770927429
0.0043543050996959209 0.73680579662322998 0.049196939915418625
1.2925092050863896e-05 0.73518389463424683 0.048812102526426315
0.042970456182956696 0.75456857681274414 0.071022108197212219
0.60564273595809937 0.8421662449836731 0.13390620052814484
0.91746819019317627 0.9004749059677124 0.17996804416179657
0.01002242136746645 0.011678179726004601 0.049519259482622147
0.061237096786499023 0.0085305459797382355 0.037146594375371933
0.22453059256076813 0.0068828659132122993 0.010418147780001163
0.36377829313278198 0.0008552999934181571 0.0027175005525350571
0.49362349510192871 0.0076077780686318874 0.0039320853538811207
0.57607495784759521 0.015344208106398582 0.0027425428852438927
0.58299636840820312 0.011862886138260365 0.0057700364850461483
0.010656499303877354 0.035072758793830872 0.032513637095689774
0.041477218270301819 0.033377375453710556 0.027821306139230728
0.21513950824737549 0.022150810807943344 0.010061794891953468
0.36396154761314392 0.0059186299331486225 0.0046899532899260521
0.4948788583278656 0.0017153720837086439 0.0040369969792664051
0.58702224493026733 0.0053676380775868893 0.0052557401359081268
0.58874595165252686 0.00058195827296003699 0.0051833507604897022
0.0045801051892340183 0.14907793700695038 0.0022739036940038204
0.0014621809823438525 0.15120869874954224 0.0043599596247076988
0.12656441330909729 0.15610258281230927 0.0012889488134533167
0.3797551691532135 0.14246861636638641 0.004960677120834589
0.52070158720016479 0.09756934642791748 0.0058472128584980965
0.59685194492340088 0.047635965049266815 0.0054927603341639042
0.59430474042892456 0.024645561352372169 0.0042153750546276569
0.0043615452013909817 0.2892468273639679 0.0016861261101439595
0.0033434699289500713 0.29141667485237122 0.0021979538723826408
0.0043019764125347137 0.30302828550338745 0.007677160669118166
0.27502140402793884 0.35972627997398376 0.011969458311796188
0.59367096424102783 0.34232929348945618 0.015908798202872276
0.69929653406143188 0.24989520013332367 0.013372189365327358
0.68632620573043823 0.20206695795059204 0.011599208228290081
0.0078898109495639801 0.4739326536655426 0.0041661430150270462
0.01130326185375452 0.48257476091384888 0.0066991169005632401
0.0014860115479677916 0.47943934798240662 0.012517876923084259
0.0440840944647789 0.51469486951828003 0.017329152673482895
0.51112490892410278 0.5946277379989624 0.053002763539552689
0.79493826627731323 0.56036961078643799 0.053260233253240585
0.84448403120040894 0.49765944480895996 0.046315554529428482
0.0078431377187371254 0.65144127607345581 0.035787004977464676
0.012755420058965683 0.65273952484130859 0.035753704607486725
0.015741355717182159 0.65490520000457764 0.038802877068519592
0.00024602553457953036 0.6552356481552124 0.038483548909425735
0.25339630246162415 0.70395678281784058 0.071967102587223053
0.77089685201644897 0.76791268587112427 0.11586875468492508
0.92767107486724854 0.74901121854782104 0.12687012553215027
0.0078431377187371254 0.73659586906433105 0.048307575285434723
0.0098578808829188347 0.72276502847671509 0.050553355365991592
0.01546401996165514 0.73105156421661377 0.052838195115327835
0.003918367438018322 0.72431808710098267 0.048646681010723114
0.072304457426071167 0.75296545028686523 0.072976954281330109
0.59013551473617554 0.84162753820419312 0.13309851288795471
0.9216235876083374 0.90369987487792969 0.18780440092086792
0.0075320522300899029 0.0082040820270776749 0.20860768854618073
0.043785605579614639 0.0087490305304527283 0.20304755866527557
0.20442177355289459 0.005556832067668438 0.15744857490062714
0.37618476152420044 0.0036198184825479984 0.087761521339416504
0.5076369047164917 0.0064360825344920158 0.036928407847881317
0.57873106002807617 0.011816824786365032 0.012298658490180969
0.58325344324111938 0.011764706112444401 0.014999628998339176
0.0065327812917530537 0.032792665064334869 0.18362566828727722
0.028752809390425682 0.030431799590587616 0.19291603565216064
0.20406791567802429 0.014042169786989689 0.16033145785331726
0.38646134734153748 0.0069683147594332695 0.088737651705741882
0.51190268993377686 0.0024636362213641405 0.042413540184497833
0.58401072025299072 0.0052945604547858238 0.017892919480800629
0.58732634782791138 0.0087501825764775276 0.017529131844639778
0.0078431377187371254 0.13182681798934937 0.12184561789035797
0.0063904109410941601 0.13419011235237122 0.12571033835411072
0.14350467920303345 0.14765189588069916 0.13562957942485809
0.40452119708061218 0.12489061802625656 0.077831417322158813
0.52667123079299927 0.071816451847553253 0.02731659822165966
0.586162269115448 0.023127881810069084 0.0090664736926555634
0.58733731508255005 0.013206706382334232 0.010090951807796955
0.0066922358237206936 0.2928045392036438 0.062573373317718506
0.0067575341090559959 0.29408210515975952 0.062039408832788467
0.012546973302960396 0.30748996138572693 0.057575315237045288
0.28739884495735168 0.35283616185188293 0.053149744868278503
0.590046226978302 0.32674404978752136 0.039074722677469254
0.68449640274047852 0.22675217688083649 0.01213652640581131
0.67570638656616211 0.18133755028247833 0.012615473009645939
0.0079959044232964516 0.4744989275932312 0.02352224662899971
0.015854779630899429 0.48520562052726746 0.025993751361966133
0.01095111295580864 0.47847354412078857 0.02591775543987751
0.063930004835128784 0.51241695880889893 0.016566989943385124
0.50844013690948486 0.59321480989456177 0.050896484404802322
0.80157303810119629 0.55791378021240234 0.052336450666189194
0.84721732139587402 0.49671608209609985 0.046856585890054703
0.0078431377187371254 0.64499413967132568 0.026776676997542381
0.0080498186871409416 0.65603339672088623 0.026656340807676315
0.012907978147268295 0.64687174558639526 0.03138115257024765
0.0071520488709211349 0.66035985946655273 0.03526470810174942
0.2373187392950058 0.70249277353286743 0.068396128714084625
0.77114534378051758 0.76721692085266113 0.11129627376794815
0.93225061893463135 0.75336951017379761 0.12023303657770157
0.0057206396013498306 0.73281991481781006 0.027292288839817047
0.007680167444050312 0.72328037023544312 0.042003944516181946
0.0096063204109668732 0.72176295518875122 0.043657954782247543
0.0025133020244538784 0.72740501165390015 0.04649290069937706
0.085127077996730804 0.75289738178253174 0.068905234336853027
0.59374099969863892 0.84259521961212158 0.13304430246353149
0.93259918689727783 0.90713667869567871 0.1842462420463562
0.030193164944648743 0.0082094380632042885 0.38405242562294006
0.047412872314453125 0.0090962573885917664 0.38479867577552795
0.17339631915092468 0.0067054899409413338 0.39064309000968933
0.37405139207839966 0.0076043372973799706 0.3163667619228363
0.52096980810165405 0.011562003754079342 0.22959119081497192
0.58710157871246338 0.0078431377187371254 0.13555201888084412
0.58458119630813599 0.0080556981265544891 0.11264057457447052
0.026629682630300522 0.043390985578298569 0.37978664040565491
0.038006201386451721 0.036999557167291641 0.38755530118942261
0.15935412049293518 0.0081871328875422478 0.40139874815940857
0.37201634049415588 0.0053659924305975437 0.33026033639907837
0.52718663215637207 0.0077660353854298592 0.2305665910243988
0.58605289459228516 0.0077835982665419579 0.14561258256435394
0.58140736818313599 0.012272464111447334 0.13095173239707947
0.013159284368157387 0.1444593220949173 0.34175857901573181
0.01339848805218935 0.14474551379680634 0.34509313106536865
0.11269304156303406 0.13915529847145081 0.37925368547439575
0.36423701047897339 0.11505556106567383 0.34430283308029175
0.54185354709625244 0.06087576225399971 0.21835893392562866
0.59852051734924316 0.011316067539155483 0.11423250287771225
0.5909724235534668 0.012077242136001587 0.093674629926681519
0.0078431377187371254 0.25907313823699951 0.28359580039978027
0.005318869836628437 0.25861519575119019 0.28291827440261841
0.03449229896068573 0.28200829029083252 0.29934775829315186
0.28491577506065369 0.34781670570373535 0.3258635401725769
0.58458518981933594 0.29329389333724976 0.2357572466135025
0.67198628187179565 0.12739159166812897 0.079215705394744873
0.6501273512840271 0.08275005966424942 0.051047291606664658
0.0078801177442073822 0.48946523666381836 0.23400969803333282
0.011640884913504124 0.49583554267883301 0.24663490056991577
0.0080615775659680367 0.48905923962593079 0.23412978649139404
0.036772292107343674 0.50459200143814087 0.17481154203414917
0.47632506489753723 0.56925350427627563 0.2126406729221344
0.77651739120483398 0.47801104187965393 0.15214669704437256
0.80261188745498657 0.37253040075302124 0.069724902510643005
0.010128110647201538 0.65807664394378662 0.13433918356895447
0.0094727315008640289 0.66222876310348511 0.15156017243862152
0.014658595435321331 0.66532915830612183 0.15192511677742004
6.3009822042658925e-05 0.65324348211288452 0.11060264706611633
0.21283088624477386 0.6895442008972168 0.10912809520959854
0.75418704748153687 0.75240349769592285 0.16882075369358063
0.92294013500213623 0.72115129232406616 0.15183399617671967
0.0077160405926406384 0.72969067096710205 0.071021273732185364
0.0077127343975007534 0.73174232244491577 0.085133492946624756
0.0096102841198444366 0.73143315315246582 0.076579630374908447
0.0010425642831251025 0.73210448026657104 0.068590022623538971
0.055224623531103134 0.75469094514846802 0.071860522031784058
0.59178131818771362 0.84167075157165527 0.13818205893039703
0.93570512533187866 0.90913540124893188 0.20223358273506165
0.060196131467819214 0.022596979513764381 0.53321272134780884
0.071202941238880157 0.020628806203603745 0.54371696710586548
0.1522420346736908 0.0034904330968856812 0.55872648954391479
0.32516112923622131 0.0060984292067587376 0.54616528749465942
0.51582217216491699 0.01189003698527813 0.46370226144790649
0.61077988147735596 0.010837689973413944 0.36876341700553894
0.60194516181945801 0.0086724376305937767 0.3293609619140625
0.063891500234603882 0.068566158413887024 0.53856945037841797
0.067392788827419281 0.05482897162437439 0.54271537065505981
0.14015242457389832 0.0054965750314295292 0.55891901254653931
0.32620826363563538 0.002716004615649581 0.55011516809463501
0.52280139923095703 0.0070365159772336483 0.46602219343185425
0.60519129037857056 0.0057002645917236805 0.36872097849845886
0.60144597291946411 0.01089000329375267 0.34681150317192078
0.043722473084926605 0.20194950699806213 0.53134477138519287
0.04241427406668663 0.20215627551078796 0.52896726131439209
0.12211251258850098 0.17331674695014954 0.54137861728668213
0.30456364154815674 0.12448100745677948 0.56337553262710571
0.53759783506393433 0.092240966856479645 0.4928375780582428
0.62556254863739014 0.029030280187726021 0.36184260249137878
0.6173628568649292 0.016922550275921822 0.32753542065620422
0.015355248935520649 0.2872033417224884 0.48004323244094849
0.014032221399247646 0.29111155867576599 0.47968143224716187
0.054067306220531464 0.30127453804016113 0.49055832624435425
0.25673851370811462 0.34848594665527344 0.54941684007644653
0.54793787002563477 0.33675089478492737 0.53205949068069458
0.71299648284912109 0.16875673830509186 0.36490610241889954
0.68733984231948853 0.077551715075969696 0.28044900298118591
0.011764706112444401 0.42694917321205139 0.45457333326339722
0.011979585513472557 0.43879085779190063 0.46105927228927612
0.0060843522660434246 0.4322914183139801 0.4568113386631012
0.1337730884552002 0.49104124307632446 0.48339930176734924
0.47119614481925964 0.57466524839401245 0.51721453666687012
0.78586781024932861 0.42974856495857239 0.38114288449287415
0.81621932983398438 0.2550140917301178 0.22898820042610168
0.0213748998939991 0.65459364652633667 0.4413946270942688
0.024179736152291298 0.66348600387573242 0.45760935544967651
0.024865483865141869 0.66637986898422241 0.45051071047782898
0.029403537511825562 0.65634816884994507 0.41831666231155396
0.1979716420173645 0.69349765777587891 0.35228654742240906
0.70582997798919678 0.75164836645126343 0.38758981227874756
0.94339257478713989 0.66370636224746704 0.30452358722686768
0.029913675040006638 0.75810384750366211 0.36031800508499146
0.031533632427453995 0.76225394010543823 0.37767919898033142
0.035886816680431366 0.76516729593276978 0.36872121691703796
0.019680427387356758 0.75463861227035522 0.34263208508491516
0.035088200122117996 0.76991969347000122 0.21713158488273621
0.46331894397735596 0.85056108236312866 0.23316234350204468
0.94289559125900269 0.92535156011581421 0.31856682896614075
0.066641382873058319 0.028791524469852448 0.57908505201339722
0.071708589792251587 0.025759229436516762 0.58350050449371338
0.1319086104631424 0.00309778843075037 0.60673493146896362
0.28453308343887329 0.012253375723958015 0.63152813911437988
0.48759293556213379 0.01357218436896801 0.58430725336074829
0.62773942947387695 0.015007497742772102 0.51244515180587769
0.63364112377166748 0.011764706112444401 0.49623245000839233
0.066989302635192871 0.051218487322330475 0.58205312490463257
0.070206388831138611 0.046767216175794601 0.58424955606460571
0.12366579473018646 0.001245595864020288 0.59489250183105469
0.28291916847229004 0.0046889213845133781 0.61994940042495728
0.49116620421409607 0.010836642235517502 0.57500404119491577
0.62959581613540649 0.0095295477658510208 0.49572461843490601
0.62616217136383057 0.0054758857004344463 0.49883529543876648
0.05885009840130806 0.21619914472103119 0.59696680307388306
0.059279423207044601 0.2170800119638443 0.59760963916778564
0.11645559966564178 0.18168444931507111 0.60224688053131104
0.24352236092090607 0.11721215397119522 0.64945322275161743
0.46938714385032654 0.095671288669109344 0.63714927434921265
0.64366394281387329 0.029108848422765732 0.52667582035064697
0.65026688575744629 0.010686822235584259 0.51001805067062378
0.024347880855202675 0.32456925511360168 0.58391374349594116
0.018430881202220917 0.33180305361747742 0.59131735563278198
0.054844051599502563 0.33516550064086914 0.59685319662094116
0.21167583763599396 0.32724893093109131 0.67493939399719238
0.44136956334114075 0.31194904446601868 0.72625112533569336
0.73739683628082275 0.22414594888687134 0.63353198766708374
0.75663083791732788 0.1403641402721405 0.57011276483535767
0.011764706112444401 0.42785590887069702 0.56775909662246704
0.011557725258171558 0.43568837642669678 0.57402098178863525
0.010108827613294125 0.43186613917350769 0.57991909980773926
0.1294662207365036 0.47801053524017334 0.63176017999649048
0.38637575507164001 0.52147823572158813 0.74370259046554565
0.75487679243087769 0.48814275860786438 0.73424184322357178
0.87734204530715942 0.36094450950622559 0.63009369373321533
0.028902554884552956 0.60418522357940674 0.61192995309829712
0.031753242015838623 0.61549776792526245 0.61724686622619629
0.030122645199298859 0.62330341339111328 0.6162835955619812
0.05366230383515358 0.61380988359451294 0.61720502376556396
0.30216047167778015 0.68695151805877686 0.69066399335861206
0.70278215408325195 0.75494974851608276 0.75037211179733276
0.9757269024848938 0.66599947214126587 0.64832693338394165
0.063519574701786041 0.7642136812210083 0.63083940744400024
0.062765367329120636 0.76135241985321045 0.64410358667373657
0.064794696867465973 0.76185756921768188 0.64237278699874878
0.057126138359308243 0.7637525200843811 0.62941247224807739
0.13098414242267609 0.80664163827896118 0.60181784629821777
0.42984658479690552 0.89779913425445557 0.57081764936447144
0.95110386610031128 0.9623417854309082 0.56352466344833374
0.066727340221405029 0.029934423044323921 0.57632821798324585
0.075721710920333862 0.016985081136226654 0.57304519414901733
0.13413175940513611 0.00034752639476209879 0.59424400329589844
0.27284276485443115 0.0042605381458997726 0.61556267738342285
0.47706040740013123 0.0118776960298419 0.56976616382598877
0.62129300832748413 0.012886077165603638 0.50853604078292847
0.63349545001983643 0.012805324979126453 0.49814924597740173
0.066666670143604279 0.058585252612829208 0.57896584272384644
0.070537984371185303 0.038413912057876587 0.5763084888458252
0.12284433841705322 0.00086494896095246077 0.58750039339065552
0.26841521263122559 0.00038598751416429877 0.60428982973098755
0.4808233380317688 0.0095523009076714516 0.55785804986953735
0.62242323160171509 0.005872808862477541 0.49197128415107727
0.62879675626754761 0.0093558812513947487 0.50078058242797852
0.060426194220781326 0.20781736075878143 0.59081614017486572
0.056924872100353241 0.2077176421880722 0.59189331531524658
0.11059558391571045 0.16468736529350281 0.60096675157546997
0.23757153749465942 0.10909642279148102 0.63281691074371338
0.46063500642776489 0.093138627707958221 0.6195184588432312
0.63946598768234253 0.026194972917437553 0.51929593086242676
0.64723169803619385 0.0048294365406036377 0.5068240761756897
0.025025594979524612 0.32150337100028992 0.58397597074508667
0.015061382204294205 0.32222369313240051 0.5852426290512085
0.052466180175542831 0.32489514350891113 0.59542989730834961
0.20798754692077637 0.31908777356147766 0.66024500131607056
0.42713624238967896 0.30235749483108521 0.72911584377288818
0.70957350730895996 0.22025778889656067 0.6518208384513855
0.75701594352722168 0.14627014100551605 0.59096002578735352
0.0078532500192523003 0.43060499429702759 0.5837780237197876
0.0044363881461322308 0.433155357837677 0.5823979377746582
0.0086551886051893234 0.4310431182384491 0.58513540029525757
0.13657532632350922 0.47434177994728088 0.64924091100692749
0.35497024655342102 0.5024791955947876 0.76110368967056274
0.72730463743209839 0.47939890623092651 0.78127366304397583
0.8995664119720459 0.39638927578926086 0.72908180952072144
0.029994336888194084 0.5904839038848877 0.64102810621261597
0.030431650578975677 0.59616953134536743 0.64245212078094482
0.026523904874920845 0.59865492582321167 0.64439082145690918
0.04468994215130806 0.5932655930519104 0.64259016513824463
0.28634852170944214 0.66853427886962891 0.7623712420463562
0.65667456388473511 0.73748719692230225 0.84771984815597534
0.97555661201477051 0.68233275413513184 0.83726578950881958
0.068625040352344513 0.74346983432769775 0.72320848703384399
0.071258410811424255 0.75144046545028687 0.73440629243850708
0.071183539927005768 0.75083780288696289 0.73548251390457153
0.072752945125102997 0.75051999092102051 0.73180532455444336
0.2191728949546814 0.79240328073501587 0.78168267011642456
0.58690047264099121 0.90743023157119751 0.86210709810256958
0.9582856297492981 0.98273742198944092 0.92617231607437134
