assets/lut/shamoonabbasi wooden gold 20.cube
# Created by: G'MIC (https://gmic.eu)
TITLE "wooden_gold_20"
# LUT size
LUT_3D_SIZE 7
# Data domain
DOMAIN_MIN 0.0 0.0 0.0
DOMAIN_MAX 1.0 1.0 1.0
# LUT data points
0.0048277759924530983 0.024091383442282677 0.020982541143894196
0.043924711644649506 0.034797355532646179 0.025409011170268059
0.16603270173072815 0.045127972960472107 0.0097174700349569321
0.36379796266555786 0.052588444203138351 0
0.51456993818283081 0.070629164576530457 2.956016396638006e-05
0.62948304414749146 0.080413401126861572 0.0036899640690535307
0.72643482685089111 0.063501797616481781 9.1014189820270985e-05
0.00069215061375871301 0.079601019620895386 0.041823606938123703
0.049667462706565857 0.089742295444011688 0.033414535224437714
0.25184929370880127 0.10488073527812958 0.0097025102004408836
0.48806449770927429 0.1245124340057373 0.00020446776761673391
0.66240638494491577 0.14328806102275848 1.1668485967675224e-05
0.79243981838226318 0.14726735651493073 0.00023900948872324079
0.86934489011764526 0.14341390132904053 0
0 0.16667202115058899 0.079933702945709229
0.019838251173496246 0.19961068034172058 0.033933870494365692
0.32405838370323181 0.23700530827045441 0.0001608455932000652
0.59768515825271606 0.26899406313896179 5.0982307584490627e-05
0.78569161891937256 0.29942178726196289 0
0.90480887889862061 0.32145768404006958 0
0.9475700855255127 0.33832588791847229 6.0676124121528119e-05
0 0.33325609564781189 0.12355182319879532
0.058595515787601471 0.40064516663551331 0.063841350376605988
0.38661664724349976 0.47450417280197144 0
0.68242096900939941 0.51718109846115112 0.0037279913667589426
0.85386848449707031 0.54763901233673096 0.0033342100214213133
0.95890235900878906 0.55267989635467529 0.0037475286517292261
0.98592263460159302 0.56170600652694702 0.008638748899102211
0 0.4918760359287262 0.17774935066699982
0.06983000785112381 0.58933407068252563 0.063091292977333069
0.48156216740608215 0.65945041179656982 0.00016899856564123183
0.75232225656509399 0.69541895389556885 0.015705153346061707
0.90822231769561768 0.71847569942474365 0.013016554526984692
0.99370235204696655 0.72839516401290894 5.6008731917245314e-05
0.99995952844619751 0.74495512247085571 0.00011979645205428824
0.0020849639549851418 0.55788612365722656 0.21949170529842377
0.050171345472335815 0.6829717755317688 0.039945848286151886
0.52548468112945557 0.75352805852890015 0.00052197027252987027
0.8003348708152771 0.79540824890136719 0.0011687933001667261
0.96241217851638794 0.82194238901138306 0
0.9997628927230835 0.83201861381530762 0
1 0.83942264318466187 0.00021398207172751427
0 0.64585888385772705 0.27002686262130737
0.11344753950834274 0.76031416654586792 0.093672461807727814
0.56755930185317993 0.82465428113937378 0.0078563913702964783
0.85140091180801392 0.8601832389831543 0.0075430925935506821
0.99789083003997803 0.87967240810394287 0.014654451049864292
1 0.88102835416793823 0.081621252000331879
0.99965441226959229 0.88268780708312988 0.1302776038646698
0.0097637847065925598 0.036260776221752167 0.05878886952996254
0.044481240212917328 0.04049350693821907 0.062151007354259491
0.18558357656002045 0.047926060855388641 0.037900827825069427
0.40480411052703857 0.05181637778878212 0.013189278542995453
0.56081593036651611 0.060560427606105804 0.011689324863255024
0.70202398300170898 0.038971096277236938 0.011044775135815144
0.80964916944503784 0.0078456653282046318 0.010907191783189774
0.0054955724626779556 0.086691223084926605 0.083004072308540344
0.05845368281006813 0.096372552216053009 0.08666711300611496
0.27689388394355774 0.11805024743080139 0.059969644993543625
0.52968668937683105 0.13736215233802795 0.042747437953948975
0.72813040018081665 0.12930053472518921 0.028603287413716316
0.89177024364471436 0.091546960175037384 0.015294766984879971
0.96783387660980225 0.077003791928291321 0.013719521462917328
0.00013774796389043331 0.18381917476654053 0.12104151397943497
0.05889352411031723 0.20982638001441956 0.11994548141956329
0.34133145213127136 0.26050832867622375 0.061761803925037384
0.63826519250869751 0.29724720120429993 0.05157032236456871
0.84991466999053955 0.30783373117446899 0.027911227196455002
0.97831463813781738 0.31108245253562927 0.010230494663119316
0.99856317043304443 0.33875554800033569 0.0070675122551620007
0.00091368734138086438 0.36270049214363098 0.19159500300884247
0.084287680685520172 0.41972315311431885 0.17741189897060394
0.39619824290275574 0.50964641571044922 0.083819098770618439
0.70193970203399658 0.54979389905929565 0.083615213632583618
0.88734251260757446 0.57633572816848755 0.046356949955224991
0.9945603609085083 0.57256299257278442 0
1 0.58615082502365112 0
0 0.52645325660705566 0.27658244967460632
0.046711999922990799 0.62409955263137817 0.18895691633224487
0.46562063694000244 0.70817357301712036 0.066121041774749756
0.76117849349975586 0.73353427648544312 0.095592886209487915
0.92562663555145264 0.75120294094085693 0.093025952577590942
1 0.76605397462844849 0.0011566461762413383
1 0.78140139579772949 0.0031073775608092546
0.004407965112477541 0.59296095371246338 0.33180329203605652
0.036152124404907227 0.71216803789138794 0.21853730082511902
0.48814192414283752 0.80530804395675659 0.034811582416296005
0.81625771522521973 0.84146803617477417 0.030989523977041245
0.98696655035018921 0.86175006628036499 0.052626442164182663
0.99951064586639404 0.86510026454925537 0.095805913209915161
0.99906784296035767 0.87249726057052612 0.11299049854278564
0.00053208292229101062 0.67342263460159302 0.41051584482192993
0.044721774756908417 0.79886823892593384 0.30043569207191467
0.51948922872543335 0.86389392614364624 0.1827244758605957
0.82907599210739136 0.89281028509140015 0.15858756005764008
0.99393898248672485 0.90703648328781128 0.19164012372493744
0.99974507093429565 0.90862458944320679 0.2743072509765625
0.99940311908721924 0.91002750396728516 0.37529245018959045
0.00089522718917578459 0.054120846092700958 0.12342539429664612
0.028468906879425049 0.051368296146392822 0.14547289907932281
0.19289395213127136 0.047457378357648849 0.13702245056629181
0.42486554384231567 0.053223330527544022 0.12215914577245712
0.60160559415817261 0.05326906219124794 0.12276087701320648
0.75073260068893433 0.02103056013584137 0.13086311519145966
0.84642553329467773 0.0066302432678639889 0.15651030838489532
0.00056909298291429877 0.10996215045452118 0.17218387126922607
0.056449845433235168 0.12011074274778366 0.18842135369777679
0.2882533073425293 0.13044556975364685 0.20858490467071533
0.56986981630325317 0.14371709525585175 0.19983376562595367
0.78204488754272461 0.12271780520677567 0.20567265152931213
0.93313324451446533 0.087784349918365479 0.22242455184459686
0.98419547080993652 0.10209739208221436 0.25788754224777222
0.00063201307784765959 0.21803432703018188 0.23523353040218353
0.080026425421237946 0.2464987188577652 0.25539717078208923
0.35313522815704346 0.29442384839057922 0.26187995076179504
0.69730681180953979 0.3106255829334259 0.24570125341415405
0.91424071788787842 0.31443342566490173 0.23686935007572174
0.99905043840408325 0.32482117414474487 0.24864652752876282
0.99907660484313965 0.3587249219417572 0.26566791534423828
0.0048935236409306526 0.40917426347732544 0.3356015682220459
0.11130437254905701 0.46416318416595459 0.35458379983901978
0.3873094916343689 0.55840885639190674 0.31226694583892822
0.71962434053421021 0.59549224376678467 0.29321634769439697
0.94547456502914429 0.6090090274810791 0.23271358013153076
1 0.59886080026626587 0.19382898509502411
0.99814945459365845 0.61523258686065674 0.2081240713596344
0.0033006854355335236 0.56874924898147583 0.44336184859275818
0.07387273758649826 0.65722012519836426 0.43053296208381653
0.40976813435554504 0.76353567838668823 0.31136199831962585
0.76107561588287354 0.78758245706558228 0.31112957000732422
0.95038872957229614 0.79875272512435913 0.29340869188308716
1 0.80704855918884277 0.2506060004234314
1 0.82678496837615967 0.27712824940681458
0 0.6456683874130249 0.52157354354858398
0.016419459134340286 0.75794678926467896 0.49473333358764648
0.4095003604888916 0.85677975416183472 0.36809629201889038
0.78525960445404053 0.89000862836837769 0.34600883722305298
0.97457617521286011 0.90595299005508423 0.35500064492225647
1 0.90561425685882568 0.44291460514068604
1 0.91211587190628052 0.47882837057113647
0.0056732175871729851 0.71873080730438232 0.61734378337860107
0.0076150931417942047 0.84786570072174072 0.6052478551864624
0.46304076910018921 0.90363067388534546 0.53750979900360107
0.78582763671875 0.92899578809738159 0.53037792444229126
0.97201257944107056 0.94393718242645264 0.53067928552627563
1 0.946189284324646 0.57665139436721802
1 0.9471973180770874 0.63332688808441162
0 0.095549911260604858 0.22752442955970764
0.013219482265412807 0.079137556254863739 0.27415752410888672
0.19568739831447601 0.053220309317111969 0.31657454371452332
0.4494481086730957 0.05541718378663063 0.30910336971282959
0.63272356986999512 0.053590692579746246 0.31996628642082214
0.78302669525146484 0.012406278401613235 0.35214701294898987
0.86607259511947632 0.0044733681716024876 0.38205012679100037
0.00022080366034060717 0.15762515366077423 0.3013177216053009
0.049160316586494446 0.1636669933795929 0.33749270439147949
0.28667351603507996 0.15710353851318359 0.42348763346672058
0.58619171380996704 0.16395457088947296 0.43040940165519714
0.79877018928527832 0.13547760248184204 0.4691716730594635
0.94956505298614502 0.08432663232088089 0.52145028114318848
0.98395580053329468 0.11384150385856628 0.54479622840881348
0 0.27164307236671448 0.39315944910049438
0.081574685871601105 0.30060294270515442 0.43246904015541077
0.34336942434310913 0.33056282997131348 0.53070545196533203
0.7074882984161377 0.34080615639686584 0.54350012540817261
0.91413706541061401 0.34052905440330505 0.56174063682556152
0.99862396717071533 0.3508000373840332 0.57621264457702637
1 0.3779195249080658 0.58235317468643188
0.002516772598028183 0.47094172239303589 0.5152052640914917
0.13202269375324249 0.52667152881622314 0.5504719614982605
0.4014333188533783 0.60505890846252441 0.58471381664276123
0.71879905462265015 0.64096361398696899 0.58166563510894775
0.93967080116271973 0.64450758695602417 0.55363172292709351
1 0.63461112976074219 0.54667544364929199
0.99999302625656128 0.64791703224182129 0.55414950847625732
0.0004169389430899173 0.62766772508621216 0.63356727361679077
0.07698262482881546 0.70738047361373901 0.65939044952392578
0.33735114336013794 0.809223473072052 0.62932872772216797
0.72393059730529785 0.83608216047286987 0.59585011005401611
0.93620514869689941 0.84510689973831177 0.59484171867370605
0.99999642372131348 0.85073024034500122 0.58544009923934937
1 0.86366260051727295 0.59887021780014038
0 0.69613933563232422 0.69736760854721069
0.0072460849769413471 0.80185657739639282 0.73006916046142578
0.33321893215179443 0.89745509624481201 0.68749076128005981
0.73590445518493652 0.92764568328857422 0.66275525093078613
0.94393748044967651 0.94171547889709473 0.65655303001403809
0.99940460920333862 0.94393676519393921 0.69697439670562744
1 0.94918656349182129 0.72354394197463989
0.0012996748555451632 0.76159870624542236 0.77423161268234253
0.022852864116430283 0.87487328052520752 0.81927895545959473
0.40747949481010437 0.93466383218765259 0.78312772512435913
0.75149643421173096 0.95592260360717773 0.76683920621871948
0.9408574104309082 0.96923363208770752 0.76674610376358032
0.99984335899353027 0.97545456886291504 0.78436851501464844
1 0.97729754447937012 0.81659162044525146
3.9672850107308477e-05 0.1369829922914505 0.32589942216873169
0.0018160352483391762 0.12271680682897568 0.3811284601688385
0.18873223662376404 0.068273000419139862 0.48035171627998352
0.45844882726669312 0.067940607666969299 0.4879615306854248
0.65171480178833008 0.068471170961856842 0.50739818811416626
0.80333584547042847 0.020588325336575508 0.54958081245422363
0.89555323123931885 0 0.59688496589660645
0 0.20450258255004883 0.4139760434627533
0.01818522997200489 0.20469111204147339 0.48072284460067749
0.28916651010513306 0.16718129813671112 0.62593704462051392
0.59911412000656128 0.17969492077827454 0.62941396236419678
0.80001580715179443 0.16625842452049255 0.67092287540435791
0.95654988288879395 0.094399727880954742 0.73577684164047241
0.99830377101898193 0.090583860874176025 0.76432657241821289
2.4414062863797881e-05 0.32049068808555603 0.51558798551559448
0.056400224566459656 0.34933742880821228 0.57392573356628418
0.33383011817932129 0.35323676466941833 0.74329739809036255
0.70731890201568604 0.36118757724761963 0.76697462797164917
0.91172051429748535 0.35885381698608398 0.78531455993652344
0.99608594179153442 0.37301242351531982 0.79136282205581665
1 0.3947354257106781 0.78441524505615234
0.000723790202755481 0.5176093578338623 0.64141428470611572
0.12965588271617889 0.57171839475631714 0.68343758583068848
0.37705621123313904 0.64648616313934326 0.77519345283508301
0.70135593414306641 0.66824829578399658 0.79530048370361328
0.9179617166519165 0.66940444707870483 0.781424880027771
0.99742913246154785 0.65947425365447998 0.77251160144805908
0.99687385559082031 0.67904478311538696 0.76972907781600952
0.0064281090162694454 0.6645054817199707 0.74019014835357666
0.098482735455036163 0.74183982610702515 0.78156697750091553
0.35088986158370972 0.83019393682479858 0.81269580125808716
0.70112204551696777 0.86330002546310425 0.80399781465530396
0.92165803909301758 0.87233567237854004 0.79415100812911987
0.99862539768218994 0.87459415197372437 0.78900718688964844
1 0.88868904113769531 0.79950803518295288
0.00021314433251973242 0.72835874557495117 0.79016274213790894
0.012975490652024746 0.83091694116592407 0.85554224252700806
0.30084145069122314 0.92317652702331543 0.86741334199905396
0.71218550205230713 0.95155918598175049 0.84472668170928955
0.92245841026306152 0.96341311931610107 0.83610528707504272
0.99663478136062622 0.96603602170944214 0.85163319110870361
1 0.9690471887588501 0.86565327644348145
0 0.79055643081665039 0.85953420400619507
0.0051531773060560226 0.9034125804901123 0.93274348974227905
0.36265608668327332 0.95884352922439575 0.92669427394866943
0.73839300870895386 0.97438591718673706 0.90148651599884033
0.92265045642852783 0.98505079746246338 0.8960195779800415
0.99299949407577515 0.98975276947021484 0.90947169065475464
0.99973315000534058 0.99213266372680664 0.92381864786148071
0.0025246564764529467 0.17205476760864258 0.40039658546447754
9.571150440024212e-05 0.1655009388923645 0.44715389609336853
0.18775247037410736 0.077710948884487152 0.60937726497650146
0.47256708145141602 0.076669178903102875 0.62187886238098145
0.67034083604812622 0.080881036818027496 0.6437264084815979
0.80683010816574097 0.056743636727333069 0.67359167337417603
0.90810549259185791 0.00012530157982837409 0.74168866872787476
3.8894954741408583e-06 0.23845285177230835 0.50229072570800781
0.0077329748310148716 0.23488011956214905 0.58074867725372314
0.30205526947975159 0.14908531308174133 0.79952490329742432
0.63420218229293823 0.14894787967205048 0.80349588394165039
0.82949173450469971 0.15104648470878601 0.82917547225952148
0.95130282640457153 0.12936656177043915 0.86575591564178467
0.99812942743301392 0.12243238091468811 0.90260285139083862
0 0.35915762186050415 0.6111215353012085
0.022165575996041298 0.38527697324752808 0.68844485282897949
0.31689667701721191 0.36809495091438293 0.90409994125366211
0.71060574054718018 0.371928870677948 0.92239201068878174
0.90423905849456787 0.37731420993804932 0.92605161666870117
0.98844140768051147 0.39098763465881348 0.92780429124832153
0.99984133243560791 0.42316198348999023 0.92825895547866821
0.0018732557073235512 0.55360585451126099 0.72278732061386108
0.069174669682979584 0.6085197925567627 0.78618144989013672
0.308916836977005 0.67573243379592896 0.91477781534194946
0.68726915121078491 0.68720841407775879 0.93559283018112183
0.89681386947631836 0.68697381019592285 0.92954170703887939
0.98960477113723755 0.67922025918960571 0.92596697807312012
0.99987554550170898 0.69153076410293579 0.91907531023025513
0.012224533595144749 0.68339139223098755 0.79850322008132935
0.063066206872463226 0.76129162311553955 0.86253839731216431
0.30902078747749329 0.85250210762023926 0.93418055772781372
0.67451184988021851 0.88183683156967163 0.93895202875137329
0.90382039546966553 0.8888697624206543 0.9335939884185791
0.99227988719940186 0.89419752359390259 0.93360620737075806
1 0.90519231557846069 0.93387460708618164
0.0082838023081421852 0.73998922109603882 0.84221673011779785
2.9919194275862537e-05 0.85001897811889648 0.93476873636245728
0.25200167298316956 0.94271081686019897 0.97810369729995728
0.68608397245407104 0.96759265661239624 0.95866602659225464
0.90283709764480591 0.97880488634109497 0.95051896572113037
0.98897981643676758 0.98044490814208984 0.94911867380142212
0.99848735332489014 0.98286265134811401 0.95367258787155151
0.0010888641700148582 0.79840004444122314 0.89879679679870605
0.0039109322242438793 0.90961146354675293 0.98209899663925171
0.35866379737854004 0.96672552824020386 0.99536925554275513
0.71815949678421021 0.9857715368270874 0.98094010353088379
0.90674817562103271 0.99709832668304443 0.97447186708450317
0.984474778175354 0.9983288049697876 0.97223836183547974
0.9925341010093689 0.99990379810333252 0.98121148347854614
0.0012257595080882311 0.19910052418708801 0.46041545271873474
0.00020789352129213512 0.18731863796710968 0.52697879076004028
0.19253423810005188 0.06075141578912735 0.73369163274765015
0.49514445662498474 0.055681072175502777 0.75179493427276611
0.69852161407470703 0.0624527707695961 0.76794004440307617
0.83661484718322754 0.028658144176006317 0.79959022998809814
0.91940617561340332 0.00074229523306712508 0.84436333179473877
0.0012014202075079083 0.26384249329566956 0.55484092235565186
0.0019560272339731455 0.26229146122932434 0.64759987592697144
0.29942619800567627 0.13153842091560364 0.92107415199279785
0.65349042415618896 0.13542455434799194 0.92698079347610474
0.85576564073562622 0.13795866072177887 0.93985128402709961
0.9762427806854248 0.10491971671581268 0.96935707330703735
0.99991363286972046 0.12887179851531982 0.98153412342071533
0.0017402200028300285 0.38260114192962646 0.6612434983253479
0.000353360635926947 0.41081094741821289 0.77842599153518677
0.27341398596763611 0.38667070865631104 0.99174708127975464
0.7073853611946106 0.39050501585006714 0.99602651596069336
0.90023720264434814 0.39931660890579224 0.99575334787368774
0.99184960126876831 0.39362829923629761 0.99846452474594116
1 0.41574552655220032 0.99922734498977661
0 0.57689517736434937 0.77219086885452271
0.003667105920612812 0.63326925039291382 0.85786920785903931
0.23666417598724365 0.69168353080749512 0.99399250745773315
0.67104685306549072 0.69041270017623901 0.99801969528198242
0.88641738891601562 0.68695700168609619 0.99773281812667847
0.98763298988342285 0.67934519052505493 0.99746090173721313
1 0.6985284686088562 0.99521136283874512
0.00054297351744025946 0.70072126388549805 0.84227722883224487
0.0082926731556653976 0.78278881311416626 0.92104160785675049
0.24914650619029999 0.86716866493225098 0.99616450071334839
0.6644284725189209 0.88528388738632202 0.99781960248947144
0.8922993540763855 0.89574140310287476 0.9962393045425415
0.98590916395187378 0.90391534566879272 0.99540442228317261
1 0.90352904796600342 0.99503695964813232
0.0070028416812419891 0.75951486825942993 0.88272392749786377
0.0084645142778754234 0.85491669178009033 0.96063047647476196
0.28351098299026489 0.94017088413238525 1
0.68683576583862305 0.96915274858474731 0.99913626909255981
0.90354442596435547 0.98190456628799438 0.99654930830001831
0.98102641105651855 0.98854666948318481 0.9938923716545105
0.99553442001342773 0.98575234413146973 0.99462807178497314
0.0013055091258138418 0.81831997632980347 0.93215090036392212
0.0099349375814199448 0.91314858198165894 0.99710917472839355
0.30307358503341675 0.97115910053253174 1
0.69447153806686401 0.98905211687088013 1
0.90606331825256348 0.99696135520935059 0.9985499382019043
0.98129594326019287 1 0.99808365106582642
0.99303412437438965 1 0.99986213445663452
