assets/lut/shamoonabbasi industrial 33.cube
# Created by: G'MIC (https://gmic.eu)
TITLE "industrial_33"
# LUT size
LUT_3D_SIZE 5
# Data domain
DOMAIN_MIN 0.0 0.0 0.0
DOMAIN_MAX 1.0 1.0 1.0
# LUT data points
0.013019426725804806 0.018713260069489479 0.016687026247382164
0.15620888769626617 0.041860945522785187 0.010626100935041904
0.45396131277084351 0.13490332663059235 0.0084359860047698021
0.59062314033508301 0.18002450466156006 0.011559340171515942
0.65137261152267456 0.20002800226211548 0.012579166330397129
0.021148411557078362 0.11735299974679947 0.097049683332443237
0.10798852890729904 0.10440005362033844 0.057645745575428009
0.39872503280639648 0.1553986668586731 0.010548654943704605
0.58072632551193237 0.1922675222158432 0.0078587550669908524
0.66522091627120972 0.21646873652935028 0.0098559362813830376
0.062182318419218063 0.35686632990837097 0.28966853022575378
0.094658225774765015 0.33120983839035034 0.26208043098449707
0.4157988429069519 0.35024252533912659 0.12271441519260406
0.65761244297027588 0.37179550528526306 0.0026073830667883158
0.72952920198440552 0.33436158299446106 0.003553921589627862
0.082068756222724915 0.56555044651031494 0.46630463004112244
0.14227451384067535 0.54967641830444336 0.44237408041954041
0.30533280968666077 0.55758476257324219 0.39767169952392578
0.68436479568481445 0.56831139326095581 0.20401929318904877
0.84214490652084351 0.57243716716766357 0.0033863142598420382
0.065201118588447571 0.70255666971206665 0.58524155616760254
0.1502755880355835 0.70077145099639893 0.57692283391952515
0.255820631980896 0.70821589231491089 0.55738615989685059
0.54055041074752808 0.7271496057510376 0.49591302871704102
0.89030098915100098 0.74515509605407715 0.30842068791389465
0.026873180642724037 0.072611264884471893 0.096475742757320404
0.12787951529026031 0.067491583526134491 0.097021780908107758
0.46927407383918762 0.096149325370788574 0.048103947192430496
0.60908275842666626 0.16608530282974243 0.026028502732515335
0.66071295738220215 0.1939418613910675 0.024389708414673805
0.025194235146045685 0.1527063399553299 0.15938262641429901
0.11300496011972427 0.13343314826488495 0.13120046257972717
0.416026771068573 0.1397177129983902 0.06304459273815155
0.58977615833282471 0.18448051810264587 0.040896560996770859
0.6655353307723999 0.21066297590732574 0.029193220660090446
0.0022234898060560226 0.39091497659683228 0.35051000118255615
0.04773978516459465 0.38924470543861389 0.33437439799308777
0.44589987397193909 0.37125447392463684 0.15154513716697693
0.67431402206420898 0.36594605445861816 0.018625475466251373
0.74011397361755371 0.32616913318634033 0.019733952358365059
0.00031268550083041191 0.58236563205718994 0.52474957704544067
0.020353803411126137 0.59001392126083374 0.51433312892913818
0.29976561665534973 0.57863038778305054 0.43220317363739014
0.71176445484161377 0.58592724800109863 0.20563681423664093
0.84719979763031006 0.5674816370010376 0.0058916429989039898
0.00014065012510400265 0.7149922251701355 0.64575988054275513
0.015863725915551186 0.73237282037734985 0.64744299650192261
0.24547185003757477 0.74518156051635742 0.613319993019104
0.53963702917098999 0.74836832284927368 0.51901638507843018
0.90186512470245361 0.76633864641189575 0.33964395523071289
0.093861132860183716 0.18512974679470062 0.24740643799304962
0.13662247359752655 0.18866738677024841 0.25722908973693848
0.33933669328689575 0.22583788633346558 0.30854558944702148
0.58565241098403931 0.19243030250072479 0.28498277068138123
0.69780093431472778 0.14952355623245239 0.2190660685300827
0.096776507794857025 0.27880188822746277 0.35465109348297119
0.14638979732990265 0.2665533721446991 0.33806246519088745
0.36078068614006042 0.26129856705665588 0.33450520038604736
0.60708576440811157 0.18848325312137604 0.26341384649276733
0.71530085802078247 0.17035326361656189 0.19139139354228973
0.026041621342301369 0.45914804935455322 0.48851484060287476
0.086802944540977478 0.46616640686988831 0.48708346486091614
0.43702030181884766 0.45914271473884583 0.45393094420433044
0.66465574502944946 0.41220787167549133 0.36162903904914856
0.75223678350448608 0.34766468405723572 0.2705654501914978
8.7513646576553583e-05 0.60600221157073975 0.58413255214691162
0.010452808812260628 0.62606126070022583 0.59839892387390137
0.34454944729804993 0.66561436653137207 0.61074280738830566
0.704487144947052 0.63864409923553467 0.44617456197738647
0.87637031078338623 0.6101115345954895 0.28253361582756042
0 0.73197382688522339 0.69619441032409668
0.0023579166736453772 0.7574467658996582 0.71603083610534668
0.293425053358078 0.81777364015579224 0.74751967191696167
0.56046336889266968 0.80990350246429443 0.65513283014297485
0.89959502220153809 0.80928534269332886 0.53945410251617432
0.14905014634132385 0.27911049127578735 0.36917245388031006
0.21437790989875793 0.29807105660438538 0.39463302493095398
0.32222065329551697 0.31305524706840515 0.42752602696418762
0.44576746225357056 0.32697945833206177 0.44255781173706055
0.51476889848709106 0.33246809244155884 0.45094957947731018
0.16585485637187958 0.3913065493106842 0.50179249048233032
0.22396974265575409 0.39381569623947144 0.49648270010948181
0.36208239197731018 0.39293023943901062 0.50524485111236572
0.47502914071083069 0.37066274881362915 0.48031860589981079
0.55430591106414795 0.34851500391960144 0.46384754776954651
0.10789332538843155 0.55632561445236206 0.64533489942550659
0.19214339554309845 0.55790609121322632 0.64719235897064209
0.44247642159461975 0.56967610120773315 0.64859753847122192
0.59585940837860107 0.54858040809631348 0.62092989683151245
0.70688474178314209 0.48845484852790833 0.56076067686080933
0.021197404712438583 0.66668260097503662 0.71609300374984741
0.099654406309127808 0.68558251857757568 0.73203593492507935
0.43681737780570984 0.7099602222442627 0.73653155565261841
0.6675872802734375 0.6981084942817688 0.70411694049835205
0.81896388530731201 0.68587189912796021 0.65629810094833374
0.00025850185193121433 0.75338029861450195 0.75066792964935303
0.031873933970928192 0.79556542634963989 0.78607088327407837
0.42425388097763062 0.85112553834915161 0.83109074831008911
0.6394532322883606 0.88386052846908569 0.85019195079803467
0.89344912767410278 0.87324124574661255 0.78973853588104248
0.18395900726318359 0.34365969896316528 0.44951909780502319
0.31616899371147156 0.40991348028182983 0.52523767948150635
0.35723859071731567 0.37970340251922607 0.51763683557510376
0.41628819704055786 0.37210249900817871 0.49883177876472473
0.47366362810134888 0.37924337387084961 0.50427234172821045
0.19792141020298004 0.4778975248336792 0.60332322120666504
0.28361743688583374 0.48885366320610046 0.60721856355667114
0.41126415133476257 0.48538818955421448 0.6080518364906311
0.46577146649360657 0.45498776435852051 0.58676129579544067
0.51330339908599854 0.41997841000556946 0.54753488302230835
0.16435204446315765 0.60570460557937622 0.72082006931304932
0.26833647489547729 0.6208416223526001 0.7417304515838623
0.46376365423202515 0.64318263530731201 0.75670647621154785
0.58319556713104248 0.64381372928619385 0.76503592729568481
0.65639591217041016 0.61098647117614746 0.72069495916366577
0.10223566740751266 0.71139627695083618 0.80733877420425415
0.22295601665973663 0.73329758644104004 0.8314548134803772
0.44707971811294556 0.77868926525115967 0.88136047124862671
0.62238967418670654 0.78446787595748901 0.88514220714569092
0.76272749900817871 0.76642715930938721 0.85382944345474243
0.040049191564321518 0.7926936149597168 0.85142725706100464
0.18087485432624817 0.82945650815963745 0.891548752784729
0.50421077013015747 0.88377010822296143 0.93035972118377686
0.70927637815475464 0.93662089109420776 0.97960060834884644
0.9086838960647583 0.96054363250732422 0.97570812702178955
