assets/lut/shamoonabbasi elegance 38.cube
# Created by: G'MIC (https://gmic.eu)
TITLE "elegance_38"
# LUT size
LUT_3D_SIZE 5
# Data domain
DOMAIN_MIN 0.0 0.0 0.0
DOMAIN_MAX 1.0 1.0 1.0
# LUT data points
0.02082010917365551 0.021523913368582726 0.020123321563005447
0.20343050360679626 0.017023827880620956 0.014755069278180599
0.43829843401908875 0.016314039006829262 0.0057922513224184513
0.68749845027923584 0.017592171207070351 0.0050288480706512928
0.94777333736419678 0.024828607216477394 0.012543128803372383
0.018702143803238869 0.20253981649875641 0.015071135945618153
0.21378529071807861 0.20767198503017426 0.011735804378986359
0.45312550663948059 0.20524123311042786 0.013087059371173382
0.70973503589630127 0.19875963032245636 0.014960045926272869
0.97009015083312988 0.21480652689933777 0.019058587029576302
0.011257919482886791 0.44328960776329041 0.0062871896661818027
0.21164418756961823 0.45030829310417175 0.0062720207497477531
0.45482358336448669 0.44885224103927612 0.0057438272051513195
0.71742886304855347 0.44293457269668579 0.008530694991350174
0.98059141635894775 0.45013287663459778 0.015767984092235565
0.010014552623033524 0.702414870262146 0.00040211397572420537
0.21356455981731415 0.70937758684158325 0.0011000689119100571
0.45266586542129517 0.71142446994781494 0.0021408081520348787
0.71705377101898193 0.70894831418991089 0.0056650200858712196
0.98294532299041748 0.71209257841110229 0.015435192734003067
0.010712911374866962 0.96983402967453003 0
0.216631218791008 0.97572791576385498 0
0.45319584012031555 0.97870326042175293 0.0010422650957480073
0.71677607297897339 0.97791916131973267 0.006670843344181776
0.98400735855102539 0.97943681478500366 0.021046297624707222
0.013361882418394089 0.021873369812965393 0.1821402907371521
0.20646935701370239 0.022428834810853004 0.16192591190338135
0.43852618336677551 0.018535703420639038 0.14823320508003235
0.68974250555038452 0.010295329615473747 0.14320126175880432
0.95364081859588623 0.01927979476749897 0.12424612790346146
0.014910035766661167 0.21286250650882721 0.18142911791801453
0.21669773757457733 0.21396969258785248 0.17416763305664062
0.45721033215522766 0.21068942546844482 0.16984044015407562
0.7123863697052002 0.20377084612846375 0.16358910501003265
0.97449517250061035 0.21480336785316467 0.15731440484523773
0.013367611914873123 0.44616442918777466 0.17158791422843933
0.21848218142986298 0.45340690016746521 0.16986358165740967
0.45871773362159729 0.45667380094528198 0.16484938561916351
0.72225630283355713 0.45177218317985535 0.16163258254528046
0.98451560735702515 0.45413452386856079 0.1678662896156311
0.014651010744273663 0.7030799388885498 0.15317815542221069
0.21806073188781738 0.71337831020355225 0.15675309300422668
0.45439332723617554 0.71854633092880249 0.15979769825935364
0.72035789489746094 0.71707820892333984 0.16178806126117706
0.98574286699295044 0.71722793579101562 0.17346933484077454
0.017705939710140228 0.96947431564331055 0.13725951313972473
0.21970909833908081 0.97866952419281006 0.14502948522567749
0.45127424597740173 0.9824567437171936 0.15648803114891052
0.71669983863830566 0.98185467720031738 0.16944502294063568
0.98400735855102539 0.98207807540893555 0.18611516058444977
0.0094171259552240372 0.017806828022003174 0.372426837682724
0.20472881197929382 0.013310061767697334 0.36043936014175415
0.43987196683883667 0.0065214270725846291 0.35162872076034546
0.69684159755706787 0.0014705882640555501 0.34586042165756226
0.96322780847549438 0.0049184910021722317 0.32874235510826111
0.01272532157599926 0.21527966856956482 0.37326020002365112
0.2155158519744873 0.21505910158157349 0.36916935443878174
0.45426154136657715 0.20779708027839661 0.36595845222473145
0.7145918607711792 0.19925220310688019 0.36005303263664246
0.97930771112442017 0.20730642974376678 0.34989020228385925
0.014522058889269829 0.44821682572364807 0.36478057503700256
0.22195063531398773 0.45494028925895691 0.36623743176460266
0.46118840575218201 0.45687296986579895 0.36666411161422729
0.72473114728927612 0.45451131463050842 0.36063146591186523
0.98743367195129395 0.45489275455474854 0.36042511463165283
0.018557051196694374 0.70307999849319458 0.34780889749526978
0.2256617397069931 0.71399092674255371 0.35417267680168152
0.46134093403816223 0.7204698920249939 0.36008498072624207
0.72386878728866577 0.721332848072052 0.35883134603500366
0.98673790693283081 0.72078698873519897 0.36318251490592957
0.027026921510696411 0.96838235855102539 0.33101984858512878
0.23211739957332611 0.97771847248077393 0.34167543053627014
0.46255004405975342 0.98273158073425293 0.35304027795791626
0.72183334827423096 0.98400735855102539 0.36142173409461975
0.9855695366859436 0.98437964916229248 0.37247654795646667
0.013091367669403553 0.016200181096792221 0.58059108257293701
0.210243821144104 0.0094661936163902283 0.57578063011169434
0.44638258218765259 0.0046842684969305992 0.56880652904510498
0.70446473360061646 0.00167146569583565 0.56081628799438477
0.97079771757125854 0.0023762423079460859 0.55163198709487915
0.014708036556839943 0.20962722599506378 0.58357840776443481
0.21686600148677826 0.21169194579124451 0.58279448747634888
0.45404589176177979 0.21030005812644958 0.58078223466873169
0.71565306186676025 0.20335198938846588 0.57548898458480835
0.98084813356399536 0.20542207360267639 0.56801265478134155
0.012359200045466423 0.44614830613136292 0.5781714916229248
0.21936516463756561 0.45697230100631714 0.58102035522460938
0.45980721712112427 0.45920625329017639 0.58395707607269287
0.72393649816513062 0.45576891303062439 0.58062171936035156
0.98637586832046509 0.45379123091697693 0.57670110464096069
0.012704901397228241 0.70307999849319458 0.56617552042007446
0.22300200164318085 0.71440607309341431 0.57247352600097656
0.46411240100860596 0.72102409601211548 0.57811051607131958
0.72605323791503906 0.72114139795303345 0.57695060968399048
0.98633581399917603 0.72107142210006714 0.5753440260887146
0.018789926543831825 0.9687199592590332 0.55299323797225952
0.23331877589225769 0.9765048623085022 0.5609632134437561
0.47029033303260803 0.98159348964691162 0.56964731216430664
0.72784340381622314 0.98370820283889771 0.574687659740448
0.98712396621704102 0.9853595495223999 0.58008879423141479
0.027512330561876297 0.021108709275722504 0.79715949296951294
0.23413529992103577 0.011944370344281197 0.79540568590164185
0.46425530314445496 0.0062778545543551445 0.7917325496673584
0.7174726128578186 0.0028641195967793465 0.78656482696533203
0.97933822870254517 0.0027122946921736002 0.7819945216178894
0.024220919236540794 0.20232692360877991 0.8046342134475708
0.22959472239017487 0.21406528353691101 0.80477654933929443
0.4635796844959259 0.21523492038249969 0.80395227670669556
0.72169321775436401 0.2082732617855072 0.80037552118301392
0.98345166444778442 0.20780535042285919 0.79595822095870972
0.01164900790899992 0.44438034296035767 0.80439656972885132
0.21904014050960541 0.45732349157333374 0.80833333730697632
0.46288901567459106 0.45981922745704651 0.80848681926727295
0.72615474462509155 0.45510867238044739 0.80833333730697632
0.98676532506942749 0.45338380336761475 0.80441176891326904
0.0075367647223174572 0.70442205667495728 0.79700112342834473
0.21922662854194641 0.71411317586898804 0.8024895191192627
0.46659916639328003 0.71909534931182861 0.80639201402664185
0.72980684041976929 0.71850490570068359 0.80665206909179688
0.98850363492965698 0.72032427787780762 0.80441176891326904
0.011722804047167301 0.97099334001541138 0.78626984357833862
0.23062701523303986 0.97652745246887207 0.79249125719070435
0.47504538297653198 0.98064583539962769 0.79816353321075439
0.73433315753936768 0.98277509212493896 0.80049663782119751
0.99028944969177246 0.98562002182006836 0.80489468574523926
