assets/lut/shamoonabbasi spy 29.cube
# Created by: G'MIC (https://gmic.eu)
TITLE "spy_29"
# LUT size
LUT_3D_SIZE 5
# Data domain
DOMAIN_MIN 0.0 0.0 0.0
DOMAIN_MAX 1.0 1.0 1.0
# LUT data points
0.039021763950586319 0.059403408318758011 0.064132049679756165
0.06622999906539917 0.073749706149101257 0.07825171947479248
0.16777737438678741 0.076027825474739075 0.081529296934604645
0.3482305109500885 0.066716678440570831 0.08022645115852356
0.59395647048950195 0.033000990748405457 0.072428084909915924
0.087923161685466766 0.14636522531509399 0.14575174450874329
0.14187732338905334 0.19482733309268951 0.1810624748468399
0.2773934006690979 0.23811712861061096 0.16348373889923096
0.53064215183258057 0.23063048720359802 0.15284287929534912
0.78600537776947021 0.20859627425670624 0.13900671899318695
0.11919634789228439 0.33381149172782898 0.20374421775341034
0.26989170908927917 0.38437715172767639 0.25768062472343445
0.42930999398231506 0.46102583408355713 0.26496449112892151
0.64462226629257202 0.53589224815368652 0.23786307871341705
0.84195172786712646 0.5601813793182373 0.21883420646190643
0.2679993212223053 0.59601318836212158 0.26304656267166138
0.45991727709770203 0.62068009376525879 0.33706995844841003
0.61047482490539551 0.67791831493377686 0.36647143959999084
0.74652320146560669 0.7358088493347168 0.36641970276832581
0.87398117780685425 0.78425037860870361 0.34213164448738098
0.54764455556869507 0.82745647430419922 0.38961371779441833
0.67327308654785156 0.84113043546676636 0.49523818492889404
0.76973128318786621 0.86424416303634644 0.55926764011383057
0.85895156860351562 0.8970370888710022 0.57827281951904297
0.9388878345489502 0.92124974727630615 0.53679907321929932
0.03963610902428627 0.06595369428396225 0.081134721636772156
0.06686197966337204 0.082297965884208679 0.10006019473075867
0.15084877610206604 0.091111592948436737 0.13125583529472351
0.31812697649002075 0.082421459257602692 0.13969811797142029
0.53699213266372681 0.07286544144153595 0.1461273729801178
0.085610002279281616 0.16599617898464203 0.17813761532306671
0.15188629925251007 0.21493488550186157 0.22627769410610199
0.22542454302310944 0.26599794626235962 0.27125734090805054
0.46356585621833801 0.27357310056686401 0.28010079264640808
0.70191806554794312 0.28453460335731506 0.27078810334205627
0.075142867863178253 0.37482795119285583 0.28126063942909241
0.32398474216461182 0.41044232249259949 0.37927809357643127
0.4269598126411438 0.47057735919952393 0.43082845211029053
0.60701882839202881 0.54778534173965454 0.42307785153388977
0.81035351753234863 0.57051539421081543 0.4247586727142334
0.17571637034416199 0.62271088361740112 0.3524576723575592
0.47345396876335144 0.64322823286056519 0.4532778263092041
0.61925852298736572 0.67655014991760254 0.54130828380584717
0.72586679458618164 0.73642009496688843 0.57003742456436157
0.84627890586853027 0.79178977012634277 0.57236498594284058
0.49613538384437561 0.84378862380981445 0.48357751965522766
0.65094220638275146 0.85262131690979004 0.58267456293106079
0.76629132032394409 0.86384481191635132 0.66200703382492065
0.84995102882385254 0.89636951684951782 0.69721198081970215
0.92304342985153198 0.92217481136322021 0.69222891330718994
0.025632238015532494 0.079843409359455109 0.16131129860877991
0.073546312749385834 0.097900360822677612 0.17536140978336334
0.1588355153799057 0.11412882804870605 0.22476905584335327
0.31879708170890808 0.10467994213104248 0.26295441389083862
0.56202232837677002 0.038424845784902573 0.26729795336723328
0.024767631664872169 0.18505942821502686 0.25419902801513672
0.15368838608264923 0.23255924880504608 0.26312118768692017
0.23522277176380157 0.28517356514930725 0.31288471817970276
0.42309093475341797 0.31318438053131104 0.37303599715232849
0.66103297472000122 0.27959010004997253 0.36491015553474426
0.013074672780930996 0.38765442371368408 0.36493486166000366
0.3177306056022644 0.4385724663734436 0.41525447368621826
0.44490280747413635 0.50257724523544312 0.47549974918365479
0.55528098344802856 0.56394052505493164 0.53861206769943237
0.76146167516708374 0.5882905125617981 0.56591200828552246
0.0096831526607275009 0.64853912591934204 0.43779346346855164
0.4059772789478302 0.67029601335525513 0.53313177824020386
0.63510525226593018 0.70052993297576904 0.64920651912689209
0.71119308471679688 0.74544280767440796 0.69926589727401733
0.81516951322555542 0.79879814386367798 0.71074062585830688
0.24274252355098724 0.86676633358001709 0.53499817848205566
0.58089768886566162 0.86917954683303833 0.64279329776763916
0.74969053268432617 0.87652134895324707 0.72506535053253174
0.84307402372360229 0.89392858743667603 0.79666054248809814
0.90366524457931519 0.92353063821792603 0.81740474700927734
0.0039779064245522022 0.096733182668685913 0.30773738026618958
0.054599836468696594 0.11785084009170532 0.3232940137386322
0.19162236154079437 0.15358595550060272 0.36257624626159668
0.36560013890266418 0.17503415048122406 0.41853117942810059
0.57642054557800293 0.13149186968803406 0.46337351202964783
0.0030582353938370943 0.21565470099449158 0.37829211354255676
0.12946808338165283 0.25467917323112488 0.39582380652427673
0.2910710871219635 0.31228387355804443 0.42785570025444031
0.46425917744636536 0.372296541929245 0.49245229363441467
0.65384244918823242 0.36288243532180786 0.54954081773757935
0.0020960639230906963 0.40519008040428162 0.48116472363471985
0.20226725935935974 0.45311817526817322 0.50182944536209106
0.44262361526489258 0.52188092470169067 0.52127593755722046
0.56143605709075928 0.58627396821975708 0.58731383085250854
0.71819233894348145 0.61358052492141724 0.66005522012710571
0.0060977260582149029 0.65392559766769409 0.59648323059082031
0.25222054123878479 0.67869919538497925 0.62916660308837891
0.61000519990921021 0.7180778980255127 0.67840766906738281
0.70106244087219238 0.76371997594833374 0.72576272487640381
0.77519023418426514 0.81016767024993896 0.7788313627243042
0.0026645585894584656 0.8866196870803833 0.67095726728439331
0.33584442734718323 0.88854318857192993 0.70804023742675781
0.66073369979858398 0.89218854904174805 0.77587097883224487
0.82567650079727173 0.91421288251876831 0.85901695489883423
0.88026684522628784 0.93766540288925171 0.90409231185913086
0 0.12636452913284302 0.49770945310592651
0.025982486084103584 0.14989551901817322 0.51335418224334717
0.23867978155612946 0.1870635449886322 0.54862445592880249
0.46692121028900146 0.25553002953529358 0.60524904727935791
0.66327941417694092 0.30166789889335632 0.66574478149414062
0 0.27624225616455078 0.56951653957366943
0.089383147656917572 0.29212754964828491 0.5781482458114624
0.32822003960609436 0.33902189135551453 0.6023983359336853
0.53989678621292114 0.41889059543609619 0.65286701917648315
0.69777989387512207 0.50031417608261108 0.70433551073074341
5.6008731917245314e-05 0.45006012916564941 0.63808953762054443
0.11637936532497406 0.47358241677284241 0.64224302768707275
0.42053619027137756 0.52001935243606567 0.66051048040390015
0.60416388511657715 0.59022057056427002 0.69328278303146362
0.73831063508987427 0.66678959131240845 0.74851769208908081
0 0.67490243911743164 0.73267418146133423
0.14727811515331268 0.69135409593582153 0.73871058225631714
0.5165635347366333 0.71825170516967773 0.74676114320755005
0.69479513168334961 0.77594155073165894 0.75869953632354736
0.76957648992538452 0.82082945108413696 0.80676203966140747
0 0.88947069644927979 0.81911516189575195
0.16753594577312469 0.90363097190856934 0.84340518712997437
0.56293404102325439 0.90992003679275513 0.85756117105484009
0.81171870231628418 0.93134331703186035 0.89331978559494019
0.88725084066390991 0.94577914476394653 0.93392986059188843
