assets/lut/shamoonabbasi date 39.cube
# Created by: G'MIC (https://gmic.eu)
TITLE "date_39"
# LUT size
LUT_3D_SIZE 5
# Data domain
DOMAIN_MIN 0.0 0.0 0.0
DOMAIN_MAX 1.0 1.0 1.0
# LUT data points
0.016686413437128067 0.018699018284678459 0.026626750826835632
0.17873848974704742 0.057820085436105728 0.055513929575681686
0.47609281539916992 0.12975245714187622 0.12168033421039581
0.68440109491348267 0.18086236715316772 0.16789343953132629
0.84602326154708862 0.21716172993183136 0.20144882798194885
0.028983995318412781 0.12749379873275757 0.030896743759512901
0.2496897429227829 0.14230281114578247 0.05998452752828598
0.53251844644546509 0.2001519650220871 0.13876514136791229
0.72000938653945923 0.24456727504730225 0.1765478104352951
0.86985534429550171 0.2856290340423584 0.21175822615623474
0.039831288158893585 0.29516446590423584 0.034946873784065247
0.36924999952316284 0.37797701358795166 0.052572540938854218
0.68594884872436523 0.37624529004096985 0.10822773724794388
0.8440822958946228 0.38404509425163269 0.16980040073394775
0.92938512563705444 0.42047083377838135 0.1613927036523819
0.048213403671979904 0.42676979303359985 0.040805336087942123
0.44377383589744568 0.56157875061035156 0.038200676441192627
0.7059822678565979 0.62970453500747681 0.090796679258346558
0.86679184436798096 0.65625369548797607 0.11283166706562042
0.94747364521026611 0.6352999210357666 0.12552313506603241
0.026840688660740852 0.78016018867492676 0.037466537207365036
0.42227709293365479 0.82904082536697388 0.036548104137182236
0.71788400411605835 0.83198648691177368 0.050195161253213882
0.87110710144042969 0.85573428869247437 0.072667457163333893
0.96463143825531006 0.85370594263076782 0.090569786727428436
0.024672249332070351 0.054304834455251694 0.11975772678852081
0.2380196750164032 0.068678148090839386 0.11906395852565765
0.51617711782455444 0.14912803471088409 0.17373266816139221
0.70883798599243164 0.19496248662471771 0.21714240312576294
0.84405827522277832 0.22428983449935913 0.25010856986045837
0.041809186339378357 0.16818411648273468 0.15140028297901154
0.20612546801567078 0.17840367555618286 0.15115305781364441
0.53414082527160645 0.20715238153934479 0.1740567535161972
0.72183722257614136 0.24695795774459839 0.22148403525352478
0.86244237422943115 0.28323054313659668 0.22858524322509766
0.044016968458890915 0.35614714026451111 0.097257085144519806
0.28541097044944763 0.42047592997550964 0.094016090035438538
0.67624610662460327 0.44843539595603943 0.13785345852375031
0.85338044166564941 0.45229288935661316 0.15508155524730682
0.94563573598861694 0.48944097757339478 0.15287864208221436
0.051275800913572311 0.44134038686752319 0.085189282894134521
0.34403210878372192 0.59859740734100342 0.08392709493637085
0.69524067640304565 0.68819570541381836 0.1062508225440979
0.88338178396224976 0.7057068943977356 0.16256798803806305
0.94918203353881836 0.68404173851013184 0.17176635563373566
0.062090437859296799 0.81330525875091553 0.10643503814935684
0.33771833777427673 0.85617208480834961 0.092894069850444794
0.70970702171325684 0.89535844326019287 0.09091467410326004
0.88263863325119019 0.90771198272705078 0.1020502895116806
0.96123200654983521 0.87167549133300781 0.1312803328037262
0.028150850906968117 0.12918069958686829 0.30113279819488525
0.19607841968536377 0.11458636820316315 0.27007514238357544
0.59081321954727173 0.16828836500644684 0.24686916172504425
0.74025928974151611 0.20906183123588562 0.27398267388343811
0.86178356409072876 0.24594341218471527 0.27329298853874207
0.055286526679992676 0.22343805432319641 0.34832441806793213
0.12792997062206268 0.24159416556358337 0.36554419994354248
0.60148841142654419 0.30916363000869751 0.33008921146392822
0.78486448526382446 0.35191354155540466 0.3472532331943512
0.90361875295639038 0.3988545835018158 0.36137294769287109
0.089804962277412415 0.46821311116218567 0.48779648542404175
0.16197332739830017 0.52500289678573608 0.49345293641090393
0.59469974040985107 0.54368466138839722 0.45027437806129456
0.81843322515487671 0.58558881282806396 0.45549479126930237
0.93815046548843384 0.60344058275222778 0.44649651646614075
0.13035853207111359 0.73085290193557739 0.5303223729133606
0.15675252676010132 0.66162610054016113 0.44006261229515076
0.64922553300857544 0.73099124431610107 0.43207547068595886
0.85356009006500244 0.75177502632141113 0.31791785359382629
0.94867384433746338 0.7188829779624939 0.35111120343208313
0.087623998522758484 0.9392121434211731 0.20298527181148529
0.17978584766387939 0.87887275218963623 0.23530289530754089
0.6780124306678772 0.93445402383804321 0.26950341463088989
0.86359649896621704 0.93166851997375488 0.26653334498405457
0.95321226119995117 0.9006837010383606 0.22652040421962738
0.068276591598987579 0.23776116967201233 0.51729518175125122
0.11422627419233322 0.23437230288982391 0.47356137633323669
0.61949825286865234 0.27860969305038452 0.38387307524681091
0.81552571058273315 0.32780054211616516 0.40709635615348816
0.90167349576950073 0.39545640349388123 0.45776128768920898
0.070855006575584412 0.31132608652114868 0.54727405309677124
0.11915414780378342 0.35501721501350403 0.59162169694900513
0.5945705771446228 0.3594849705696106 0.54035502672195435
0.80402100086212158 0.42329704761505127 0.51995646953582764
0.89391261339187622 0.51151591539382935 0.5848318338394165
0.1008417010307312 0.50279819965362549 0.66256815195083618
0.16323187947273254 0.55482882261276245 0.68874037265777588
0.56038141250610352 0.60243725776672363 0.68439823389053345
0.80333250761032104 0.63108289241790771 0.6535027027130127
0.9156075119972229 0.67432612180709839 0.67664444446563721
0.13647162914276123 0.71820378303527832 0.7436710000038147
0.19299972057342529 0.76609814167022705 0.75814110040664673
0.49465799331665039 0.77242755889892578 0.70310550928115845
0.82741260528564453 0.78115570545196533 0.65962499380111694
0.94472873210906982 0.77510762214660645 0.67100858688354492
0.1816546767950058 0.97318184375762939 0.7758338451385498
0.22489577531814575 0.9863097071647644 0.69450312852859497
0.46726354956626892 0.97128903865814209 0.54488664865493774
0.84067082405090332 0.94787096977233887 0.5831037163734436
0.9521673321723938 0.92845463752746582 0.56284290552139282
0.090392075479030609 0.3803962767124176 0.71356761455535889
0.12893886864185333 0.3788905143737793 0.69910168647766113
0.57154613733291626 0.36195081472396851 0.68945139646530151
0.81848365068435669 0.37088975310325623 0.6165701150894165
0.9012373685836792 0.45856082439422607 0.68352478742599487
0.089969828724861145 0.43846622109413147 0.73390698432922363
0.14655397832393646 0.4719994068145752 0.75975412130355835
0.51733696460723877 0.47295209765434265 0.78819441795349121
0.83892607688903809 0.45269870758056641 0.74870938062667847
0.91828173398971558 0.52745634317398071 0.73698031902313232
0.11143679171800613 0.582233726978302 0.7978251576423645
0.17065435647964478 0.61790961027145386 0.82255369424819946
0.49287784099578857 0.65503156185150146 0.83635789155960083
0.82924735546112061 0.63039696216583252 0.82556360960006714
0.92559492588043213 0.65666294097900391 0.78255409002304077
0.14149625599384308 0.71549528837203979 0.85590583086013794
0.18222039937973022 0.74422752857208252 0.85864394903182983
0.43290069699287415 0.78226584196090698 0.85871630907058716
0.81390982866287231 0.79359525442123413 0.83492153882980347
0.93458634614944458 0.80845767259597778 0.82577967643737793
0.16831295192241669 0.87716794013977051 0.90592390298843384
0.22272853553295135 0.92082947492599487 0.90766781568527222
0.29904213547706604 0.9663272500038147 0.89382392168045044
0.76022523641586304 0.9829714298248291 0.76496213674545288
0.95560842752456665 0.95633059740066528 0.7611769437789917
