assets/lut/shamoonabbasi night king 141.cube
# Created by: G'MIC (https://gmic.eu)
TITLE "night_king_141"
# LUT size
LUT_3D_SIZE 5
# Data domain
DOMAIN_MIN 0.0 0.0 0.0
DOMAIN_MAX 1.0 1.0 1.0
# LUT data points
0 0 0
0.11774063110351562 0 0
0.32204285264015198 0 0
0.51878327131271362 0.009877791628241539 0
0.71615827083587646 0.020493241026997566 0.0017473407788202167
9.5098155725281686e-05 0.13106362521648407 7.234461372718215e-05
0.12284242361783981 0.12649136781692505 0
0.32306283712387085 0.12824079394340515 5.6322882301174104e-05
0.51570844650268555 0.12864768505096436 0
0.71443426609039307 0.12917208671569824 0.0077874278649687767
0.0091240080073475838 0.32641422748565674 0.0032006357796490192
0.13236129283905029 0.32610872387886047 0
0.31941822171211243 0.32495656609535217 0
0.51488971710205078 0.31769546866416931 0
0.71495097875595093 0.31987348198890686 0
0.011695427820086479 0.51819688081741333 0.0037212895695120096
0.1426868736743927 0.51904773712158203 0
0.32079797983169556 0.51802420616149902 0
0.51611292362213135 0.51600503921508789 0
0.71582871675491333 0.51970314979553223 0
0.015053214505314827 0.71495097875595093 0.01285527553409338
0.1565375030040741 0.71495097875595093 0.00046386718167923391
0.33045318722724915 0.71495097875595093 0
0.52235132455825806 0.7162894606590271 0
0.72304147481918335 0.72191387414932251 0
0 0 0.12744489312171936
0.12683774530887604 0 0.12866215407848358
0.32212591171264648 0 0.11878403276205063
0.52010858058929443 0 0.11980113387107849
0.71495616436004639 0.0059760748408734798 0.12848018109798431
2.1003274014219642e-05 0.12470493465662003 0.12819711863994598
0.12152913212776184 0.12453475594520569 0.12235117703676224
0.32540959119796753 0.1219046339392662 0.12553499639034271
0.51914620399475098 0.11981067806482315 0.11905762553215027
0.71495097875595093 0.13341327011585236 0.12786747515201569
0.0048173791728913784 0.32400092482566833 0.13405750691890717
0.12158104032278061 0.32570430636405945 0.12006770074367523
0.32099637389183044 0.32656848430633545 0.11964455246925354
0.51836609840393066 0.32037290930747986 0.11980291455984116
0.71461838483810425 0.32286456227302551 0.121921107172966
0.0072736702859401703 0.51821064949035645 0.14047020673751831
0.13759981095790863 0.51960784196853638 0.1194835901260376
0.32127729058265686 0.51944464445114136 0.12078054249286652
0.5181090235710144 0.51655632257461548 0.12657560408115387
0.71495097875595093 0.51987308263778687 0.12422684580087662
0.012017463333904743 0.71495097875595093 0.15927353501319885
0.15200698375701904 0.71658957004547119 0.13909274339675903
0.32753530144691467 0.71607857942581177 0.13389725983142853
0.5195469856262207 0.71578806638717651 0.13415279984474182
0.7186276912689209 0.72050827741622925 0.13753141462802887
0.00071740243583917618 0 0.32218131422996521
0.11356613785028458 0 0.32104003429412842
0.3145102858543396 0 0.31685909628868103
0.51680731773376465 0 0.31605958938598633
0.71641963720321655 0.0014945236034691334 0.318532794713974
0 0.12260766327381134 0.32384875416755676
0.11507550626993179 0.12608887255191803 0.32549020648002625
0.32318124175071716 0.12954609096050262 0.32227811217308044
0.52100181579589844 0.12682375311851501 0.32156619429588318
0.71584904193878174 0.13803912699222565 0.32289525866508484
0.0023447521962225437 0.32214164733886719 0.32315251231193542
0.12947191298007965 0.32403737306594849 0.3223339319229126
0.32516896724700928 0.32275500893592834 0.32409650087356567
0.51924759149551392 0.32269144058227539 0.32392710447311401
0.71430999040603638 0.3246484100818634 0.32598373293876648
0.0065127206034958363 0.51805204153060913 0.32532161474227905
0.14060695469379425 0.52028930187225342 0.31967318058013916
0.32456135749816895 0.51888597011566162 0.32527837157249451
0.51762408018112183 0.51720511913299561 0.32547798752784729
0.71343255043029785 0.51942777633666992 0.32449284195899963
0.011765812523663044 0.71584552526473999 0.33874380588531494
0.15271331369876862 0.71747541427612305 0.32769763469696045
0.32794857025146484 0.71727943420410156 0.32661882042884827
0.51869839429855347 0.71688932180404663 0.32597917318344116
0.71747106313705444 0.72006124258041382 0.32759559154510498
0.0055327620357275009 0 0.51741087436676025
0.11517555266618729 0 0.51491791009902954
0.30860033631324768 0 0.51227951049804688
0.51614391803741455 0 0.51121222972869873
0.7196846604347229 0.0024155410937964916 0.51501810550689697
0 0.12468671798706055 0.51727938652038574
0.10912704467773438 0.12834775447845459 0.51727938652038574
0.31793385744094849 0.12877190113067627 0.51570838689804077
0.52101463079452515 0.13414888083934784 0.51534181833267212
0.71871000528335571 0.1473080962896347 0.51785778999328613
6.8933826696593314e-05 0.32068285346031189 0.51748925447463989
0.12501621246337891 0.32314997911453247 0.51727938652038574
0.32018932700157166 0.32119476795196533 0.51776593923568726
0.51873070001602173 0.32243558764457703 0.51728671789169312
0.71598666906356812 0.32895556092262268 0.51909339427947998
0.0037706710863858461 0.51773715019226074 0.5208781361579895
0.13703310489654541 0.52096837759017944 0.51734709739685059
0.31859239935874939 0.51936477422714233 0.51870608329772949
0.51436227560043335 0.51788115501403809 0.5183289647102356
0.71362465620040894 0.52139294147491455 0.51828479766845703
0.012382297776639462 0.71727943420410156 0.53281712532043457
0.15305383503437042 0.71891242265701294 0.52410703897476196
0.32648104429244995 0.71886199712753296 0.52230155467987061
0.51803672313690186 0.71783196926116943 0.52106934785842896
0.71872830390930176 0.72215545177459717 0.523662269115448
0.016998769715428352 0 0.71623021364212036
0.12690351903438568 0 0.71488273143768311
0.31798699498176575 0 0.71335786581039429
0.52386438846588135 0 0.71333682537078857
0.72970962524414062 0.0038978126831352711 0.71838170289993286
0.0032642888836562634 0.12062531709671021 0.71372693777084351
0.12304114550352097 0.12200237810611725 0.71368980407714844
0.32501703500747681 0.12808792293071747 0.7141721248626709
0.52530831098556519 0.1385970264673233 0.71335786581039429
0.7265276312828064 0.15480522811412811 0.71785330772399902
0.0027821259573101997 0.31628382205963135 0.71584886312484741
0.13254371285438538 0.31945359706878662 0.71335786581039429
0.32181712985038757 0.32006931304931641 0.71335786581039429
0.52174800634384155 0.32444199919700623 0.71377134323120117
0.723155677318573 0.33500951528549194 0.71792662143707275
0.0072935665957629681 0.5163465142250061 0.72188496589660645
0.14068113267421722 0.52042543888092041 0.7151864767074585
0.31996914744377136 0.5204043984413147 0.71465909481048584
0.51821053028106689 0.52067416906356812 0.71498638391494751
0.72184854745864868 0.52753794193267822 0.71963661909103394
0.020610705018043518 0.71787399053573608 0.73566466569900513
0.16112296283245087 0.72120100259780884 0.72538262605667114
0.33307313919067383 0.72120100259780884 0.72213888168334961
0.5255424976348877 0.72222179174423218 0.72239929437637329
0.72899866104125977 0.72872108221054077 0.72821193933486938
