assets/lut/shamoonabbasi drop green tint 14.cube
# Created by: G'MIC (https://gmic.eu)
TITLE "drop_green_tint_14"
# LUT size
LUT_3D_SIZE 13
# Data domain
DOMAIN_MIN 0.0 0.0 0.0
DOMAIN_MAX 1.0 1.0 1.0
# LUT data points
0.00034089930704794824 0.0066459653899073601 0.00017269358795601875
0.011946585029363632 0.0087676551192998886 0.0037873659748584032
0.06395440548658371 0.010239844210445881 0.0061615291051566601
0.14884869754314423 0.0076362760737538338 0.0039154053665697575
0.22863833606243134 0.002570043783634901 0.00081193214282393456
0.29887029528617859 5.4647407523589209e-05 0.00014935662329662591
0.36534285545349121 0 0.00079490809002891183
0.43287497758865356 0.00016744277672842145 0.0036038716789335012
0.50088596343994141 0.0042245006188750267 0.0058233225718140602
0.55555140972137451 0.011103745549917221 0.0068637621589004993
0.5808221697807312 0.011711584404110909 0.0086747417226433754
0.58689242601394653 0.0097184572368860245 0.0099714538082480431
0.58670783042907715 0.0093246456235647202 0.0094965463504195213
0.0035242268349975348 0.011552474461495876 0.0040150661952793598
0.01458530779927969 0.012140925042331219 0.0066110049374401569
0.057981021702289581 0.011833460070192814 0.0051074759103357792
0.14232531189918518 0.0061990777030587196 0.0039753783494234085
0.22716981172561646 0.0025949515402317047 0.0034974042791873217
0.30056416988372803 0.00044000663910992444 0.0034050287213176489
0.36718958616256714 0 0.0039535523392260075
0.43370246887207031 0 0.0063796099275350571
0.50272655487060547 0.00027039472479373217 0.007916843518614769
0.55953150987625122 0.0030572181567549706 0.010047987103462219
0.58683139085769653 0.003338922280818224 0.011729461140930653
0.59250390529632568 0.001559523050673306 0.011764706112444401
0.59168606996536255 0.0016985725378617644 0.011764706112444401
0.0046172346919775009 0.041239913552999496 0.0071805617772042751
0.0088248457759618759 0.040549676865339279 0.0068282033316791058
0.039148531854152679 0.038162965327501297 0.0041527990251779556
0.11851377040147781 0.029995113611221313 0.0041228649206459522
0.21525445580482483 0.025932163000106812 0.006802278570830822
0.29880556464195251 0.019365228712558746 0.0070693669840693474
0.36732271313667297 0.0083580613136291504 0.0065701953135430813
0.42994421720504761 0.0020063512492924929 0.0076961293816566467
0.4958636462688446 0.00066600128775462508 0.0085236048325896263
0.55212688446044922 0.00053408753592520952 0.011653137393295765
0.58354085683822632 2.6209214411210269e-05 0.011764706112444401
0.59218764305114746 0 0.011764706112444401
0.59224027395248413 0 0.011471632868051529
0.0025665282737463713 0.093842461705207825 0.0059355939738452435
0.00023292092373594642 0.092376232147216797 0.0054530124180018902
0.0093918740749359131 0.09306652843952179 0.0039328481070697308
0.073492564260959625 0.090267166495323181 0.0059234318323433399
0.18630263209342957 0.083946242928504944 0.0078431377187371254
0.29288551211357117 0.072799652814865112 0.0078393677249550819
0.37426373362541199 0.055669073015451431 0.0078189028427004814
0.43748024106025696 0.03794638067483902 0.0078431377187371254
0.49950024485588074 0.026856740936636925 0.0079712960869073868
0.55212283134460449 0.017108183354139328 0.010720646008849144
0.58287030458450317 0.0067934673279523849 0.011551621370017529
0.59286791086196899 0.0017572889337316155 0.010386912152171135
0.59397512674331665 0.0036595661658793688 0.0085500981658697128
0.0009789859177544713 0.14942038059234619 0.00397466029971838
0 0.15130075812339783 0.004808373749256134
0.0005734761361964047 0.15308541059494019 0.0051496466621756554
0.033553630113601685 0.15611818432807922 0.0076552596874535084
0.12993203103542328 0.15741968154907227 0.0078431377187371254
0.2602197527885437 0.15139444172382355 0.0078649185597896576
0.38002434372901917 0.13766716420650482 0.008141850121319294
0.46202751994132996 0.11788879334926605 0.0078431377187371254
0.52353686094284058 0.094697393476963043 0.0078431377187371254
0.56958061456680298 0.068193875253200531 0.0078828101977705956
0.59540766477584839 0.042344246059656143 0.00799560546875
0.60367399454116821 0.02921905554831028 0.0078431377187371254
0.6037222146987915 0.031137878075242043 0.0078431377187371254
0.0011417613131925464 0.20978529751300812 0.0055677075870335102
0 0.21342471241950989 0.0066762138158082962
1.3613233022624627e-05 0.21545282006263733 0.0074177761562168598
0.0060828416608273983 0.22050265967845917 0.0078431377187371254
0.052686862647533417 0.23132146894931793 0.0078905289992690086
0.18217684328556061 0.24104997515678406 0.0096187964081764221
0.3589460551738739 0.24511973559856415 0.01160068903118372
0.48455578088760376 0.23214490711688995 0.0096508851274847984
0.5595698356628418 0.20229202508926392 0.0083317626267671585
0.60799193382263184 0.16548900306224823 0.0080487271770834923
0.63286018371582031 0.12285284698009491 0.0078431377187371254
0.63636595010757446 0.097554408013820648 0.0078431377187371254
0.63159960508346558 0.093826577067375183 0.0080313887447118759
0.0037499521858990192 0.28555521368980408 0.0095207663252949715
0.0027365442365407944 0.29091820120811462 0.010018426924943924
0.0019206476863473654 0.2898978590965271 0.0084499139338731766
0.00038292081444524229 0.29226934909820557 0.0078431377187371254
0.0059254514053463936 0.30587014555931091 0.007958386093378067
0.08322412520647049 0.3283272385597229 0.010126061737537384
0.27398279309272766 0.35760989785194397 0.01191819179803133
0.47452625632286072 0.36777374148368835 0.014061677269637585
0.59253442287445068 0.34226009249687195 0.015124048106372356
0.66253608465194702 0.3037477433681488 0.013882475905120373
0.69651228189468384 0.2487170398235321 0.010465015657246113
0.69844764471054077 0.20980930328369141 0.0098009146749973297
0.68757873773574829 0.19783762097358704 0.01254571694880724
0.0065363566391170025 0.37971392273902893 0.011747009120881557
0.0054560941644012928 0.38551062345504761 0.012514750473201275
0.0020184835884720087 0.38295316696166992 0.012134911492466927
8.1679399954737164e-06 0.38093715906143188 0.010801756754517555
0 0.38963016867637634 0.010978279635310173
0.011735205538570881 0.40990030765533447 0.011669413186609745
0.14623470604419708 0.44612908363342285 0.013811777345836163
0.38737019896507263 0.48338443040847778 0.02174142561852932
0.58292931318283081 0.48505645990371704 0.029018102213740349
0.70256400108337402 0.45511341094970703 0.028410488739609718
0.76088392734527588 0.40111041069030762 0.0240910854190588
0.77785980701446533 0.35609287023544312 0.023228170350193977
0.76867830753326416 0.33695781230926514 0.025658925995230675
0.0078431377187371254 0.47916096448898315 0.013552572578191757
0.0066910237073898315 0.48299351334571838 0.016361923888325691
0.0014267716323956847 0.48167023062705994 0.01736215315759182
0 0.47866684198379517 0.017469936981797218
0 0.48025590181350708 0.016695538535714149
0.00014754651056136936 0.49103608727455139 0.016256997361779213
0.050876136869192123 0.517192542552948 0.019094953313469887
0.24165411293506622 0.55675649642944336 0.030740490183234215
0.49945396184921265 0.59275132417678833 0.047101505100727081
0.69707190990447998 0.59573459625244141 0.053240638226270676
0.79621940851211548 0.56014555692672729 0.053698461502790451
0.84240776300430298 0.51439136266708374 0.052703376859426498
0.84419077634811401 0.48737898468971252 0.050438795238733292
0.0078431377187371254 0.56985336542129517 0.020837850868701935
0.0076185190118849277 0.57161855697631836 0.023517878726124763
0.0045258915051817894 0.57301992177963257 0.025986166670918465
0.00085661647608503699 0.57339268922805786 0.027189562097191811
5.1565730245783925e-05 0.57055330276489258 0.026058720424771309
0 0.57043039798736572 0.024683963507413864
0.0087859062477946281 0.5847315788269043 0.028079867362976074
0.11888661235570908 0.61557483673095703 0.040903307497501373
0.37672916054725647 0.66372150182723999 0.063417144119739532
0.64883798360824585 0.69557315111160278 0.081262446939945221
0.79920792579650879 0.68509894609451294 0.088370338082313538
0.87791544198989868 0.6510356068611145 0.089773692190647125
0.8949512243270874 0.62629300355911255 0.084255591034889221
0.0078431377187371254 0.64526468515396118 0.033457841724157333
0.0083418302237987518 0.6448015570640564 0.034673802554607391
0.010125867091119289 0.64884179830551147 0.036800235509872437
0.0097685568034648895 0.65515679121017456 0.038656316697597504
0.006038411520421505 0.65202611684799194 0.03719247505068779
0.0020851134322583675 0.64609980583190918 0.034882728010416031
0.0015605402877554297 0.65435248613357544 0.038124758750200272
0.046207144856452942 0.67448270320892334 0.049600638449192047
0.23402281105518341 0.70822763442993164 0.071492843329906464
0.55121821165084839 0.74914443492889404 0.09759482741355896
0.76597243547439575 0.76431089639663696 0.11345949023962021
0.8804703950881958 0.75663131475448608 0.12307366728782654
0.92128688097000122 0.74390572309494019 0.12209188193082809
0.0078431377187371254 0.69860804080963135 0.044080082327127457
0.0090052885934710503 0.69629496335983276 0.044288367033004761
0.011655560694634914 0.70081347227096558 0.04541441798210144
0.01389815378934145 0.7091902494430542 0.046562958508729935
0.011283800005912781 0.70933353900909424 0.045625515282154083
0.004804020281881094 0.70488178730010986 0.043499171733856201
0.0020134120713919401 0.70966047048568726 0.046088725328445435
0.0078915469348430634 0.71990120410919189 0.054479591548442841
0.10617216676473618 0.73662000894546509 0.071834355592727661
0.39970216155052185 0.77501904964447021 0.10093425959348679
0.68965816497802734 0.81327915191650391 0.12906529009342194
0.85428726673126221 0.83419805765151978 0.14971688389778137
0.92767030000686646 0.83666694164276123 0.15751282870769501
0.0078431377187371254 0.72552597522735596 0.047673363238573074
0.0075134728103876114 0.72496765851974487 0.047058824449777603
0.0077820122241973877 0.72849267721176147 0.048415824770927429
0.0076476600952446461 0.73529434204101562 0.050563439726829529
0.0043543050996959209 0.73680579662322998 0.049196939915418625
0.00088713405421003699 0.73426604270935059 0.047058824449777603
1.2925092050863896e-05 0.73518389463424683 0.048812102526426315
1.077091019396903e-05 0.74091708660125732 0.055578779429197311
0.042970456182956696 0.75456857681274414 0.071022108197212219
0.28552418947219849 0.79121589660644531 0.098886169493198395
0.60564273595809937 0.8421662449836731 0.13390620052814484
0.81335490942001343 0.88142740726470947 0.16298159956932068
0.91746819019317627 0.9004749059677124 0.17996804416179657
0.0055850758217275143 0.0087865190580487251 0.006378847174346447
0.01389764528721571 0.0099552823230624199 0.0065483241342008114
0.067780725657939911 0.0088851926848292351 0.0065727834589779377
0.15031720697879791 0.0073043075390160084 0.0029488508589565754
0.22802367806434631 0.0047740261070430279 1.7113779904320836e-05
0.29801398515701294 0.00092647777637466788 0
0.36373439431190491 0.00012426936882548034 4.7751032980158925e-05
0.43015900254249573 0.0013249565381556749 0.0035776474978774786
0.49914562702178955 0.0075920256786048412 0.005026200320571661
0.55577629804611206 0.014967181719839573 0.0051037957891821861
0.58156132698059082 0.015576052479445934 0.006817537359893322
0.58655053377151489 0.012682970613241196 0.0089335720986127853
0.58555561304092407 0.01049149502068758 0.0080796331167221069
0.007702547125518322 0.01044788770377636 0.0090087894350290298
0.014856899157166481 0.012120729312300682 0.0075750909745693207
0.059740401804447174 0.010902838781476021 0.0056433733552694321
0.14248479902744293 0.006639563012868166 0.0025603799149394035
0.22438579797744751 0.0049652098678052425 0.0011104210279881954
0.29749727249145508 0.00079297833144664764 0.0006759344250895083
0.36500316858291626 0 0.0011119019472971559
0.43245765566825867 0 0.0040761162526905537
0.50295853614807129 0.00077058380702510476 0.0062951482832431793
0.56157851219177246 0.0066851298324763775 0.0073411231860518456
0.58900868892669678 0.0076855081133544445 0.010017843917012215
0.59301042556762695 0.0044026840478181839 0.011735250242054462
0.58940035104751587 0.0027534035034477711 0.010191824287176132
0.0086005711928009987 0.038512885570526123 0.0091857165098190308
0.010813649743795395 0.03817971795797348 0.0066122766584157944
0.041827451437711716 0.034839272499084473 0.0045189200900495052
0.11953447759151459 0.029150210320949554 0.0039818556979298592
0.21270614862442017 0.026631582528352737 0.0042754230089485645
0.29568243026733398 0.018542300909757614 0.0035630469210445881
0.36557599902153015 0.0081202639266848564 0.0034866633359342813
0.43052652478218079 0.0029444973915815353 0.0047967052087187767
0.49721154570579529 0.0019358915742486715 0.0071770614013075829
0.55578851699829102 0.0037257324438542128 0.0086598414927721024
0.58774584531784058 0.0027673160657286644 0.01043071411550045
0.5942157506942749 7.7131684520281851e-05 0.010352385230362415
0.59006625413894653 0 0.0086535289883613586
0.007376442663371563 0.093925610184669495 0.0029793085996061563
0.0012434266973286867 0.091795273125171661 0.0019718245603144169
0.010604424402117729 0.090658225119113922 0.0011121263960376382
0.072655066847801208 0.088542565703392029 0.0028346341568976641
0.18493671715259552 0.083409897983074188 0.0039832917973399162
0.29153943061828613 0.072234809398651123 0.0036574569530785084
0.37339878082275391 0.056524854153394699 0.0044745500199496746
0.43868014216423035 0.041106279939413071 0.0068729473277926445
0.50059199333190918 0.029323562979698181 0.0078391879796981812
0.55495733022689819 0.020700851455330849 0.0083790495991706848
0.58682823181152344 0.01082744263112545 0.0092866783961653709
0.59267151355743408 0.0019941143691539764 0.0081879710778594017
0.59009045362472534 0.0018373377388343215 0.0073183248750865459
0.003407706506550312 0.15194991230964661 8.5194908024277538e-05
6.582222908946278e-07 0.15265055000782013 0.00010950425348710269
0.00025898055173456669 0.15277552604675293 0.0012329550227150321
0.026590997353196144 0.15571802854537964 0.0042431401088833809
0.12340916693210602 0.15878359973430634 0.005713354330509901
0.25998577475547791 0.15393805503845215 0.0057604322209954262
0.37955525517463684 0.1410159170627594 0.0070308907888829708
0.46206474304199219 0.12037531286478043 0.007838529534637928
0.52348542213439941 0.09640057384967804 0.0078431377187371254
0.57049101591110229 0.0709647536277771 0.0078431377187371254
0.59677129983901978 0.044878672808408737 0.0078431377187371254
0.60192149877548218 0.028055557981133461 0.0076863155700266361
0.59793949127197266 0.026954920962452888 0.0071193771436810493
0.0024023617152124643 0.21214643120765686 0.0015677657211199403
1.612644518900197e-05 0.21499255299568176 0.001785772037692368
0 0.21484634280204773 0.0043486799113452435
0.0013489217963069677 0.2192566990852356 0.0075637218542397022
0.041580259799957275 0.23236559331417084 0.0082220789045095444
0.18276782333850861 0.24334010481834412 0.0096377050504088402
0.35582712292671204 0.24700336158275604 0.010801008902490139
0.48292165994644165 0.23179998993873596 0.0096238525584340096
0.5596042275428772 0.2028137594461441 0.0087284911423921585
0.60907071828842163 0.16704364120960236 0.0086542768403887749
0.6333690881729126 0.12481379508972168 0.007950921542942524
0.63395518064498901 0.097364209592342377 0.0078431377187371254
0.62688142061233521 0.092274866998195648 0.0078621953725814819
0.0038154751528054476 0.28697642683982849 0.0076894424855709076
0.0020982930436730385 0.29340517520904541 0.0063172583468258381
6.7303226387593895e-05 0.29198676347732544 0.0067602419294416904
0 0.29257220029830933 0.0078337574377655983
0.0033498278353363276 0.30559039115905762 0.0087642446160316467
0.078375674784183502 0.32953712344169617 0.011544021777808666
0.27196073532104492 0.35898694396018982 0.012373846024274826
0.47503212094306946 0.36728474497795105 0.014606206677854061
0.59395378828048706 0.34187668561935425 0.015460354276001453
0.663857102394104 0.30306845903396606 0.014724776148796082
0.6970943808555603 0.25165766477584839 0.011903096921741962
0.69721055030822754 0.21534696221351624 0.010369918309152126
0.68608015775680542 0.20237022638320923 0.011638103052973747
0.0053033865988254547 0.37983158230781555 0.01016654260456562
0.0048585780896246433 0.38793766498565674 0.0096665630117058754
0.0011611339868977666 0.38608092069625854 0.008989640511572361
0 0.38164585828781128 0.0092841805890202522
0 0.38937997817993164 0.010619009844958782
0.012037763372063637 0.41099980473518372 0.01174825057387352
0.14577724039554596 0.44852492213249207 0.01340007409453392
0.38246500492095947 0.48400095105171204 0.021591905504465103
0.58257871866226196 0.48570355772972107 0.029781701043248177
0.70341378450393677 0.45650497078895569 0.029017221182584763
0.76373922824859619 0.406026691198349 0.024465523660182953
0.77925771474838257 0.36351263523101807 0.021980404853820801
0.76857489347457886 0.34405606985092163 0.022936323657631874
0.0078431377187371254 0.47787243127822876 0.011498948559165001
0.0076086902990937233 0.48396676778793335 0.012811144813895226
0.0042822444811463356 0.48459526896476746 0.013756516389548779
0.00024256986216641963 0.48072737455368042 0.014771121554076672
0 0.48069584369659424 0.015677463263273239
0.00011969173647230491 0.4908919632434845 0.015582559630274773
0.039504315704107285 0.51439845561981201 0.017463505268096924
0.22907735407352448 0.55473649501800537 0.030101984739303589
0.50235545635223389 0.59490466117858887 0.049635674804449081
0.69974905252456665 0.59724485874176025 0.054958987981081009
0.80178606510162354 0.56159478425979614 0.052176069468259811
0.84704554080963135 0.51834714412689209 0.049841996282339096
0.84687590599060059 0.49480032920837402 0.047715593129396439
0.0078431377187371254 0.57007205486297607 0.020704366266727448
0.0082071339711546898 0.5716400146484375 0.021941404789686203
0.0095110572874546051 0.57488638162612915 0.023841602727770805
0.0061455522663891315 0.57488787174224854 0.025721531361341476
0.0024000878911465406 0.57043397426605225 0.025595840066671371
0.00027422438142821193 0.56947332620620728 0.024488126859068871
0.0072226878255605698 0.58260351419448853 0.027268517762422562
0.12431984394788742 0.61627012491226196 0.041641160845756531
0.3865090012550354 0.66626185178756714 0.066238462924957275
0.64944946765899658 0.697154700756073 0.083288945257663727
0.80354160070419312 0.68670904636383057 0.088387630879878998
0.88033115863800049 0.65351599454879761 0.08852723240852356
0.89991766214370728 0.63130241632461548 0.085034191608428955
0.0078431377187371254 0.65091323852539062 0.035639461129903793
0.009076765738427639 0.64632689952850342 0.035329751670360565
0.013365532271564007 0.64979708194732666 0.037210188806056976
0.016817668452858925 0.65471464395523071 0.038780227303504944
0.017326518893241882 0.65121841430664062 0.037755269557237625
0.011059585027396679 0.64586234092712402 0.035402335226535797
0.0051653841510415077 0.65351814031600952 0.038154736161231995
0.060324933379888535 0.6741790771484375 0.050361033529043198
0.25856906175613403 0.7110745906829834 0.073817983269691467
0.55383867025375366 0.75285673141479492 0.1001245528459549
0.77511954307556152 0.76942384243011475 0.11695109307765961
0.88598710298538208 0.76107186079025269 0.125337153673172
0.9259568452835083 0.74715918302536011 0.12612664699554443
0.0078431377187371254 0.70900446176528931 0.047588631510734558
0.0097662685438990593 0.69904381036758423 0.045757591724395752
0.014175370335578918 0.70025533437728882 0.04670613631606102
0.019730526953935623 0.70743000507354736 0.048753850162029266
0.022602155804634094 0.70830315351486206 0.047411572188138962
0.018716534599661827 0.7050291895866394 0.044592585414648056
0.011627540923655033 0.70779663324356079 0.046165898442268372
0.024658337235450745 0.71844148635864258 0.054839953780174255
0.14323699474334717 0.74017298221588135 0.07446715235710144
0.41670602560043335 0.78013086318969727 0.10352738201618195
0.69760161638259888 0.81762188673019409 0.13115517795085907
0.86282247304916382 0.83775430917739868 0.15221622586250305
0.93257075548171997 0.84001880884170532 0.16201063990592957
0.0078431377187371254 0.73389983177185059 0.050121188163757324
0.0081741036847233772 0.72397947311401367 0.047080051153898239
0.010915583930909634 0.72461515665054321 0.049639459699392319
0.01423537265509367 0.7310759425163269 0.051130138337612152
0.014744912274181843 0.73271793127059937 0.050785064697265625
0.010664696805179119 0.72852027416229248 0.047484677284955978
0.002501573646441102 0.72692286968231201 0.047891460359096527
0.00085841160034760833 0.73542273044586182 0.055085785686969757
0.060050994157791138 0.7540772557258606 0.072373710572719574
0.29086577892303467 0.79285770654678345 0.10017378628253937
0.60197055339813232 0.84307044744491577 0.13347926735877991
0.81990861892700195 0.88307309150695801 0.16429494321346283
0.92382365465164185 0.9044572114944458 0.18519902229309082
0.01002242136746645 0.011678179726004601 0.049519259482622147
0.014388260431587696 0.011714800260961056 0.048285048454999924
0.061237096786499023 0.0085305459797382355 0.037146594375371933
0.14260286092758179 0.0079007763415575027 0.023367054760456085
0.22453059256076813 0.0068828659132122993 0.010418147780001163
0.29762780666351318 0.0024517732672393322 0.0036076714750379324
0.36377829313278198 0.0008552999934181571 0.0027175005525350571
0.42757993936538696 0.0022109835408627987 0.0059049567207694054
0.49362349510192871 0.0076077780686318874 0.0039320853538811207
0.54857438802719116 0.013634056784212589 0.0008232416003011167
0.57607495784759521 0.015344208106398582 0.0027425428852438927
0.58248436450958252 0.013755768537521362 0.0062051662243902683
0.58299636840820312 0.011862886138260365 0.0057700364850461483
0.010637650266289711 0.011658956296741962 0.044191397726535797
0.01347936037927866 0.011589798144996166 0.043407037854194641
0.054049786180257797 0.010824405588209629 0.036161504685878754
0.13760681450366974 0.0082017639651894569 0.022517545148730278
0.22387649118900299 0.0052410797215998173 0.0099871912971138954
0.29814976453781128 0.00029444973915815353 0.0047824932262301445
0.36515557765960693 0 0.0029893612954765558
0.43150326609611511 0 0.0042328331619501114
0.4995153546333313 0.00075405347160995007 0.0031677994411438704
0.55650937557220459 0.0066969031468033791 0.0020165536552667618
0.58509832620620728 0.0093364492058753967 0.0049205254763364792
0.58980667591094971 0.0070239049382507801 0.0081184385344386101
0.58713889122009277 0.0055617685429751873 0.0075633777305483818
0.010656499303877354 0.035072758793830872 0.032513637095689774
0.011529481038451195 0.034699548035860062 0.030898449942469597
0.041477218270301819 0.033377375453710556 0.027821306139230728
0.12071250379085541 0.02722715400159359 0.019157260656356812
0.21513950824737549 0.022150810807943344 0.010061794891953468
0.29498428106307983 0.013226811774075031 0.005956701934337616
0.36396154761314392 0.0059186299331486225 0.0046899532899260521
0.42920178174972534 0.0027142392937093973 0.0045950496569275856
0.4948788583278656 0.0017153720837086439 0.0040369969792664051
0.55397820472717285 0.0047958674840629101 0.0037743363063782454
0.58702224493026733 0.0053676380775868893 0.0052557401359081268
0.59251230955123901 0.0013779285363852978 0.0058076893910765648
0.58874595165252686 0.00058195827296003699 0.0051833507604897022
0.0068511813879013062 0.088920161128044128 0.011738107539713383
0.0023773044813424349 0.088312454521656036 0.013466629199683666
0.014305324293673038 0.089020475745201111 0.012875859625637531
0.07697691023349762 0.087084092199802399 0.0088678998872637749
0.18622311949729919 0.078376218676567078 0.0042017172090709209
0.29025214910507202 0.067496463656425476 0.0020053039770573378
0.37080752849578857 0.055097125470638275 0.0040493984706699848
0.4351065456867218 0.041373234242200851 0.0064957709982991219
0.49674379825592041 0.028961092233657837 0.005859375
0.55341619253158569 0.02215028740465641 0.0048634395934641361
0.5863412618637085 0.013247665949165821 0.0052766986191272736
