assets/lut/shamoonabbasi night king 141.cube
# Created by: G'MIC (https://gmic.eu)
TITLE "night_king_141"
# LUT size
LUT_3D_SIZE 7
# Data domain
DOMAIN_MIN 0.0 0.0 0.0
DOMAIN_MAX 1.0 1.0 1.0
# LUT data points
0 0 0
0.049922987818717957 0 0
0.18777608871459961 0 0
0.32204285264015198 0 0
0.45295602083206177 0.0041846032254397869 0
0.58456039428710938 0.014932296238839626 0
0.71615827083587646 0.020493241026997566 0.0017473407788202167
0 0.059401076287031174 0
0.05278841033577919 0.056888207793235779 0
0.19416087865829468 0.060745809227228165 0.0012128642993047833
0.3237445056438446 0.061232592910528183 0.0014538036193698645
0.45200735330581665 0.07345658540725708 0
0.58222568035125732 0.08000868558883667 0
0.71484172344207764 0.084389463067054749 0.0088971750810742378
0.0024101706221699715 0.19854030013084412 0.0012144200736656785
0.063562683761119843 0.19612042605876923 0
0.19364812970161438 0.19399401545524597 0
0.32200932502746582 0.19519241154193878 0
0.45012038946151733 0.19020445644855499 0
0.58070451021194458 0.18581476807594299 0
0.71445858478546143 0.1872868686914444 0.00084369134856387973
0.0091240080073475838 0.32641422748565674 0.0032006357796490192
0.079646870493888855 0.32667773962020874 0
0.1920795738697052 0.32587924599647522 0
0.31941822171211243 0.32495656609535217 0
0.44932422041893005 0.32012486457824707 0
0.58100289106369019 0.31659221649169922 0
0.71495097875595093 0.31987348198890686 0
0.011372599750757217 0.4536651074886322 0.0029773786664009094
0.088881067931652069 0.45476192235946655 0
0.19528424739837646 0.45436751842498779 0
0.31924828886985779 0.4533352255821228 0
0.44932788610458374 0.45069700479507446 0
0.58171755075454712 0.44966357946395874 0
0.71495097875595093 0.45312684774398804 0
0.012212955392897129 0.5829043984413147 0.0052751130424439907
0.096325114369392395 0.58403557538986206 5.385455096984515e-06
0.20211121439933777 0.58402401208877563 0
0.32306745648384094 0.5830574631690979 0
0.45170125365257263 0.58212649822235107 0
0.58346462249755859 0.58264434337615967 0
0.71764850616455078 0.58671671152114868 0
0.015053214505314827 0.71495097875595093 0.01285527553409338
0.10515474528074265 0.71495097875595093 0.0020171371288597584
0.21156437695026398 0.71495097875595093 9.3347889560391195e-06
0.33045318722724915 0.71495097875595093 0
0.45715141296386719 0.71495097875595093 0
0.58839482069015503 0.71736204624176025 0
0.72304147481918335 0.72191387414932251 0
0 0 0.057639490813016891
0.056347101926803589 0 0.061996877193450928
0.19403134286403656 0.0021445031743496656 0.059639755636453629
0.32341212034225464 0 0.054090820252895355
0.45404157042503357 0.00017065908468794078 0.054403506219387054
0.58523285388946533 0.0022249408066272736 0.058542676270008087
0.71465259790420532 0.012789243832230568 0.07253989577293396
5.834242983837612e-06 0.055209469050168991 0.057771958410739899
0.053223270922899246 0.055952198803424835 0.05638224259018898
0.19687759876251221 0.057311054319143295 0.054497558623552322
0.32463115453720093 0.054631505161523819 0.063757039606571198
0.45363041758537292 0.063545942306518555 0.059501335024833679
0.58390700817108154 0.068147920072078705 0.057645998895168304
0.71458804607391357 0.082510210573673248 0.077587321400642395
0.0011176912812516093 0.19456002116203308 0.067712016403675079
0.055997930467128754 0.19634561240673065 0.05966726690530777
0.19037820398807526 0.19410954415798187 0.0545792356133461
0.32312792539596558 0.19350190460681915 0.055604569613933563
0.45240738987922668 0.18943388760089874 0.058081667870283127
0.58246999979019165 0.1864013671875 0.049442127346992493
0.71435219049453735 0.1931728720664978 0.061646852642297745
0.0052238316275179386 0.32536205649375916 0.078456580638885498
0.069862440228462219 0.3262881338596344 0.064141325652599335
0.18691475689411163 0.32692590355873108 0.053258739411830902
0.31965917348861694 0.32676535844802856 0.054711777716875076
0.45146676898002625 0.32245779037475586 0.057003125548362732
0.58255589008331299 0.31959772109985352 0.050392989069223404
0.71455270051956177 0.32358971238136292 0.051437858492136002
0.00750706996768713 0.45367246866226196 0.082888104021549225
0.082079805433750153 0.45551645755767822 0.062590762972831726
0.19097520411014557 0.45557597279548645 0.050638072192668915
0.31895536184310913 0.4551561176776886 0.054906748235225677
0.45104336738586426 0.45243856310844421 0.059006080031394958
0.58263176679611206 0.45104455947875977 0.056431729346513748
0.71458595991134644 0.45445540547370911 0.055132832378149033
0.0091732246801257133 0.583240807056427 0.091261409223079681
0.091639228165149689 0.58448004722595215 0.072063729166984558
0.1986478716135025 0.58502590656280518 0.061997774988412857
0.32181796431541443 0.5843433141708374 0.062335457652807236
0.45156338810920715 0.5829043984413147 0.064545571804046631
0.58302146196365356 0.58326262235641479 0.063466824591159821
0.7154579758644104 0.58661556243896484 0.064196690917015076
0.012334845960140228 0.71495097875595093 0.10566292703151703
0.10096830129623413 0.71573030948638916 0.088121391832828522
0.20776553452014923 0.71613436937332153 0.078054629266262054
0.32769376039505005 0.71568411588668823 0.074758775532245636
0.45486575365066528 0.71495097875595093 0.074099503457546234
0.58591741323471069 0.71727943420410156 0.074264615774154663
0.71972900629043579 0.72104167938232422 0.078044816851615906
0 0 0.19318883121013641
0.05478789284825325 0 0.19393308460712433
0.19105124473571777 0 0.19197331368923187
0.32056823372840881 0 0.18593157827854156
0.45264717936515808 0 0.18387800455093384
0.58500164747238159 0 0.1891028881072998
0.71547621488571167 0.0024677352048456669 0.19060926139354706
0 0.064524918794631958 0.19317522644996643
0.052208546549081802 0.058059766888618469 0.19380968809127808
0.19552269577980042 0.054797153919935226 0.19357453286647797
0.32474106550216675 0.058591879904270172 0.19285233318805695
0.4549567699432373 0.059736963361501694 0.19060643017292023
0.58524453639984131 0.059552781283855438 0.19138605892658234
0.7156791090965271 0.078386999666690826 0.19369137287139893
0.0015157811576500535 0.19187334179878235 0.19410441815853119
0.055132277309894562 0.19405613839626312 0.19398391246795654
0.1901814192533493 0.19439619779586792 0.19190610945224762
0.3253999650478363 0.19429515302181244 0.19272616505622864
0.45534044504165649 0.18923319876194 0.19116809964179993
0.58439713716506958 0.18626120686531067 0.1856631338596344
0.71495097875595093 0.19381196796894073 0.18996663391590118
0.0048442166298627853 0.32294616103172302 0.19529518485069275
0.067672625184059143 0.32392087578773499 0.19109459221363068
0.18762011826038361 0.32571113109588623 0.18612824380397797
0.32297417521476746 0.32543611526489258 0.18867860734462738
0.4543420672416687 0.32258450984954834 0.19035346806049347
0.58431375026702881 0.31976556777954102 0.18860097229480743
0.7144010066986084 0.32261604070663452 0.19336791336536407
0.0065117930062115192 0.45290467143058777 0.19694297015666962
0.0817437544465065 0.45415028929710388 0.18684865534305573
0.19300687313079834 0.45527163147926331 0.18281391263008118
0.32217103242874146 0.45420706272125244 0.18710924685001373
0.45374852418899536 0.45226487517356873 0.19197630882263184
0.58431375026702881 0.45086094737052917 0.19248510897159576
0.71439260244369507 0.45354679226875305 0.19233010709285736
0.0085290344431996346 0.58337736129760742 0.20363980531692505
0.091565363109111786 0.58505624532699585 0.19172878563404083
0.1999061107635498 0.58523285388946533 0.18764092028141022
0.32398903369903564 0.58443087339401245 0.19038000702857971
0.45301207900047302 0.58293706178665161 0.19299390912055969
0.58351832628250122 0.58248317241668701 0.19273467361927032
0.71495097875595093 0.58579570055007935 0.19272767007350922
0.011898639611899853 0.71512925624847412 0.21650785207748413
0.1008397564291954 0.71687757968902588 0.20365224778652191
0.20780304074287415 0.71727943420410156 0.19767916202545166
0.32777917385101318 0.71657603979110718 0.19673889875411987
0.454630047082901 0.715171217918396 0.1971220076084137
0.58489727973937988 0.71727943420410156 0.19713367521762848
0.71804547309875488 0.72024244070053101 0.19957706332206726
0.00071740243583917618 0 0.32218131422996521
0.055799759924411774 0 0.3210606575012207
0.17915043234825134 0 0.32032009959220886
0.3145102858543396 0 0.31685909628868103
0.44970127940177917 0 0.31560462713241577
0.58346438407897949 0 0.31684193015098572
0.71641963720321655 0.0014945236034691334 0.318532794713974
0.00015306660498026758 0.058164946734905243 0.32352942228317261
0.05353933572769165 0.064206801354885101 0.32424783706665039
0.18239103257656097 0.064583167433738708 0.32417961955070496
0.32050761580467224 0.068403266370296478 0.32140451669692993
0.45429390668869019 0.06713441014289856 0.32113724946975708
0.58522546291351318 0.06885586678981781 0.32155463099479675
0.71632474660873413 0.082488864660263062 0.32217466831207275
4.1288487409474328e-05 0.19004955887794495 0.32412120699882507
0.058575470000505447 0.19303378462791443 0.3254324197769165
0.18735583126544952 0.19258297979831696 0.32503685355186462
0.32502731680870056 0.19355246424674988 0.3234325647354126
0.45670297741889954 0.19181784987449646 0.32266509532928467
0.58481097221374512 0.1917685866355896 0.32154330611228943
0.7153400182723999 0.19809474050998688 0.32363131642341614
0.0023447521962225437 0.32214164733886719 0.32315251231193542
0.07340686023235321 0.32432597875595093 0.32253336906433105
0.19269910454750061 0.32366809248924255 0.32256984710693359
0.32516896724700928 0.32275500893592834 0.32409650087356567
0.45543810725212097 0.3227328360080719 0.32440862059593201
0.58388692140579224 0.32246726751327515 0.3240295946598053
0.71430999040603638 0.3246484100818634 0.32598373293876648
0.0048065483570098877 0.45257642865180969 0.32366651296615601
0.083797097206115723 0.45451182126998901 0.3198147714138031
0.19632947444915771 0.45440426468849182 0.32079869508743286
0.32432597875595093 0.4534379243850708 0.32454651594161987
0.4536990225315094 0.45245847105979919 0.32583054900169373
0.58289891481399536 0.4516567587852478 0.32548248767852783
0.71348559856414795 0.45396396517753601 0.32542833685874939
0.00725580845028162 0.58368951082229614 0.32838341593742371
0.092220306396484375 0.58544927835464478 0.32204297184944153
0.20127633213996887 0.58567667007446289 0.32200631499290466
0.32523044943809509 0.5845038890838623 0.3253483772277832
0.45285949110984802 0.5831986665725708 0.32553866505622864
0.5822719931602478 0.58286476135253906 0.32434037327766418
0.71391981840133667 0.58558410406112671 0.32424002885818481
0.011765812523663044 0.71584552526473999 0.33874380588531494
0.10104453563690186 0.71729105710983276 0.32975766062736511
0.20856694877147675 0.71742063760757446 0.3267110288143158
0.32794857025146484 0.71727943420410156 0.32661882042884827
0.45401021838188171 0.71668940782546997 0.32628354430198669
0.58390206098556519 0.71727943420410156 0.32580322027206421
0.71747106313705444 0.72006124258041382 0.32759559154510498
0.0058921515010297298 0 0.45252060890197754
0.064859993755817413 0 0.45052123069763184
0.17439238727092743 0 0.44903114438056946
0.30939203500747681 0 0.44671145081520081
0.44756194949150085 0 0.44550493359565735
0.58317142724990845 0 0.44614905118942261
0.71805906295776367 0.0020293889101594687 0.44882345199584961
0.00019270952907390893 0.0575702004134655 0.45303219556808472
0.054349053651094437 0.066109724342823029 0.4529411792755127
0.17431342601776123 0.068382352590560913 0.45225414633750916
0.31541949510574341 0.069694697856903076 0.4500373899936676
0.45312267541885376 0.072426721453666687 0.44943362474441528
0.58543217182159424 0.077554859220981598 0.44978606700897217
0.7176823616027832 0.088994570076465607 0.4517238438129425
0 0.18980568647384644 0.45295050740242004
0.056060448288917542 0.19386787712574005 0.45360022783279419
0.18192210793495178 0.19178719818592072 0.4529411792755127
0.32196870446205139 0.19148284196853638 0.45193755626678467
0.45634609460830688 0.19306465983390808 0.45156806707382202
0.58547419309616089 0.19628579914569855 0.45168471336364746
0.71703457832336426 0.20337752997875214 0.45350641012191772
0.00030697093461640179 0.32147791981697083 0.45288589596748352
0.070936299860477448 0.32431665062904358 0.45231238007545471
0.18984177708625793 0.32265955209732056 0.4529411792755127
0.32227402925491333 0.32159259915351868 0.45361915230751038
0.45392951369285583 0.32193046808242798 0.45335602760314941
0.58366227149963379 0.32348617911338806 0.45299056172370911
0.71496927738189697 0.32750925421714783 0.45453396439552307
0.0027922238223254681 0.45230802893638611 0.45358520746231079
0.081871002912521362 0.45477786660194397 0.45165440440177917
0.19389872252941132 0.45470628142356873 0.45281097292900085
0.32091429829597473 0.45314916968345642 0.45442372560501099
0.45102933049201965 0.45245099067687988 0.45444142818450928
0.58122456073760986 0.45261839032173157 0.45352160930633545
0.71335786581039429 0.45542547106742859 0.45390841364860535
0.0062890592962503433 0.58393669128417969 0.45811158418655396
0.090868979692459106 0.58606243133544922 0.4535866379737854
0.19940893352031708 0.58618170022964478 0.45369747281074524
0.32183581590652466 0.58518010377883911 0.45556432008743286
0.44992825388908386 0.5837634801864624 0.45451569557189941
0.58045148849487305 0.58361160755157471 0.4529423713684082
0.71339637041091919 0.58639401197433472 0.45339417457580566
0.011746948584914207 0.71712011098861694 0.46713396906852722
0.10132516920566559 0.71868991851806641 0.46003878116607666
0.20779769122600555 0.7188725471496582 0.45756798982620239
0.32679629325866699 0.71806371212005615 0.45710515975952148
0.45304450392723083 0.71727943420410156 0.45626035332679749
0.58341473340988159 0.71743673086166382 0.4554038941860199
0.71764254570007324 0.72118514776229858 0.45759505033493042
0.0063122469000518322 0 0.58266150951385498
0.068248942494392395 0 0.58107107877731323
0.17528577148914337 0 0.5799751877784729
0.30975452065467834 0 0.57836848497390747
0.44867512583732605 0 0.57770085334777832
0.58570939302444458 8.8321459770668298e-05 0.57829922437667847
0.72212547063827515 0.0028686972800642252 0.5819513201713562
4.5058306568535045e-05 0.061694350093603134 0.58151102066040039
0.054699242115020752 0.06507544219493866 0.58146470785140991
0.17302995920181274 0.066062822937965393 0.58182501792907715
0.31452757120132446 0.06885046511888504 0.58055275678634644
0.45329537987709045 0.074685521423816681 0.57982176542282104
0.58727699518203735 0.082479573786258698 0.58028924465179443
0.721393883228302 0.094200223684310913 0.58299118280410767
0 0.18932706117630005 0.58189278841018677
0.057799082249403 0.19197724759578705 0.58143788576126099
0.17995446920394897 0.1903378963470459 0.58210784196853638
0.31997159123420715 0.19032891094684601 0.58173990249633789
0.45608580112457275 0.19357357919216156 0.58126151561737061
0.58740633726119995 0.19913491606712341 0.58169013261795044
0.71984571218490601 0.20816594362258911 0.58398258686065674
0.00013894474250264466 0.319507896900177 0.58281713724136353
0.069872789084911346 0.32232755422592163 0.58131128549575806
0.18594574928283691 0.32164895534515381 0.58149254322052002
0.31917521357536316 0.32055515050888062 0.58244293928146362
0.45279490947723389 0.3214627206325531 0.58226847648620605
0.58469587564468384 0.3246159553527832 0.58253723382949829
0.7176891565322876 0.33064046502113342 0.58443689346313477
0.0021983727347105742 0.45122772455215454 0.58494472503662109
0.079785369336605072 0.45443522930145264 0.58203315734863281
0.18967251479625702 0.45477941632270813 0.58160239458084106
0.31680011749267578 0.45308858156204224 0.5829043984413147
0.44891351461410522 0.45246484875679016 0.5829043984413147
0.58168840408325195 0.45348447561264038 0.58280831575393677
0.71558183431625366 0.45793476700782776 0.58422684669494629
0.0061350055038928986 0.58369988203048706 0.59014374017715454
0.090146608650684357 0.58643954992294312 0.58525288105010986
0.19694539904594421 0.58745783567428589 0.5839231014251709
0.31918814778327942 0.58604693412780762 0.58429455757141113
0.44882503151893616 0.58471769094467163 0.58384180068969727
0.58112204074859619 0.58528149127960205 0.58326262235641479
0.7160038948059082 0.58891314268112183 0.58509320020675659
0.013702781870961189 0.71727943420410156 0.59946674108505249
0.10318000614643097 0.71892750263214111 0.59238260984420776
0.20867295563220978 0.71997970342636108 0.58918964862823486
0.3271101713180542 0.71898478269577026 0.58799147605895996
0.45397219061851501 0.7188725471496582 0.58732616901397705
0.58550667762756348 0.71970897912979126 0.58738082647323608
0.72100192308425903 0.72390961647033691 0.59076428413391113
0.016998769715428352 0 0.71623021364212036
0.079435102641582489 0 0.71495097875595093
0.18522040545940399 0 0.71345740556716919
0.31798699498176575 0 0.71335786581039429
0.45521587133407593 0 0.71300780773162842
0.59222418069839478 0.00035202925209887326 0.71389305591583252
0.72970962524414062 0.0038978126831352711 0.71838170289993286
0.0065546073019504547 0.058136060833930969 0.71365869045257568
0.068496093153953552 0.058350954204797745 0.71355521678924561
0.18285316228866577 0.061958793550729752 0.71491485834121704
0.32167378067970276 0.068604260683059692 0.71349495649337769
0.45777198672294617 0.076514586806297302 0.71335786581039429
0.59199762344360352 0.086266353726387024 0.71413320302963257
0.72746521234512329 0.098784923553466797 0.71780276298522949
0.0022348889615386724 0.18506234884262085 0.71419721841812134
0.073267750442028046 0.186435267329216 0.71335786581039429
0.18944898247718811 0.1873461902141571 0.71369838714599609
0.32554143667221069 0.19014221429824829 0.71389555931091309
0.45889881253242493 0.19521026313304901 0.71335786581039429
0.5912584662437439 0.20260091125965118 0.71481871604919434
0.72554308176040649 0.21301528811454773 0.71792662143707275
0.0027821259573101997 0.31628382205963135 0.71584886312484741
0.07979913055896759 0.3187587559223175 0.71335786581039429
0.19166144728660583 0.31960785388946533 0.71335786581039429
0.32181712985038757 0.32006931304931641 0.71335786581039429
0.45522257685661316 0.32233414053916931 0.71335786581039429
0.58846193552017212 0.32702597975730896 0.71495097875595093
0.723155677318573 0.33500951528549194 0.71792662143707275
0.005135510116815567 0.44936779141426086 0.71913880109786987
0.086176715791225433 0.45252832770347595 0.71487772464752197
0.19328662753105164 0.45435604453086853 0.71335786581039429
0.31899562478065491 0.45304074883460999 0.71340799331665039
0.45169058442115784 0.45355397462844849 0.71418672800064087
0.58574080467224121 0.45627158880233765 0.71496927738189697
0.72157961130142212 0.46225869655609131 0.71854019165039062
0.010282060131430626 0.5832175612449646 0.72547066211700439
0.096278354525566101 0.5860779881477356 0.71933662891387939
0.20104709267616272 0.58773243427276611 0.71668523550033569
0.32265722751617432 0.58722519874572754 0.71611905097961426
0.45267403125762939 0.58665192127227783 0.71646207571029663
0.58635044097900391 0.58846265077590942 0.7176135778427124
0.72301375865936279 0.59372067451477051 0.72133320569992065
0.020610705018043518 0.71787399053573608 0.73566466569900513
0.11061504483222961 0.71995723247528076 0.72782307863235474
0.21517390012741089 0.72120100259780884 0.72369587421417236
0.33307313919067383 0.72120100259780884 0.72213888168334961
0.45998182892799377 0.72150439023971558 0.72199994325637817
0.59234070777893066 0.72356557846069336 0.72337621450424194
0.72899866104125977 0.72872108221054077 0.72821193933486938
