assets/lut/shamoonabbasi elegance 38.cube
# Created by: G'MIC (https://gmic.eu)
TITLE "elegance_38"
# LUT size
LUT_3D_SIZE 13
# Data domain
DOMAIN_MIN 0.0 0.0 0.0
DOMAIN_MAX 1.0 1.0 1.0
# LUT data points
0.02082010917365551 0.021523913368582726 0.020123321563005447
0.072950400412082672 0.022362653166055679 0.018109370023012161
0.13265146315097809 0.020915821194648743 0.016252748668193817
0.20343050360679626 0.017023827880620956 0.014755069278180599
0.27986347675323486 0.014219067059457302 0.012412112206220627
0.35871300101280212 0.014676665887236595 0.0087639903649687767
0.43829843401908875 0.016314039006829262 0.0057922513224184513
0.51973181962966919 0.018031535670161247 0.0041711395606398582
0.60277092456817627 0.018204035237431526 0.0039392807520925999
0.68749845027923584 0.017592171207070351 0.0050288480706512928
0.7733461856842041 0.018179381266236305 0.0070389690808951855
0.86007678508758545 0.020844044163823128 0.009869714267551899
0.94777333736419678 0.024828607216477394 0.012543128803372383
0.022039854899048805 0.073622278869152069 0.019335338845849037
0.076866284012794495 0.076563157141208649 0.015309352427721024
0.13800318539142609 0.07640577107667923 0.012756707146763802
0.20883181691169739 0.072397537529468536 0.014453349635004997
0.28555968403816223 0.068875163793563843 0.015410374850034714
0.36413836479187012 0.070065937936306 0.013215502724051476
0.44454199075698853 0.072185412049293518 0.0099644530564546585
0.52645838260650635 0.073811501264572144 0.0081687029451131821
0.61035251617431641 0.073549427092075348 0.007977878674864769
0.6956794261932373 0.072772115468978882 0.0092805903404951096
0.78148412704467773 0.073673859238624573 0.011421008966863155
0.86798465251922607 0.07844938337802887 0.013628237880766392
0.9558560848236084 0.084995895624160767 0.01489099208265543
0.021107932552695274 0.13279753923416138 0.017623363062739372
0.078925326466560364 0.13629935681819916 0.013142500072717667
0.14173726737499237 0.13793648779392242 0.01075535174459219
0.21231463551521301 0.13618162274360657 0.012738320976495743
0.28874269127845764 0.13397446274757385 0.015154714696109295
0.36850765347480774 0.13410088419914246 0.014702950604259968
0.44977700710296631 0.13507832586765289 0.01300342008471489
0.53257912397384644 0.13515068590641022 0.011588915251195431
0.6175079345703125 0.13355574011802673 0.01174347847700119
0.70332640409469604 0.13182051479816437 0.013390021398663521
0.79004102945327759 0.13291388750076294 0.015167550183832645
0.87675720453262329 0.13900326192378998 0.015951627865433693
0.96387356519699097 0.14746265113353729 0.01742185652256012
0.018702143803238869 0.20253981649875641 0.015071135945618153
0.078238636255264282 0.20521944761276245 0.012065243907272816
0.14319312572479248 0.20769454538822174 0.010746017098426819
0.21378529071807861 0.20767198503017426 0.011735804378986359
0.28991112112998962 0.20645785331726074 0.013340460136532784
0.37074783444404602 0.2056974321603775 0.013710350729525089
0.45312550663948059 0.20524123311042786 0.013087059371173382
0.53723973035812378 0.20403590798377991 0.01272945012897253
0.62289625406265259 0.20139138400554657 0.013214410282671452
0.70973503589630127 0.19875963032245636 0.014960045926272869
0.79698830842971802 0.19954481720924377 0.016635475680232048
0.88393497467041016 0.20600174367427826 0.018105855211615562
0.97009015083312988 0.21480652689933777 0.019058587029576302
0.015393574722111225 0.27927348017692566 0.012144125998020172
0.075621508061885834 0.2816026508808136 0.011020645499229431
0.14160333573818207 0.28452616930007935 0.010430235415697098
0.21290801465511322 0.28512746095657349 0.010661435313522816
0.29006204009056091 0.28448587656021118 0.011136746965348721
0.37129351496696472 0.28345540165901184 0.01116339024156332
0.45457255840301514 0.28227239847183228 0.010809056460857391
0.53966838121414185 0.28041729331016541 0.010681870393455029
0.62617677450180054 0.27755054831504822 0.011525696143507957
0.71390146017074585 0.27492639422416687 0.013509368523955345
0.80173063278198242 0.27564278244972229 0.01548423059284687
0.88957971334457397 0.28048861026763916 0.016873423010110855
0.97487848997116089 0.28817161917686462 0.017947357147932053
0.012965302914381027 0.3599182665348053 0.0094376504421234131
0.072806626558303833 0.36281260848045349 0.0089571038261055946
0.13983751833438873 0.36580795049667358 0.0088752293959259987
0.21166621148586273 0.36697855591773987 0.0089308498427271843
0.28935882449150085 0.36638519167900085 0.0088970111683011055
0.37112042307853699 0.3653796911239624 0.0086615020409226418
0.4549439549446106 0.36423364281654358 0.0081321420148015022
0.54058575630187988 0.36221647262573242 0.008250771090388298
0.62809133529663086 0.35948547720909119 0.0091496333479881287
0.71622246503829956 0.35729226469993591 0.010761874727904797
0.80484277009963989 0.35753774642944336 0.01295178011059761
0.89345252513885498 0.36105352640151978 0.014963561668992043
0.97855442762374878 0.36724379658699036 0.01695048063993454
0.011257919482886791 0.44328960776329041 0.0062871896661818027
0.071154668927192688 0.44609725475311279 0.0062720207497477531
0.13949759304523468 0.44892358779907227 0.0062720207497477531
0.21164418756961823 0.45030829310417175 0.0062720207497477531
0.28920635581016541 0.45042946934700012 0.006253350991755724
0.37107259035110474 0.44988548755645752 0.0059900321066379547
0.45482358336448669 0.44885224103927612 0.0057438272051513195
0.54075169563293457 0.44710347056388855 0.0058614844456315041
0.62875354290008545 0.44474062323570251 0.0068466933444142342
0.71742886304855347 0.44293457269668579 0.008530694991350174
0.80671250820159912 0.4428727924823761 0.010441574268043041
0.89620465040206909 0.4453064501285553 0.012945601716637611
0.98059141635894775 0.45013287663459778 0.015767984092235565
0.010446869768202305 0.5283428430557251 0.003798062214627862
0.070090562105178833 0.53089481592178345 0.0039100795984268188
0.13995939493179321 0.53346520662307739 0.0041317809373140335
0.21212214231491089 0.5352013111114502 0.0043001063168048859
0.28895491361618042 0.53592944145202637 0.0043782549910247326
0.37049674987792969 0.53585910797119141 0.0043012429960072041
0.45405697822570801 0.53504705429077148 0.0042440677061676979
0.53999394178390503 0.53376775979995728 0.0046312669292092323
0.62855654954910278 0.53193265199661255 0.0052931541576981544
0.71774625778198242 0.53054237365722656 0.0067437714897096157
0.80780774354934692 0.53040230274200439 0.0088576823472976685
0.89786326885223389 0.53212136030197144 0.011376100592315197
0.98185944557189941 0.53570276498794556 0.014849195256829262
0.010014552623033524 0.61458039283752441 0.001665900694206357
0.070560619235038757 0.61724615097045898 0.0017788157565519214
0.14029601216316223 0.61967003345489502 0.001940558897331357
0.21290625631809235 0.62159937620162964 0.0021417355164885521
0.28882506489753723 0.62269610166549683 0.0024995093699544668
0.3700377345085144 0.62306219339370728 0.0026892716996371746
0.45332905650138855 0.62269532680511475 0.0031912112608551979
0.53982841968536377 0.62163305282592773 0.0037080203182995319
0.62783169746398926 0.6203685998916626 0.0045861038379371166
0.71730434894561768 0.61928653717041016 0.0057566175237298012
0.8080328106880188 0.61920183897018433 0.0080280527472496033
0.89845627546310425 0.62044543027877808 0.010802400298416615
0.98257172107696533 0.62323904037475586 0.014555344358086586
0.010014552623033524 0.702414870262146 0.00040211397572420537
0.071187801659107208 0.70474410057067871 0.0005482393316924572
0.14087009429931641 0.70722031593322754 0.00085862103151157498
0.21356455981731415 0.70937758684158325 0.0011000689119100571
0.28882506489753723 0.71083253622055054 0.0013740090653300285
0.36959794163703918 0.71154063940048218 0.0016673369100317359
0.45266586542129517 0.71142446994781494 0.0021408081520348787
0.53861910104751587 0.71067845821380615 0.0030017478857189417
0.6272234320640564 0.70964640378952026 0.0040837754495441914
0.71705377101898193 0.70894831418991089 0.0056650200858712196
0.80771231651306152 0.70880663394927979 0.0080862008035182953
0.89867877960205078 0.7097092866897583 0.011220086365938187
0.98294532299041748 0.71209257841110229 0.015435192734003067
0.010118207894265652 0.79111707210540771 0
0.071804672479629517 0.79354017972946167 0
0.14178957045078278 0.79611539840698242 1.7951517293113284e-05
0.21443074941635132 0.79826974868774414 0.00021757237846031785
0.28889957070350647 0.80015873908996582 0.0006198658375069499
0.36915954947471619 0.80101197957992554 0.0010975557379424572
0.45200625061988831 0.80107706785202026 0.0015982234617695212
0.53780639171600342 0.80071961879730225 0.0024424085859209299
0.62622189521789551 0.79991620779037476 0.0039737476035952568
0.71633356809616089 0.7991795539855957 0.0058196275494992733
0.8073117733001709 0.79899328947067261 0.0088103646412491798
0.89855277538299561 0.79997491836547852 0.012323850765824318
0.98321545124053955 0.8019329309463501 0.017039161175489426
0.010345743037760258 0.88101446628570557 0
0.072550095617771149 0.88315874338150024 0
0.14294655621051788 0.88592559099197388 0
0.21529287099838257 0.88825243711471558 0
0.29023221135139465 0.89019858837127686 1.5797335436218418e-05
0.36948162317276001 0.89116424322128296 0.00059204100398346782
0.45207974314689636 0.89157187938690186 0.0012756347423419356
0.53788107633590698 0.89118039608001709 0.0021246816031634808
0.62606453895568848 0.89065885543823242 0.0039663873612880707
0.71625602245330811 0.89026504755020142 0.0062289969064295292
0.80697357654571533 0.89019894599914551 0.0097132064402103424
0.89857470989227295 0.89066779613494873 0.013988838531076908
0.9836660623550415 0.89265292882919312 0.019137363880872726
0.010712911374866962 0.96983402967453003 0
0.073709361255168915 0.97185307741165161 0
0.14424049854278564 0.97380858659744263 0
0.216631218791008 0.97572791576385498 0
0.29231712222099304 0.97739642858505249 0
0.370738685131073 0.97831588983535767 0.00019710765627678484
0.45319584012031555 0.97870326042175293 0.0010422650957480073
0.5387682318687439 0.97854650020599365 0.0020383349619805813
0.62686598300933838 0.97825735807418823 0.0041513331234455109
0.71677607297897339 0.97791916131973267 0.006670843344181776
0.80798053741455078 0.97798448801040649 0.010603706352412701
0.89935880899429321 0.97850567102432251 0.015532220713794231
0.98400735855102539 0.97943681478500366 0.021046297624707222
0.018068710342049599 0.022200655192136765 0.071127243340015411
0.073160596191883087 0.023154584690928459 0.066521726548671722
0.13429127633571625 0.022869812324643135 0.061631191521883011
0.20392058789730072 0.021025698632001877 0.056382931768894196
0.27929776906967163 0.019669970497488976 0.051208138465881348
0.35777541995048523 0.019529365003108978 0.046631008386611938
0.43765375018119812 0.020608207210898399 0.04276663064956665
0.51890194416046143 0.021849628537893295 0.039326358586549759
0.60204559564590454 0.021308675408363342 0.038056362420320511
0.68705356121063232 0.019954845309257507 0.039342738687992096
0.7733454704284668 0.019933931529521942 0.040604084730148315
0.86057192087173462 0.021840533241629601 0.040686469525098801
0.94896596670150757 0.026166399940848351 0.040997657924890518
0.019535573199391365 0.076828166842460632 0.070314697921276093
0.076448388397693634 0.079100966453552246 0.06477433443069458
0.13848510384559631 0.079584486782550812 0.06022103875875473
0.20889845490455627 0.077301144599914551 0.058612614870071411
0.28507411479949951 0.075630456209182739 0.057503465563058853
0.36411780118942261 0.075747683644294739 0.054663714021444321
0.44464290142059326 0.076797574758529663 0.051106754690408707
0.52648699283599854 0.077246934175491333 0.04822101816534996
0.6101076602935791 0.076968096196651459 0.0473911352455616
0.69561541080474854 0.074371039867401123 0.048024766147136688
0.78213876485824585 0.075165674090385437 0.048656180500984192
0.86915308237075806 0.079466678202152252 0.048257220536470413
0.95688521862030029 0.086190752685070038 0.048119623214006424
0.019460925832390785 0.13722608983516693 0.068960972130298615
0.077665127813816071 0.13967132568359375 0.063460089266300201
0.14175766706466675 0.14114393293857574 0.05964355543255806
0.21246424317359924 0.14016935229301453 0.05985959991812706
0.28909406065940857 0.13869409263134003 0.060967463999986649
0.36916705965995789 0.1383349597454071 0.060012787580490112
0.45069149136543274 0.13874080777168274 0.057630307972431183
0.53355890512466431 0.13830652832984924 0.055294681340456009
0.6178593635559082 0.13665008544921875 0.054557695984840393
0.70364105701446533 0.13472455739974976 0.054992031306028366
0.79029715061187744 0.13566619157791138 0.055655371397733688
0.87737256288528442 0.14076365530490875 0.055442988872528076
0.96508097648620605 0.14840702712535858 0.055383361876010895
0.017302315682172775 0.20586258172988892 0.066892407834529877
0.077550776302814484 0.20820504426956177 0.062772370874881744
0.14320498704910278 0.21002641320228577 0.060659877955913544
0.21476204693317413 0.21030125021934509 0.06042206659913063
0.29167526960372925 0.20939362049102783 0.061577200889587402
0.37184274196624756 0.20859947800636292 0.061191365122795105
0.45434808731079102 0.2083277702331543 0.05949828028678894
0.53835815191268921 0.20726493000984192 0.05769023671746254
0.6236756443977356 0.20469391345977783 0.057269450277090073
0.71033763885498047 0.20237082242965698 0.058593407273292542
0.79758590459823608 0.20293407142162323 0.059423573315143585
0.88517791032791138 0.20789541304111481 0.059615101665258408
0.97127866744995117 0.21583245694637299 0.059895921498537064
0.014854102395474911 0.28117072582244873 0.063886098563671112
0.075468845665454865 0.28403690457344055 0.061591591686010361
0.14209146797657013 0.28588065505027771 0.060179572552442551
0.21445338428020477 0.2874809205532074 0.059765025973320007
0.29188400506973267 0.28696846961975098 0.059803713113069534
0.37238901853561401 0.28624835610389709 0.059101387858390808
0.45597952604293823 0.2856997549533844 0.057424791157245636
0.54091709852218628 0.28427585959434509 0.05609455332159996
0.62732887268066406 0.28125157952308655 0.056539259850978851
0.71487951278686523 0.27853867411613464 0.058180235326290131
0.80292254686355591 0.27856677770614624 0.059858884662389755
0.89102315902709961 0.28254568576812744 0.061160579323768616
0.97633188962936401 0.28937307000160217 0.062394279986619949
0.0130259795114398 0.36139872670173645 0.059827946126461029
0.073341816663742065 0.36416327953338623 0.058544278144836426
0.14074400067329407 0.36710062623023987 0.057885952293872833
0.2131085991859436 0.36836344003677368 0.057470552623271942
0.29096108675003052 0.36861196160316467 0.056869626045227051
0.37205150723457336 0.36839300394058228 0.055466864258050919
0.45598351955413818 0.36803266406059265 0.053592171519994736
0.54172664880752563 0.36670765280723572 0.052508722990751266
0.62908542156219482 0.36356571316719055 0.053420677781105042
0.71758162975311279 0.36081242561340332 0.055618900805711746
0.8064231276512146 0.36020699143409729 0.058072227984666824
0.89541196823120117 0.36295297741889954 0.060486543923616409
0.97986418008804321 0.36825680732727051 0.063005439937114716
0.011835300363600254 0.44427949190139771 0.054783705621957779
0.07225693017244339 0.44712266325950623 0.054246984422206879
0.14036960899829865 0.45005351305007935 0.053936589509248734
0.21264733374118805 0.452036052942276 0.053519632667303085
0.29011687636375427 0.4527718722820282 0.052898675203323364
0.37145805358886719 0.45294979214668274 0.051637880504131317
0.45535510778427124 0.45262405276298523 0.050273492932319641
0.54172676801681519 0.45138305425643921 0.049418386071920395
0.62966561317443848 0.44884985685348511 0.050597291439771652
0.71892654895782471 0.44648155570030212 0.052815321832895279
0.8085935115814209 0.44583982229232788 0.055650897324085236
0.89819741249084473 0.44731107354164124 0.058966901153326035
0.98187726736068726 0.45128336548805237 0.062688536942005157
0.010997054167091846 0.52891582250595093 0.04850832000374794
0.072123616933822632 0.53186249732971191 0.048482257872819901
0.14053325355052948 0.53476619720458984 0.048646979033946991
0.21308089792728424 0.53701817989349365 0.048752669245004654
0.28958615660667419 0.53827452659606934 0.048560168594121933
0.37099173665046692 0.5388185977935791 0.04799182340502739
0.45467230677604675 0.53863537311553955 0.047419946640729904
0.54106146097183228 0.53750419616699219 0.047437060624361038
0.62939369678497314 0.53570622205734253 0.048390872776508331
0.71931719779968262 0.53376686573028564 0.050792694091796875
0.80944633483886719 0.53301650285720825 0.053741097450256348
0.89973658323287964 0.5341111421585083 0.0577353835105896
0.98311930894851685 0.53709965944290161 0.062463812530040741
0.010832244530320168 0.61527937650680542 0.041998934000730515
0.072210811078548431 0.61791127920150757 0.042696006596088409
0.14119604229927063 0.62098962068557739 0.043265651911497116
0.21365693211555481 0.6233985424041748 0.043786711990833282
0.28896766901016235 0.62516558170318604 0.044316519051790237
0.3701530396938324 0.62582194805145264 0.044763274490833282
0.45347818732261658 0.62577742338180542 0.045266963541507721
0.53992933034896851 0.62508922815322876 0.046106599271297455
0.62856090068817139 0.62365567684173584 0.047469388693571091
0.71874666213989258 0.62230956554412842 0.049783758819103241
0.80944806337356567 0.62187176942825317 0.053199484944343567
0.90042316913604736 0.62258094549179077 0.05764300748705864
0.98372536897659302 0.62472307682037354 0.06312580406665802
0.011035709641873837 0.70269805192947388 0.035460706800222397
0.072623051702976227 0.70557588338851929 0.036238323897123337
0.14182399213314056 0.70859575271606445 0.037386830896139145
0.21379753947257996 0.7112242579460144 0.03890189528465271
0.28872549533843994 0.71318686008453369 0.040084689855575562
0.36888888478279114 0.71420812606811523 0.041552480310201645
0.45212891697883606 0.71445161104202271 0.042719539254903793
0.53836160898208618 0.71381121873855591 0.044835377484560013
0.62742990255355835 0.71278548240661621 0.047102611511945724
0.71747410297393799 0.71182370185852051 0.050164736807346344
0.80895644426345825 0.7113344669342041 0.054188985377550125
0.90012985467910767 0.71189522743225098 0.05929151177406311
0.98390638828277588 0.71355974674224854 0.064989112317562103
0.011372345499694347 0.79133236408233643 0.029067080467939377
0.073246464133262634 0.79425740242004395 0.030514376237988472
0.14265252649784088 0.79734271764755249 0.032020986080169678
0.21407331526279449 0.80026578903198242 0.03401266410946846
0.28872549533843994 0.80234682559967041 0.036210782825946808
0.3677513599395752 0.80373096466064453 0.038381852209568024
0.45079854130744934 0.80420589447021484 0.041266392916440964
0.5373225212097168 0.80357617139816284 0.043904457241296768
0.62591713666915894 0.80270075798034668 0.047265686094760895
0.71660119295120239 0.80189651250839233 0.051408462226390839
0.80811572074890137 0.80156058073043823 0.056340940296649933
0.89948076009750366 0.80184012651443481 0.061916232109069824
0.98399525880813599 0.80335551500320435 0.068007946014404297
0.011857559904456139 0.88101446628570557 0.023962955921888351
0.074253663420677185 0.88388919830322266 0.025122802704572678
0.14356602728366852 0.88703954219818115 0.027424322441220284
0.21458892524242401 0.89011812210083008 0.029873088002204895
0.28872710466384888 0.89248770475387573 0.032917395234107971
0.36729085445404053 0.89397484064102173 0.0361175537109375
0.4501488208770752 0.89438283443450928 0.039613358676433563
0.5363038182258606 0.89411485195159912 0.043630205094814301
0.62538236379623413 0.89345449209213257 0.048011630773544312
0.71620112657546997 0.89270925521850586 0.052996169775724411
0.80692887306213379 0.89229565858840942 0.058733623474836349
0.89921516180038452 0.89272207021713257 0.064936846494674683
0.98400735855102539 0.89406198263168335 0.071342915296554565
0.012381863780319691 0.96980124711990356 0.019997870549559593
0.075587764382362366 0.97215396165847778 0.021386031061410904
0.14492043852806091 0.97471809387207031 0.023452818393707275
0.21631065011024475 0.97708261013031006 0.026595082134008408
0.28995820879936218 0.97896158695220947 0.030146131291985512
0.36849191784858704 0.9798169732093811 0.034130755811929703
0.45098686218261719 0.98020845651626587 0.038652069866657257
0.53711032867431641 0.97996616363525391 0.043463733047246933
0.62568747997283936 0.97962969541549683 0.048691514879465103
0.71624839305877686 0.9793667197227478 0.054758287966251373
0.80726933479309082 0.97918128967285156 0.061089042574167252
0.89932596683502197 0.97940146923065186 0.067854262888431549
0.98400735855102539 0.98011881113052368 0.07445584237575531
0.015446397475898266 0.0227483119815588 0.12496457248926163
0.072998911142349243 0.023161765187978745 0.11885857582092285
0.13605958223342896 0.023161765187978745 0.11230169236660004
0.20541079342365265 0.023153865709900856 0.1052372083067894
0.27974039316177368 0.023005766794085503 0.098300546407699585
0.35805118083953857 0.022387605160474777 0.093940973281860352
0.43787583708763123 0.021984834223985672 0.090794235467910767
0.51901781558990479 0.02216746099293232 0.087242037057876587
0.60222744941711426 0.020576013252139091 0.08505789190530777
0.68780279159545898 0.017278918996453285 0.085495412349700928
0.77465629577636719 0.016400760039687157 0.083501853048801422
0.86225098371505737 0.019887661561369896 0.078450657427310944
0.95079714059829712 0.024793064221739769 0.074591875076293945
0.016712876036763191 0.079994812607765198 0.12485664337873459
0.075132943689823151 0.08106500655412674 0.1187712550163269
0.13951089978218079 0.081066176295280457 0.11369890719652176
0.2099204957485199 0.080993369221687317 0.10958602279424667
0.28590968251228333 0.080102093517780304 0.1062479093670845
0.36473950743675232 0.077992156147956848 0.1034538745880127
0.44541579484939575 0.077208183705806732 0.10066048055887222
0.52709329128265381 0.077318049967288971 0.097531519830226898
0.61069083213806152 0.076027795672416687 0.095979593694210052
0.69606071710586548 0.07277553528547287 0.095370471477508545
0.78289878368377686 0.073003746569156647 0.093127965927124023
0.87051689624786377 0.077840723097324371 0.08905523270368576
0.95882916450500488 0.084758490324020386 0.086345300078392029
0.016826225444674492 0.1414342075586319 0.12425902485847473
0.077095076441764832 0.14285930991172791 0.11918346583843231
0.14242422580718994 0.14359608292579651 0.11539794504642487
0.21376803517341614 0.14316901564598083 0.11375954002141953
0.2904151976108551 0.14198023080825806 0.11257361620664597
0.37065091729164124 0.14076963067054749 0.11129873245954514
0.45221465826034546 0.14023011922836304 0.10890184342861176
0.53458428382873535 0.13931570947170258 0.10600388795137405
0.61862313747406006 0.13700339198112488 0.10417316108942032
0.70451319217681885 0.13486364483833313 0.10330382734537125
0.79146713018417358 0.13558894395828247 0.10171391814947128
0.87898069620132446 0.1405223160982132 0.099111415445804596
0.96663182973861694 0.14778655767440796 0.097272478044033051
0.016102464869618416 0.20969699323177338 0.1228359118103981
0.077085919678211212 0.21134987473487854 0.11939498037099838
0.14385148882865906 0.21261303126811981 0.1159573420882225
0.21570362150669098 0.21261726319789886 0.11544117331504822
0.2928546667098999 0.2119971364736557 0.11542708426713943
0.37396460771560669 0.21137471497058868 0.11493240296840668
0.45630750060081482 0.21040582656860352 0.11197608709335327
0.53969740867614746 0.2086612731218338 0.10940930247306824
0.62473273277282715 0.20664432644844055 0.10826254636049271
0.71133935451507568 0.20437504351139069 0.10777782648801804
0.79872798919677734 0.20487402379512787 0.10695395618677139
0.88657504320144653 0.20926915109157562 0.10588974505662918
0.97280305624008179 0.21616759896278381 0.10547348856925964
0.014637427404522896 0.28443402051925659 0.12023924291133881
0.076080635190010071 0.28564241528511047 0.11848367750644684
0.14377419650554657 0.28841868042945862 0.11555580049753189
