assets/lut/shamoonabbasi morroco 16.cube
# Created by: G'MIC (https://gmic.eu)
TITLE "morroco_16"
# LUT size
LUT_3D_SIZE 5
# Data domain
DOMAIN_MIN 0.0 0.0 0.0
DOMAIN_MAX 1.0 1.0 1.0
# LUT data points
0.0021590439137071371 0.0024324753321707249 0.0072814789600670338
0.1009342148900032 0 0.0010620566317811608
0.26786831021308899 0.0027833825442939997 0.0012351840268820524
0.51941037178039551 0 0
0.86479270458221436 0 0
0.0031978681217879057 0.099149413406848907 0.0017589643830433488
0.10488533973693848 0.10709747672080994 0.0022391525562852621
0.28539746999740601 0.10228512436151505 0.0068423100747168064
0.54364305734634399 0.072289332747459412 0
0.88599830865859985 0.064872995018959045 0
0.0055477367714047432 0.26899421215057373 0.0059267678298056126
0.10244330763816833 0.28161066770553589 0.0026581708807498217
0.28810504078865051 0.28754249215126038 0
0.55313563346862793 0.27376168966293335 0
0.90432238578796387 0.25124678015708923 0.00041315416456200182
0.0006465687183663249 0.50041025876998901 0.0024711159057915211
0.071975693106651306 0.52089810371398926 0.0012384901056066155
0.25751042366027832 0.54191762208938599 8.903952402761206e-05
0.54631376266479492 0.54627323150634766 0
0.91765719652175903 0.52723902463912964 0.0011566760949790478
0.00053616694640368223 0.79901123046875 0
0.045820556581020355 0.84150773286819458 0
0.21612353622913361 0.88119953870773315 0.00014702291809953749
0.52591514587402344 0.89649432897567749 0
0.91485947370529175 0.89351850748062134 0
0.0022671569604426622 7.234461372718215e-05 0.1082020029425621
0.09823010116815567 0.0022012898698449135 0.098060697317123413
0.27244725823402405 0.00057028973242267966 0.076119981706142426
0.51458406448364258 3.2851276046130806e-05 0.04770883172750473
0.85648268461227417 0 0.0093906475231051445
0.0022671569604426622 0.10119679570198059 0.10340927541255951
0.11063868552446365 0.107400082051754 0.10977388173341751
0.29502159357070923 0.10114610195159912 0.10194548219442368
0.54769670963287354 0.080243505537509918 0.077312663197517395
0.88817483186721802 0.062920920550823212 0.049305126070976257
0.0025454503484070301 0.27179121971130371 0.094414763152599335
0.10191566497087479 0.29172155261039734 0.10160106420516968
0.29222646355628967 0.29535764455795288 0.10284576565027237
0.55802887678146362 0.28398054838180542 0.091833837330341339
0.91085028648376465 0.25762099027633667 0.083347052335739136
1.4540728443535045e-05 0.50321102142333984 0.06087767705321312
0.063868142664432526 0.53564965724945068 0.071236073970794678
0.26358452439308167 0.55330771207809448 0.087061859667301178
0.56041020154953003 0.55803638696670532 0.089386977255344391
0.93298280239105225 0.54442739486694336 0.087536834180355072
0 0.81309628486633301 0.017973940819501877
0.01546656247228384 0.86415773630142212 0.01228516548871994
0.21701134741306305 0.8972480297088623 0.057603664696216583
0.53458094596862793 0.9215242862701416 0.077835991978645325
0.92384952306747437 0.92288744449615479 0.079274483025074005
0.0050481311045587063 0.0010345010086894035 0.28633293509483337
0.093226037919521332 6.5702552092261612e-05 0.2807784378528595
0.26833087205886841 0.0013197356602177024 0.2637907862663269
0.51268547773361206 0 0.2398308664560318
0.8469967246055603 0 0.18198445439338684
0.00073529413202777505 0.10271600633859634 0.28931233286857605
0.10280344635248184 0.1066543310880661 0.29611110687255859
0.29406759142875671 0.10204307734966278 0.29174265265464783
0.5480654239654541 0.076809495687484741 0.27311384677886963
0.88926678895950317 0.052531283348798752 0.23460482060909271
0.0047155343927443027 0.2736203670501709 0.27231854200363159
0.105620376765728 0.29489418864250183 0.29235526919364929
0.29744723439216614 0.30050858855247498 0.30213436484336853
0.56494235992431641 0.28998082876205444 0.28951194882392883
0.92094236612319946 0.26156488060951233 0.2633514404296875
0.0022113726008683443 0.50578016042709351 0.22813558578491211
0.07422955334186554 0.54262816905975342 0.2638152539730072
0.27289780974388123 0.5644945502281189 0.28836086392402649
0.57180273532867432 0.56905937194824219 0.29631999135017395
0.94688719511032104 0.55896884202957153 0.28238445520401001
0 0.82393145561218262 0.15778626501560211
0.037546403706073761 0.87226969003677368 0.19553785026073456
0.23450064659118652 0.91075879335403442 0.24747642874717712
0.55539721250534058 0.93699920177459717 0.27658435702323914
0.94610506296157837 0.94717687368392944 0.28284972906112671
0.00073529413202777505 0 0.5662916898727417
0.079096056520938873 0.00015474206884391606 0.55219137668609619
0.24508263170719147 0.0073578031733632088 0.53624796867370605
0.50335431098937988 0 0.50586271286010742
0.84148067235946655 0 0.46234354376792908
0.0022343054879456758 0.091344110667705536 0.55798554420471191
0.087457560002803802 0.10145730525255203 0.56449669599533081
0.27289363741874695 0.10130529850721359 0.56321501731872559
0.54190117120742798 0.07425612211227417 0.54322779178619385
0.891532301902771 0.053589854389429092 0.50354248285293579
0.0057372297160327435 0.27026990056037903 0.54045599699020386
0.094626516103744507 0.29041796922683716 0.56134897470474243
0.28894540667533875 0.29398161172866821 0.5746084451675415
0.56454533338546753 0.28148114681243896 0.56527256965637207
0.92357093095779419 0.25633969902992249 0.5396273136138916
0.00036477480898611248 0.507271409034729 0.5067330002784729
0.076623193919658661 0.54370665550231934 0.53777170181274414
0.27823832631111145 0.56753802299499512 0.56477409601211548
0.57498866319656372 0.57084947824478149 0.57173752784729004
0.9480060338973999 0.55577641725540161 0.56603020429611206
0 0.82660514116287231 0.45243498682975769
0.027119295671582222 0.87953191995620728 0.48927128314971924
0.24247896671295166 0.9200630784034729 0.53822165727615356
0.56274306774139404 0.94505530595779419 0.56612318754196167
0.94996064901351929 0.94932264089584351 0.57782977819442749
0.0027729857247322798 0 0.92218160629272461
0.07652059942483902 0 0.91076111793518066
0.22997544705867767 0.0077205882407724857 0.89829981327056885
0.49033412337303162 0.0010086807888001204 0.86026197671890259
0.81979155540466309 0.0047056907787919044 0.81861478090286255
0.0057730879634618759 0.071497105062007904 0.92237454652786255
0.081509925425052643 0.091340005397796631 0.92594856023788452
0.25571024417877197 0.091427400708198547 0.92862892150878906
0.52713125944137573 0.074677407741546631 0.90612643957138062
0.87207472324371338 0.076454386115074158 0.86547040939331055
0.0050351163372397423 0.2496991753578186 0.91579592227935791
0.085787288844585419 0.27460908889770508 0.92987656593322754
0.2774251401424408 0.28005030751228333 0.94140362739562988
0.55534672737121582 0.27387702465057373 0.93396115303039551
0.9163740873336792 0.2543182373046875 0.91477376222610474
0 0.50214529037475586 0.88463741540908813
0.071623705327510834 0.53484737873077393 0.9194718599319458
0.28035411238670349 0.5592225193977356 0.94039851427078247
0.56838881969451904 0.56891834735870361 0.94724100828170776
0.93404734134674072 0.5632854700088501 0.94158530235290527
0.00090761372121050954 0.82692861557006836 0.82724225521087646
0.049851078540086746 0.87452828884124756 0.87385851144790649
0.26724368333816528 0.91610085964202881 0.91986942291259766
0.56562769412994385 0.94582188129425049 0.94922357797622681
0.94325286149978638 0.94766318798065186 0.95647400617599487
