assets/lut/shamoonabbasi desert gold 37.cube
# Created by: G'MIC (https://gmic.eu)
TITLE "desert_gold_37"
# LUT size
LUT_3D_SIZE 5
# Data domain
DOMAIN_MIN 0.0 0.0 0.0
DOMAIN_MAX 1.0 1.0 1.0
# LUT data points
0.0047305687330663204 0.0021784764248877764 0.0040672151371836662
0.068670891225337982 0.0011692121624946594 0.0037142436485737562
0.24307182431221008 0 0
0.49910938739776611 0 0.0013615178177133203
0.78616684675216675 0 0.0023119160905480385
0 0.060836941003799438 6.4625460254319478e-06
0.061979420483112335 0.062061503529548645 0.0045753777958452702
0.2276955246925354 0.045175530016422272 9.6938192655215971e-06
0.48097598552703857 0.013166958466172218 0
0.78358554840087891 0.0236358642578125 0
0 0.19203929603099823 0
0.047273658215999603 0.2166794091463089 0.0066749420948326588
0.23473815619945526 0.23364867269992828 0.0085086598992347717
0.53626358509063721 0.22571611404418945 0.003413959639146924
0.89853751659393311 0.21978802978992462 0.0039215688593685627
6.7677217884920537e-05 0.44528180360794067 0.0010986328125
0.041242770850658417 0.50758057832717896 0.010754813440144062
0.22685858607292175 0.54295045137405396 0.0044222064316272736
0.54714608192443848 0.54790222644805908 0
0.97239017486572266 0.53164398670196533 0
0 0.82470577955245972 0
0.031197132542729378 0.89673870801925659 0.0038765850476920605
0.21081395447254181 0.93672728538513184 0
0.52648860216140747 0.94706284999847412 0
0.95763695240020752 0.93717503547668457 0
0.0054493923671543598 0.0042775771580636501 0.058224964886903763
0.070840783417224884 0.0023065006826072931 0.053849149495363235
0.24435196816921234 0 0.021759796887636185
0.50064700841903687 3.558888056431897e-05 0
0.79715836048126221 0 0
0.0017271004617214203 0.060900341719388962 0.047977253794670105
0.065814316272735596 0.06593737006187439 0.056324183940887451
0.23733308911323547 0.043796166777610779 0.037394952028989792
0.49314779043197632 0.025977758690714836 0.008870457299053669
0.80601543188095093 0.027623793110251427 0.0050516314804553986
0 0.19818128645420074 0.015620272606611252
0.054742250591516495 0.22790732979774475 0.043083909898996353
0.24780930578708649 0.24832804501056671 0.065733306109905243
0.5585407018661499 0.24164654314517975 0.049865618348121643
0.91935640573501587 0.22736503183841705 0.038882669061422348
0 0.46445411443710327 0.0070572798140347004
0.032663442194461823 0.53121232986450195 0.023659620434045792
0.22833201289176941 0.56836467981338501 0.039882749319076538
0.57302016019821167 0.56954944133758545 0.0088017629459500313
0.97767233848571777 0.55401009321212769 0.0006584018119610846
0 0.84961169958114624 0
0.0024865244049578905 0.93464547395706177 0
0.18529689311981201 0.96595734357833862 9.3706919869873673e-05
0.53012371063232422 0.9680284857749939 0
0.96176004409790039 0.95798259973526001 0
0.00066519342362880707 0.00018678553169593215 0.2131199985742569
0.062282592058181763 8.2576974818948656e-05 0.21542617678642273
0.23150990903377533 0 0.17160090804100037
0.4941706657409668 0.00197450234554708 0.10908128321170807
0.78080087900161743 0.00033527449704706669 0.04183509573340416
0.0033632915001362562 0.05230380967259407 0.19007803499698639
0.061577770859003067 0.059982165694236755 0.19762387871742249
0.23686297237873077 0.046466648578643799 0.180800661444664
0.49831828474998474 0.022126097232103348 0.14287401735782623
0.81036502122879028 0.02223702147603035 0.10774993896484375
9.2809343186672777e-05 0.19883041083812714 0.14505892992019653
0.055749811232089996 0.23507356643676758 0.18203647434711456
0.26260200142860413 0.25649374723434448 0.20652227103710175
0.57953119277954102 0.25025442242622375 0.19556337594985962
0.94527196884155273 0.23156812787055969 0.1691599041223526
0 0.48145413398742676 0.11387848109006882
0.030538206920027733 0.54506117105484009 0.14018805325031281
0.21923160552978516 0.58840310573577881 0.16850261390209198
0.5867311954498291 0.58801710605621338 0.13690301775932312
0.99412775039672852 0.56398415565490723 0.12332966923713684
0 0.875438392162323 0.004778753500431776
0.0091438740491867065 0.94508427381515503 0.040670491755008698
0.17783325910568237 0.97801101207733154 0.095274157822132111
0.52760899066925049 0.9818795919418335 0.088232673704624176
0.97023302316665649 0.96972936391830444 0.10380054265260696
0 0 0.46668520569801331
0.041054893285036087 0 0.46706581115722656
0.20248650014400482 0 0.43242663145065308
0.4684632420539856 0.00046362783177755773 0.36406368017196655
0.77051353454589844 0 0.30213430523872375
0 0.029015336185693741 0.42502045631408691
0.047614932060241699 0.046254340559244156 0.43887850642204285
0.21382001042366028 0.045729018747806549 0.43010559678077698
0.48481294512748718 0.026732470840215683 0.39382025599479675
0.81745648384094238 0.015995219349861145 0.35388094186782837
2.423454679956194e-05 0.19631269574165344 0.39632710814476013
0.058951329439878464 0.23136618733406067 0.43831738829612732
0.25179091095924377 0.25645777583122253 0.47362902760505676
0.58390635251998901 0.24342861771583557 0.4714958667755127
0.96409273147583008 0.22054095566272736 0.44065743684768677
0 0.48383054137229919 0.3734397292137146
0.031487111002206802 0.54977285861968994 0.42897763848304749
0.21662454307079315 0.59026479721069336 0.46463403105735779
0.59594237804412842 0.58473777770996094 0.4560413658618927
0.99928033351898193 0.55879443883895874 0.43687528371810913
0 0.88013750314712524 0.29666009545326233
0.019094549119472504 0.94801431894302368 0.35481652617454529
0.17001062631607056 0.98060137033462524 0.39289647340774536
0.50978803634643555 0.9861069917678833 0.38690024614334106
0.97391659021377563 0.97021067142486572 0.40774527192115784
0 0 0.76311779022216797
0.028296541422605515 0 0.766579270362854
0.18004745244979858 0.001057164859957993 0.74958324432373047
0.44949790835380554 9.5098155725281686e-05 0.67539006471633911
0.77128434181213379 0 0.62014049291610718
0 0.012378034181892872 0.71853518486022949
0.036191437393426895 0.029107920825481415 0.72808468341827393
0.20008692145347595 0.035941943526268005 0.72378003597259521
0.47804248332977295 0.032712060958147049 0.70801091194152832
0.81511926651000977 0.0043734381906688213 0.66738688945770264
0.0023343553766608238 0.19382913410663605 0.70469897985458374
0.064018413424491882 0.23075039684772491 0.74418574571609497
0.24592697620391846 0.24961225688457489 0.79192769527435303
0.57060986757278442 0.24271269142627716 0.81044685840606689
0.97131621837615967 0.22153742611408234 0.80615025758743286
0 0.49381256103515625 0.71550256013870239
0.028409067541360855 0.54431641101837158 0.79075276851654053
0.22566960752010345 0.58029752969741821 0.8491898775100708
0.58119493722915649 0.58408182859420776 0.86346322298049927
0.99665349721908569 0.56339043378829956 0.83825778961181641
0 0.88275742530822754 0.68877464532852173
0.027159895747900009 0.93841260671615601 0.75370752811431885
0.18588121235370636 0.9728463888168335 0.79595780372619629
0.51753264665603638 0.98185408115386963 0.80210399627685547
0.97932577133178711 0.96863877773284912 0.80530083179473877
