assets/lut/shamoonabbasi golden sony 37.cube
# Created by: G'MIC (https://gmic.eu)
TITLE "golden_sony_37"
# LUT size
LUT_3D_SIZE 13
# Data domain
DOMAIN_MIN 0.0 0.0 0.0
DOMAIN_MAX 1.0 1.0 1.0
# LUT data points
0.027329029515385628 0.044289696961641312 0.050405703485012054
0.028055392205715179 0.04544932022690773 0.05077812448143959
0.02991180494427681 0.04830748587846756 0.051989894360303879
0.040503527969121933 0.049330063164234161 0.054267134517431259
0.054711885750293732 0.049741063266992569 0.055734492838382721
0.069611072540283203 0.050334256142377853 0.05543169379234314
0.092595286667346954 0.053153723478317261 0.056301191449165344
0.11588890105485916 0.054989460855722427 0.056299440562725067
0.14024330675601959 0.054705332964658737 0.054226670414209366
0.17448067665100098 0.053965505212545395 0.051752053201198578
0.22265636920928955 0.049231212586164474 0.050065178424119949
0.29452455043792725 0.038064289838075638 0.04777773842215538
0.37770068645477295 0.024279680103063583 0.044302143156528473
0.034271135926246643 0.052517835050821304 0.05699717253446579
0.038341041654348373 0.056830864399671555 0.059153508394956589
0.040946990251541138 0.060534607619047165 0.060498796403408051
0.047756299376487732 0.062444262206554413 0.062009982764720917
0.063450783491134644 0.061867222189903259 0.062466565519571304
0.082099571824073792 0.059985514730215073 0.061895977705717087
0.10390058159828186 0.059577733278274536 0.061668828129768372
0.13289916515350342 0.062092006206512451 0.060998521745204926
0.16698011755943298 0.062410362064838409 0.059639770537614822
0.20345012843608856 0.060106284916400909 0.057440094649791718
0.26138031482696533 0.051892898976802826 0.05473429337143898
0.34155410528182983 0.037866510450839996 0.050255898386240005
0.43259018659591675 0.021055484190583229 0.043839458376169205
0.044006586074829102 0.063284836709499359 0.065178275108337402
0.051274079829454422 0.068813636898994446 0.068857841193675995
0.056473195552825928 0.073698468506336212 0.070660233497619629
0.061102475970983505 0.077388808131217957 0.070578001439571381
0.074930153787136078 0.08010370284318924 0.069570265710353851
0.095976106822490692 0.079058840870857239 0.068104326725006104
0.12406002730131149 0.078229166567325592 0.067534714937210083
0.15856614708900452 0.075104430317878723 0.066056437790393829
0.20205709338188171 0.071955032646656036 0.065390057861804962
0.25219488143920898 0.067103862762451172 0.063666388392448425
0.31723859906196594 0.055551998317241669 0.059963945299386978
0.40125629305839539 0.039159871637821198 0.05396951362490654
0.49668672680854797 0.021352058276534081 0.045671813189983368
0.052035477012395859 0.080203160643577576 0.072768174111843109
0.063166946172714233 0.084264315664768219 0.076674759387969971
0.071654267609119415 0.09109891951084137 0.079203091561794281
0.080395735800266266 0.097135864198207855 0.079366095364093781
0.094956420361995697 0.10227813571691513 0.078819200396537781
0.11607323586940765 0.10606918483972549 0.076593585312366486
0.14606857299804688 0.10685442388057709 0.074604198336601257
0.18560497462749481 0.10447658598423004 0.072651207447052002
0.23980259895324707 0.096591323614120483 0.071343258023262024
0.30564653873443604 0.080683477222919464 0.06981717050075531
0.38077816367149353 0.064129456877708435 0.065298266708850861
0.47559705376625061 0.041614487767219543 0.056471236050128937
0.5735090970993042 0.020008565858006477 0.046499632298946381
0.060653176158666611 0.10228196531534195 0.080607593059539795
0.072556152939796448 0.10668029636144638 0.082325942814350128
0.085338935256004333 0.11412855982780457 0.084429346024990082
0.10015903413295746 0.12181625515222549 0.085983037948608398
0.11705567687749863 0.12953910231590271 0.084948234260082245
0.14192359149456024 0.13704614341259003 0.083580583333969116
0.17222043871879578 0.13892333209514618 0.080955043435096741
0.21888136863708496 0.13820239901542664 0.078474573791027069
0.28017294406890869 0.13105030357837677 0.077195309102535248
0.359426349401474 0.11309067904949188 0.072499461472034454
0.45066934823989868 0.078850194811820984 0.068175069987773895
0.55639612674713135 0.05189940333366394 0.057413555681705475
0.65752619504928589 0.02622668631374836 0.043354436755180359
0.070087283849716187 0.12834340333938599 0.090085260570049286
0.082266144454479218 0.13335850834846497 0.089769013226032257
0.098343886435031891 0.139057457447052 0.09095146507024765
0.11845056712627411 0.15024980902671814 0.092124029994010925
0.14188337326049805 0.16195596754550934 0.091184459626674652
0.16926874220371246 0.17237479984760284 0.088951230049133301
0.20532906055450439 0.18017870187759399 0.085014894604682922
0.26156401634216309 0.18341435492038727 0.081644289195537567
0.33176490664482117 0.17813740670681 0.076908305287361145
0.41839307546615601 0.16229179501533508 0.071844853460788727
0.51980394124984741 0.12906719744205475 0.067001506686210632
0.63619321584701538 0.08958975225687027 0.056422527879476547
0.74233108758926392 0.056805569678544998 0.040123719722032547
0.074226722121238708 0.15611235797405243 0.098133429884910583
0.088377542793750763 0.16246908903121948 0.096952565014362335
0.10899658501148224 0.17397706210613251 0.097801625728607178
0.13669052720069885 0.18956275284290314 0.097900241613388062
0.16691887378692627 0.20528565347194672 0.096838735044002533
0.19795916974544525 0.21737177670001984 0.093229778110980988
0.2419956773519516 0.23029141128063202 0.088158547878265381
0.30571913719177246 0.24211306869983673 0.082756385207176208
0.38730606436729431 0.24012801051139832 0.073057793080806732
0.48439174890518188 0.22681704163551331 0.066115029156208038
0.59186869859695435 0.200357586145401 0.059289567172527313
0.71363151073455811 0.16220284998416901 0.048409733921289444
0.82506108283996582 0.12132107466459274 0.034537956118583679
0.076340630650520325 0.19094818830490112 0.10634418576955795
0.095310091972351074 0.20335863530635834 0.1065143495798111
0.11969923228025436 0.21918095648288727 0.10720974951982498
0.15427374839782715 0.23822201788425446 0.10599631816148758
0.19077429175376892 0.25740724802017212 0.10311473906040192
0.23409077525138855 0.27610394358634949 0.098634995520114899
0.28471115231513977 0.29335343837738037 0.091303564608097076
0.35885590314865112 0.31163382530212402 0.080885343253612518
0.45098865032196045 0.3210967481136322 0.06356087327003479
0.55738729238510132 0.31977969408035278 0.049032397568225861
0.67117416858673096 0.30753377079963684 0.040948830544948578
0.7849266529083252 0.2810325026512146 0.032288212329149246
0.89336186647415161 0.23954528570175171 0.02505442313849926
0.076217830181121826 0.2418770045042038 0.11449936777353287
0.10157720744609833 0.25670626759529114 0.11476980149745941
0.13086132705211639 0.27522781491279602 0.11419269442558289
0.17019557952880859 0.29609978199005127 0.11370781064033508
0.21430458128452301 0.31784799695014954 0.1118055135011673
0.27120587229728699 0.34469372034072876 0.10517843067646027
0.33646103739738464 0.36908268928527832 0.095313221216201782
0.4252682626247406 0.39653205871582031 0.078038297593593597
0.52379602193832397 0.42167460918426514 0.05141926184296608
0.63087087869644165 0.43753281235694885 0.026868663728237152
0.73645228147506714 0.4382416307926178 0.017873501405119896
0.83990287780761719 0.43045356869697571 0.012773551046848297
0.92743581533432007 0.40920877456665039 0.0099837509915232658
0.064206592738628387 0.30798149108886719 0.11257962882518768
0.10171990841627121 0.31933605670928955 0.11921059340238571
0.1451258659362793 0.33894068002700806 0.12331869453191757
0.1964428573846817 0.36656177043914795 0.12341682612895966
0.24917162954807281 0.39389768242835999 0.12129212915897369
0.31205835938453674 0.42238336801528931 0.11431896686553955
0.39228063821792603 0.45301321148872375 0.10178906470537186
0.49160820245742798 0.48835378885269165 0.078727617859840393
0.5927005410194397 0.52627605199813843 0.04907621443271637
0.68890345096588135 0.5505174994468689 0.022010684013366699
0.78677332401275635 0.56956815719604492 0.0063009974546730518
0.87698942422866821 0.57060861587524414 0.0023396362084895372
0.96142762899398804 0.56741833686828613 0.001436330727301538
0.061834972351789474 0.39329415559768677 0.10895873606204987
0.11990723013877869 0.40573030710220337 0.12243989109992981
0.17944347858428955 0.42664769291877747 0.13377931714057922
0.24828241765499115 0.45877170562744141 0.14017690718173981
0.31236812472343445 0.48956117033958435 0.13969634473323822
0.38322502374649048 0.52012139558792114 0.13389281928539276
0.46657267212867737 0.55202901363372803 0.12408071756362915
0.55983167886734009 0.58809465169906616 0.10372819751501083
0.65596294403076172 0.62537163496017456 0.071512617170810699
0.74209421873092651 0.65215295553207397 0.03872368112206459
0.82632291316986084 0.67446804046630859 0.018768025562167168
0.90917575359344482 0.69094425439834595 0.0071753109805285931
0.98207873106002808 0.69362729787826538 0.00012883204908575863
0.11872416734695435 0.51515656709671021 0.11143888533115387
0.18876257538795471 0.53021800518035889 0.12821947038173676
0.26164206862449646 0.5483517050743103 0.15005780756473541
0.34260088205337524 0.5750507116317749 0.17517973482608795
0.41308251023292542 0.60394281148910522 0.18173961341381073
0.48484158515930176 0.63358467817306519 0.1849711686372757
0.56132298707962036 0.66279691457748413 0.17959554493427277
0.64100074768066406 0.69244903326034546 0.16571028530597687
0.72305130958557129 0.72415608167648315 0.15823867917060852
0.79825282096862793 0.75036394596099854 0.11297813802957535
0.86704182624816895 0.77081388235092163 0.064727798104286194
0.93710368871688843 0.79093813896179199 0.028927836567163467
0.99223798513412476 0.80124592781066895 0.014147604815661907
0.25548973679542542 0.64711302518844604 0.13079756498336792
0.31372040510177612 0.66435134410858154 0.15109607577323914
0.39256736636161804 0.68117421865463257 0.18593475222587585
0.47113212943077087 0.69777590036392212 0.22707897424697876
0.53720545768737793 0.7174069881439209 0.25172218680381775
0.59930169582366943 0.74325662851333618 0.26468509435653687
0.65990918874740601 0.77087682485580444 0.26809525489807129
0.72564047574996948 0.79630357027053833 0.26349937915802002
0.79042893648147583 0.82123678922653198 0.2554277777671814
0.84919935464859009 0.8362882137298584 0.22432172298431396
0.91294479370117188 0.85577583312988281 0.18533492088317871
0.9691852331161499 0.87448412179946899 0.12643896043300629
0.99788081645965576 0.88142591714859009 0.072232745587825775
0.027366010472178459 0.044800359755754471 0.050720393657684326
0.028144042938947678 0.046349186450242996 0.051272060722112656
0.031184835359454155 0.050451960414648056 0.05363934114575386
0.039120931178331375 0.051705453544855118 0.056445807218551636
0.053379416465759277 0.052996974438428879 0.059033531695604324
0.067857466638088226 0.052510924637317657 0.058459248393774033
0.087791234254837036 0.054680153727531433 0.058464497327804565
0.11087287217378616 0.056582208722829819 0.058933377265930176
0.13604167103767395 0.056752689182758331 0.057813651859760284
0.17018572986125946 0.056557435542345047 0.056324783712625504
0.21775636076927185 0.052731145173311234 0.05521659180521965
0.28903773427009583 0.042419135570526123 0.052655749022960663
0.37672427296638489 0.024377081543207169 0.047161251306533813
0.034933291375637054 0.054950490593910217 0.057684220373630524
0.036898069083690643 0.057673748582601547 0.058624640107154846
0.040901109576225281 0.061467323452234268 0.061349444091320038
0.04608173668384552 0.064174950122833252 0.063613995909690857
0.059246465563774109 0.064392298460006714 0.065067052841186523
0.078926801681518555 0.062525913119316101 0.065878398716449738
0.10196847468614578 0.062443617731332779 0.065403684973716736
0.12821921706199646 0.063585512340068817 0.064482219517230988
0.15998806059360504 0.064407438039779663 0.063367642462253571
0.19874787330627441 0.063135571777820587 0.062069792300462723
0.25424635410308838 0.057172410190105438 0.060616482049226761
0.33340752124786377 0.04360492154955864 0.056600067764520645
0.42244377732276917 0.023656165227293968 0.049659505486488342
0.046375676989555359 0.066094972193241119 0.066185072064399719
0.051530215889215469 0.070679262280464172 0.06886029988527298
0.05714021623134613 0.075323991477489471 0.072745271027088165
0.062108505517244339 0.079427815973758698 0.074721947312355042
0.07092081755399704 0.082082398235797882 0.074433602392673492
0.091738484799861908 0.082538411021232605 0.074959635734558105
0.11891784518957138 0.08364761620759964 0.07434004545211792
0.15258783102035522 0.079476974904537201 0.073001936078071594
0.19440795481204987 0.075909033417701721 0.072922728955745697
0.24744658172130585 0.071245871484279633 0.070820540189743042
0.30973678827285767 0.062021907418966293 0.067162096500396729
0.39228323101997375 0.046015601605176926 0.061226233839988708
0.48639264702796936 0.024339368566870689 0.052612215280532837
0.05589587613940239 0.081444457173347473 0.076070047914981842
0.066758371889591217 0.085583075881004333 0.078993745148181915
0.07471967488527298 0.09166456013917923 0.083699814975261688
0.081746526062488556 0.097851619124412537 0.086470119655132294
0.091728091239929199 0.10440555959939957 0.086702607572078705
0.1107962355017662 0.10899636894464493 0.085192106664180756
0.13944496214389801 0.11093778163194656 0.084366127848625183
0.17935812473297119 0.10858755558729172 0.082459434866905212
0.23196403682231903 0.10203408449888229 0.081515833735466003
0.29763439297676086 0.089050367474555969 0.079149268567562103
0.37270605564117432 0.073848173022270203 0.075013928115367889
0.46453294157981873 0.053269509226083755 0.067001000046730042
0.56355130672454834 0.028841085731983185 0.056136351078748703
0.063470892608165741 0.10248779505491257 0.085167407989501953
0.077661566436290741 0.10847259312868118 0.08741365373134613
0.091880500316619873 0.11450838297605515 0.092153124511241913
0.10383647680282593 0.12193145602941513 0.096375934779644012
0.11775191128253937 0.13017135858535767 0.097809582948684692
0.13694076240062714 0.13690508902072906 0.096048124134540558
0.16661201417446136 0.14161424338817596 0.093331307172775269
0.21344645321369171 0.14306700229644775 0.089692674577236176
0.2722814679145813 0.13623501360416412 0.087663345038890839
0.3509371280670166 0.11995629966259003 0.084576591849327087
0.43887585401535034 0.091743156313896179 0.08074246346950531
0.54366868734359741 0.067215189337730408 0.070717096328735352
0.6436881422996521 0.046149458736181259 0.057870723307132721
0.071093462407588959 0.12636235356330872 0.094578579068183899
0.086310744285583496 0.13482064008712769 0.09621710330247879
0.10574553161859512 0.14294338226318359 0.10078491270542145
0.12494674324989319 0.15297694504261017 0.105060875415802
0.14678102731704712 0.16405270993709564 0.1063876748085022
0.16899289190769196 0.17304185032844543 0.10454225540161133
0.20446185767650604 0.18382544815540314 0.10096018016338348
0.25619009137153625 0.1897641122341156 0.096655003726482391
0.32503950595855713 0.1864473819732666 0.091860979795455933
0.41043868660926819 0.17039307951927185 0.087231643497943878
0.51049476861953735 0.13469810783863068 0.082543298602104187
0.623424232006073 0.098724231123924255 0.073062703013420105
0.72670525312423706 0.081587754189968109 0.057561237365007401
0.076201587915420532 0.15294201672077179 0.10362203419208527
0.094061955809593201 0.16339243948459625 0.10667465627193451
0.11693400889635086 0.17592607438564301 0.10973793268203735
0.14717453718185425 0.194207563996315 0.11223131418228149
0.17616704106330872 0.20856980979442596 0.11230900883674622
0.20437537133693695 0.22096528112888336 0.11082720011472702
0.24850006401538849 0.23479883372783661 0.10784310847520828
0.30528861284255981 0.24435624480247498 0.1017802357673645
0.38595014810562134 0.24978892505168915 0.093393526971340179
0.47748270630836487 0.23480184376239777 0.086080126464366913
0.58245307207107544 0.20772728323936462 0.078959628939628601
0.70299947261810303 0.16879516839981079 0.071181401610374451
0.81472033262252808 0.1409669816493988 0.055035009980201721
0.079294867813587189 0.19284003973007202 0.11332591623067856
0.10008455067873001 0.20627547800540924 0.11600697785615921
0.12998972833156586 0.22344812750816345 0.11904720216989517
0.16567201912403107 0.24214449524879456 0.12052449584007263
0.20254629850387573 0.26017963886260986 0.11979953199625015
0.24128268659114838 0.27777153253555298 0.11714679747819901
0.2933255136013031 0.29771208763122559 0.11259378492832184
0.36146217584609985 0.31743225455284119 0.10319487750530243
0.45260769128799438 0.32967057824134827 0.089120753109455109
0.55116277933120728 0.32312321662902832 0.078059658408164978
0.66400825977325439 0.31653359532356262 0.067819751799106598
0.77517431974411011 0.28861731290817261 0.058677390217781067
0.88920146226882935 0.26384773850440979 0.047900691628456116
0.078294135630130768 0.2443162202835083 0.12094370275735855
0.10569310188293457 0.26143461465835571 0.12426039576530457
0.14169545471668243 0.28127065300941467 0.12818236649036407
0.18674191832542419 0.30232471227645874 0.13175961375236511
0.23221462965011597 0.32379519939422607 0.13155576586723328
0.2849363386631012 0.34755060076713562 0.12644286453723907
0.34791630506515503 0.37248924374580383 0.11729974299669266
0.42867803573608398 0.39848241209983826 0.10254698991775513
0.52027827501296997 0.42278099060058594 0.081612348556518555
0.62913769483566284 0.43946683406829834 0.059409886598587036
0.73183315992355347 0.44420281052589417 0.047678180038928986
0.8310549259185791 0.43707126379013062 0.036228001117706299
0.92924505472183228 0.42431849241256714 0.025771241635084152
0.075567148625850677 0.31155562400817871 0.1235908642411232
0.11174886673688889 0.3229428231716156 0.13220410048961639
0.15698406100273132 0.34549936652183533 0.13879324495792389
0.21275611221790314 0.37215924263000488 0.1434556245803833
0.2724684476852417 0.40104472637176514 0.14367307722568512
0.336690753698349 0.43107029795646667 0.13818065822124481
0.41074171662330627 0.46119436621665955 0.12811385095119476
0.50097566843032837 0.49394878745079041 0.10915350914001465
0.5969851016998291 0.52881401777267456 0.082565650343894958
0.6901971697807312 0.55080944299697876 0.063209474086761475
0.78453463315963745 0.57096892595291138 0.03719475120306015
0.87434846162796021 0.57715582847595215 0.018561644479632378
0.9581184983253479 0.5736803412437439 0.012608995661139488
0.074136622250080109 0.40023505687713623 0.12188554555177689
0.13162809610366821 0.41081482172012329 0.13646413385868073
0.19177715480327606 0.43075293302536011 0.15075850486755371
0.26555809378623962 0.46370500326156616 0.16053092479705811
0.33745992183685303 0.49930059909820557 0.16450385749340057
0.40367850661277771 0.52842015027999878 0.15917813777923584
0.48238131403923035 0.55932307243347168 0.15189099311828613
0.57380503416061401 0.59372073411941528 0.13600058853626251
0.66693955659866333 0.63031858205795288 0.11237245798110962
0.75097596645355225 0.65904808044433594 0.082071401178836823
0.83114969730377197 0.68149590492248535 0.046644233167171478
0.90945231914520264 0.69580906629562378 0.021001853048801422
0.97381699085235596 0.69700860977172852 0.0090420888736844063
0.13868194818496704 0.52214682102203369 0.12760448455810547
0.20732475817203522 0.53599268198013306 0.14577963948249817
0.27559572458267212 0.55348402261734009 0.16801548004150391
0.35641449689865112 0.5804561972618103 0.19088594615459442
0.42792299389839172 0.61180746555328369 0.20253311097621918
0.50061357021331787 0.64064317941665649 0.20516195893287659
0.57609313726425171 0.66768920421600342 0.20416770875453949
0.65471488237380981 0.69830036163330078 0.19789953529834747
0.73182111978530884 0.72774630784988403 0.18778201937675476
0.80494576692581177 0.75487601757049561 0.15476547181606293
0.87368017435073853 0.77704441547393799 0.11421197652816772
0.9393610954284668 0.79443365335464478 0.067198224365711212
0.98901057243347168 0.80457937717437744 0.033572476357221603
0.26390781998634338 0.65515172481536865 0.14075629413127899
0.32679551839828491 0.66580414772033691 0.1687435656785965
0.39855983853340149 0.68006801605224609 0.20346264541149139
0.48523762822151184 0.70447772741317749 0.24490436911582947
0.55090969800949097 0.72470343112945557 0.27166327834129333
0.61268347501754761 0.74981075525283813 0.28456953167915344
0.67189007997512817 0.77518928050994873 0.28838464617729187
0.73599702119827271 0.80056679248809814 0.2864835262298584
0.80055290460586548 0.82509791851043701 0.28018730878829956
0.85845166444778442 0.84064739942550659 0.25394093990325928
0.921039879322052 0.86202085018157959 0.22699365019798279
0.97372353076934814 0.8789258599281311 0.16940894722938538
0.99658823013305664 0.88631486892700195 0.1148616150021553
0.026546044275164604 0.044546972960233688 0.051158875226974487
0.028534607961773872 0.046947091817855835 0.052333369851112366
0.0325331911444664 0.050437912344932556 0.054911833256483078
0.039045177400112152 0.053390577435493469 0.058358676731586456
0.051209736615419388 0.054290682077407837 0.061221163719892502
0.065618075430393219 0.055175811052322388 0.062177963554859161
0.084083661437034607 0.05597686767578125 0.06377856433391571
0.10551063716411591 0.058923054486513138 0.063960283994674683
0.13172583281993866 0.059428945183753967 0.063083991408348083
0.1652706116437912 0.05909666046500206 0.06189645454287529
0.21276366710662842 0.056533962488174438 0.061581287533044815
0.27895528078079224 0.048190530389547348 0.059765264391899109
0.36688315868377686 0.031195830553770065 0.055303070694208145
0.034264747053384781 0.054700501263141632 0.058600258082151413
0.035915523767471313 0.057355768978595734 0.059629298746585846
0.041666395962238312 0.061606507748365402 0.062597982585430145
0.048382807523012161 0.066434584558010101 0.065675638616085052
0.059631660580635071 0.068920314311981201 0.06860002875328064
0.076324865221977234 0.067669346928596497 0.070243403315544128
0.097512878477573395 0.066451549530029297 0.071177057921886444
0.12236600369215012 0.067950092256069183 0.071083635091781616
0.15375636518001556 0.068352207541465759 0.070356093347072601
0.19374838471412659 0.067525334656238556 0.069007009267807007
0.248689204454422 0.06243070587515831 0.067613445222377777
0.32420405745506287 0.051020078361034393 0.064591124653816223
0.41211307048797607 0.031928807497024536 0.058645226061344147
0.046107888221740723 0.066930361092090607 0.067550346255302429
0.050763688981533051 0.070767946541309357 0.070025786757469177
0.057864829897880554 0.076372899115085602 0.073740012943744659
0.064675889909267426 0.081696450710296631 0.077590852975845337
0.07197098433971405 0.086364224553108215 0.079326778650283813
0.086849898099899292 0.089279904961585999 0.080602459609508514
0.11224740743637085 0.088255457580089569 0.08164137601852417
0.14385776221752167 0.084108062088489532 0.081526048481464386
0.18475845456123352 0.082405507564544678 0.08032766729593277
0.23703387379646301 0.077070750296115875 0.079267792403697968
0.29820519685745239 0.070584677159786224 0.07634340226650238
0.38051050901412964 0.055410079658031464 0.070859380066394806
0.47685980796813965 0.03188762441277504 0.063914276659488678
0.058861304074525833 0.083086617290973663 0.078436426818370819
0.069475941359996796 0.088547542691230774 0.08099588006734848
0.077914096415042877 0.095599949359893799 0.085405565798282623
0.085572399199008942 0.10214009135961533 0.090204678475856781
0.093571729958057404 0.10882430523633957 0.093468703329563141
0.10601245611906052 0.11415064334869385 0.093954421579837799
0.13148891925811768 0.11576180905103683 0.093564189970493317
0.17130813002586365 0.11283031105995178 0.092919729650020599
0.22326937317848206 0.10786240547895432 0.091857045888900757
0.28628113865852356 0.095491714775562286 0.089444302022457123
0.36158660054206848 0.082726858556270599 0.08558616042137146
0.44618842005729675 0.066004224121570587 0.078538991510868073
0.54741227626800537 0.043649457395076752 0.069100536406040192
