assets/lut/shamoonabbasi directions 23.cube
# Created by: G'MIC (https://gmic.eu)
TITLE "directions_23"
# LUT size
LUT_3D_SIZE 7
# Data domain
DOMAIN_MIN 0.0 0.0 0.0
DOMAIN_MAX 1.0 1.0 1.0
# LUT data points
0.019607843831181526 0.034988958388566971 0.043330531567335129
0.021263901144266129 0.042797058820724487 0.051858190447092056
0.050621166825294495 0.047788657248020172 0.055849216878414154
0.11251117289066315 0.055153686553239822 0.059135153889656067
0.20041219890117645 0.056010570377111435 0.060002930462360382
0.3474254310131073 0.038746688514947891 0.056517984718084335
0.54197424650192261 0.0079722236841917038 0.045239482074975967
0.037252269685268402 0.067464359104633331 0.076891101896762848
0.049611963331699371 0.082304276525974274 0.087859854102134705
0.087301947176456451 0.10025016963481903 0.089418746531009674
0.17322090268135071 0.10183834284543991 0.085493065416812897
0.32346189022064209 0.09070923924446106 0.085063859820365906
0.4933219850063324 0.06382257491350174 0.075580820441246033
0.68246948719024658 0.05148296058177948 0.061558037996292114
0.060911558568477631 0.13302472233772278 0.1100824847817421
0.10194621235132217 0.1641174852848053 0.13130615651607513
0.16067849099636078 0.20386514067649841 0.13265852630138397
0.26658648252487183 0.23781487345695496 0.11914421617984772
0.44479790329933167 0.24817073345184326 0.1071435809135437
0.64274930953979492 0.224776491522789 0.096736714243888855
0.83683961629867554 0.19105102121829987 0.080907665193080902
0.075494833290576935 0.25533530116081238 0.14065007865428925
0.15454472601413727 0.28806003928184509 0.16347472369670868
0.26032558083534241 0.34604367613792419 0.17134182155132294
0.39687511324882507 0.40482214093208313 0.16635602712631226
0.55708581209182739 0.44739606976509094 0.13134042918682098
0.73577487468719482 0.47560867667198181 0.10258112847805023
0.8791128396987915 0.47180894017219543 0.087933547794818878
0.12013915181159973 0.43681833148002625 0.16901133954524994
0.26280906796455383 0.4633328914642334 0.20793896913528442
0.39764523506164551 0.51714694499969482 0.22132760286331177
0.53494918346405029 0.57515889406204224 0.21638871729373932
0.67749720811843872 0.62884318828582764 0.19306862354278564
0.80044037103652954 0.66705214977264404 0.16186338663101196
0.91613250970840454 0.6839752197265625 0.11978547275066376
0.28865793347358704 0.63111203908920288 0.21632303297519684
0.42843535542488098 0.64649206399917603 0.27036014199256897
0.5524975061416626 0.67769181728363037 0.29200240969657898
0.66388994455337524 0.72047048807144165 0.30101090669631958
0.76506096124649048 0.76068967580795288 0.29435232281684875
0.86057841777801514 0.79550498723983765 0.27027294039726257
0.94840896129608154 0.818656325340271 0.21578626334667206
0.53697919845581055 0.8028794527053833 0.33626681566238403
0.6194298267364502 0.81368172168731689 0.38674977421760559
0.69982296228408813 0.82703149318695068 0.43741747736930847
0.77871179580688477 0.85354351997375488 0.45221149921417236
0.8549463152885437 0.88013684749603271 0.46151715517044067
0.92416507005691528 0.90361011028289795 0.43570861220359802
0.98831182718276978 0.92375224828720093 0.35426428914070129
0.019607843831181526 0.037571147084236145 0.047955293208360672
0.021828295662999153 0.047250963747501373 0.056309178471565247
0.046777613461017609 0.053281296044588089 0.068227358162403107
0.10049009323120117 0.059206496924161911 0.074448995292186737
0.18725547194480896 0.064829520881175995 0.076431810855865479
0.32358449697494507 0.055783141404390335 0.079030178487300873
0.50301873683929443 0.032952867448329926 0.078858636319637299
0.042759750038385391 0.075583651661872864 0.084311418235301971
0.05448952317237854 0.087428852915763855 0.094765923917293549
0.072611898183822632 0.10780012607574463 0.11128779500722885
0.14754769206047058 0.11590193212032318 0.11931052058935165
0.28961214423179626 0.11479689925909042 0.12356248497962952
0.4540284276008606 0.10863824188709259 0.12108778208494186
0.64336633682250977 0.090968146920204163 0.10624268651008606
0.070432238280773163 0.14446531236171722 0.13548736274242401
0.12164407223463058 0.17135441303253174 0.16531930863857269
0.16019774973392487 0.20953364670276642 0.19217628240585327
0.23748323321342468 0.25018802285194397 0.19414062798023224
0.41332072019577026 0.26586854457855225 0.18275412917137146
0.61153614521026611 0.25245416164398193 0.18057115375995636
0.80029666423797607 0.24346558749675751 0.16940945386886597
0.076583608984947205 0.2752804160118103 0.18086117506027222
0.18835528194904327 0.299835205078125 0.22397324442863464
0.29044070839881897 0.35504940152168274 0.25806403160095215
0.39642935991287231 0.41215366125106812 0.26369971036911011
0.54153656959533691 0.46039250493049622 0.25070944428443909
0.71317535638809204 0.48723813891410828 0.23460052907466888
0.86762809753417969 0.48825502395629883 0.22727657854557037
0.12870362401008606 0.45277383923530579 0.22572022676467896
0.2982347309589386 0.47390630841255188 0.27917665243148804
0.43220013380050659 0.52329260110855103 0.30975186824798584
0.55165809392929077 0.58015280961990356 0.32145065069198608
0.67457062005996704 0.63366162776947021 0.32222196459770203
0.78881919384002686 0.67514586448669434 0.30939871072769165
0.90515059232711792 0.6951184868812561 0.29061940312385559
0.29508012533187866 0.64269399642944336 0.27613130211830139
0.44597524404525757 0.65068060159683228 0.33200657367706299
0.57690185308456421 0.68222200870513916 0.37644091248512268
0.67534035444259644 0.72273272275924683 0.40029922127723694
0.76380264759063721 0.76310217380523682 0.41298338770866394
0.85418611764907837 0.80108225345611572 0.40249794721603394
0.93884968757629395 0.82402026653289795 0.36974984407424927
0.52470111846923828 0.81375992298126221 0.37386652827262878
0.61685729026794434 0.8136134147644043 0.43791860342025757
0.71192324161529541 0.83254337310791016 0.51394963264465332
0.78321141004562378 0.85482662916183472 0.53312009572982788
0.85542696714401245 0.88158833980560303 0.54592454433441162
0.92037707567214966 0.9053303599357605 0.53794693946838379
0.98767584562301636 0.92633116245269775 0.48360535502433777
0.019607843831181526 0.042098671197891235 0.068964160978794098
0.027732430025935173 0.051169063895940781 0.07343330979347229
0.051006797701120377 0.060059055685997009 0.085942365229129791
0.10175549238920212 0.062680311501026154 0.09979674220085144
0.198960080742836 0.055980831384658813 0.10486523807048798
0.32752853631973267 0.044472504407167435 0.10555984079837799
0.49297389388084412 0.027228262275457382 0.10993722826242447
0.031191598623991013 0.084479145705699921 0.1017715185880661
0.05939151719212532 0.097274601459503174 0.103094182908535
0.079212501645088196 0.11589222401380539 0.12102732807397842
0.13544963300228119 0.12766821682453156 0.14337433874607086
0.25935521721839905 0.13645473122596741 0.15990978479385376
0.41297948360443115 0.14179004728794098 0.16715629398822784
0.59054732322692871 0.13742360472679138 0.16119745373725891
0.045408301055431366 0.16267207264900208 0.15511879324913025
0.13265758752822876 0.18572258949279785 0.17879821360111237
0.1756683886051178 0.22783541679382324 0.2073705643415451
0.21803250908851624 0.2671172022819519 0.23542392253875732
0.37489330768585205 0.2905479371547699 0.25081881880760193
0.57570701837539673 0.28128644824028015 0.25827950239181519
0.75700974464416504 0.28963741660118103 0.24905247986316681
0.05737101286649704 0.30103132128715515 0.21892674267292023
0.21288864314556122 0.31512957811355591 0.26538911461830139
0.33433735370635986 0.37164598703384399 0.31207305192947388
0.39951404929161072 0.42133015394210815 0.3433476984500885
0.50895231962203979 0.47344642877578735 0.34545600414276123
0.6827276349067688 0.50311803817749023 0.34133425354957581
0.84765833616256714 0.50260692834854126 0.34025982022285461
0.12753890454769135 0.47921359539031982 0.27863943576812744
0.31653201580047607 0.49322757124900818 0.33286163210868835
0.47449389100074768 0.53511190414428711 0.3851146399974823
0.58050638437271118 0.58693838119506836 0.42161884903907776
0.66859865188598633 0.63744676113128662 0.43823617696762085
0.76969790458679199 0.68156647682189941 0.43622580170631409
0.88529258966445923 0.70688158273696899 0.43171536922454834
0.27481907606124878 0.65949755907058716 0.32955282926559448
0.46115434169769287 0.66561645269393921 0.39233684539794922
0.59730803966522217 0.68489164113998413 0.45966652035713196
0.68979674577713013 0.7260698676109314 0.49938109517097473
0.76717627048492432 0.76703077554702759 0.52726930379867554
0.84375756978988647 0.80550777912139893 0.53377574682235718
0.92195075750350952 0.82938134670257568 0.5243409276008606
0.5118706226348877 0.82038754224777222 0.43037736415863037
0.61780214309692383 0.82411575317382812 0.49958908557891846
0.71532326936721802 0.83562672138214111 0.57520902156829834
0.78842496871948242 0.85631829500198364 0.60951989889144897
0.85729199647903442 0.88259786367416382 0.62712794542312622
0.91651433706283569 0.9091905951499939 0.6313132643699646
0.98234283924102783 0.9302179217338562 0.60585057735443115
0.019557759165763855 0.048680998384952545 0.1054995059967041
0.030608830973505974 0.05946413055062294 0.11036618053913116
0.057321030646562576 0.069184198975563049 0.12080136686563492
0.10544431954622269 0.071277469396591187 0.14151284098625183
0.21891915798187256 0.068168491125106812 0.16136762499809265
0.34405350685119629 0.038886513561010361 0.1582670658826828
0.52807414531707764 0.0071670082397758961 0.15171216428279877
0.020503638312220573 0.091125071048736572 0.13951754570007324
0.05267709493637085 0.10398600250482559 0.14367678761482239
0.092709079384803772 0.12167441844940186 0.15405088663101196
0.15295350551605225 0.14043039083480835 0.1810263991355896
0.26323032379150391 0.14621922373771667 0.20199117064476013
0.40810632705688477 0.13958045840263367 0.20861445367336273
0.5867462158203125 0.13441774249076843 0.21108654141426086
0.011686841025948524 0.17591160535812378 0.19870078563690186
0.11238358169794083 0.20000730454921722 0.21002070605754852
0.19023215770721436 0.24260593950748444 0.22176934778690338
0.23124349117279053 0.28007796406745911 0.24672554433345795
0.35940966010093689 0.3095259964466095 0.29102835059165955
0.54382199048995972 0.31258422136306763 0.31294143199920654
0.71461081504821777 0.3234449028968811 0.31025907397270203
0.020493151620030403 0.32277464866638184 0.25686687231063843
0.19735407829284668 0.33988791704177856 0.29733198881149292
0.35228168964385986 0.38663819432258606 0.32455509901046753
0.42173904180526733 0.43797895312309265 0.3587314784526825
0.48574668169021606 0.48657488822937012 0.38924315571784973
0.65041172504425049 0.5238109827041626 0.40910017490386963
0.82186216115951538 0.51982074975967407 0.42304939031600952
0.057235836982727051 0.50519794225692749 0.31214332580566406
0.30948752164840698 0.51780623197555542 0.37173807621002197
0.50680875778198242 0.55120950937271118 0.42961913347244263
0.61784565448760986 0.60380750894546509 0.48007729649543762
0.66929370164871216 0.64678007364273071 0.52205318212509155
0.74266469478607178 0.68899863958358765 0.53594285249710083
0.86094093322753906 0.72159433364868164 0.54301828145980835
0.1946004331111908 0.67674511671066284 0.37154477834701538
0.45044142007827759 0.6808704137802124 0.44261059165000916
0.61259311437606812 0.69284224510192871 0.5219719409942627
0.71045893430709839 0.73228752613067627 0.57795196771621704
0.78006601333618164 0.7717515230178833 0.61811566352844238
0.83636420965194702 0.80811744928359985 0.63114970922470093
0.8984254002571106 0.83606725931167603 0.63142925500869751
0.48047071695327759 0.83256661891937256 0.48449629545211792
0.60656058788299561 0.83556383848190308 0.55022680759429932
0.7173578143119812 0.83926272392272949 0.61984473466873169
0.79261130094528198 0.85227292776107788 0.65703678131103516
0.86224877834320068 0.88387393951416016 0.68801355361938477
0.91429102420806885 0.90914803743362427 0.70310384035110474
0.96665781736373901 0.92891174554824829 0.69561338424682617
0.0089384643360972404 0.058669805526733398 0.16859795153141022
0.019905120134353638 0.065610714256763458 0.17275284230709076
0.060839574784040451 0.082502208650112152 0.1891525536775589
0.11914156377315521 0.091382928192615509 0.20985525846481323
0.21361006796360016 0.081504091620445251 0.23565052449703217
0.34793815016746521 0.05471058189868927 0.249068483710289
0.53662955760955811 0.0093899443745613098 0.25087034702301025
0.0090600103139877319 0.1039813905954361 0.20618234574794769
0.037611689418554306 0.11380577832460403 0.21121607720851898
0.097774550318717957 0.13439805805683136 0.22404016554355621
0.17165307700634003 0.15849673748016357 0.24960999190807343
0.27462089061737061 0.15613509714603424 0.27406752109527588
0.42790096998214722 0.14976510405540466 0.28973263502120972
0.61344283819198608 0.087788328528404236 0.28507673740386963
0.0035357007291167974 0.18995571136474609 0.26778954267501831
0.067282959818840027 0.21925529837608337 0.27836453914642334
0.18488492071628571 0.2539789080619812 0.28880590200424194
0.27293068170547485 0.29224833846092224 0.3015245795249939
0.38594654202461243 0.31586790084838867 0.33528029918670654
0.52840179204940796 0.33002397418022156 0.35526826977729797
0.68605446815490723 0.33010545372962952 0.35730752348899841
0.0037351869978010654 0.3317703902721405 0.32763060927391052
0.10170603543519974 0.36715352535247803 0.34324318170547485
0.33616161346435547 0.40153336524963379 0.36686837673187256
0.44069990515708923 0.45454934239387512 0.3743099570274353
0.50944507122039795 0.5042993426322937 0.40589216351509094
0.64003938436508179 0.54164767265319824 0.45589372515678406
0.7934996485710144 0.54097229242324829 0.4926694929599762
0.004604982677847147 0.52427935600280762 0.37360104918479919
0.19610457122325897 0.5507926344871521 0.40731027722358704
0.50004559755325317 0.56436270475387573 0.46896570920944214
0.63426953554153442 0.61815577745437622 0.50019156932830811
0.68454110622406006 0.6613011360168457 0.54344004392623901
0.72647261619567871 0.70049488544464111 0.58320838212966919
0.83120459318161011 0.73766559362411499 0.61798238754272461
0.026826253160834312 0.7001727819442749 0.41525125503540039
0.37681770324707031 0.70477491617202759 0.48582136631011963
0.61274296045303345 0.70833975076675415 0.56861060857772827
0.72737580537796021 0.74166691303253174 0.62058299779891968
0.8022574782371521 0.78316193819046021 0.66484546661376953
0.83414006233215332 0.8159070611000061 0.69217044115066528
0.88638961315155029 0.84839338064193726 0.70598971843719482
0.34227174520492554 0.84931701421737671 0.51884114742279053
0.56649905443191528 0.85038298368453979 0.59331786632537842
0.71383911371231079 0.85053741931915283 0.65759557485580444
0.80712991952896118 0.8622671365737915 0.70697933435440063
0.87446212768554688 0.88753330707550049 0.74208837747573853
0.91884881258010864 0.91124045848846436 0.77089935541152954
0.96281027793884277 0.93451642990112305 0.77748757600784302
0 0.073271088302135468 0.26212579011917114
0.0097022559493780136 0.079222552478313446 0.2649708092212677
0.050904590636491776 0.090827837586402893 0.2777310311794281
0.13092935085296631 0.10727734863758087 0.29871484637260437
0.24252875149250031 0.11222333461046219 0.3293645977973938
0.36875790357589722 0.084451653063297272 0.35055956244468689
0.55070370435714722 0.026292389258742332 0.36489951610565186
0.00017936556832864881 0.11662693321704865 0.29248365759849548
0.017039444297552109 0.12653294205665588 0.29905489087104797
0.093583814799785614 0.14839214086532593 0.31255882978439331
0.19455097615718842 0.18268103897571564 0.33365896344184875
0.31197565793991089 0.19909864664077759 0.36451059579849243
0.44524165987968445 0.18608225882053375 0.38559633493423462
0.62593370676040649 0.14636006951332092 0.39616793394088745
0.0010225034784525633 0.20574568212032318 0.33919203281402588
0.038567651063203812 0.2358795553445816 0.35188311338424683
0.17485646903514862 0.2673402726650238 0.36803156137466431
0.29557645320892334 0.31120538711547852 0.38583877682685852
0.41403120756149292 0.33036914467811584 0.40651929378509521
0.5504685640335083 0.33423525094985962 0.42086455225944519
0.71194857358932495 0.31482216715812683 0.42684212327003479
0.0020018334034830332 0.34497267007827759 0.40401354432106018
0.055958930402994156 0.3803093433380127 0.41433426737785339
0.26968973875045776 0.41900330781936646 0.42927578091621399
0.44656747579574585 0.46426805853843689 0.4464038610458374
0.55914068222045898 0.5143740177154541 0.46322211623191833
0.66741931438446045 0.54165232181549072 0.50725501775741577
0.77504211664199829 0.55125218629837036 0.53404611349105835
0.0030720580834895372 0.52790290117263794 0.46143928170204163
0.05785808339715004 0.56004220247268677 0.47332131862640381
0.42606133222579956 0.59522724151611328 0.51196694374084473
0.61637431383132935 0.62547272443771362 0.54614776372909546
0.69779247045516968 0.67420214414596558 0.5628896951675415
0.73841875791549683 0.71262490749359131 0.600597083568573
0.81840747594833374 0.74908804893493652 0.65281373262405396
0.0052140629850327969 0.70945841073989868 0.50290697813034058
0.20507268607616425 0.7214585542678833 0.53088319301605225
0.57234495878219604 0.73173367977142334 0.60349202156066895
0.72063529491424561 0.74822425842285156 0.65304970741271973
0.81123381853103638 0.79386025667190552 0.67799025774002075
0.84375637769699097 0.82664769887924194 0.70840615034103394
0.87088525295257568 0.84937936067581177 0.73435074090957642
0.11416324973106384 0.86472833156585693 0.56470590829849243
0.42626750469207764 0.86948972940444946 0.61044847965240479
0.68993651866912842 0.86589640378952026 0.68568140268325806
0.80804741382598877 0.86757421493530273 0.74267250299453735
0.88302385807037354 0.88880956172943115 0.77524834871292114
0.93233668804168701 0.91539400815963745 0.80892139673233032
0.95921850204467773 0.93976938724517822 0.83413863182067871
0 0.091429829597473145 0.37093010544776917
0.0011985329911112785 0.090135343372821808 0.3705095648765564
0.021465122699737549 0.1026265025138855 0.38328838348388672
0.14733250439167023 0.12382595241069794 0.39358979463577271
0.28558388352394104 0.1501268595457077 0.42789080739021301
0.43464234471321106 0.14078538119792938 0.46429756283760071
0.58349853754043579 0.10736815631389618 0.47930189967155457
0 0.13116317987442017 0.39562574028968811
0.0076467925682663918 0.14919309318065643 0.40142497420310974
0.080783918499946594 0.16998562216758728 0.4157353937625885
0.22406186163425446 0.20592667162418365 0.43378156423568726
0.36440867185592651 0.24552536010742188 0.46327069401741028
0.49759650230407715 0.23957967758178711 0.49397745728492737
0.64795726537704468 0.20806290209293365 0.51879978179931641
0 0.23522311449050903 0.43139857053756714
0.01952788420021534 0.2566489577293396 0.441934734582901
0.16619746387004852 0.28325092792510986 0.45443025231361389
0.32173508405685425 0.3277028501033783 0.47655734419822693
0.46505102515220642 0.37827685475349426 0.51038646697998047
0.58045893907546997 0.37969467043876648 0.53491085767745972
0.72048038244247437 0.37003207206726074 0.5496947169303894
0 0.36336526274681091 0.48466295003890991
0.032431479543447495 0.38573551177978516 0.49267286062240601
0.23374491930007935 0.42480048537254333 0.51152342557907104
0.43021580576896667 0.47144877910614014 0.54007995128631592
0.57824873924255371 0.52335250377655029 0.56465941667556763
0.67434293031692505 0.53699344396591187 0.57673990726470947
0.7749253511428833 0.53873181343078613 0.58649176359176636
0 0.53997302055358887 0.56348294019699097
0.033715073019266129 0.56270921230316162 0.57303911447525024
0.3108069896697998 0.60251736640930176 0.59281271696090698
0.56473743915557861 0.63972079753875732 0.61541849374771118
0.69873535633087158 0.68252962827682495 0.63692104816436768
0.76406276226043701 0.7207908034324646 0.64730441570281982
0.84025150537490845 0.75225567817687988 0.6914331316947937
0.000231993428315036 0.70727038383483887 0.61012369394302368
0.045283928513526917 0.72770649194717407 0.62294578552246094
0.42342141270637512 0.74986416101455688 0.64393293857574463
0.68715769052505493 0.76366454362869263 0.68303138017654419
0.79988259077072144 0.79860144853591919 0.70084482431411743
0.85618734359741211 0.83757013082504272 0.71935355663299561
0.87735259532928467 0.85876423120498657 0.74531131982803345
0.008156241849064827 0.86096042394638062 0.63874524831771851
0.19741977751255035 0.87765568494796753 0.65802186727523804
0.5803866982460022 0.88538640737533569 0.70053482055664062
0.78364306688308716 0.88016563653945923 0.76569610834121704
0.88334441184997559 0.90102839469909668 0.80843955278396606
0.94884055852890015 0.93215543031692505 0.82416898012161255
0.95600378513336182 0.93959015607833862 0.83126252889633179
