assets/lut/shamoonabbasi vintage 163.cube
# Created by: G'MIC (https://gmic.eu)
TITLE "vintage_163"
# LUT size
LUT_3D_SIZE 5
# Data domain
DOMAIN_MIN 0.0 0.0 0.0
DOMAIN_MAX 1.0 1.0 1.0
# LUT data points
0.081832408905029297 0.063191510736942291 0.06180940568447113
0.2529241144657135 0.071337245404720306 0.071297936141490936
0.43061545491218567 0.08206881582736969 0.084963567554950714
0.61013364791870117 0.10070248693227768 0.10037442296743393
0.7873956561088562 0.12030094861984253 0.11616236716508865
0.12808631360530853 0.25262889266014099 0.094048380851745605
0.30365434288978577 0.26106429100036621 0.10727856308221817
0.48616597056388855 0.27035826444625854 0.12652038037776947
0.66727805137634277 0.28746199607849121 0.14368367195129395
0.84581947326660156 0.30473220348358154 0.15905381739139557
0.17947423458099365 0.4470980167388916 0.12991459667682648
0.35996618866920471 0.45963624119758606 0.14588037133216858
0.54208225011825562 0.47142690420150757 0.16359241306781769
0.72293514013290405 0.4831942617893219 0.18192413449287415
0.90227484703063965 0.49577099084854126 0.19634880125522614
0.23152905702590942 0.64496326446533203 0.16692028939723969
0.4165036678314209 0.66010063886642456 0.18452458083629608
0.59847944974899292 0.67347347736358643 0.20095410943031311
0.7791668176651001 0.6849137544631958 0.21703295409679413
0.95908975601196289 0.69627970457077026 0.22915622591972351
0.27862787246704102 0.84331780672073364 0.20133422315120697
0.46852543950080872 0.85941696166992188 0.22065635025501251
0.65249478816986084 0.87387144565582275 0.23636844754219055
0.83367013931274414 0.88642925024032593 0.24965737760066986
0.99761366844177246 0.89803290367126465 0.25928029417991638
0.082953944802284241 0.0643630251288414 0.17854391038417816
0.25559887290000916 0.075558848679065704 0.18865334987640381
0.43704080581665039 0.088437981903553009 0.20008935034275055
0.61877739429473877 0.10662712901830673 0.2128838449716568
0.79789906740188599 0.12576510012149811 0.23192043602466583
0.13466410338878632 0.25330635905265808 0.2144189327955246
0.30906182527542114 0.2639407217502594 0.22658303380012512
0.49487209320068359 0.27650207281112671 0.24269761145114899
0.67670637369155884 0.2945498526096344 0.25775235891342163
0.85657203197479248 0.31349962949752808 0.27519848942756653
0.190296471118927 0.45035484433174133 0.25435873866081238
0.36799892783164978 0.46448710560798645 0.26805898547172546
0.5512092113494873 0.47880291938781738 0.28291931748390198
0.73291879892349243 0.49181973934173584 0.29991441965103149
0.91291624307632446 0.50645536184310913 0.31519123911857605
0.24732860922813416 0.64937502145767212 0.29623547196388245
0.42881554365158081 0.66562259197235107 0.31112220883369446
0.60929161310195923 0.68077701330184937 0.3248324990272522
0.79052138328552246 0.69307690858840942 0.33995616436004639
0.9709964394569397 0.70531195402145386 0.3530718982219696
0.29861718416213989 0.84777289628982544 0.33557954430580139
0.48567023873329163 0.86430621147155762 0.35282289981842041
0.66734558343887329 0.88004922866821289 0.36602267622947693
0.84822386503219604 0.89340406656265259 0.37834036350250244
0.99986803531646729 0.9057050347328186 0.38869854807853699
0.089505091309547424 0.068481877446174622 0.298787921667099
0.25949755311012268 0.083952434360980988 0.31143596768379211
0.44144582748413086 0.097290202975273132 0.32221093773841858
0.62489563226699829 0.11325749754905701 0.33406040072441101
0.80480164289474487 0.13037985563278198 0.35032945871353149
0.14573468267917633 0.25532901287078857 0.33811748027801514
0.31672194600105286 0.27128362655639648 0.35234242677688599
0.5019107460975647 0.28352594375610352 0.36595693230628967
0.68443500995635986 0.30033820867538452 0.37803801894187927
0.86476618051528931 0.318989098072052 0.39344877004623413
0.20183117687702179 0.45447421073913574 0.37918820977210999
0.37505230307579041 0.46958029270172119 0.3937641978263855
0.55818909406661987 0.48291391134262085 0.40717595815658569
0.74245560169219971 0.49650651216506958 0.42093032598495483
0.92173367738723755 0.51316606998443604 0.43398383259773254
0.25950503349304199 0.65368318557739258 0.42341065406799316
0.43760007619857788 0.66970890760421753 0.43787992000579834
0.61725157499313354 0.68509030342102051 0.44981470704078674
0.80072635412216187 0.69748282432556152 0.46304124593734741
0.98033392429351807 0.71100103855133057 0.47514060139656067
0.31218060851097107 0.85116040706634521 0.46622511744499207
0.49770265817642212 0.86771267652511597 0.48240372538566589
0.67708814144134521 0.88433492183685303 0.4936087429523468
0.85887867212295532 0.89798426628112793 0.50489151477813721
1 0.91069024801254272 0.51513147354125977
0.10034249722957611 0.078300043940544128 0.42131483554840088
0.27002337574958801 0.094889543950557709 0.43619385361671448
0.44838514924049377 0.1072254404425621 0.44873794913291931
0.63031160831451416 0.12075513601303101 0.4611237645149231
0.81089979410171509 0.13629527390003204 0.47456774115562439
0.1581273078918457 0.26437437534332275 0.46346873044967651
0.32880076766014099 0.28032860159873962 0.47878250479698181
0.50763779878616333 0.29235970973968506 0.49240320920944214
0.69002974033355713 0.30472716689109802 0.5047842264175415
0.87066161632537842 0.32181403040885925 0.51801693439483643
0.21329806745052338 0.46058055758476257 0.50489050149917603
0.3858572244644165 0.47431808710098267 0.5210883617401123
0.56454956531524658 0.48670342564582825 0.53487521409988403
0.75007849931716919 0.49857333302497864 0.54783105850219727
0.93090671300888062 0.51494848728179932 0.55990248918533325
0.26678800582885742 0.65895384550094604 0.5489727258682251
0.44497549533843994 0.67437511682510376 0.56416094303131104
0.62173724174499512 0.68906188011169434 0.57622307538986206
0.80749642848968506 0.70060783624649048 0.58957195281982422
0.98686766624450684 0.71389114856719971 0.60172778367996216
0.31582048535346985 0.85672175884246826 0.59189295768737793
0.50128453969955444 0.87333792448043823 0.60798519849777222
0.68137222528457642 0.88913816213607788 0.61990278959274292
0.86534202098846436 0.90208035707473755 0.63144612312316895
1 0.91441506147384644 0.64207834005355835
0.11014121770858765 0.086543560028076172 0.54386955499649048
0.28318002820014954 0.10213176906108856 0.560638427734375
0.45679971575737 0.11442579329013824 0.57489645481109619
0.63447189331054688 0.12744078040122986 0.58787828683853149
0.81294077634811401 0.14238952100276947 0.60000371932983398
0.16656354069709778 0.27080035209655762 0.58872407674789429
0.34093138575553894 0.28846338391304016 0.60489529371261597
0.51502871513366699 0.30130818486213684 0.61889064311981201
0.69506019353866577 0.31198358535766602 0.63203680515289307
0.87432193756103516 0.32715192437171936 0.64455229043960571
0.21713180840015411 0.46373507380485535 0.63160288333892822
0.39461773633956909 0.48082301020622253 0.64743649959564209
0.56950265169143677 0.49471995234489441 0.6610526442527771
0.75202012062072754 0.50573956966400146 0.67466127872467041
0.93544578552246094 0.52047640085220337 0.68752747774124146
0.26628890633583069 0.66258013248443604 0.67424911260604858
0.44745728373527527 0.67958426475524902 0.69004905223846436
0.62537723779678345 0.6948121190071106 0.70302915573120117
0.80966019630432129 0.70719015598297119 0.71666491031646729
0.98901081085205078 0.72076016664505005 0.7294730544090271
0.31163132190704346 0.86163437366485596 0.71551179885864258
0.49895533919334412 0.87907838821411133 0.73231798410415649
0.68176007270812988 0.89475524425506592 0.74565345048904419
0.86608368158340454 0.90811812877655029 0.75805151462554932
1 0.92084765434265137 0.76873975992202759
