assets/lut/shamoonabbasi wooden gold 20.cube
# Created by: G'MIC (https://gmic.eu)
TITLE "wooden_gold_20"
# LUT size
LUT_3D_SIZE 13
# Data domain
DOMAIN_MIN 0.0 0.0 0.0
DOMAIN_MAX 1.0 1.0 1.0
# LUT data points
0.0048277759924530983 0.024091383442282677 0.020982541143894196
0.020505240187048912 0.029752708971500397 0.0252201147377491
0.043924711644649506 0.034797355532646179 0.025409011170268059
0.08671405166387558 0.041001010686159134 0.020570239052176476
0.16603270173072815 0.045127972960472107 0.0097174700349569321
0.26717719435691833 0.047364015132188797 0.00058785232249647379
0.36379796266555786 0.052588444203138351 0
0.44499260187149048 0.061332941055297852 0
0.51456993818283081 0.070629164576530457 2.956016396638006e-05
0.57579278945922852 0.077362895011901855 0.0014970666961744428
0.62948304414749146 0.080413401126861572 0.0036899640690535307
0.68034589290618896 0.074090413749217987 0.0020699894521385431
0.72643482685089111 0.063501797616481781 9.1014189820270985e-05
0.0042422725819051266 0.050627060234546661 0.029833804816007614
0.019855305552482605 0.054691944271326065 0.031455755233764648
0.050908647477626801 0.058735042810440063 0.029209885746240616
0.1104775071144104 0.064877241849899292 0.021786484867334366
0.20680412650108337 0.07074631005525589 0.011363115161657333
0.31901255249977112 0.076389774680137634 0.0021440393757075071
0.42336764931678772 0.084187604486942291 0
0.51032638549804688 0.09440893679857254 0
0.58436352014541626 0.10355840623378754 0.00014838424976915121
0.65154153108596802 0.10818448662757874 0.0014006072888150811
0.71037089824676514 0.10771116614341736 0.0021816177759319544
0.76149517297744751 0.10022808611392975 0.00051885866560041904
0.80355995893478394 0.092146918177604675 0
0.00069215061375871301 0.079601019620895386 0.041823606938123703
0.012400742620229721 0.083828091621398926 0.041531983762979507
0.049667462706565857 0.089742295444011688 0.033414535224437714
0.13164785504341125 0.096988439559936523 0.020839899778366089
0.25184929370880127 0.10488073527812958 0.0097025102004408836
0.3768002986907959 0.11407741159200668 0.00303038046695292
0.48806449770927429 0.1245124340057373 0.00020446776761673391
0.58123892545700073 0.13522376120090485 0
0.66240638494491577 0.14328806102275848 1.1668485967675224e-05
0.73396080732345581 0.14709709584712982 0.00035861146170645952
0.79243981838226318 0.14726735651493073 0.00023900948872324079
0.83765387535095215 0.14402472972869873 0
0.86934489011764526 0.14341390132904053 0
6.247127748792991e-05 0.11525993794202805 0.059537295252084732
0.0053022946231067181 0.12134789675474167 0.055399458855390549
0.041862651705741882 0.13305439054965973 0.035104189068078995
0.14941859245300293 0.14414358139038086 0.013939053751528263
0.29538223147392273 0.1561749279499054 0.0039162430912256241
0.43357297778129578 0.16941960155963898 0.0012350643519312143
0.55003368854522705 0.18237763643264771 0.00034664379199966788
0.64738315343856812 0.19478325545787811 0
0.73489636182785034 0.20380379259586334 0
0.80742752552032471 0.21102498471736908 0
0.85967105627059937 0.21782821416854858 0
0.89501023292541504 0.22213408350944519 9.1014189820270985e-05
0.91597926616668701 0.22837415337562561 0
0 0.16667202115058899 0.079933702945709229
0.00023197846894618124 0.17565442621707916 0.071573115885257721
0.019838251173496246 0.19961068034172058 0.033933870494365692
0.14461024105548859 0.22057594358921051 0.0047440472990274429
0.32405838370323181 0.23700530827045441 0.0001608455932000652
0.47846323251724243 0.2538331151008606 4.5955883251735941e-05
0.59768515825271606 0.26899406313896179 5.0982307584490627e-05
0.69561314582824707 0.28489875793457031 0
0.78569161891937256 0.29942178726196289 0
0.8569566011428833 0.31040859222412109 0
0.90480887889862061 0.32145768404006958 0
0.93375635147094727 0.33059346675872803 0.00060423306422308087
0.9475700855255127 0.33832588791847229 6.0676124121528119e-05
0 0.24089537560939789 0.10107053816318512
0.0011945088626816869 0.25573736429214478 0.09109179675579071
0.027197564020752907 0.29128596186637878 0.046119272708892822
0.15209531784057617 0.32672742009162903 0.0054345522075891495
0.34731587767601013 0.34894362092018127 0
0.51436662673950195 0.3698829710483551 8.8141947344411165e-05
0.63707256317138672 0.38807511329650879 0.00090864591766148806
0.73503631353378296 0.4067542552947998 0.00055965350475162268
0.82047939300537109 0.42400249838829041 1.0052849575004075e-05
0.88727813959121704 0.43350937962532043 0
0.93333142995834351 0.4409518837928772 0.00010929481504717842
0.95992857217788696 0.44838586449623108 0.0014465930871665478
0.96979272365570068 0.45406636595726013 0.0011902903206646442
0 0.33325609564781189 0.12355182319879532
0.0080944737419486046 0.35784739255905151 0.11177536845207214
0.058595515787601471 0.40064516663551331 0.063841350376605988
0.19126409292221069 0.44605767726898193 0.011301272548735142
0.38661664724349976 0.47450417280197144 0
0.55833321809768677 0.49721804261207581 0.00078277586726471782
0.68242096900939941 0.51718109846115112 0.0037279913667589426
0.77636396884918213 0.53539091348648071 0.005343747790902853
0.85386848449707031 0.54763901233673096 0.0033342100214213133
0.91622215509414673 0.55086857080459595 0.0015299030346795917
0.95890235900878906 0.55267989635467529 0.0037475286517292261
0.9801793098449707 0.5572129487991333 0.0072595635429024696
0.98592263460159302 0.56170600652694702 0.008638748899102211
0 0.42401459813117981 0.15049169957637787
0.012073217891156673 0.45649528503417969 0.13358384370803833
0.078028000891208649 0.50783658027648926 0.070411965250968933
0.23375643789768219 0.55750948190689087 0.0090245120227336884
0.4394802451133728 0.58468371629714966 0
0.60924136638641357 0.60388028621673584 0.0022574481554329395
0.72654712200164795 0.62174677848815918 0.0095716137439012527
0.81187272071838379 0.63620787858963013 0.01565348356962204
0.88487350940704346 0.64465576410293579 0.012437827885150909
0.94472229480743408 0.64647525548934937 0.0052782841958105564
0.98256254196166992 0.64784985780715942 0.0051734177395701408
0.99569761753082275 0.65466529130935669 0.0054737762548029423
0.99688512086868286 0.66148227453231812 0.0059220558032393456
0 0.4918760359287262 0.17774935066699982
0.0043407515622675419 0.53089761734008789 0.14778187870979309
0.06983000785112381 0.58933407068252563 0.063091292977333069
0.25907501578330994 0.63612985610961914 0.0046373405493795872
0.48156216740608215 0.65945041179656982 0.00016899856564123183
0.64202278852462769 0.67807608842849731 0.0060797296464443207
0.75232225656509399 0.69541895389556885 0.015705153346061707
0.83604723215103149 0.70949923992156982 0.020563790574669838
0.90822231769561768 0.71847569942474365 0.013016554526984692
0.96397280693054199 0.72330558300018311 0.00096983066760003567
0.99370235204696655 0.72839516401290894 5.6008731917245314e-05
0.99977165460586548 0.73714405298233032 6.2231927586253732e-05
0.99995952844619751 0.74495512247085571 0.00011979645205428824
0.00056961656082421541 0.5299297571182251 0.19841434061527252
0 0.58078283071517944 0.13538011908531189
0.040219176560640335 0.6443975567817688 0.038701090961694717
0.26107668876647949 0.68694889545440674 0.0016293544322252274
0.50189810991287231 0.71070653200149536 0.0015793296042829752
0.66082710027694702 0.73111367225646973 0.0062804576009511948
0.7725447416305542 0.75048911571502686 0.010410742834210396
0.86007493734359741 0.76600247621536255 0.010534533299505711
0.93150603771209717 0.77661120891571045 0.0029462478123605251
0.97805756330490112 0.78359276056289673 0
0.99787634611129761 0.78978908061981201 0
1 0.79703599214553833 0
1 0.80241930484771729 0
0.0020849639549851418 0.55788612365722656 0.21949170529842377
4.4923668610863388e-05 0.61631464958190918 0.13904550671577454
0.050171345472335815 0.6829717755317688 0.039945848286151886
0.27921250462532043 0.72695654630661011 0.0022564907558262348
0.52548468112945557 0.75352805852890015 0.00052197027252987027
0.68617373704910278 0.77585279941558838 0.0013107599224895239
0.8003348708152771 0.79540824890136719 0.0011687933001667261
0.89493066072463989 0.8114592432975769 7.7789904025848955e-05
0.96241217851638794 0.82194238901138306 0
0.99323862791061401 0.82785165309906006 0
0.9997628927230835 0.83201861381530762 0
1 0.83619719743728638 1.9387638531043194e-05
1 0.83942264318466187 0.00021398207172751427
0 0.59789925813674927 0.24143286049365997
0.0024128484074026346 0.65770941972732544 0.16254408657550812
0.084719203412532806 0.71995264291763306 0.063087612390518188
0.30964720249176025 0.76445513963699341 0.0054390998557209969
0.54960805177688599 0.79173403978347778 0
0.71322983503341675 0.81330257654190063 0
0.83113104104995728 0.83196693658828735 0
0.92863690853118896 0.84648704528808594 0
0.988381028175354 0.855305016040802 0
0.99987244606018066 0.85907977819442749 0.00013188380398787558
1 0.86039042472839355 0.0083956699818372726
0.99973767995834351 0.86161667108535767 0.025464495643973351
0.99901479482650757 0.86371970176696777 0.0369747094810009
0 0.64585888385772705 0.27002686262130737
0.010224705561995506 0.70407480001449585 0.19419994950294495
0.11344753950834274 0.76031416654586792 0.093672461807727814
0.33628854155540466 0.79988735914230347 0.022973109036684036
0.56755930185317993 0.82465428113937378 0.0078563913702964783
0.72901487350463867 0.84409546852111816 0.010636214166879654
0.85140091180801392 0.8601832389831543 0.0075430925935506821
0.94831997156143188 0.87251168489456177 0.0081395469605922699
0.99789083003997803 0.87967240810394287 0.014654451049864292
1 0.88176655769348145 0.03451087698340416
1 0.88102835416793823 0.081621252000331879
0.99990683794021606 0.88096475601196289 0.11803460121154785
0.99965441226959229 0.88268780708312988 0.1302776038646698
0.011796195991337299 0.031280308961868286 0.038429692387580872
0.023305870592594147 0.036064941436052322 0.041296865791082382
0.046301297843456268 0.038576643913984299 0.03953826054930687
0.092205286026000977 0.043623305857181549 0.031651679426431656
0.17667673528194427 0.04780375212430954 0.017551915720105171
0.2868095338344574 0.04787859320640564 0.0034824893809854984
0.38704916834831238 0.052123066037893295 0.00011569752678042278
0.46628075838088989 0.061037532985210419 0
0.53513365983963013 0.068015769124031067 0
0.60120832920074463 0.068595379590988159 8.2936006947420537e-05
0.66248780488967896 0.063342377543449402 4.2111267248401418e-05
0.72018873691558838 0.048995207995176315 0
0.77010256052017212 0.032780889421701431 0
0.010377113707363605 0.055302400141954422 0.046491779386997223
0.021183822304010391 0.05875130370259285 0.047468986362218857
0.051360126584768295 0.060880430042743683 0.044498354196548462
0.11447945237159729 0.067259706556797028 0.034680549055337906
0.21742384135723114 0.074096173048019409 0.021606745198369026
0.33678546547889709 0.079646691679954529 0.0099961673840880394
0.44413810968399048 0.086899101734161377 0.0036041708663105965
0.53179216384887695 0.095394372940063477 0.001635442953556776
0.60693538188934326 0.10066045075654984 0.00086797081166878343
0.68244016170501709 0.095566816627979279 0.00050880579510703683
0.75166481733322144 0.083621874451637268 2.0345053144410485e-06
0.81081414222717285 0.065543398261070251 0
0.85541892051696777 0.051915589720010757 0
0.0048752729780972004 0.082908421754837036 0.058441042900085449
0.016324317082762718 0.086980380117893219 0.059457860887050629
0.054097611457109451 0.092456609010696411 0.052574619650840759
0.13759581744670868 0.10126888751983643 0.037267260253429413
0.2630409300327301 0.11085842549800873 0.024015195667743683
0.39353883266448975 0.12080436944961548 0.015537157654762268
0.50802111625671387 0.13076989352703094 0.0094579514116048813
0.60461485385894775 0.13787950575351715 0.004763375036418438
0.69029337167739868 0.13960790634155273 0.0017418655334040523
0.77117812633514404 0.13270072638988495 0.0002915924706030637
0.84060513973236084 0.12077631056308746 0
0.89221680164337158 0.10824016481637955 0
0.92303436994552612 0.10535664111375809 0
0.0023667728528380394 0.11953414976596832 0.075820609927177429
0.013949689455330372 0.12516626715660095 0.078373134136199951
0.053893864154815674 0.13632439076900482 0.061882708221673965
0.15644647181034088 0.15067510306835175 0.037464860826730728
0.30540448427200317 0.16465058922767639 0.021755831316113472
0.44955635070800781 0.17911648750305176 0.015309981070458889
0.56928640604019165 0.1925797313451767 0.011309814639389515
0.67111343145370483 0.20200861990451813 0.0059306425973773003
0.76488262414932251 0.20390971004962921 0.0015285416739061475
0.8457942008972168 0.20169052481651306 6.8619672674685717e-05
0.90669643878936768 0.19987721741199493 0
0.94444632530212402 0.20045220851898193 0
0.96142888069152832 0.20711877942085266 0
3.5903034586226568e-05 0.17411494255065918 0.096140891313552856
0.0048435437493026257 0.18279406428337097 0.095575921237468719
0.042291663587093353 0.20256011188030243 0.070571199059486389
0.15867175161838531 0.22695016860961914 0.033337254077196121
0.33510145545005798 0.24645845592021942 0.013982824981212616
0.49447387456893921 0.26535722613334656 0.011777915060520172
0.61579877138137817 0.28356409072875977 0.011468490585684776
0.71738487482070923 0.29855495691299438 0.0064698015339672565
0.81269353628158569 0.30649510025978088 0.0012093787081539631
0.89125549793243408 0.31049630045890808 0
0.94486385583877563 0.31676709651947021 0
0.97396481037139893 0.32656723260879517 0
0.98214471340179443 0.33543941378593445 0
0 0.25214353203773499 0.1200268492102623
0.00312067661434412 0.26623684167861938 0.1188223734498024
0.041462212800979614 0.29709035158157349 0.085139811038970947
0.15918613970279694 0.33739936351776123 0.029141968116164207
0.35552385449409485 0.36260500550270081 0.0092419497668743134
0.52962803840637207 0.3835054337978363 0.012641218490898609
0.65383309125900269 0.40450367331504822 0.015638688579201698
0.75253242254257202 0.42305395007133484 0.012350553646683693
0.84168022871017456 0.43636757135391235 0.0033514134120196104
0.91547411680221558 0.44168028235435486 0
0.96543365716934204 0.44605246186256409 0
0.99000906944274902 0.45477324724197388 4.6195236791390926e-05
0.99419677257537842 0.46105989813804626 1.6425638023065403e-05
3.7518668250413612e-05 0.34669786691665649 0.15072222054004669
0.01094634085893631 0.36748087406158447 0.15269139409065247
0.063119284808635712 0.40782293677330017 0.11213704943656921
0.18963883817195892 0.46080556511878967 0.040973305702209473
0.39150121808052063 0.49280402064323425 0.015725648030638695
0.57216304540634155 0.51296788454055786 0.022359076887369156
0.69463026523590088 0.53258079290390015 0.028633326292037964
0.78714865446090698 0.55013865232467651 0.027471115812659264
0.86894494295120239 0.5622410774230957 0.013376617804169655
0.93813389539718628 0.56416696310043335 0.00028417250723578036
0.98229444026947021 0.56306558847427368 0
0.99789273738861084 0.56701862812042236 2.3516486180596985e-05
0.99898511171340942 0.57189816236495972 0.00051128910854458809
3.9493337681051344e-05 0.43882080912590027 0.18804633617401123
0.012708118185400963 0.46772521734237671 0.18300254642963409
0.076213344931602478 0.51735877990722656 0.12538817524909973
0.23056432604789734 0.57258123159408569 0.044496186077594757
0.4480530321598053 0.60284584760665894 0.020403917878866196
0.62213718891143799 0.62057226896286011 0.031756874173879623
0.73348540067672729 0.63699042797088623 0.043589048087596893
0.81813198328018188 0.65096873044967651 0.04766845703125
0.89790695905685425 0.65937858819961548 0.030177291482686996
0.96493399143218994 0.66109377145767212 0.0024877511896193027
0.99691903591156006 0.66181862354278564 0
0.99999749660491943 0.66781270503997803 1.0471718070448333e-07
0.99999862909317017 0.67463487386703491 6.7018995650869329e-06
3.0338062060764059e-05 0.50849819183349609 0.22128520905971527
0.0030285404063761234 0.54622083902359009 0.19605801999568939
0.063736066222190857 0.60487258434295654 0.1120527982711792
0.24894706904888153 0.65598815679550171 0.026325076818466187
0.48226943612098694 0.68044817447662354 0.0090544456616044044
0.64915817975997925 0.69710499048233032 0.024967627599835396
0.75703418254852295 0.71255028247833252 0.041036613285541534
0.84081238508224487 0.72507959604263306 0.051635384559631348
0.91969859600067139 0.73402559757232666 0.037535678595304489
0.97956383228302002 0.73957294225692749 0.0040621589869260788
0.99980252981185913 0.74531710147857666 0
1 0.75338631868362427 0
1 0.76030367612838745 0
0.0015381008852273226 0.54763162136077881 0.24400056898593903
0 0.59409153461456299 0.19658938050270081
0.050225876271724701 0.65704226493835449 0.10358385741710663
0.25251293182373047 0.70724236965179443 0.022544741630554199
0.49128830432891846 0.73414283990859985 0.00082020479021593928
0.66140073537826538 0.75302118062973022 0.0055757109075784683
0.78035920858383179 0.77036762237548828 0.015166128985583782
0.87352579832077026 0.78451526165008545 0.025520160794258118
0.94860959053039551 0.79458802938461304 0.02023417130112648
0.9901735782623291 0.80155223608016968 0.0022940840572118759
0.99999672174453735 0.807414710521698 0
1 0.8143431544303894 0
1 0.81949847936630249 0
0.0021042169537395239 0.5744931697845459 0.26302370429039001
0 0.62930107116699219 0.20423537492752075
0.047982338815927505 0.69606113433837891 0.10988084226846695
0.26202309131622314 0.74732238054275513 0.026927918195724487
0.51254010200500488 0.77746164798736572 0.00017748065874911845
0.68966567516326904 0.79857397079467773 0
0.81434023380279541 0.81672155857086182 7.4199604569002986e-05
0.91589421033859253 0.83148926496505737 0.0015739740338176489
0.98266142606735229 0.84115731716156006 0.002721001161262393
0.9992862343788147 0.84528577327728271 0.00092686671996489167
0.999980628490448 0.84827649593353271 0.0048067877069115639
0.99968487024307251 0.85221028327941895 0.0094452351331710815
0.99970924854278564 0.85596859455108643 0.01266103982925415
5.1341336074983701e-05 0.61194562911987305 0.28778901696205139
0 0.67231917381286621 0.2262096107006073
0.048961684107780457 0.73800981044769287 0.1297563910484314
0.27405616641044617 0.78592240810394287 0.038685232400894165
0.53521490097045898 0.81460899114608765 0.0035354914143681526
0.71455872058868408 0.83449685573577881 0.0016478145262226462
0.8397902250289917 0.85177904367446899 0.00015478694695048034
0.9402661919593811 0.8644716739654541 0.0014372133882716298
0.99515300989151001 0.87211889028549194 0.0031176398042589426
1 0.87451374530792236 0.0054711885750293732
0.9989209771156311 0.87464791536331177 0.048340532928705215
0.99660038948059082 0.87576168775558472 0.093863315880298615
0.99628889560699463 0.87809282541275024 0.11359254270792007
0 0.6584399938583374 0.32489427924156189
0.00068552355514839292 0.71926242113113403 0.25961524248123169
0.065052792429924011 0.78082263469696045 0.16293993592262268
0.28686872124671936 0.82226359844207764 0.083681531250476837
0.54135489463806152 0.84583079814910889 0.053229149430990219
0.72013843059539795 0.86259597539901733 0.046972237527370453
0.84834349155426025 0.87719923257827759 0.032651159912347794
0.94769322872161865 0.88745993375778198 0.0434124656021595
0.99741184711456299 0.89300930500030518 0.061170555651187897
1 0.89493650197982788 0.083224952220916748
0.99975955486297607 0.89352303743362427 0.15667928755283356
0.99805295467376709 0.89297842979431152 0.2183089405298233
0.99829328060150146 0.895355224609375 0.24100986123085022
0.0097637847065925598 0.036260776221752167 0.05878886952996254
0.021108545362949371 0.039045237004756927 0.063659980893135071
0.044481240212917328 0.04049350693821907 0.062151007354259491
0.093622617423534393 0.045456964522600174 0.054241567850112915
0.18558357656002045 0.047926060855388641 0.037900827825069427
0.30149424076080322 0.04742119088768959 0.02122059278190136
0.40480411052703857 0.05181637778878212 0.013189278542995453
0.48706275224685669 0.058656714856624603 0.011537948623299599
0.56081593036651611 0.060560427606105804 0.011689324863255024
0.6331372857093811 0.053287506103515625 0.01156171876937151
0.70202398300170898 0.038971096277236938 0.011044775135815144
0.76307880878448486 0.020733896642923355 0.0091263866052031517
0.80964916944503784 0.0078456653282046318 0.010907191783189774
0.0088536730036139488 0.058886628597974777 0.068724535405635834
0.019878342747688293 0.060935854911804199 0.072101891040802002
0.051871191710233688 0.063015945255756378 0.072777643799781799
0.11951588839292526 0.06989414244890213 0.063323646783828735
0.22803646326065063 0.07689068466424942 0.048147059977054596
0.35238295793533325 0.082859590649604797 0.035388123244047165
0.46371334791183472 0.089334495365619659 0.028287237510085106
0.55664694309234619 0.093572266399860382 0.024642599746584892
0.63966077566146851 0.090280331671237946 0.021614179015159607
0.7225145697593689 0.075502760708332062 0.018346508964896202
0.79939800500869751 0.053423445671796799 0.014111791737377644
0.86144214868545532 0.030475256964564323 0.010288971476256847
0.90169024467468262 0.019499026238918304 0.010907401330769062
0.0054955724626779556 0.086691223084926605 0.083004072308540344
0.017366208136081696 0.090499639511108398 0.087171889841556549
0.05845368281006813 0.096372552216053009 0.08666711300611496
0.14663782715797424 0.10705352574586868 0.073292717337608337
0.27689388394355774 0.11805024743080139 0.059969644993543625
0.41071140766143799 0.12958689033985138 0.050171781331300735
0.52968668937683105 0.13736215233802795 0.042747437953948975
0.63356959819793701 0.1374901682138443 0.035537511110305786
0.72813040018081665 0.12930053472518921 0.028603287413716316
0.81629067659378052 0.11264832317829132 0.0218505859375
0.89177024364471436 0.091546960175037384 0.015294766984879971
0.94326382875442505 0.075963802635669708 0.012062282301485538
0.96783387660980225 0.077003791928291321 0.013719521462917328
0.0034241471439599991 0.12575681507587433 0.10075142234563828
0.015949832275509834 0.13213945925235748 0.10621318221092224
0.060731340199708939 0.14384599030017853 0.099594399333000183
0.16312073171138763 0.16134966909885406 0.079989582300186157
0.31738817691802979 0.17657756805419922 0.064837194979190826
0.46740561723709106 0.19139821827411652 0.055946812033653259
0.59320884943008423 0.2023279070854187 0.04909101128578186
0.70356160402297974 0.20461618900299072 0.039927225559949875
0.8051987886428833 0.19695965945720673 0.029754474759101868
0.89009374380111694 0.18751180171966553 0.021126123145222664
0.95179373025894165 0.18046361207962036 0.016188617795705795
0.98492681980133057 0.18244890868663788 0.014117521233856678
0.99320846796035767 0.19610334932804108 0.014415306970477104
0.00013774796389043331 0.18381917476654053 0.12104151397943497
0.010375662706792355 0.19337357580661774 0.12733800709247589
0.05889352411031723 0.20982638001441956 0.11994548141956329
0.16816143691539764 0.23771698772907257 0.086793355643749237
0.34133145213127136 0.26050832867622375 0.061761803925037384
0.50908070802688599 0.27956926822662354 0.055031720548868179
0.63826519250869751 0.29724720120429993 0.05157032236456871
0.74794167280197144 0.30760857462882996 0.042384758591651917
0.84991466999053955 0.30783373117446899 0.027911227196455002
0.92940223217010498 0.30663573741912842 0.014669964089989662
0.97831463813781738 0.31108245253562927 0.010230494663119316
0.99721682071685791 0.32372483611106873 0.0098478281870484352
0.99856317043304443 0.33875554800033569 0.0070675122551620007
1.2566061741381418e-05 0.26601052284240723 0.15001234412193298
0.0098857209086418152 0.28005588054656982 0.15667189657688141
0.065418720245361328 0.3037065863609314 0.14613953232765198
0.17926590144634247 0.34502497315406799 0.098287723958492279
0.36174017190933228 0.37721240520477295 0.06589043140411377
0.53989148139953613 0.39935246109962463 0.06256372481584549
0.66857361793518066 0.42169201374053955 0.060879532247781754
0.77353721857070923 0.43876874446868896 0.052397321909666061
0.86936837434768677 0.44644561409950256 0.031301043927669525
0.94494038820266724 0.44695007801055908 0.0074721095152199268
