assets/lut/shamoonabbasi vintage 163.cube
# Created by: G'MIC (https://gmic.eu)
TITLE "vintage_163"
# LUT size
LUT_3D_SIZE 13
# Data domain
DOMAIN_MIN 0.0 0.0 0.0
DOMAIN_MAX 1.0 1.0 1.0
# LUT data points
0.081832408905029297 0.063191510736942291 0.06180940568447113
0.13937260210514069 0.066343329846858978 0.064953841269016266
0.19586627185344696 0.068703636527061462 0.06780967116355896
0.2529241144657135 0.071337245404720306 0.071297936141490936
0.31196904182434082 0.074156470596790314 0.075340256094932556
0.37131848931312561 0.077724084258079529 0.079924486577510834
0.43061545491218567 0.08206881582736969 0.084963567554950714
0.49083220958709717 0.087524458765983582 0.089785344898700714
0.55034404993057251 0.093719005584716797 0.094756543636322021
0.61013364791870117 0.10070248693227768 0.10037442296743393
0.66946101188659668 0.10772574692964554 0.10625261813402176
0.72862070798873901 0.1145256906747818 0.11164338141679764
0.7873956561088562 0.12030094861984253 0.11616236716508865
0.097609639167785645 0.126360684633255 0.072740159928798676
0.15463621914386749 0.12942251563072205 0.075982414186000824
0.21159099042415619 0.13153231143951416 0.079183243215084076
0.26979359984397888 0.13392652571201324 0.083225950598716736
0.32887610793113708 0.13670024275779724 0.088029883801937103
0.3891390860080719 0.13999733328819275 0.093261241912841797
0.44912964105606079 0.1442570835351944 0.098595969378948212
0.50976729393005371 0.14956803619861603 0.10427922010421753
0.56959205865859985 0.15590883791446686 0.10961067676544189
0.62959939241409302 0.16276638209819794 0.11533711850643158
0.68903475999832153 0.16979296505451202 0.12102124094963074
0.74845898151397705 0.17650860548019409 0.12646599113941193
0.8073573112487793 0.18230544030666351 0.13111267983913422
0.1125243678689003 0.18922029435634613 0.083207868039608002
0.1700153648853302 0.19210280478000641 0.0865493044257164
0.22755822539329529 0.19465717673301697 0.090147249400615692
0.28628849983215332 0.19689621031284332 0.094866342842578888
0.34622928500175476 0.19965237379074097 0.10078507661819458
0.40674230456352234 0.20278754830360413 0.10694891214370728
0.46774598956108093 0.20669844746589661 0.11266316473484039
0.52835351228713989 0.21194449067115784 0.1185196191072464
0.58842271566390991 0.21812024712562561 0.12398812919855118
0.6486356258392334 0.22479046881198883 0.12969131767749786
0.70817792415618896 0.23144608736038208 0.13548949360847473
0.76766538619995117 0.23788104951381683 0.14083203673362732
0.82692152261734009 0.24349761009216309 0.14531062543392181
0.12808631360530853 0.25262889266014099 0.094048380851745605
0.18593773245811462 0.25571957230567932 0.097944267094135284
0.24381127953529358 0.25829774141311646 0.10221295803785324
0.30365434288978577 0.26106429100036621 0.10727856308221817
0.36397644877433777 0.26377633213996887 0.11362017691135406
0.42523530125617981 0.26679113507270813 0.12008655071258545
0.48616597056388855 0.27035826444625854 0.12652038037776947
0.54674947261810303 0.27533414959907532 0.13221625983715057
0.60717284679412842 0.28127223253250122 0.13795995712280273
0.66727805137634277 0.28746199607849121 0.14368367195129395
0.72698116302490234 0.29354467988014221 0.14932408928871155
0.78647631406784058 0.29926908016204834 0.15458773076534271
0.84581947326660156 0.30473220348358154 0.15905381739139557
0.14456364512443542 0.31674239039421082 0.10555614531040192
0.20378859341144562 0.32020539045333862 0.11013288050889969
0.26299780607223511 0.32336810231208801 0.11475023627281189
0.32176503539085388 0.32638651132583618 0.12008912116289139
0.38283529877662659 0.32943552732467651 0.12624813616275787
0.44384005665779114 0.33266672492027283 0.13270767033100128
0.50467628240585327 0.33627653121948242 0.13924391567707062
0.5652540922164917 0.34074097871780396 0.14531391859054565
0.62581157684326172 0.34600847959518433 0.15097607672214508
0.68580406904220581 0.35146775841712952 0.15709768235683441
0.74561268091201782 0.35669365525245667 0.16257442533969879
0.80516594648361206 0.36178603768348694 0.16785883903503418
0.86461138725280762 0.36689320206642151 0.17221757769584656
0.16194948554039001 0.38164395093917847 0.11757556349039078
0.22120974957942963 0.38556316494941711 0.12255994230508804
0.28143620491027832 0.38919708132743835 0.12753722071647644
0.34083878993988037 0.39273864030838013 0.13296522200107574
0.40185844898223877 0.39625781774520874 0.13876999914646149
0.46271544694900513 0.39985579252243042 0.1448475569486618
0.52326923608779907 0.40357294678688049 0.15118496119976044
0.58394545316696167 0.40767303109169006 0.15749579668045044
0.64435112476348877 0.41215795278549194 0.16371519863605499
0.7043147087097168 0.41672965884208679 0.16971668601036072
0.76421362161636353 0.42131808400154114 0.17521226406097412
0.82386636734008789 0.4257453978061676 0.18040645122528076
0.88341361284255981 0.43042582273483276 0.18472494184970856
0.17947423458099365 0.4470980167388916 0.12991459667682648
0.2397473156452179 0.45149195194244385 0.13524550199508667
0.29998388886451721 0.4555867612361908 0.14043493568897247
0.35996618866920471 0.45963624119758606 0.14588037133216858
0.42082342505455017 0.46369931101799011 0.15149559080600739
0.48138687014579773 0.46760064363479614 0.15741671621799469
0.54208225011825562 0.47142690420150757 0.16359241306781769
0.60267794132232666 0.47521445155143738 0.16987305879592896
0.66290527582168579 0.47910007834434509 0.17603354156017303
0.72293514013290405 0.4831942617893219 0.18192413449287415
0.78288960456848145 0.48724383115768433 0.18744462728500366
0.84261006116867065 0.49139901995658875 0.19231989979743958
0.90227484703063965 0.49577099084854126 0.19634880125522614
0.19700852036476135 0.51296979188919067 0.14227542281150818
0.25801324844360352 0.51769506931304932 0.14788462221622467
0.3187217116355896 0.5221976637840271 0.15339896082878113
0.37912726402282715 0.52663695812225342 0.15878225862979889
0.43982711434364319 0.53093814849853516 0.16437654197216034
0.50040525197982788 0.53512805700302124 0.16998200118541718
0.56097257137298584 0.53906035423278809 0.17605191469192505
0.62143290042877197 0.54285174608230591 0.18215470016002655
0.68160229921340942 0.54650473594665527 0.18810044229030609
0.74171656370162964 0.55025637149810791 0.19388343393802643
0.80158358812332153 0.55408179759979248 0.19917623698711395
0.86147046089172363 0.55803078413009644 0.20376600325107574
0.92128419876098633 0.56218850612640381 0.20763641595840454
0.21448186039924622 0.57893240451812744 0.15459568798542023
0.27616018056869507 0.58388972282409668 0.16057568788528442
0.33727914094924927 0.58870428800582886 0.16626979410648346
0.39802849292755127 0.59345585107803345 0.17163901031017303
0.4586818516254425 0.59802007675170898 0.17720235884189606
0.51931643486022949 0.60237312316894531 0.18278209865093231
0.57974159717559814 0.60641002655029297 0.18850341439247131
0.64011609554290771 0.61020922660827637 0.19432137906551361
0.70036053657531738 0.61379081010818481 0.20004928112030029
0.76044046878814697 0.61758172512054443 0.20552422106266022
0.82046693563461304 0.62128722667694092 0.21056225895881653
0.88025271892547607 0.62506771087646484 0.21495579183101654
0.94026708602905273 0.62911200523376465 0.21855063736438751
0.23152905702590942 0.64496326446533203 0.16692028939723969
0.29383304715156555 0.65018850564956665 0.17312738299369812
0.35536262392997742 0.65519839525222778 0.17888633906841278
0.4165036678314209 0.66010063886642456 0.18452458083629608
0.47738921642303467 0.66477006673812866 0.18998032808303833
0.53804069757461548 0.66922831535339355 0.19546709954738617
0.59847944974899292 0.67347347736358643 0.20095410943031311
0.6589055061340332 0.67736583948135376 0.2064763605594635
0.7191275954246521 0.68119138479232788 0.21190457046031952
0.7791668176651001 0.6849137544631958 0.21703295409679413
0.83931416273117065 0.6885262131690979 0.22170381247997284
0.89901143312454224 0.69235366582870483 0.22572144865989685
0.95908975601196289 0.69627970457077026 0.22915622591972351
0.24801664054393768 0.71096807718276978 0.17881967127323151
0.31093224883079529 0.71639508008956909 0.18534757196903229
0.37297973036766052 0.72153908014297485 0.19133478403091431
0.4345695972442627 0.72658836841583252 0.19698388874530792
0.49570134282112122 0.73138177394866943 0.2024901807308197
0.55644887685775757 0.73594743013381958 0.20786659419536591
0.61697757244110107 0.74031859636306763 0.21313276886940002
0.67754584550857544 0.74444800615310669 0.21836104989051819
0.73769742250442505 0.74834233522415161 0.22353459894657135
0.79789966344833374 0.75210404396057129 0.2281830757856369
0.85786938667297363 0.75590658187866211 0.232569620013237
0.91776227951049805 0.75968539714813232 0.23640073835849762
0.97686123847961426 0.76350778341293335 0.23956772685050964
0.26379856467247009 0.77708256244659424 0.19032995402812958
0.32744067907333374 0.7826341986656189 0.19703735411167145
0.39002496004104614 0.78788077831268311 0.20326456427574158
0.45199519395828247 0.79302114248275757 0.2090715765953064
0.51334333419799805 0.79789084196090698 0.21455216407775879
0.57433044910430908 0.80262255668640137 0.21988274157047272
0.63515317440032959 0.80718851089477539 0.22500595450401306
0.69555991888046265 0.81135213375091553 0.22990967333316803
0.75582259893417358 0.81536233425140381 0.23472222685813904
0.81619155406951904 0.81931769847869873 0.23914901912212372
0.87595093250274658 0.8231779932975769 0.24315322935581207
0.93614852428436279 0.82694220542907715 0.2467338889837265
0.98999738693237305 0.83070898056030273 0.24962779879570007
0.27862787246704102 0.84331780672073364 0.20133422315120697
0.3428894579410553 0.8488202691078186 0.20826701819896698
0.40607205033302307 0.85423260927200317 0.21467411518096924
0.46852543950080872 0.85941696166992188 0.22065635025501251
0.53023606538772583 0.86445015668869019 0.22613401710987091
0.59161365032196045 0.86926484107971191 0.23131990432739258
0.65249478816986084 0.87387144565582275 0.23636844754219055
0.71313154697418213 0.87822443246841431 0.24112027883529663
0.77363872528076172 0.88242644071578979 0.24563509225845337
0.83367013931274414 0.88642925024032593 0.24965737760066986
0.89398926496505737 0.89037555456161499 0.2534087598323822
0.95363128185272217 0.89423328638076782 0.25669592618942261
0.99761366844177246 0.89803290367126465 0.25928029417991638
0.082153484225273132 0.063978157937526703 0.10086742043495178
0.13949142396450043 0.067251719534397125 0.10378178954124451
0.19632640480995178 0.069814093410968781 0.10655924677848816
0.25416198372840881 0.07262980192899704 0.11016283184289932
0.31328490376472473 0.075820520520210266 0.11416159570217133
0.37262675166130066 0.079605251550674438 0.11854919791221619
0.43320250511169434 0.084138385951519012 0.12326061725616455
0.49365618824958801 0.089633360505104065 0.12789198756217957
0.55339533090591431 0.095916569232940674 0.13286013901233673
0.61359113454818726 0.10293669998645782 0.13847476243972778
0.67296916246414185 0.1100473627448082 0.14446461200714111
0.73242795467376709 0.11686811596155167 0.1503712385892868
0.79157698154449463 0.12263675779104233 0.1553998738527298
0.098578311502933502 0.12689568102359772 0.11202142387628555
0.15483303368091583 0.12976013123989105 0.11462832987308502
0.21148228645324707 0.13223358988761902 0.1174701601266861
0.27009487152099609 0.1347692608833313 0.1215507984161377
0.32986241579055786 0.13794003427028656 0.12657973170280457
0.39078852534294128 0.14160595834255219 0.13176676630973816
0.45186823606491089 0.1460738331079483 0.1370433121919632
0.51234656572341919 0.15148207545280457 0.14219197630882263
0.57273256778717041 0.15800215303897858 0.14739985764026642
0.63302409648895264 0.16490162909030914 0.15314395725727081
0.69257980585098267 0.17214860022068024 0.15926991403102875
0.75227296352386475 0.17890508472919464 0.16510972380638123
0.8114241361618042 0.18487714231014252 0.17033717036247253
0.11372388899326324 0.1897154301404953 0.12257879227399826
0.17022013664245605 0.19232082366943359 0.12527437508106232
0.22705388069152832 0.19496695697307587 0.12853023409843445
0.28642764687538147 0.1975494921207428 0.13315074145793915
0.34752050042152405 0.20059466361999512 0.13938802480697632
0.40895858407020569 0.20423415303230286 0.14555186033248901
0.47029891610145569 0.20847342908382416 0.15103311836719513
0.53107982873916626 0.21383948624134064 0.1565406322479248
0.59170675277709961 0.22024035453796387 0.16202637553215027
0.6520196795463562 0.22700884938240051 0.16773661971092224
0.71168309450149536 0.23386697471141815 0.17375101149082184
0.77143031358718872 0.24037700891494751 0.17954796552658081
0.83086490631103516 0.24633213877677917 0.18443185091018677
0.12992176413536072 0.25303477048873901 0.13390393555164337
0.18623995780944824 0.25620242953300476 0.13718177378177643
0.24381621181964874 0.2587859034538269 0.14103235304355621
0.30491799116134644 0.26174166798591614 0.14595384895801544
0.36577746272087097 0.26487916707992554 0.15222311019897461
0.42743286490440369 0.26825788617134094 0.15868948400020599
0.48886752128601074 0.27235645055770874 0.1649574339389801
0.54983621835708618 0.2775169312953949 0.17059716582298279
0.61053371429443359 0.28363719582557678 0.17623515427112579
0.67065286636352539 0.28992435336112976 0.1820344477891922
0.73057812452316284 0.29618421196937561 0.18789467215538025
0.79023051261901855 0.30227199196815491 0.19348958134651184
0.8498578667640686 0.30790799856185913 0.19860482215881348
0.14724570512771606 0.3174152672290802 0.14604029059410095
0.20520821213722229 0.32089850306510925 0.14999412000179291
0.2632441520690918 0.32414251565933228 0.15428054332733154
0.32416102290153503 0.32739058136940002 0.15935268998146057
0.38489380478858948 0.33081379532814026 0.16521766781806946
0.44633424282073975 0.33446806669235229 0.1715284138917923
0.50766372680664062 0.33843204379081726 0.17799095809459686
0.56861579418182373 0.34321361780166626 0.1842513233423233
0.62920844554901123 0.34853464365005493 0.18964245915412903
0.68917334079742432 0.35408300161361694 0.19588926434516907
0.74925690889358521 0.359601229429245 0.20157487690448761
0.80885261297225952 0.36502966284751892 0.20709830522537231
0.86869925260543823 0.37027046084403992 0.21195819973945618
0.16534459590911865 0.38255172967910767 0.15867222845554352
0.22442755103111267 0.38655772805213928 0.16314859688282013
0.28291565179824829 0.3903297483921051 0.16776159405708313
0.34362435340881348 0.39417833089828491 0.17294569313526154
0.4042973518371582 0.39815357327461243 0.17835380136966705
0.46527183055877686 0.40213507413864136 0.18442918360233307
0.52641487121582031 0.40623199939727783 0.19079072773456573
0.58731669187545776 0.41034379601478577 0.1970493495464325
0.64774233102798462 0.41489613056182861 0.20256061851978302
0.70775049924850464 0.41966402530670166 0.2088618278503418
0.76780325174331665 0.42445164918899536 0.21471133828163147
0.82753676176071167 0.42920023202896118 0.220057412981987
0.8873523473739624 0.43421027064323425 0.22470127046108246
0.18334484100341797 0.44838249683380127 0.17151612043380737
0.24330195784568787 0.45273867249488831 0.17643378674983978
0.3026498556137085 0.45700439810752869 0.18131360411643982
0.36327797174453735 0.46147796511650085 0.18630765378475189
0.42355796694755554 0.46590930223464966 0.19157592952251434
0.48449993133544922 0.47031518816947937 0.19724930822849274
0.54535681009292603 0.47433620691299438 0.20323850214481354
0.60608500242233276 0.47814846038818359 0.20938333868980408
0.66628319025039673 0.48207002878189087 0.21542468667030334
0.72651845216751099 0.48625391721725464 0.22165153920650482
0.78646945953369141 0.49047300219535828 0.22731772065162659
0.84635871648788452 0.49481278657913208 0.2324049323797226
0.9062691330909729 0.4994225800037384 0.23682780563831329
0.20154577493667603 0.51437252759933472 0.18452025949954987
0.26210010051727295 0.51916629076004028 0.18974712491035461
0.3221137523651123 0.52390009164810181 0.19478732347488403
0.38266122341156006 0.52864736318588257 0.19986037909984589
0.4432583749294281 0.53336852788925171 0.2050020843744278
0.50372743606567383 0.53793495893478394 0.21040312945842743
0.56433480978012085 0.54207247495651245 0.21614393591880798
0.62491405010223389 0.54577863216400146 0.2222307026386261
0.68505358695983887 0.54950141906738281 0.22823892533779144
0.74534469842910767 0.5533568263053894 0.23417669534683228
0.80524373054504395 0.55729609727859497 0.23956476151943207
0.86534088850021362 0.56132656335830688 0.24442723393440247
0.92523550987243652 0.56569206714630127 0.24855299293994904
0.21960577368736267 0.58048874139785767 0.1975066065788269
0.28079980611801147 0.5856207013130188 0.20302705466747284
0.3414253294467926 0.59055882692337036 0.20832346379756927
0.40194594860076904 0.59558820724487305 0.21339446306228638
0.46250170469284058 0.60042703151702881 0.21858766674995422
0.52285176515579224 0.60502481460571289 0.22381208837032318
0.58344632387161255 0.60927832126617432 0.22938461601734161
0.6438719630241394 0.61315339803695679 0.23515743017196655
0.70406365394592285 0.61691278219223022 0.24080801010131836
0.7642940878868103 0.62067234516143799 0.24650101363658905
0.82427126169204712 0.62448322772979736 0.25156188011169434
0.88434052467346191 0.62836748361587524 0.25615495443344116
0.94438529014587402 0.63240945339202881 0.26003819704055786
0.23725347220897675 0.64665454626083374 0.21036581695079803
0.29916560649871826 0.65191650390625 0.21614760160446167
0.36031684279441833 0.65707731246948242 0.22171206772327423
0.42107221484184265 0.66218286752700806 0.22691731154918671
0.48168453574180603 0.66713798046112061 0.23201173543930054
0.542125403881073 0.6717955470085144 0.23725706338882446
0.60250353813171387 0.67620766162872314 0.2425311803817749
0.66294819116592407 0.68022060394287109 0.24794051051139832
0.72313255071640015 0.68410873413085938 0.25331383943557739
0.78330188989639282 0.68784517049789429 0.25856921076774597
0.84339010715484619 0.69167512655258179 0.26333624124526978
0.90339595079421997 0.69553542137145996 0.26763060688972473
0.9635043740272522 0.6994512677192688 0.27118560671806335
0.25433361530303955 0.71274852752685547 0.22294507920742035
0.31689584255218506 0.71813380718231201 0.22900946438312531
0.37855708599090576 0.72340172529220581 0.23478096723556519
0.43970820307731628 0.72861653566360474 0.24015228450298309
0.50053101778030396 0.73363661766052246 0.24525037407875061
0.56111377477645874 0.73843121528625488 0.25031563639640808
0.62146097421646118 0.74286776781082153 0.2554771900177002
0.68192452192306519 0.74711096286773682 0.26057186722755432
0.74214011430740356 0.75110173225402832 0.26562213897705078
0.80230140686035156 0.75498652458190918 0.27039077877998352
0.86245256662368774 0.75881356000900269 0.27484089136123657
0.92230409383773804 0.76263898611068726 0.27878579497337341
0.98101341724395752 0.76656508445739746 0.28216379880905151
0.27062395215034485 0.77889782190322876 0.23493629693984985
0.33383381366729736 0.78435343503952026 0.24138246476650238
0.39610564708709717 0.78970128297805786 0.24738633632659912
0.45777431130409241 0.79491859674453735 0.25286144018173218
0.51884233951568604 0.80003398656845093 0.258046954870224
0.57953435182571411 0.8049125075340271 0.26311281323432922
0.64002144336700439 0.80958610773086548 0.26802828907966614
0.70054179430007935 0.81394070386886597 0.27285969257354736
0.76072549819946289 0.81806415319442749 0.27759715914726257
0.82098484039306641 0.82202571630477905 0.2818814218044281
0.88107627630233765 0.82592171430587769 0.28600135445594788
0.94099968671798706 0.829781174659729 0.28959614038467407
0.9926910400390625 0.83366924524307251 0.29278594255447388
0.28592550754547119 0.84505856037139893 0.24658641219139099
0.34982049465179443 0.85058778524398804 0.25327217578887939
0.41272523999214172 0.85607022047042847 0.25944092869758606
0.47481060028076172 0.861411452293396 0.26500993967056274
0.53626137971878052 0.86644929647445679 0.27027803659439087
0.59729069471359253 0.87143927812576294 0.27531558275222778
0.6580769419670105 0.87618547677993774 0.28005144000053406
0.71851259469985962 0.88068121671676636 0.28465640544891357
0.7788546085357666 0.88492250442504883 0.28901410102844238
0.83916383981704712 0.88906341791152954 0.29319313168525696
0.89902174472808838 0.89304399490356445 0.29696592688560486
0.95921230316162109 0.89698970317840576 0.30019748210906982
0.99882811307907104 0.90081721544265747 0.30311787128448486
0.081918366253376007 0.064046226441860199 0.1395479142665863
0.13959518074989319 0.067801110446453094 0.14255668222904205
0.19658203423023224 0.070811554789543152 0.14542628824710846
0.2549642026424408 0.073948010802268982 0.14895577728748322
0.31380411982536316 0.077531225979328156 0.15298603475093842
0.37485548853874207 0.081491194665431976 0.15712112188339233
0.43517294526100159 0.086241252720355988 0.16139936447143555
0.49561983346939087 0.09170813113451004 0.16565974056720734
0.55643671751022339 0.097990207374095917 0.17016230523586273
0.6161465048789978 0.10481763631105423 0.17554408311843872
0.67633640766143799 0.11183381825685501 0.1818845272064209
0.73549318313598633 0.11846651881933212 0.18810465931892395
0.79512107372283936 0.1243448480963707 0.19381514191627502
0.099061779677867889 0.12689568102359772 0.15085040032863617
0.15512561798095703 0.12997229397296906 0.1535235196352005
0.21189224720001221 0.1327860951423645 0.15638601779937744
0.27075457572937012 0.13582901656627655 0.16055862605571747
0.33155426383018494 0.13934154808521271 0.16551969945430756
0.39271456003189087 0.14329041540622711 0.17048783600330353
0.45392963290214539 0.14801859855651855 0.17524562776088715
0.51490813493728638 0.15348723530769348 0.17974519729614258
0.57573819160461426 0.15990699827671051 0.18460918962955475
0.63567805290222168 0.16686168313026428 0.19015504419803619
0.69574487209320068 0.17399848997592926 0.19650287926197052
0.75538188219070435 0.18079228699207306 0.20284357666969299
0.81512069702148438 0.18682385981082916 0.20855796337127686
0.11513577401638031 0.1897173672914505 0.1619928777217865
0.17088845372200012 0.19248057901859283 0.16462565958499908
0.2281595766544342 0.19534532725811005 0.16769793629646301
0.28764176368713379 0.19845367968082428 0.17252130806446075
0.34925219416618347 0.20194408297538757 0.17825092375278473
0.41119974851608276 0.20583821833133698 0.18415479362010956
0.47283825278282166 0.21045446395874023 0.18919636309146881
0.53403884172439575 0.2160392701625824 0.19419579207897186
0.59483563899993896 0.22237692773342133 0.1993735134601593
0.65483039617538452 0.22914472222328186 0.20503270626068115
0.71500235795974731 0.23602411150932312 0.21125710010528564
0.77463799715042114 0.24263623356819153 0.21739673614501953
0.83450794219970703 0.24876642227172852 0.2229507714509964
0.13193148374557495 0.25305402278900146 0.1738845556974411
0.18889287114143372 0.25639581680297852 0.17698833346366882
0.24646787345409393 0.25936669111251831 0.18065434694290161
0.30625683069229126 0.26259070634841919 0.18581533432006836
0.36812064051628113 0.26609006524085999 0.1916157454252243
0.43026146292686462 0.2700161337852478 0.19749557971954346
0.49179065227508545 0.2745853066444397 0.20345243811607361
0.55295109748840332 0.27995723485946655 0.2086292952299118
0.61376315355300903 0.28590825200080872 0.21409684419631958
0.67368429899215698 0.29229408502578735 0.21980737149715424
0.7339709997177124 0.2987615168094635 0.22574575245380402
0.79344671964645386 0.30499258637428284 0.23173193633556366
0.85345214605331421 0.31088271737098694 0.23711363971233368
0.14993882179260254 0.3177487850189209 0.18650518357753754
0.2074706107378006 0.32146674394607544 0.19020718336105347
0.26622319221496582 0.32489588856697083 0.1943848580121994
0.3258148729801178 0.32849577069282532 0.19946177303791046
0.38745829463005066 0.33227559924125671 0.2051718682050705
0.4493410587310791 0.3362787663936615 0.21089029312133789
0.51090449094772339 0.34074202179908752 0.21668781340122223
0.57187372446060181 0.34564578533172607 0.22275198996067047
