assets/lut/shamoonabbasi desert gold 37.cube
# Created by: G'MIC (https://gmic.eu)
TITLE "desert_gold_37"
# LUT size
LUT_3D_SIZE 7
# Data domain
DOMAIN_MIN 0.0 0.0 0.0
DOMAIN_MAX 1.0 1.0 1.0
# LUT data points
0.0047305687330663204 0.0021784764248877764 0.0040672151371836662
0.043450344353914261 0.0017562716966494918 0.0032461427617818117
0.10610102862119675 0.00035400391789153218 0.0025307449977844954
0.24307182431221008 0 0
0.41291278600692749 0 9.6070529252756387e-05
0.58918893337249756 0 0.003352191299200058
0.78616684675216675 0 0.0023119160905480385
0.00028901943005621433 0.038372069597244263 0.0005509320180863142
0.035330947488546371 0.036644265055656433 0.0025475595612078905
0.10188357532024384 0.032668139785528183 0.0029809540137648582
0.22963331639766693 0.015981381759047508 0
0.39110726118087769 0.00033988204086199403 0
0.56805926561355591 0 1.5946930943755433e-05
0.7680550217628479 0.00053072161972522736 0
0 0.091949820518493652 0
0.026761986315250397 0.093516677618026733 0.0028029049281030893
0.10164579749107361 0.10005681961774826 0.0066063972190022469
0.2305976003408432 0.090343713760375977 0.0020761527121067047
0.40069794654846191 0.073118336498737335 0.00017359116463921964
0.59626370668411255 0.065792784094810486 0.00029494342743419111
0.81594693660736084 0.073544219136238098 0.00022804409672971815
0 0.19203929603099823 0
0.012608188204467297 0.20553256571292877 0.0024607190862298012
0.094777859747409821 0.2268528938293457 0.0094118155539035797
0.23473815619945526 0.23364867269992828 0.0085086598992347717
0.42711493372917175 0.22903615236282349 0.0041430303826928139
0.65193957090377808 0.2210882306098938 0.0039099003188312054
0.89853751659393311 0.21978802978992462 0.0039215688593685627
0 0.34675943851470947 1.8669577912078239e-05
0.015055458061397076 0.37988340854644775 0.0051494822837412357
0.090185932815074921 0.41210046410560608 0.010375767014920712
0.23403392732143402 0.42740005254745483 0.0059042838402092457
0.43580520153045654 0.42914900183677673 0.00011058134259656072
0.68509596586227417 0.42314136028289795 0.0018239039927721024
0.96325212717056274 0.41522809863090515 0.001078871195204556
2.3336971935350448e-05 0.56099426746368408 0.0002362419618293643
0.011277083307504654 0.60705083608627319 0.0079753054305911064
0.078432194888591766 0.64812934398651123 0.01146113034337759
0.21753862500190735 0.66906392574310303 0.0030101253651082516
0.41490393877029419 0.67733019590377808 0
0.67033559083938599 0.67470592260360718 0
0.96946030855178833 0.66132843494415283 0
0 0.82470577955245972 0
0.007309633307158947 0.8731732964515686 0.00060866115381941199
0.07323107123374939 0.91508382558822632 0.0043690400198101997
0.21081395447254181 0.93672728538513184 0
0.40743210911750793 0.9459196925163269 0
0.66128617525100708 0.94531714916229248 0
0.95763695240020752 0.93717503547668457 0
0.0056428350508213043 0.0019474403234198689 0.035888642072677612
0.040863245725631714 0.0043700425885617733 0.031108362600207329
0.11473702639341354 0.00019531250291038305 0.02494182251393795
0.24493789672851562 0 0.0062512713484466076
0.41157510876655579 0 0
0.59740644693374634 0 7.7789906072212034e-07
0.79618501663208008 0 0
0.0018424688605591655 0.037223890423774719 0.029866445809602737
0.037159580737352371 0.039031501859426498 0.034357722848653793
0.10712352395057678 0.030624674633145332 0.02857462503015995
0.23443351686000824 0.012685543857514858 0.0097078811377286911
0.39622622728347778 0.0015401353593915701 6.2531114963348955e-05
0.57656478881835938 0.00034466912620700896 0
0.78393411636352539 0.0018827251624315977 0
1.6515396055183373e-05 0.091851390898227692 0.017521427944302559
0.03247649222612381 0.097952902317047119 0.026906689628958702
0.10340936481952667 0.1013430580496788 0.034374400973320007
0.23651890456676483 0.090954720973968506 0.027772866189479828
0.40973430871963501 0.081817388534545898 0.015231188386678696
0.60819363594055176 0.072790168225765228 0.0095216790214180946
0.83048719167709351 0.074725449085235596 0.0082987621426582336
0 0.19725805521011353 0.0021224077790975571
0.020156336948275566 0.21557696163654327 0.014160126447677612
0.097078345715999603 0.23473961651325226 0.032987453043460846
0.24100565910339355 0.24336965382099152 0.042291902005672455
0.4391939640045166 0.24000009894371033 0.033049341291189194
0.66642385721206665 0.22921435534954071 0.023134881630539894
0.91118890047073364 0.22317786514759064 0.018880672752857208
0 0.35745331645011902 0.0010258094407618046
0.012911837548017502 0.39478549361228943 0.00949834194034338
0.087542816996574402 0.42599210143089294 0.02841593511402607
0.23840668797492981 0.44145369529724121 0.034218359738588333
0.44933164119720459 0.44273215532302856 0.021339580416679382
0.70019948482513428 0.4352603554725647 0.0064839380793273449
0.96669560670852661 0.42603576183319092 0.0025605144910514355
0 0.57316344976425171 0
0.0011779336491599679 0.6265454888343811 0.0031182533130049706
0.062365017831325531 0.66955184936523438 0.014364968053996563
0.21004199981689453 0.68869119882583618 0.011217932216823101
0.42329955101013184 0.69322162866592407 0.00033665078808553517
0.68817877769470215 0.68711799383163452 0
0.97217512130737305 0.67583709955215454 0
0 0.84002804756164551 0
0 0.89937382936477661 0
0.041743364185094833 0.94432276487350464 0.0014230766100808978
0.18927176296710968 0.95818161964416504 0
0.40051022171974182 0.96192663908004761 0
0.66519069671630859 0.95833677053451538 0
0.95893198251724243 0.9503522515296936 0
0.004413185641169548 0.0062013664282858372 0.091096796095371246
0.036278113722801208 0.0053414436988532543 0.090142481029033661
0.11248647421598434 0.00025598861975595355 0.084806792438030243
0.24156121909618378 0 0.053483925759792328
0.40688759088516235 0 0.010922675020992756
0.59332454204559326 0.00089302810374647379 0.00075894524343311787
0.79356127977371216 0 0
0.0042251287959516048 0.038480393588542938 0.086131736636161804
0.036830227822065353 0.03908475860953331 0.091450080275535583
0.10609643906354904 0.032296918332576752 0.082960508763790131
0.23554627597332001 0.013872857205569744 0.057387888431549072
0.3984827995300293 0.0024656257592141628 0.028225632384419441
0.57765311002731323 0.00061274511972442269 0.0060970382764935493
0.78870874643325806 0.001947993878275156 0.0030437693931162357
0.0012238146737217903 0.091560676693916321 0.070557810366153717
0.035251349210739136 0.0969267338514328 0.080729663372039795
0.10574638843536377 0.1037333756685257 0.08459782600402832
0.24682655930519104 0.095565780997276306 0.079985447227954865
0.42268505692481995 0.088334880769252777 0.065113544464111328
0.62335360050201416 0.078494653105735779 0.05560670793056488
0.84466701745986938 0.076222047209739685 0.046603213995695114
5.9958063502563164e-05 0.19757382571697235 0.040027841925621033
0.026254257187247276 0.21787281334400177 0.060457192361354828
0.10148315131664276 0.24265375733375549 0.080646276473999023
0.2549012303352356 0.253355473279953 0.09331059455871582
0.45501750707626343 0.25291404128074646 0.087387189269065857
0.68555641174316406 0.24055372178554535 0.079035408794879913
0.92859554290771484 0.23062083125114441 0.06951267272233963
0 0.36652466654777527 0.031270120292901993
0.016853826120495796 0.40290266275405884 0.046525485813617706
0.091712892055511475 0.43609929084777832 0.075449086725711823
0.24373935163021088 0.45698463916778564 0.083917655050754547
0.46205493807792664 0.45982241630554199 0.06822706013917923
0.72010254859924316 0.44998666644096375 0.044004790484905243
0.97772049903869629 0.43864506483078003 0.038056287914514542
0 0.59080785512924194 0.0032290888484567404
0.00099116307683289051 0.64119476079940796 0.0052096047438681126
0.060360118746757507 0.6830487847328186 0.02906595915555954
0.2093154639005661 0.70598083734512329 0.042642243206501007
0.43281435966491699 0.71123582124710083 0.023047443479299545
0.70832401514053345 0.70314115285873413 0.0016475751763209701
0.98166900873184204 0.69189733266830444 0.0019870235119014978
0 0.85931867361068726 0
0 0.91451573371887207 0
0.039657037705183029 0.95547252893447876 0.00024838914396241307
0.1832994669675827 0.97114497423171997 0.0085473302751779556
0.40102028846740723 0.97439903020858765 0.0029454100877046585
0.67383939027786255 0.97121798992156982 0
0.96490979194641113 0.96485996246337891 0.00025534536689519882
0.00066519342362880707 0.00018678553169593215 0.2131199985742569
0.03253256157040596 0.00023579316621180624 0.21861113607883453
0.10452901571989059 0 0.20747934281826019
0.23150990903377533 0 0.17160090804100037
0.4008868932723999 0.00016355326806660742 0.1280820369720459
0.58657592535018921 0.0036701278295367956 0.08668161928653717
0.78080087900161743 0.00033527449704706669 0.04183509573340416
0.0024751550517976284 0.027826108038425446 0.19844195246696472
0.032740231603384018 0.031785972416400909 0.20565566420555115
0.099325485527515411 0.02779185026884079 0.19934295117855072
0.22827015817165375 0.0143700847402215 0.172420933842659
0.39352989196777344 0.0018849391490221024 0.13837794959545135
0.57784026861190796 0.00029649920179508626 0.10785496979951859
0.78181380033493042 0.00063958263490349054 0.07999071478843689
0.0029771244153380394 0.085186585783958435 0.17994746565818787
0.035376753658056259 0.093692362308502197 0.18704600632190704
0.10733397305011749 0.10237395018339157 0.19885136187076569
0.25011500716209412 0.096069186925888062 0.19562439620494843
0.42728972434997559 0.084949657320976257 0.17544929683208466
0.63222020864486694 0.076139010488986969 0.16196942329406738
0.85245519876480103 0.072959065437316895 0.1377621591091156
9.2809343186672777e-05 0.19883041083812714 0.14505892992019653
0.025382576510310173 0.22086314857006073 0.16860145330429077
0.10119706392288208 0.25011718273162842 0.19317936897277832
0.26260200142860413 0.25649374723434448 0.20652227103710175
0.46619608998298645 0.25347661972045898 0.20058524608612061
0.6985011100769043 0.24455544352531433 0.18865051865577698
0.94527196884155273 0.23156812787055969 0.1691599041223526
0 0.37300577759742737 0.13297784328460693
0.014778421260416508 0.40980049967765808 0.15197888016700745
0.085242494940757751 0.44613960385322571 0.18072068691253662
0.23875568807125092 0.46651732921600342 0.19143348932266235
0.4649665355682373 0.46853166818618774 0.17719249427318573
0.73667913675308228 0.45652925968170166 0.15774975717067719
0.98989653587341309 0.4417993426322937 0.14561519026756287
0 0.60431218147277832 0.074287846684455872
0.0018615423468872905 0.65044909715652466 0.086154550313949585
0.057700872421264648 0.69188207387924194 0.12094900012016296
0.20000229775905609 0.71873778104782104 0.13980963826179504
0.42651444673538208 0.72600799798965454 0.12137524783611298
0.71887832880020142 0.71304535865783691 0.10044924914836884
0.99123090505599976 0.69697672128677368 0.10539254546165466
0 0.875438392162323 0.004778753500431776
0 0.92358851432800293 0.021273475140333176
0.044021144509315491 0.96084249019622803 0.064969219267368317
0.17783325910568237 0.97801101207733154 0.095274157822132111
0.39361956715583801 0.98313659429550171 0.093240611255168915
0.6736418604850769 0.97868472337722778 0.086553283035755157
0.97023302316665649 0.96972936391830444 0.10380054265260696
0 0 0.37734332680702209
0.0210584606975317 0 0.38065871596336365
0.090738333761692047 0 0.36962544918060303
0.21383887529373169 0 0.3381316065788269
0.38358914852142334 5.9898226027144119e-05 0.29472675919532776
0.57444697618484497 0.00073258642805740237 0.24911047518253326
0.77171224355697632 0 0.20783373713493347
0 0.0086744716390967369 0.35323992371559143
0.021301254630088806 0.019216366112232208 0.36087203025817871
0.088355056941509247 0.023897059261798859 0.35693815350532532
0.21286335587501526 0.014763327315449715 0.33575525879859924
0.37912699580192566 0.0025732452049851418 0.30185577273368835
0.5710299015045166 0.00020090739417355508 0.26740136742591858
0.78424203395843506 0.00071194220799952745 0.23756895959377289
6.1753220506943762e-05 0.076948635280132294 0.32864692807197571
0.029646197333931923 0.087117105722427368 0.34319019317626953
0.10177423804998398 0.10080995410680771 0.35609549283981323
0.23593698441982269 0.097791291773319244 0.35512617230415344
0.41590824723243713 0.083031609654426575 0.33698320388793945
0.62630736827850342 0.071330621838569641 0.31449130177497864
0.85958069562911987 0.068391360342502594 0.29057556390762329
0 0.19932210445404053 0.30748045444488525
0.024025831371545792 0.22149358689785004 0.33191302418708801
0.10263625532388687 0.24710802733898163 0.36196491122245789
0.2535894513130188 0.25652030110359192 0.38067817687988281
0.46787905693054199 0.24963283538818359 0.37882331013679504
0.70542395114898682 0.23871622979640961 0.36021667718887329
0.95825546979904175 0.22539016604423523 0.33530765771865845
0 0.37491032481193542 0.29365551471710205
0.014493321068584919 0.41360348463058472 0.32140377163887024
0.083282634615898132 0.44877034425735474 0.3570951521396637
0.2357468456029892 0.46940410137176514 0.37225779891014099
0.46946036815643311 0.46712285280227661 0.36688297986984253
0.75232166051864624 0.45174819231033325 0.35558801889419556
0.99619567394256592 0.43749910593032837 0.33333656191825867
0 0.60855507850646973 0.24335071444511414
0.0043853758834302425 0.65523433685302734 0.273824542760849
0.057181518524885178 0.69624942541122437 0.31162887811660767
0.19159522652626038 0.72430431842803955 0.32337471842765808
0.41401508450508118 0.73417341709136963 0.30515861511230469
0.72076112031936646 0.71636337041854858 0.29873055219650269
0.99543780088424683 0.69509273767471313 0.30239823460578918
0 0.87997031211853027 0.17545756697654724
0.001558460877276957 0.92795282602310181 0.20996549725532532
0.04870954155921936 0.96349620819091797 0.25230869650840759
0.17134848237037659 0.98102915287017822 0.27501937747001648
0.38069427013397217 0.98673111200332642 0.27292492985725403
0.66564369201660156 0.9824599027633667 0.27419024705886841
0.97259360551834106 0.96972382068634033 0.30258452892303467
0 0 0.56073898077011108
0.0064425449818372726 0 0.56292331218719482
0.071733631193637848 0 0.55783140659332275
0.19095249474048615 0.00021178301540203393 0.53308528661727905
0.36163479089736938 0.0027498281560838223 0.48716086149215698
0.5585559606552124 0 0.43778342008590698
0.76852548122406006 0 0.40152209997177124
0 0.00030427821911871433 0.52975517511367798
0.0084206825122237206 0.0041790683753788471 0.53592365980148315
0.073243670165538788 0.0097643835470080376 0.53308665752410889
0.19435052573680878 0.012190156616270542 0.51826971769332886
0.36475718021392822 0.0091978637501597404 0.49126970767974854
0.56438940763473511 0.00056487438268959522 0.45569846034049988
0.78554844856262207 0 0.42570322751998901
0 0.064560100436210632 0.50346547365188599
0.02293548546731472 0.077489294111728668 0.51892751455307007
0.093522287905216217 0.089693717658519745 0.53128314018249512
0.22207508981227875 0.094527572393417358 0.5347217321395874
0.40421479940414429 0.089294672012329102 0.52610546350479126
0.62375921010971069 0.070064395666122437 0.50883948802947998
0.86491179466247559 0.056921999901533127 0.48804271221160889
0.0010016497690230608 0.19289873540401459 0.49151426553726196
0.029265280812978745 0.21725617349147797 0.51683598756790161
0.10652580857276917 0.24089859426021576 0.54932117462158203
0.24941416084766388 0.25383752584457397 0.57298070192337036
0.45658639073371887 0.25331413745880127 0.57756763696670532
0.71038353443145752 0.23170804977416992 0.57413208484649658
0.9684455394744873 0.21725437045097351 0.55687457323074341
7.5037336500827223e-05 0.37286680936813354 0.48776611685752869
0.016043270006775856 0.41255360841751099 0.52319538593292236
0.089032985270023346 0.44601014256477356 0.56673902273178101
0.24218687415122986 0.46290621161460876 0.59639686346054077
0.47483056783676147 0.46099749207496643 0.60800158977508545
0.76015353202819824 0.44548496603965759 0.6002458930015564
0.99838525056838989 0.4324241578578949 0.57693326473236084
0 0.60781168937683105 0.4666677713394165
0.0026715747080743313 0.6555173397064209 0.50986284017562866
0.059963598847389221 0.69384801387786865 0.5506928563117981
0.19586271047592163 0.71849721670150757 0.57149481773376465
0.41744861006736755 0.72704225778579712 0.56978243589401245
0.72555840015411377 0.71274721622467041 0.56215578317642212
0.99740725755691528 0.69253242015838623 0.54803198575973511
0 0.88015389442443848 0.42544105648994446
0.0027692308649420738 0.92800253629684448 0.46547454595565796
0.052515245974063873 0.96099871397018433 0.50312680006027222
0.17083422839641571 0.9787670373916626 0.52276313304901123
0.37262266874313354 0.98581522703170776 0.52177757024765015
0.6566968560218811 0.98353850841522217 0.51233381032943726
0.97522753477096558 0.96992266178131104 0.52589750289916992
0 0 0.76311779022216797
0.0039222715422511101 0 0.76549911499023438
0.064521282911300659 0 0.76627808809280396
0.18004745244979858 0.001057164859957993 0.74958324432373047
0.35192686319351196 0.0016920501366257668 0.70124560594558716
0.55139762163162231 0 0.65141540765762329
0.77128434181213379 0 0.62014049291610718
0 0 0.73132377862930298
0.0042689456604421139 0.0006193273002281785 0.73579937219619751
0.066942133009433746 0.0019158755894750357 0.73095530271530151
0.18678656220436096 0.0062080384232103825 0.72125589847564697
0.3591596782207489 0.011340735480189323 0.70304769277572632
0.56156039237976074 0.00054153741803020239 0.6698833703994751
0.78643506765365601 0 0.64021235704421997
0.00058354396605864167 0.055860541760921478 0.70896273851394653
0.018845740705728531 0.073460943996906281 0.72294187545776367
0.089409023523330688 0.08307792991399765 0.73191916942596436
0.21749313175678253 0.089576095342636108 0.73995178937911987
0.39992687106132507 0.090397194027900696 0.74226218461990356
0.62188231945037842 0.070653952658176422 0.7307780385017395
0.86542928218841553 0.052449934184551239 0.71184229850769043
0.0023343553766608238 0.19382913410663605 0.70469897985458374
0.031640294939279556 0.21832835674285889 0.72903156280517578
0.10822135955095291 0.23953449726104736 0.76184338331222534
0.24592697620391846 0.24961225688457489 0.79192769527435303
0.44844695925712585 0.24965348839759827 0.80724185705184937
0.70354902744293213 0.23305901885032654 0.81170511245727539
0.97131621837615967 0.22153742611408234 0.80615025758743286
0 0.38254988193511963 0.71282047033309937
0.013005110435187817 0.41379323601722717 0.75485479831695557
0.092931516468524933 0.44326984882354736 0.80028361082077026
0.2421220988035202 0.45922234654426575 0.84114497900009155
0.46113702654838562 0.46259310841560364 0.85980319976806641
0.7409551739692688 0.45063486695289612 0.85722380876541138
0.99583500623703003 0.4396916925907135 0.83891642093658447
0 0.61616098880767822 0.71195089817047119
0.00025910022668540478 0.65175372362136841 0.76561230421066284
0.064974747598171234 0.68631649017333984 0.80837714672088623
0.204899862408638 0.71037095785140991 0.84033262729644775
0.41798105835914612 0.72114622592926025 0.85116255283355713
0.71122372150421143 0.71290856599807739 0.84673953056335449
0.99477297067642212 0.69541400671005249 0.83052414655685425
0 0.88275742530822754 0.68877464532852173
0.0045393402688205242 0.92020660638809204 0.73290228843688965
0.064343348145484924 0.95303440093994141 0.77159154415130615
0.18588121235370636 0.9728463888168335 0.79595780372619629
0.38419944047927856 0.98169052600860596 0.80322045087814331
0.66911685466766357 0.97879308462142944 0.80120384693145752
0.97932577133178711 0.96863877773284912 0.80530083179473877
