assets/lut/shamoonabbasi golden sony 37.cube
# Created by: G'MIC (https://gmic.eu)
TITLE "golden_sony_37"
# LUT size
LUT_3D_SIZE 7
# Data domain
DOMAIN_MIN 0.0 0.0 0.0
DOMAIN_MAX 1.0 1.0 1.0
# LUT data points
0.027329029515385628 0.044289696961641312 0.050405703485012054
0.02991180494427681 0.04830748587846756 0.051989894360303879
0.054711885750293732 0.049741063266992569 0.055734492838382721
0.092595286667346954 0.053153723478317261 0.056301191449165344
0.14024330675601959 0.054705332964658737 0.054226670414209366
0.22265636920928955 0.049231212586164474 0.050065178424119949
0.37770068645477295 0.024279680103063583 0.044302143156528473
0.044006586074829102 0.063284836709499359 0.065178275108337402
0.056473195552825928 0.073698468506336212 0.070660233497619629
0.074930153787136078 0.08010370284318924 0.069570265710353851
0.12406002730131149 0.078229166567325592 0.067534714937210083
0.20205709338188171 0.071955032646656036 0.065390057861804962
0.31723859906196594 0.055551998317241669 0.059963945299386978
0.49668672680854797 0.021352058276534081 0.045671813189983368
0.060653176158666611 0.10228196531534195 0.080607593059539795
0.085338935256004333 0.11412855982780457 0.084429346024990082
0.11705567687749863 0.12953910231590271 0.084948234260082245
0.17222043871879578 0.13892333209514618 0.080955043435096741
0.28017294406890869 0.13105030357837677 0.077195309102535248
0.45066934823989868 0.078850194811820984 0.068175069987773895
0.65752619504928589 0.02622668631374836 0.043354436755180359
0.074226722121238708 0.15611235797405243 0.098133429884910583
0.10899658501148224 0.17397706210613251 0.097801625728607178
0.16691887378692627 0.20528565347194672 0.096838735044002533
0.2419956773519516 0.23029141128063202 0.088158547878265381
0.38730606436729431 0.24012801051139832 0.073057793080806732
0.59186869859695435 0.200357586145401 0.059289567172527313
0.82506108283996582 0.12132107466459274 0.034537956118583679
0.076217830181121826 0.2418770045042038 0.11449936777353287
0.13086132705211639 0.27522781491279602 0.11419269442558289
0.21430458128452301 0.31784799695014954 0.1118055135011673
0.33646103739738464 0.36908268928527832 0.095313221216201782
0.52379602193832397 0.42167460918426514 0.05141926184296608
0.73645228147506714 0.4382416307926178 0.017873501405119896
0.92743581533432007 0.40920877456665039 0.0099837509915232658
0.061834972351789474 0.39329415559768677 0.10895873606204987
0.17944347858428955 0.42664769291877747 0.13377931714057922
0.31236812472343445 0.48956117033958435 0.13969634473323822
0.46657267212867737 0.55202901363372803 0.12408071756362915
0.65596294403076172 0.62537163496017456 0.071512617170810699
0.82632291316986084 0.67446804046630859 0.018768025562167168
0.98207873106002808 0.69362729787826538 0.00012883204908575863
0.25548973679542542 0.64711302518844604 0.13079756498336792
0.39256736636161804 0.68117421865463257 0.18593475222587585
0.53720545768737793 0.7174069881439209 0.25172218680381775
0.65990918874740601 0.77087682485580444 0.26809525489807129
0.79042893648147583 0.82123678922653198 0.2554277777671814
0.91294479370117188 0.85577583312988281 0.18533492088317871
0.99788081645965576 0.88142591714859009 0.072232745587825775
0.026546044275164604 0.044546972960233688 0.051158875226974487
0.0325331911444664 0.050437912344932556 0.054911833256483078
0.051209736615419388 0.054290682077407837 0.061221163719892502
0.084083661437034607 0.05597686767578125 0.06377856433391571
0.13172583281993866 0.059428945183753967 0.063083991408348083
0.21276366710662842 0.056533962488174438 0.061581287533044815
0.36688315868377686 0.031195830553770065 0.055303070694208145
0.046107888221740723 0.066930361092090607 0.067550346255302429
0.057864829897880554 0.076372899115085602 0.073740012943744659
0.07197098433971405 0.086364224553108215 0.079326778650283813
0.11224740743637085 0.088255457580089569 0.08164137601852417
0.18475845456123352 0.082405507564544678 0.08032766729593277
0.29820519685745239 0.070584677159786224 0.07634340226650238
0.47685980796813965 0.03188762441277504 0.063914276659488678
0.066406100988388062 0.10395027697086334 0.090118288993835449
0.099462114274501801 0.11669027060270309 0.098927214741706848
0.12000614404678345 0.13241906464099884 0.10850133001804352
0.15936879813671112 0.14661504328250885 0.10699976235628128
0.26225802302360535 0.1420651376247406 0.10110326856374741
0.42420831322669983 0.10160870850086212 0.094637759029865265
0.62929093837738037 0.059325184673070908 0.071133755147457123
0.078266486525535583 0.15514364838600159 0.11344776302576065
0.12750564515590668 0.1809539794921875 0.12117010354995728
0.18378056585788727 0.20650172233581543 0.12920448184013367
0.24615226686000824 0.23581376671791077 0.13160067796707153
0.37559238076210022 0.25433254241943359 0.11876736581325531
0.5713539719581604 0.22137041389942169 0.10515031963586807
0.80237162113189697 0.15774758160114288 0.081445150077342987
0.086965061724185944 0.24917604029178619 0.13409705460071564
0.15279793739318848 0.28571406006813049 0.14404454827308655
0.24714912474155426 0.32788684964179993 0.15185977518558502
0.36378699541091919 0.37796959280967712 0.14613504707813263
0.52816134691238403 0.42911344766616821 0.12144569307565689
0.73234742879867554 0.45471298694610596 0.094858221709728241
0.92437183856964111 0.44108843803405762 0.06834489107131958
0.088245406746864319 0.40614837408065796 0.13730260729789734
0.20950330793857574 0.43961706757545471 0.16992564499378204
0.35350403189659119 0.50534665584564209 0.18737182021141052
0.50513207912445068 0.56823968887329102 0.18352285027503967
0.67914676666259766 0.63413304090499878 0.15918567776679993
0.83548653125762939 0.68593788146972656 0.1104201078414917
0.97430014610290527 0.70431077480316162 0.049783550202846527
0.27493447065353394 0.66060107946395874 0.1608947366476059
0.41701206564903259 0.68914341926574707 0.2260342538356781
0.56859463453292847 0.7297864556312561 0.29887291789054871
0.68598222732543945 0.78111153841018677 0.31516289710998535
0.81317508220672607 0.82985770702362061 0.309541255235672
0.92604297399520874 0.86431258916854858 0.26887238025665283
0.99572300910949707 0.88625293970108032 0.17261600494384766
0.027628207579255104 0.050173245370388031 0.064554609358310699
0.038317497819662094 0.05211162194609642 0.064340583980083466
0.056325800716876984 0.057149611413478851 0.069754578173160553
0.083556920289993286 0.06217459961771965 0.074338950216770172
0.12911073863506317 0.064481236040592194 0.075290217995643616
0.2044413685798645 0.066223546862602234 0.077358707785606384
0.34411695599555969 0.049813006073236465 0.071043737232685089
0.04052010178565979 0.070013605058193207 0.075260445475578308
0.061946481466293335 0.080405488610267639 0.075774624943733215
0.072516903281211853 0.089200504124164581 0.081869564950466156
0.1062631830573082 0.090830288827419281 0.090516857802867889
0.17704729735851288 0.092011168599128723 0.098214901983737946
0.28398174047470093 0.087700784206390381 0.096741467714309692
0.44974461197853088 0.060601342469453812 0.084947101771831512
0.063815131783485413 0.10933844000101089 0.10308463871479034
0.10483488440513611 0.12248927354812622 0.10296066850423813
0.12690410017967224 0.13916778564453125 0.11419866234064102
0.15024341642856598 0.15820342302322388 0.12432362884283066
0.23880548775196075 0.15900892019271851 0.12807939946651459
0.39628720283508301 0.12868025898933411 0.12498582154512405
0.59822481870651245 0.094802066683769226 0.10367526113986969
0.081906788051128387 0.16224187612533569 0.13353420794010162
0.14429023861885071 0.18824709951877594 0.1390601247549057
0.21248845756053925 0.21297945082187653 0.15424591302871704
0.25476756691932678 0.24303953349590302 0.16714432835578918
0.34659075736999512 0.26899546384811401 0.16411083936691284
0.53780514001846313 0.25414267182350159 0.15366293489933014
0.77401554584503174 0.20010299980640411 0.13234174251556396
0.093875885009765625 0.26407915353775024 0.1596490740776062
0.17485612630844116 0.29336452484130859 0.17566250264644623
0.29525458812713623 0.34112465381622314 0.18906410038471222
0.41433212161064148 0.38977703452110291 0.20189207792282104
0.53957217931747437 0.44022646546363831 0.19828593730926514
0.72215878963470459 0.47773197293281555 0.1808273047208786
0.90254360437393188 0.47252896428108215 0.16363689303398132
0.10400097072124481 0.426481693983078 0.16911263763904572
0.23926472663879395 0.45649304986000061 0.20910005271434784
0.40199190378189087 0.52111262083053589 0.2344813346862793
0.56161695718765259 0.58552134037017822 0.24095919728279114
0.71396386623382568 0.65012890100479126 0.24097056686878204
0.84016472101211548 0.69761884212493896 0.22688901424407959
0.97327113151550293 0.72574144601821899 0.18997232615947723
0.30228155851364136 0.67618376016616821 0.20507989823818207
0.45150572061538696 0.70426863431930542 0.27283087372779846
0.59713524580001831 0.73998254537582397 0.34426462650299072
0.71562153100967407 0.7877497673034668 0.36321693658828735
0.83881568908691406 0.83775538206100464 0.36946237087249756
0.93767744302749634 0.87177783250808716 0.34198319911956787
0.99817967414855957 0.90058577060699463 0.30639547109603882
0.022929247468709946 0.050991266965866089 0.078462772071361542
0.036774370819330215 0.055397063493728638 0.07855677604675293
0.061012387275695801 0.058897219598293304 0.082567311823368073
0.093014627695083618 0.060100480914115906 0.085480555891990662
0.13756139576435089 0.058932825922966003 0.088361717760562897
0.21226455271244049 0.059277478605508804 0.090237483382225037
0.34222307801246643 0.055677883327007294 0.087962821125984192
0.033655561506748199 0.076189018785953522 0.093767769634723663
0.061214655637741089 0.083740472793579102 0.093365535140037537
0.084500662982463837 0.088035568594932556 0.094540581107139587
0.11541611701250076 0.093668036162853241 0.10404893755912781
0.1745239645242691 0.10076416283845901 0.11367211490869522
0.27230498194694519 0.10025480389595032 0.11548691987991333
0.43034005165100098 0.081165596842765808 0.10558824986219406
0.052611932158470154 0.11548244953155518 0.11846328526735306
0.096853949129581451 0.12936261296272278 0.11793316155672073
0.13324576616287231 0.14651118218898773 0.11864408850669861
0.15418548882007599 0.1632426381111145 0.12763574719429016
0.23133213818073273 0.16978418827056885 0.14457201957702637
0.38593176007270813 0.15380817651748657 0.15127848088741302
0.56419533491134644 0.13098143041133881 0.13667657971382141
0.070926636457443237 0.1777588278055191 0.15211392939090729
0.13871641457080841 0.19686621427536011 0.15697933733463287
0.22589309513568878 0.22326524555683136 0.16025835275650024
0.26859790086746216 0.25474250316619873 0.1737898588180542
0.32147574424743652 0.28773754835128784 0.18890076875686646
0.50425159931182861 0.28662145137786865 0.19385270774364471
0.74668329954147339 0.23860932886600494 0.18026569485664368
0.076706260442733765 0.28303450345993042 0.17994320392608643
0.18079133331775665 0.30142274498939514 0.20257721841335297
0.32580310106277466 0.35497406125068665 0.21292580664157867
0.47642204165458679 0.39876651763916016 0.23404547572135925
0.5646936297416687 0.45764678716659546 0.25225597620010376
0.69043087959289551 0.50579524040222168 0.24916872382164001
0.88336974382400513 0.50969463586807251 0.23902887105941772
0.10230392962694168 0.45077869296073914 0.19861409068107605
0.26823970675468445 0.47636175155639648 0.24573101103305817
0.4380078911781311 0.53466284275054932 0.27294632792472839
0.62156444787979126 0.60010814666748047 0.28826659917831421
0.75708448886871338 0.66204464435577393 0.30860045552253723
0.84585386514663696 0.71000856161117554 0.31392684578895569
0.96399509906768799 0.74706107378005981 0.29488939046859741
0.3220151960849762 0.69141548871994019 0.24386973679065704
0.47437441349029541 0.71901953220367432 0.3114503026008606
0.61835289001464844 0.74823933839797974 0.38109302520751953
0.74458247423171997 0.79749268293380737 0.41077971458435059
0.86359590291976929 0.84110301733016968 0.42174544930458069
0.94796758890151978 0.87239313125610352 0.41178041696548462
0.99746280908584595 0.90982145071029663 0.41468316316604614
0.022710284218192101 0.055843070149421692 0.10304231941699982
0.036602377891540527 0.060755413025617599 0.10361173748970032
0.061684612184762955 0.06427060067653656 0.10917090624570847
0.093361735343933105 0.065313376486301422 0.11460898816585541
0.14405591785907745 0.062772311270236969 0.1164749413728714
0.23072932660579681 0.050386793911457062 0.11166515201330185
0.36903327703475952 0.032402757555246353 0.10317687690258026
0.028230121359229088 0.080310091376304626 0.12032260000705719
0.054552175104618073 0.088370367884635925 0.12245574593544006
0.087773188948631287 0.093969650566577911 0.12339836359024048
0.12428243458271027 0.097893029451370239 0.12860797345638275
0.18018670380115509 0.10443896055221558 0.13482074439525604
0.27466234564781189 0.1054028645157814 0.13558943569660187
0.418628990650177 0.094388477504253387 0.12843646109104156
0.02993336133658886 0.12450138479471207 0.14689904451370239
0.083125174045562744 0.13516245782375336 0.15194873511791229
0.13623948395252228 0.14979033172130585 0.14870563149452209
0.18228678405284882 0.16271482408046722 0.15146428346633911
0.2568480372428894 0.16765764355659485 0.16661576926708221
0.38236281275749207 0.16396312415599823 0.17438837885856628
0.55965542793273926 0.15364819765090942 0.16329629719257355
0.034356780350208282 0.1944180428981781 0.1728566586971283
0.12053900212049484 0.20188766717910767 0.18928772211074829
0.21143561601638794 0.23648345470428467 0.18276086449623108
0.28377121686935425 0.26585161685943604 0.18229581415653229
0.34381720423698425 0.30226075649261475 0.19777108728885651
0.49184653162956238 0.3063715398311615 0.21867729723453522
0.73563945293426514 0.26976481080055237 0.22217622399330139
0.041153926402330399 0.3031863272190094 0.20357780158519745
0.16981145739555359 0.31570625305175781 0.2335871160030365
0.32100841403007507 0.36700522899627686 0.24121178686618805
0.50369799137115479 0.41960769891738892 0.24436774849891663
0.58846557140350342 0.47733452916145325 0.26468968391418457
0.6658400297164917 0.53622734546661377 0.28711983561515808
0.84602975845336914 0.5538480281829834 0.29846882820129395
0.081053972244262695 0.47515395283699036 0.22991923987865448
0.28262010216712952 0.50629442930221558 0.27766776084899902
0.46271625161170959 0.55434501171112061 0.30814740061759949
0.66701602935791016 0.61905825138092041 0.32245081663131714
0.79998278617858887 0.67143356800079346 0.35438564419746399
0.85482889413833618 0.72329795360565186 0.38242143392562866
0.93602520227432251 0.77121180295944214 0.39147931337356567
0.32666146755218506 0.71149301528930664 0.2823239266872406
0.48756435513496399 0.73718661069869995 0.35108059644699097
0.64260494709014893 0.76307046413421631 0.43618464469909668
0.77297985553741455 0.81204581260681152 0.46347576379776001
0.89495354890823364 0.8471798300743103 0.47314807772636414
0.9664960503578186 0.88222253322601318 0.50262409448623657
0.99465936422348022 0.91945916414260864 0.53189682960510254
0.019722733646631241 0.061491347849369049 0.13673527538776398
0.034409884363412857 0.066798314452171326 0.13667471706867218
0.060351502150297165 0.074434883892536163 0.14100617170333862
0.09622027724981308 0.074527114629745483 0.15102988481521606
0.14876402914524078 0.069935351610183716 0.15344935655593872
0.25137752294540405 0.049925621598958969 0.14597709476947784
0.40602752566337585 0.014424268156290054 0.12122068554162979
0.020838525146245956 0.088988207280635834 0.15505215525627136
0.047663625329732895 0.09349580854177475 0.15842819213867188
0.083163976669311523 0.10411737114191055 0.16267271339893341
0.12974275648593903 0.10612913966178894 0.16917029023170471
0.20091065764427185 0.10350913554430008 0.16870982944965363
0.3040098249912262 0.092198356986045837 0.15900525450706482
0.45146581530570984 0.075047992169857025 0.14714148640632629
0.020791759714484215 0.13151654601097107 0.18449799716472626
0.063482917845249176 0.14097829163074493 0.19115258753299713
0.13116304576396942 0.15655767917633057 0.19510118663311005
0.19320930540561676 0.16367588937282562 0.1927483081817627
0.27598735690116882 0.1721460372209549 0.19593088328838348
0.38658255338668823 0.17669898271560669 0.19850523769855499
0.56245481967926025 0.17755794525146484 0.19172309339046478
0.0094000427052378654 0.20102429389953613 0.2122793048620224
0.082483582198619843 0.22051446139812469 0.22269676625728607
0.19514569640159607 0.24573588371276855 0.22978520393371582
0.29075372219085693 0.27163898944854736 0.22393879294395447
0.39697599411010742 0.29747360944747925 0.227511927485466
0.54189586639404297 0.30386805534362793 0.24770382046699524
0.73662084341049194 0.29714289307594299 0.25719740986824036
0.011166112497448921 0.32602691650390625 0.23276166617870331
0.14022287726402283 0.3420947790145874 0.26364427804946899
0.30145716667175293 0.37689840793609619 0.28254550695419312
0.48029616475105286 0.43605944514274597 0.27572208642959595
0.61202967166900635 0.49702742695808411 0.27569594979286194
0.69276189804077148 0.55862557888031006 0.29731020331382751
0.83777499198913574 0.58541053533554077 0.33303707838058472
0.039991743862628937 0.49981629848480225 0.2605973482131958
0.2553764283657074 0.52783441543579102 0.30761849880218506
0.45934367179870605 0.56587105989456177 0.35466742515563965
0.65974885225296021 0.63500237464904785 0.35510104894638062
0.81939530372619629 0.68938946723937988 0.36762771010398865
0.86914891004562378 0.74103528261184692 0.40407940745353699
0.91415715217590332 0.78948557376861572 0.4465118944644928
0.31927230954170227 0.73063433170318604 0.32411044836044312
0.4842681884765625 0.75586110353469849 0.38928133249282837
0.65161973237991333 0.7824103832244873 0.48875918984413147
0.78353047370910645 0.82227009534835815 0.51538258790969849
0.91896200180053711 0.85665100812911987 0.51837438344955444
0.97568649053573608 0.88875001668930054 0.55843073129653931
0.9879683256149292 0.92671900987625122 0.60586774349212646
0.015686275437474251 0.070229232311248779 0.18301291763782501
0.02541300468146801 0.071099422872066498 0.18445529043674469
0.056709051132202148 0.079145006835460663 0.1896795928478241
0.10034264624118805 0.083312273025512695 0.19168993830680847
0.15763798356056213 0.079442493617534637 0.20776621997356415
0.25094789266586304 0.060614056885242462 0.20324863493442535
0.4260706901550293 0.0078065460547804832 0.16892324388027191
0.015796137973666191 0.090642444789409637 0.20270855724811554
0.032345235347747803 0.099762618541717529 0.20616111159324646
0.082674868404865265 0.11112833768129349 0.20888340473175049
0.13173240423202515 0.12246650457382202 0.22090440988540649
0.20393206179141998 0.11464973539113998 0.22602230310440063
0.32523533701896667 0.092437133193016052 0.21062006056308746
0.49912571907043457 0.027668222784996033 0.17464670538902283
0.0094594620168209076 0.13832558691501617 0.22965465486049652
0.048841066658496857 0.14964894950389862 0.23870889842510223
0.12282826751470566 0.16792893409729004 0.2444431483745575
0.189751997590065 0.17682817578315735 0.25030431151390076
0.28748407959938049 0.17156913876533508 0.2415318489074707
0.41321608424186707 0.16611452400684357 0.22914028167724609
0.58073872327804565 0.17229045927524567 0.21882522106170654
0.0019172219326719642 0.20550458133220673 0.2647654116153717
0.05122026801109314 0.2289329320192337 0.2775249183177948
0.17192924022674561 0.25582239031791687 0.28936654329299927
0.29219189286231995 0.27508008480072021 0.28989335894584656
0.43627452850341797 0.28527462482452393 0.28554043173789978
0.5845634937286377 0.29836013913154602 0.28972303867340088
0.75703901052474976 0.31876382231712341 0.28924909234046936
0.0016877118032425642 0.33483254909515381 0.28504729270935059
0.064136967062950134 0.36807477474212646 0.30375951528549194
0.27691975235939026 0.39141127467155457 0.33344992995262146
0.44854986667633057 0.45073002576828003 0.33820351958274841
0.63279557228088379 0.51034480333328247 0.33231604099273682
0.74923259019851685 0.55432301759719849 0.33684605360031128
0.87637388706207275 0.58479684591293335 0.37578389048576355
0.0083505818620324135 0.52928793430328369 0.29319724440574646
0.18277749419212341 0.5571863055229187 0.34146985411643982
0.43811333179473877 0.58543246984481812 0.39796048402786255
0.6306833028793335 0.64493227005004883 0.41443523764610291
0.80302494764328003 0.70833724737167358 0.40718063712120056
0.88380318880081177 0.75749796628952026 0.41960194706916809
0.92970454692840576 0.80245119333267212 0.4642086923122406
0.31214478611946106 0.75404685735702515 0.37091177701950073
0.46850785613059998 0.77292674779891968 0.42751237750053406
0.64325213432312012 0.80395019054412842 0.53607237339019775
0.78034079074859619 0.83083027601242065 0.56300610303878784
0.91603577136993408 0.87176376581192017 0.56976282596588135
0.979267418384552 0.89994484186172485 0.5783267617225647
0.9852939248085022 0.91886472702026367 0.5994533896446228
