assets/lut/shamoonabbasi green 15.cube
# Created by: G'MIC (https://gmic.eu)
TITLE "green_15"
# LUT size
LUT_3D_SIZE 5
# Data domain
DOMAIN_MIN 0.0 0.0 0.0
DOMAIN_MAX 1.0 1.0 1.0
# LUT data points
0.070588238537311554 0.11764705926179886 0.11764705926179886
0.14986853301525116 0.12311133742332458 0.11451213806867599
0.40420684218406677 0.1487855464220047 0.10368694365024567
0.81695777177810669 0.22929927706718445 0.068526081740856171
0.9904789924621582 0.29290199279785156 0.11221464723348618
0.041682641953229904 0.15569509565830231 0.12257247418165207
0.15623478591442108 0.16918279230594635 0.10878324508666992
0.44278988242149353 0.2389821857213974 0.080920182168483734
0.81607413291931152 0.30421999096870422 0.043516434729099274
0.98572200536727905 0.3308664858341217 0.10563390702009201
0.0064978506416082382 0.29287916421890259 0.18300433456897736
0.066253110766410828 0.27321118116378784 0.1390790194272995
0.43418574333190918 0.37746331095695496 0.030656866729259491
0.82840138673782349 0.42929542064666748 0.0077611734159290791
0.99435275793075562 0.43337729573249817 0.11633341014385223
0.0018614525906741619 0.52894347906112671 0.28356239199638367
0.0069227032363414764 0.51133215427398682 0.25647759437561035
0.075504645705223083 0.54664403200149536 0.2118561714887619
0.73742413520812988 0.64796000719070435 0.03027559258043766
0.98994237184524536 0.65064948797225952 0.062775991857051849
0.31249484419822693 0.74106901884078979 0.52084082365036011
0.35076373815536499 0.73367667198181152 0.51967835426330566
0.40013027191162109 0.75253915786743164 0.51509952545166016
0.58566385507583618 0.78671395778656006 0.45758378505706787
0.9493069052696228 0.83984500169754028 0.16084322333335876
0.077248670160770416 0.12350975722074509 0.1553700715303421
0.16310225427150726 0.12718386948108673 0.13626547157764435
0.44070690870285034 0.19807998836040497 0.10676049441099167
0.83550620079040527 0.30179569125175476 0.048857446759939194
0.99485993385314941 0.33817502856254578 0.11542186141014099
0.051708880811929703 0.17353419959545135 0.17151106894016266
0.15622800588607788 0.18482427299022675 0.15918295085430145
0.45118501782417297 0.26408693194389343 0.1203322634100914
0.82531100511550903 0.34958735108375549 0.025701664388179779
0.9889647364616394 0.3637118935585022 0.10811067372560501
0.0043599745258688927 0.31520858407020569 0.2309192568063736
0.085829354822635651 0.28904503583908081 0.2003462016582489
0.41595780849456787 0.36778351664543152 0.12421513348817825
0.8284415602684021 0.44855621457099915 0.011673198081552982
0.99279105663299561 0.46096450090408325 0.13102899491786957
0.0030172909609973431 0.53971195220947266 0.31097206473350525
0.0049671395681798458 0.52303141355514526 0.29231896996498108
0.12795618176460266 0.55689948797225952 0.27258354425430298
0.73720943927764893 0.65114623308181763 0.10597191751003265
0.99333721399307251 0.66287583112716675 0.066941246390342712
0.34856268763542175 0.7472529411315918 0.54750931262969971
0.39160636067390442 0.74409013986587524 0.54669439792633057
0.44190812110900879 0.75316017866134644 0.5400623083114624
0.59241664409637451 0.77893906831741333 0.48930555582046509
0.95563417673110962 0.85691505670547485 0.34395787119865417
0.11998054385185242 0.15610614418983459 0.27866756916046143
0.22731225192546844 0.15369245409965515 0.2807716429233551
0.43458229303359985 0.16657088696956635 0.2649635374546051
0.8455815315246582 0.33571150898933411 0.16397655010223389
0.99908292293548584 0.40325930714607239 0.151137575507164
0.058420516550540924 0.19696779549121857 0.28862246870994568
0.18914078176021576 0.20357435941696167 0.27967879176139832
0.39023798704147339 0.2431473582983017 0.26753830909729004
0.81836867332458496 0.37253826856613159 0.19028192758560181
0.99332457780838013 0.41777524352073669 0.13151338696479797
0.0019230562029406428 0.35192835330963135 0.35936149954795837
0.099836118519306183 0.32264244556427002 0.31345513463020325
0.37063172459602356 0.35783007740974426 0.29758164286613464
0.80202102661132812 0.47696402668952942 0.28712829947471619
0.99078160524368286 0.5115472674369812 0.19532011449337006
0.024069333449006081 0.57272875308990479 0.40156096220016479
0.040660455822944641 0.56033504009246826 0.39500671625137329
0.29539951682090759 0.58204394578933716 0.40971994400024414
0.72281563282012939 0.66511344909667969 0.40663161873817444
0.97985696792602539 0.70732444524765015 0.39985889196395874
0.41460764408111572 0.76449239253997803 0.59534889459609985
0.44412600994110107 0.76164203882217407 0.5927087664604187
0.52066904306411743 0.76399749517440796 0.60350197553634644
0.61212754249572754 0.78079938888549805 0.57165980339050293
0.94532924890518188 0.86884009838104248 0.52255916595458984
0.28381744027137756 0.24822866916656494 0.57714056968688965
0.38283789157867432 0.25044474005699158 0.58345264196395874
0.58049577474594116 0.27403691411018372 0.60985779762268066
0.78346991539001465 0.41284477710723877 0.56920981407165527
0.93620932102203369 0.55756515264511108 0.5524669885635376
0.23020128905773163 0.28943175077438354 0.58102160692214966
0.34516680240631104 0.30202290415763855 0.57699644565582275
0.53160697221755981 0.32666906714439392 0.59731960296630859
0.7462882399559021 0.41357919573783875 0.55457186698913574
0.88622468709945679 0.54096043109893799 0.52614372968673706
0.096284158527851105 0.37110701203346252 0.5775567889213562
0.21313515305519104 0.35724368691444397 0.56277722120285034
0.44221717119216919 0.41499480605125427 0.57575935125350952
0.69744586944580078 0.50097233057022095 0.56565409898757935
0.89790034294128418 0.62520265579223633 0.58706343173980713
0.10457281768321991 0.57054334878921509 0.59541356563568115
0.21455453336238861 0.5730971097946167 0.59026199579238892
0.42413300275802612 0.60090887546539307 0.59884297847747803
0.64984387159347534 0.65420782566070557 0.61538422107696533
0.93830686807632446 0.76545470952987671 0.68842655420303345
0.44467145204544067 0.78364956378936768 0.70466184616088867
0.47350281476974487 0.78048741817474365 0.68854671716690063
0.54559445381164551 0.79591959714889526 0.69955801963806152
0.64931869506835938 0.78737950325012207 0.6886972188949585
0.89340519905090332 0.86161893606185913 0.69703012704849243
0.49537944793701172 0.46617415547370911 0.76365309953689575
0.54335719347000122 0.47434914112091064 0.76346397399902344
0.65373235940933228 0.5122302770614624 0.78775852918624878
0.85237383842468262 0.56033682823181152 0.81142473220825195
0.96314436197280884 0.63018691539764404 0.76542121171951294
0.49449655413627625 0.49482274055480957 0.76335978507995605
0.53190916776657104 0.49605187773704529 0.75562143325805664
0.6195371150970459 0.51913732290267944 0.76587611436843872
0.79157644510269165 0.54147416353225708 0.76696819067001343
0.90263426303863525 0.60290688276290894 0.72737318277359009
0.44330748915672302 0.51715481281280518 0.76286256313323975
0.47526326775550842 0.5087658166885376 0.73797148466110229
0.57677376270294189 0.55190688371658325 0.74493300914764404
0.76130449771881104 0.58952540159225464 0.7664228081703186
0.92773240804672241 0.66467511653900146 0.7646559476852417
0.36537343263626099 0.58094364404678345 0.72536838054656982
0.40249320864677429 0.58919882774353027 0.7300715446472168
0.48917800188064575 0.61668956279754639 0.74577087163925171
0.67061883211135864 0.66807633638381958 0.76319330930709839
0.90038150548934937 0.74480527639389038 0.80521965026855469
0.44041016697883606 0.79409933090209961 0.84490007162094116
0.46060526371002197 0.78418797254562378 0.82847744226455688
0.51332175731658936 0.77204722166061401 0.80449986457824707
0.6215285062789917 0.79424935579299927 0.81998205184936523
0.79366093873977661 0.81148999929428101 0.80188030004501343
