assets/lut/shamoonabbasi city 7.cube
# Created by: G'MIC (https://gmic.eu)
TITLE "city_7"
# LUT size
LUT_3D_SIZE 5
# Data domain
DOMAIN_MIN 0.0 0.0 0.0
DOMAIN_MAX 1.0 1.0 1.0
# LUT data points
0.01347820833325386 0.039972148835659027 0.036563992500305176
0.082191258668899536 0.046580519527196884 0.023606738075613976
0.35065895318984985 0.057128936052322388 0
0.56750625371932983 0.071956664323806763 0
0.71587377786636353 0.062436271458864212 0.00035394408041611314
0.00026316923322156072 0.11307838559150696 0.062566332519054413
0.10500503331422806 0.1393425315618515 0.028204135596752167
0.46801960468292236 0.16435214877128601 0.0013222488341853023
0.72687900066375732 0.19065411388874054 0
0.87121784687042236 0.19806340336799622 0.00070866604801267385
0.00030124140903353691 0.28783833980560303 0.11244940757751465
0.075470879673957825 0.3553793728351593 0.038367133587598801
0.53890001773834229 0.42325469851493835 6.4625460254319478e-06
0.8063780665397644 0.45718735456466675 0.00035219380515627563
0.93124938011169434 0.46832758188247681 0.0002996856055688113
0 0.47791138291358948 0.17114292085170746
0.080447554588317871 0.58647280931472778 0.046607732772827148
0.59891217947006226 0.66504895687103271 0
0.86385661363601685 0.69699215888977051 0.00010156070493394509
0.98810291290283203 0.70715135335922241 0.00048132502706721425
0.001321261515840888 0.53011941909790039 0.20008474588394165
0.013614789582788944 0.6648247241973877 0.031733226031064987
0.59578448534011841 0.75904601812362671 5.9509278798941523e-05
0.90070545673370361 0.80855101346969604 0.0088385334238409996
0.99945080280303955 0.82232367992401123 0.00018961289606522769
0.0041322745382785797 0.053901791572570801 0.10771428793668747
0.081413924694061279 0.053827937692403793 0.11434997618198395
0.39773097634315491 0.053566906601190567 0.083574362099170685
0.63986730575561523 0.050154279917478561 0.078593656420707703
0.81608760356903076 0.001545386272482574 0.0871414914727211
5.9958063502563164e-05 0.13786408305168152 0.15275932848453522
0.1192181333899498 0.15939952433109283 0.16114680469036102
0.502236008644104 0.18621322512626648 0.13471430540084839
0.8253752589225769 0.17118950188159943 0.11392099410295486
0.99257951974868774 0.12747319042682648 0.085364155471324921
0 0.32804495096206665 0.22062008082866669
0.13183122873306274 0.38774928450584412 0.22847303748130798
0.56050854921340942 0.47189763188362122 0.15755161643028259
0.88290649652481079 0.49695548415184021 0.089152224361896515
0.99757343530654907 0.48358222842216492 0.0086928876116871834
0.00028955796733498573 0.52570974826812744 0.33028441667556763
0.054508060216903687 0.63591986894607544 0.25988200306892395
0.59812569618225098 0.73386740684509277 0.10637690126895905
0.89043378829956055 0.74804341793060303 0.13533495366573334
1 0.7577662467956543 0.0043302201665937901
0 0.58049821853637695 0.3798796534538269
0.030033200979232788 0.70739829540252686 0.2990054190158844
0.57784950733184814 0.83751672506332397 0.047399364411830902
0.94121032953262329 0.87170779705047607 0.023658214136958122
0.999764084815979 0.87472307682037354 0.058353349566459656
0 0.11556322872638702 0.26410356163978577
0.056698787957429886 0.072532311081886292 0.35276275873184204
0.41357532143592834 0.063696004450321198 0.35559526085853577
0.68165546655654907 0.050781968981027603 0.36663129925727844
0.85203605890274048 0 0.40233564376831055
0.00096760172164067626 0.20696538686752319 0.3535926342010498
0.095065504312515259 0.21097828447818756 0.42317759990692139
0.52331042289733887 0.22434468567371368 0.46413874626159668
0.84954202175140381 0.18673570454120636 0.5131104588508606
0.99475669860839844 0.143936887383461 0.54729819297790527
0 0.40310022234916687 0.4665953516960144
0.16283537447452545 0.46155598759651184 0.49917194247245789
0.56799805164337158 0.53140735626220703 0.53249722719192505
0.90106463432312012 0.54160183668136597 0.50984185934066772
0.99748116731643677 0.52653259038925171 0.49216777086257935
0.0028087091632187366 0.60561186075210571 0.59426760673522949
0.073147088289260864 0.69520223140716553 0.62331008911132812
0.5300794243812561 0.80968940258026123 0.53940814733505249
0.89068257808685303 0.8194502592086792 0.53360545635223389
0.99993181228637695 0.82451999187469482 0.47967365384101868
0 0.66021424531936646 0.64383876323699951
0 0.7867119312286377 0.68665528297424316
0.4728567898273468 0.90136408805847168 0.59469246864318848
0.89046543836593628 0.93384110927581787 0.56361657381057739
0.99992650747299194 0.93396002054214478 0.59656602144241333
0 0.17124742269515991 0.39588400721549988
0.026877459138631821 0.10344169288873672 0.54847234487533569
0.42444896697998047 0.082877889275550842 0.58036726713180542
0.69531416893005371 0.080987431108951569 0.59751588106155396
0.87318992614746094 0.0061138225719332695 0.65936076641082764
0 0.26673349738121033 0.51415860652923584
0.022931970655918121 0.2495170533657074 0.67273616790771484
0.55947059392929077 0.21712192893028259 0.77525663375854492
0.85171413421630859 0.2142101377248764 0.789081871509552
0.99872398376464844 0.15319725871086121 0.84601259231567383
0 0.47408348321914673 0.64031857252120972
0.12266013771295547 0.5268675684928894 0.69324421882629395
0.52205878496170044 0.57150721549987793 0.83906489610671997
0.8805127739906311 0.56924998760223389 0.82874274253845215
1 0.55436527729034424 0.81741964817047119
0.0038933847099542618 0.65706485509872437 0.74811375141143799
0.098594412207603455 0.73441427946090698 0.79836016893386841
0.50604033470153809 0.84016174077987671 0.83378380537033081
0.86346137523651123 0.86266863346099854 0.81863069534301758
0.99937832355499268 0.85634201765060425 0.802132248878479
0.0095917051658034325 0.70138144493103027 0.78152692317962646
0 0.81885159015655518 0.87004423141479492
0.3741975724697113 0.94129860401153564 0.87931805849075317
0.85646063089370728 0.96667706966400146 0.8576236367225647
0.99641877412796021 0.97409242391586304 0.85860580205917358
0.001883278600871563 0.21537528932094574 0.48150947690010071
0.02021159790456295 0.10629220306873322 0.70359718799591064
0.45967203378677368 0.048696435987949371 0.77364861965179443
0.74581283330917358 0.022780623286962509 0.79732739925384521
0.88926082849502563 0.010071040131151676 0.82381892204284668
0.003908105194568634 0.31289026141166687 0.60336321592330933
0.013076288625597954 0.28025722503662109 0.79002171754837036
0.57594841718673706 0.19950059056282043 0.96020084619522095
0.88883751630783081 0.18210065364837646 0.97152644395828247
0.99864155054092407 0.17776528000831604 0.98728233575820923
0 0.51402479410171509 0.73302757740020752
0.00083009310765191913 0.56997561454772949 0.83431887626647949
0.49240639805793762 0.58983397483825684 0.99525243043899536
0.86227446794509888 0.58095133304595947 0.99399524927139282
0.99688810110092163 0.57096272706985474 0.98927968740463257
5.1924762374255806e-05 0.68197023868560791 0.81574481725692749
0.02770792692899704 0.75610005855560303 0.89190709590911865
0.41346108913421631 0.85652804374694824 0.99062567949295044
0.835338294506073 0.8766440749168396 0.9804995059967041
0.98848378658294678 0.87557542324066162 0.97186005115509033
0.0017202937742695212 0.72520071268081665 0.8427741527557373
0 0.8350868821144104 0.93554979562759399
0.30733782052993774 0.95886516571044922 0.99670475721359253
0.83330333232879639 0.98197090625762939 0.98224133253097534
0.97919505834579468 0.98745977878570557 0.97560364007949829
