assets/lut/shamoonabbasi turkiest 42.cube
# Created by: G'MIC (https://gmic.eu)
TITLE "turkiest_42"
# LUT size
LUT_3D_SIZE 5
# Data domain
DOMAIN_MIN 0.0 0.0 0.0
DOMAIN_MAX 1.0 1.0 1.0
# LUT data points
0.0029077716171741486 0.0042953342199325562 0.0031985114328563213
0.0081688230857253075 0.0085569946095347404 0.0078263524919748306
0.10733545571565628 0.048869892954826355 0.01224905252456665
0.90136861801147461 0 5.834242983837612e-05
0.99967330694198608 0 0.044187042862176895
0.0035194994416087866 0.097022682428359985 0.016819104552268982
0.027384275570511818 0.12412990629673004 0.010756922885775566
0.43573230504989624 0.065310470759868622 0.00021404190920293331
0.92656934261322021 0.0061435475945472717 6.0541489801835269e-05
1 0.016494974493980408 0.039907895028591156
0.0022513146977871656 0.33679145574569702 0.0053398581221699715
0.11765474826097488 0.34872126579284668 0.0018982082838192582
0.45710054039955139 0.31640976667404175 0
0.83179092407226562 0.26332288980484009 0
0.99954938888549805 0.25150799751281738 0.0011642157332971692
0.14010338485240936 0.60943692922592163 0
0.25389602780342102 0.62194925546646118 0.00029243019525893033
0.51425307989120483 0.62722498178482056 0
0.78216570615768433 0.618186354637146 0
0.98960959911346436 0.60634249448776245 0
0.50283956527709961 0.93351274728775024 0
0.52752840518951416 0.93523323535919189 0
0.68000394105911255 0.93895101547241211 0
0.8417631983757019 0.92223751544952393 0
0.99520713090896606 0.90153753757476807 0.035103246569633484
0.0042718024924397469 0.0067465389147400856 0.0062955073080956936
0.012190261855721474 0.015765545889735222 0.016592960804700851
0.18007130920886993 0.036723028868436813 0.065603874623775482
0.88952761888504028 0 0.051182091236114502
0.99982500076293945 0 0.056751474738121033
0.0022565803956240416 0.11878228187561035 0.079184666275978088
0.017528997734189034 0.14367766678333282 0.11293083429336548
0.42543071508407593 0.077714808285236359 0.10192526876926422
0.89685541391372681 0.0058364118449389935 0.06875031441450119
0.99919760227203369 0.009053458459675312 0.090198293328285217
0.00096040614880621433 0.34251672029495239 0.10681372135877609
0.087239883840084076 0.35086461901664734 0.11672991514205933
0.42393037676811218 0.33398258686065674 0.092631399631500244
0.81609749794006348 0.28288713097572327 0.043676011264324188
0.99863189458847046 0.26529696583747864 0.049088064581155777
0.11770393699407578 0.61429458856582642 0.056135199964046478
0.20214439928531647 0.63682228326797485 0.076042711734771729
0.45537674427032471 0.63599836826324463 0.064111329615116119
0.76420348882675171 0.63046228885650635 0.031478192657232285
0.99187737703323364 0.60791701078414917 0.0087595023214817047
0.20519794523715973 0.92028898000717163 0.0088641298934817314
0.21936796605587006 0.92346668243408203 0.00144132727291435
0.50492048263549805 0.92337334156036377 0.0047484901733696461
0.83621662855148315 0.92477774620056152 0.00072708132211118937
0.99162828922271729 0.89857649803161621 0.043034706264734268
0.010793409310281277 0.02436097152531147 0.0272369384765625
0.01173324603587389 0.032415114343166351 0.043880283832550049
0.1881750077009201 0.048909354954957962 0.21704411506652832
0.64391851425170898 0.0012964734341949224 0.30342382192611694
0.99396902322769165 0 0.31870168447494507
6.7093795223627239e-05 0.14833579957485199 0.21785734593868256
0.0085308896377682686 0.16790397465229034 0.28405225276947021
0.29269763827323914 0.13087715208530426 0.32827100157737732
0.70561510324478149 0.039575181901454926 0.35562872886657715
0.98620438575744629 0.010317724198102951 0.37476637959480286
0.0012519238516688347 0.3575805127620697 0.32397067546844482
0.035324964672327042 0.36958447098731995 0.35822570323944092
0.18040519952774048 0.37010177969932556 0.39673945307731628
0.76577341556549072 0.29368054866790771 0.33072009682655334
0.99403387308120728 0.27520290017127991 0.31398695707321167
0.08311888575553894 0.63505369424819946 0.33040830492973328
0.19322963058948517 0.63963925838470459 0.34320452809333801
0.41106370091438293 0.64682662487030029 0.35365241765975952
0.72118639945983887 0.64095938205718994 0.3276384174823761
0.99361199140548706 0.60831600427627563 0.24889399111270905
0.017705401405692101 0.9045836329460144 0.24109798669815063
0.047788940370082855 0.90253353118896484 0.28553521633148193
0.24482981860637665 0.89556080102920532 0.25929045677185059
0.57018983364105225 0.88197755813598633 0.16899548470973969
0.97521102428436279 0.88509416580200195 0.060002990067005157
0 0.072565548121929169 0.23857173323631287
4.6045639464864507e-05 0.07306961715221405 0.27273255586624146
0.13727803528308868 0.069428838789463043 0.52696949243545532
0.51487565040588379 0.019790066406130791 0.6048244833946228
0.89610004425048828 0 0.63691788911819458
0 0.16512309014797211 0.53701603412628174
3.6351821108837612e-06 0.17761377990245819 0.58804291486740112
0.13898240029811859 0.16597501933574677 0.65018659830093384
0.54560643434524536 0.13093194365501404 0.68219530582427979
0.91457509994506836 0.034397557377815247 0.70126789808273315
0 0.42388731241226196 0.69639992713928223
1.7772001228877343e-05 0.4389539361000061 0.71466988325119019
0.0086009157821536064 0.47478213906288147 0.72921645641326904
0.55411481857299805 0.36506268382072449 0.71126949787139893
0.94255000352859497 0.32925516366958618 0.72746014595031738
0.0038414748851209879 0.65957510471343994 0.70006442070007324
0.034614607691764832 0.68566548824310303 0.73306095600128174
0.082990981638431549 0.70025402307510376 0.76811599731445312
0.29861772060394287 0.70692306756973267 0.7703593373298645
0.96821784973144531 0.59028726816177368 0.70331794023513794
0.007452093530446291 0.89015376567840576 0.57652908563613892
0.0066866255365312099 0.89394068717956543 0.5991399884223938
0.095536388456821442 0.88515067100524902 0.60059070587158203
0.47702577710151672 0.85996311902999878 0.58477449417114258
0.89605832099914551 0.85078799724578857 0.54947531223297119
0 0.084206074476242065 0.6588248610496521
0 0.086153008043766022 0.69647377729415894
0.023180687800049782 0.089264154434204102 0.8291316032409668
0.38363313674926758 0.08208947628736496 0.87281209230422974
0.81926268339157104 0.0048075658269226551 0.89292186498641968
0 0.17054919898509979 0.80185550451278687
0 0.1804184764623642 0.81374889612197876
0.079764410853385925 0.17795921862125397 0.84716331958770752
0.46713191270828247 0.17465981841087341 0.87580883502960205
0.87546581029891968 0.056355927139520645 0.89401423931121826
0 0.40814542770385742 0.84006232023239136
0.00023375866294372827 0.41593322157859802 0.8393867015838623
0.088796533644199371 0.40215998888015747 0.85302567481994629
0.46739411354064941 0.40088620781898499 0.87749272584915161
0.90356671810150146 0.36134690046310425 0.90094423294067383
0 0.66892731189727783 0.85328835248947144
0 0.69093823432922363 0.8556516170501709
0.053050771355628967 0.69149774312973022 0.8675345778465271
0.070128843188285828 0.73766666650772095 0.87724733352661133
0.85252779722213745 0.62118309736251831 0.87738972902297974
0 0.88554155826568604 0.78920060396194458
0 0.88623476028442383 0.7874075174331665
0.00011901855759788305 0.88063448667526245 0.78220611810684204
0.33840852975845337 0.8645825982093811 0.77009129524230957
0.86826425790786743 0.86243855953216553 0.82096296548843384
