assets/lut/shamoonabbasi shadow king 39.cube
# Created by: G'MIC (https://gmic.eu)
TITLE "shadow_king_39"
# LUT size
LUT_3D_SIZE 13
# Data domain
DOMAIN_MIN 0.0 0.0 0.0
DOMAIN_MAX 1.0 1.0 1.0
# LUT data points
0.019788464531302452 0.024865603074431419 0.023002145811915398
0.027054566890001297 0.030739488080143929 0.032174292951822281
0.03460153192281723 0.03739706426858902 0.039486873894929886
0.047446772456169128 0.039829552173614502 0.0428466796875
0.068328037858009338 0.039895720779895782 0.043320927768945694
0.098657675087451935 0.039146993309259415 0.042930483818054199
0.13786378502845764 0.038430936634540558 0.042231153696775436
0.18599270284175873 0.03616873174905777 0.040093604475259781
0.24261575937271118 0.033630341291427612 0.037170350551605225
0.30872669816017151 0.031453002244234085 0.033499594777822495
0.38324758410453796 0.030262816697359085 0.029685001820325851
0.46291959285736084 0.030501825734972954 0.026197725906968117
0.54390078783035278 0.033036608248949051 0.023365005850791931
0.038478896021842957 0.042595133185386658 0.042326565831899643
0.04501921683549881 0.04802347719669342 0.049960028380155563
0.051671989262104034 0.054014977067708969 0.055539928376674652
0.062963880598545074 0.058190934360027313 0.059583522379398346
0.082614421844482422 0.060961510986089706 0.058706022799015045
0.11311288177967072 0.062167387455701828 0.056939743459224701
0.15338799357414246 0.064281478524208069 0.056362152099609375
0.2018035352230072 0.065234825015068054 0.055792417377233505
0.25922200083732605 0.064748756587505341 0.054594360291957855
0.32712593674659729 0.064064592123031616 0.051825385540723801
0.40412604808807373 0.063735544681549072 0.047807373106479645
0.48635128140449524 0.063912712037563324 0.045361507683992386
0.56832736730575562 0.067456625401973724 0.043321661651134491
0.060268625617027283 0.061828494071960449 0.063804745674133301
0.067241072654724121 0.067884795367717743 0.072039045393466949
0.073735013604164124 0.075597591698169708 0.077705740928649902
0.084102019667625427 0.083010606467723846 0.080611057579517365
0.10386714339256287 0.089311800897121429 0.078084357082843781
0.13420240581035614 0.09294765442609787 0.073845885694026947
0.1742388904094696 0.09771951287984848 0.072455942630767822
0.22364392876625061 0.10134802758693695 0.071718074381351471
0.28229448199272156 0.10296777635812759 0.070545852184295654
0.3510153591632843 0.10410308837890625 0.066888324916362762
0.42916709184646606 0.10473941266536713 0.063435740768909454
0.51206254959106445 0.10423829406499863 0.063348717987537384
0.59440237283706665 0.10836884379386902 0.06273612380027771
0.073424398899078369 0.091555804014205933 0.07921869307756424
0.088268235325813293 0.097738198935985565 0.093233577907085419
0.10008154809474945 0.10706228762865067 0.10382281988859177
0.1122414693236351 0.11641497164964676 0.10574536770582199
0.13189730048179626 0.12659074366092682 0.10129249095916748
0.16118763387203217 0.13507714867591858 0.094753637909889221
0.20117823779582977 0.14160485565662384 0.090474598109722137
0.25116315484046936 0.14596506953239441 0.087976165115833282
0.31117451190948486 0.14902482926845551 0.085063174366950989
0.38013973832130432 0.15216997265815735 0.08057047426700592
0.4569360613822937 0.1545635312795639 0.077419847249984741
0.53843313455581665 0.15508143603801727 0.078810736536979675
0.61939740180969238 0.16098137199878693 0.078979343175888062
0.078732416033744812 0.13560138642787933 0.087406933307647705
0.10231203585863113 0.14253395795822144 0.1030571460723877
0.12274861335754395 0.15207499265670776 0.11542429029941559
0.14122949540615082 0.16024236381053925 0.12176041305065155
0.16328929364681244 0.1707683801651001 0.12104728817939758
0.19348166882991791 0.18234482407569885 0.11566693335771561
0.23374888300895691 0.19038335978984833 0.11031589657068253
0.28440946340560913 0.19663031399250031 0.10610312968492508
0.34466221928596497 0.20194163918495178 0.10216348618268967
0.41320109367370605 0.20607616007328033 0.098397120833396912
0.48775854706764221 0.21074612438678741 0.095623821020126343
0.56576418876647949 0.21681006252765656 0.094389908015727997
0.64386862516403198 0.22562581300735474 0.093492023646831512
0.085290633141994476 0.18818096816539764 0.095162443816661835
0.1140240803360939 0.19557677209377289 0.11022844165563583
0.14111718535423279 0.20381702482700348 0.12375763803720474
0.16672438383102417 0.21185410022735596 0.13219036161899567
0.19371591508388519 0.22388593852519989 0.13476331532001495
0.22738118469715118 0.23608522117137909 0.13312765955924988
0.26958796381950378 0.24566172063350677 0.1291235089302063
0.32107603549957275 0.25590035319328308 0.12446592748165131
0.38126230239868164 0.26489150524139404 0.12052550911903381
0.44866859912872314 0.27176836133003235 0.11754327267408371
0.52082341909408569 0.27972245216369629 0.11441167443990707
0.59516865015029907 0.29018932580947876 0.1105479970574379
0.66980534791946411 0.30061915516853333 0.10789068043231964
0.092316754162311554 0.25043118000030518 0.10317345708608627
0.12428310513496399 0.25935593247413635 0.11832269281148911
0.15583989024162292 0.26866906881332397 0.13119277358055115
0.18733096122741699 0.27937090396881104 0.13973817229270935
0.22103098034858704 0.29198160767555237 0.14474946260452271
0.2601112425327301 0.30526411533355713 0.14605920016765594
0.30559447407722473 0.31714734435081482 0.14466424286365509
0.35832485556602478 0.3295002281665802 0.14194867014884949
0.41870439052581787 0.34113433957099915 0.13888902962207794
0.48497059941291809 0.35103768110275269 0.13607026636600494
0.55499094724655151 0.36168470978736877 0.13183906674385071
0.62591612339019775 0.37270078063011169 0.12675486505031586
0.69678878784179688 0.38270953297615051 0.12335975468158722
0.097343787550926208 0.32852014899253845 0.10943976044654846
0.13180501759052277 0.33802908658981323 0.12403770536184311
0.16731289029121399 0.34934255480766296 0.13711637258529663
0.20496654510498047 0.36105844378471375 0.14719612896442413
0.24601644277572632 0.37333881855010986 0.15412555634975433
0.29082131385803223 0.38694584369659424 0.15784603357315063
0.34025311470031738 0.40040749311447144 0.15910527110099792
0.3955281674861908 0.4139370322227478 0.158726766705513
0.4556768536567688 0.42612704634666443 0.1573529839515686
0.52096092700958252 0.43637046217918396 0.15511195361614227
0.58865362405776978 0.44642701745033264 0.15102022886276245
0.65629929304122925 0.45765385031700134 0.14453300833702087
0.72399413585662842 0.46803778409957886 0.13974449038505554
0.10143784433603287 0.41874232888221741 0.114524245262146
0.13844382762908936 0.42903757095336914 0.12902319431304932
0.17779551446437836 0.44056594371795654 0.14314445853233337
0.22134439647197723 0.45143419504165649 0.15463824570178986
0.26874753832817078 0.46234551072120667 0.16320095956325531
0.31925919651985168 0.4746888279914856 0.16873474419116974
0.37271562218666077 0.48862549662590027 0.1720670610666275
0.42964237928390503 0.5027582049369812 0.17397917807102203
0.49058571457862854 0.51517271995544434 0.17450444400310516
0.55473834276199341 0.52485167980194092 0.17241574823856354
0.62013167142868042 0.5341452956199646 0.16783088445663452
0.68537145853042603 0.54454714059829712 0.16132776439189911
0.75044667720794678 0.55491644144058228 0.15603367984294891
0.10709668695926666 0.51426643133163452 0.1203463226556778
0.14649227261543274 0.52489292621612549 0.13467441499233246
0.18904018402099609 0.53600960969924927 0.14954456686973572
0.23735778033733368 0.54522287845611572 0.16196794807910919
0.29033783078193665 0.55363762378692627 0.17122532427310944
0.34574118256568909 0.56406193971633911 0.17775923013687134
0.40276280045509338 0.5767664909362793 0.18245446681976318
0.46182054281234741 0.59068489074707031 0.18617266416549683
0.52311849594116211 0.60338068008422852 0.18777859210968018
0.58626043796539307 0.61259174346923828 0.18645437061786652
0.64984959363937378 0.62158370018005371 0.18201161921024323
0.71301162242889404 0.63163727521896362 0.17627443373203278
0.77600139379501343 0.64178097248077393 0.17128543555736542
0.11578870564699173 0.6090468168258667 0.1281103640794754
0.15790797770023346 0.61912482976913452 0.14191806316375732
0.2038949728012085 0.62889468669891357 0.15636162459850311
0.25584447383880615 0.63643366098403931 0.16882312297821045
0.31217843294143677 0.6431010365486145 0.17824307084083557
0.37092003226280212 0.65145778656005859 0.18508969247341156
0.43096703290939331 0.66196537017822266 0.19021978974342346
0.49193915724754333 0.67395502328872681 0.19451966881752014
0.55378717184066772 0.68567943572998047 0.1974724680185318
0.6160157322883606 0.69573867321014404 0.19771888852119446
0.6781657338142395 0.70530647039413452 0.19535656273365021
0.7397305965423584 0.71583497524261475 0.19099719822406769
0.80092954635620117 0.72601854801177979 0.1880648285150528
0.1278378963470459 0.700356125831604 0.13892193138599396
0.17300082743167877 0.70899230241775513 0.1516207754611969
0.22212104499340057 0.71710777282714844 0.16452714800834656
0.27634963393211365 0.72336280345916748 0.1762753427028656
0.33476632833480835 0.72904461622238159 0.18548125028610229
0.39571627974510193 0.73554396629333496 0.19216474890708923
0.45778059959411621 0.7437443733215332 0.19707827270030975
0.52019965648651123 0.75328958034515381 0.20148667693138123
0.58234554529190063 0.76370060443878174 0.20589801669120789
0.64420855045318604 0.77387034893035889 0.20876094698905945
0.70544689893722534 0.78450977802276611 0.20897425711154938
0.76589363813400269 0.79509657621383667 0.20780265331268311
0.82641607522964478 0.8056485652923584 0.20663431286811829
0.14247608184814453 0.78803259134292603 0.15249517560005188
0.19051426649093628 0.79538875818252563 0.16355331242084503
0.24226361513137817 0.80155473947525024 0.17521080374717712
0.29809954762458801 0.80725234746932983 0.18584109842777252
0.35768449306488037 0.81196892261505127 0.19431194663047791
0.41984695196151733 0.81697160005569458 0.20084755122661591
0.48320856690406799 0.82310777902603149 0.20539569854736328
0.54664701223373413 0.83065992593765259 0.21022377908229828
0.6092374324798584 0.83991819620132446 0.21608123183250427
0.67095917463302612 0.84988927841186523 0.22137247025966644
0.73182547092437744 0.86005395650863647 0.22471566498279572
0.79187935590744019 0.87098479270935059 0.22639860212802887
0.8521541953086853 0.88129574060440063 0.22799640893936157
0.026096584275364876 0.028075184673070908 0.027690708637237549
0.031764611601829529 0.031979430466890335 0.034395810216665268
0.036662876605987549 0.03757273405790329 0.040824081748723984
0.046336140483617783 0.042721275240182877 0.046631038188934326
0.064724445343017578 0.043401096016168594 0.050672866404056549
0.094102136790752411 0.041938826441764832 0.053761903196573257
0.13301478326320648 0.040653198957443237 0.055595561861991882
0.17930206656455994 0.039735112339258194 0.05559539794921875
0.23425497114658356 0.038819257169961929 0.054182149469852448
0.29963955283164978 0.037147462368011475 0.05174713209271431
0.37492644786834717 0.035735499113798141 0.050424672663211823
0.45572951436042786 0.036086332052946091 0.049371935427188873
0.53762608766555786 0.038598168641328812 0.048820406198501587
0.04338899627327919 0.045159898698329926 0.046062394976615906
0.048526957631111145 0.049319680780172348 0.052369017153978348
0.052478954195976257 0.056287743151187897 0.057397373020648956
0.059868261218070984 0.062620945274829865 0.063699208199977875
0.075844891369342804 0.066198103129863739 0.067440032958984375
0.10570251196622849 0.066207945346832275 0.069324374198913574
0.14688695967197418 0.066850461065769196 0.071595989167690277
0.19448862969875336 0.069067172706127167 0.073387175798416138
0.2505195140838623 0.070240914821624756 0.073389343917369843
0.31811714172363281 0.069694533944129944 0.070777639746665955
0.39592272043228149 0.068774357438087463 0.069835767149925232
0.47934660315513611 0.069225594401359558 0.068530738353729248
0.56273025274276733 0.072634227573871613 0.06845034658908844
0.06312280148267746 0.06416957825422287 0.067009657621383667
0.068501986563205719 0.070656076073646545 0.07349744439125061
0.074783235788345337 0.0781136155128479 0.081924974918365479
0.082804828882217407 0.086099408566951752 0.090533405542373657
0.097453713417053223 0.093641363084316254 0.094090402126312256
0.1249835416674614 0.098386771976947784 0.092837557196617126
0.16607457399368286 0.10196206718683243 0.093260899186134338
0.21501705050468445 0.10621828585863113 0.093464672565460205
0.27317348122596741 0.10832779854536057 0.09289984405040741
0.34222304821014404 0.10885893553495407 0.090571306645870209
0.42103946208953857 0.10883638262748718 0.088644333183765411
0.50534528493881226 0.10974767059087753 0.087927848100662231
0.58879214525222778 0.11415138840675354 0.088195905089378357
0.078916899859905243 0.091020219027996063 0.089599758386611938
0.093838334083557129 0.097930908203125 0.10317519307136536
0.1041683554649353 0.10896728932857513 0.11545251309871674
0.11438504606485367 0.11892327666282654 0.12420520931482315
0.12874367833137512 0.13092808425426483 0.12716634571552277
0.15360809862613678 0.14045274257659912 0.12530308961868286
0.19189408421516418 0.14651651680469513 0.12115541100502014
0.24135696887969971 0.15156292915344238 0.11720220744609833
0.30159923434257507 0.15407945215702057 0.11395658552646637
0.37128725647926331 0.15583579242229462 0.11046452075242996
0.44876194000244141 0.15748761594295502 0.1084834411740303
0.53106290102005005 0.15931162238121033 0.10869424790143967
0.61315053701400757 0.16520631313323975 0.10920882970094681
0.087122000753879547 0.13550415635108948 0.10712859034538269
0.11511384695768356 0.14147621393203735 0.12695159018039703
0.13619160652160645 0.1499013751745224 0.14689387381076813
0.15032671391963959 0.16041646897792816 0.15668626129627228
0.16491250693798065 0.17359133064746857 0.15904396772384644
0.19013987481594086 0.18486751616001129 0.15757524967193604
0.22657462954521179 0.19409558176994324 0.15011399984359741
0.2751203179359436 0.20198889076709747 0.14282195270061493
0.33592802286148071 0.20637604594230652 0.13755960762500763
0.40458360314369202 0.21036046743392944 0.13368609547615051
0.47898983955383301 0.21496224403381348 0.13130582869052887
0.55767673254013062 0.22006787359714508 0.13075277209281921
0.63667309284210205 0.22821405529975891 0.13031481206417084
0.093604952096939087 0.18928830325603485 0.12101537734270096
0.1261942982673645 0.19581364095211029 0.14026591181755066
0.15440389513969421 0.20304451882839203 0.15997005999088287
0.17685933411121368 0.21221025288105011 0.17254802584648132
0.1991514265537262 0.22532813251018524 0.17926819622516632
0.22780837118625641 0.23853877186775208 0.17961587011814117
0.26573839783668518 0.2498900294303894 0.17411397397518158
0.3149210512638092 0.26050430536270142 0.16727054119110107
0.37428790330886841 0.26954323053359985 0.16180232167243958
0.44068795442581177 0.27782347798347473 0.15781579911708832
0.51200747489929199 0.2862364649772644 0.15463928878307343
0.58682787418365479 0.294289231300354 0.15153658390045166
0.6621747612953186 0.30335131287574768 0.14941465854644775
0.099562428891658783 0.2526804506778717 0.13376621901988983
0.13437098264694214 0.25962725281715393 0.15224778652191162
0.16681420803070068 0.26911869645118713 0.16896040737628937
0.19720098376274109 0.28019547462463379 0.18167048692703247
0.22934268414974213 0.29319697618484497 0.19192478060722351
0.26483193039894104 0.30776241421699524 0.19536584615707397
0.30642956495285034 0.32134884595870972 0.19404506683349609
0.35642442107200623 0.33369123935699463 0.19026602804660797
0.41386926174163818 0.34636363387107849 0.1855960339307785
0.47799888253211975 0.35769200325012207 0.18154658377170563
0.54689145088195801 0.36787986755371094 0.17759238183498383
0.61799818277359009 0.37703824043273926 0.17323103547096252
0.68966233730316162 0.38584521412849426 0.16957183182239532
0.10368379950523376 0.33054754137992859 0.14399994909763336
0.14072583615779877 0.33848029375076294 0.16109748184680939
0.17782922089099884 0.34919086098670959 0.17770110070705414
0.21624313294887543 0.36072894930839539 0.19232690334320068
0.25669914484024048 0.37354293465614319 0.20440244674682617
0.299367755651474 0.38814541697502136 0.21090137958526611
0.34527409076690674 0.40299689769744873 0.21237087249755859
0.39695295691490173 0.41693288087844849 0.21196804940700531
0.45423427224159241 0.43000757694244385 0.20994646847248077
0.51629704236984253 0.44188821315765381 0.20651412010192871
0.5824894905090332 0.45215466618537903 0.20188306272029877
0.65015488862991333 0.46194100379943848 0.19619081914424896
0.7178766131401062 0.47110307216644287 0.19133879244327545
0.10756607353687286 0.42053020000457764 0.15229210257530212
0.14678449928760529 0.42943534255027771 0.16896766424179077
0.18870356678962708 0.43912163376808167 0.18675321340560913
0.23369373381137848 0.44924333691596985 0.20295330882072449
0.281280517578125 0.46042904257774353 0.21594579517841339
0.33001098036766052 0.47406560182571411 0.22407056391239166
0.38058257102966309 0.48895040154457092 0.22885428369045258
0.43444269895553589 0.5035102367401123 0.23121333122253418
0.49243810772895813 0.51650768518447876 0.23184570670127869
0.55350053310394287 0.5277707576751709 0.2296142578125
0.61740130186080933 0.53796476125717163 0.22483418881893158
0.68179607391357422 0.54778802394866943 0.21807833015918732
0.74615705013275146 0.55766576528549194 0.21263830363750458
0.11274047195911407 0.51617634296417236 0.16053052246570587
0.15473774075508118 0.52522242069244385 0.17745889723300934
0.20001327991485596 0.53361672163009644 0.19590099155902863
0.25015342235565186 0.54173845052719116 0.21269309520721436
0.30312830209732056 0.55042767524719238 0.2262570858001709
0.35731542110443115 0.56192296743392944 0.23519270122051239
0.41228613257408142 0.57535260915756226 0.24158842861652374
0.46886530518531799 0.58940976858139038 0.24628488719463348
0.52756613492965698 0.60237604379653931 0.24907900393009186
0.58828043937683105 0.61350244283676147 0.24831153452396393
0.65014445781707764 0.62370437383651733 0.24410733580589294
0.71175491809844971 0.63401526212692261 0.23750859498977661
0.77324748039245605 0.64436918497085571 0.23199297487735748
0.12076427787542343 0.61116230487823486 0.17116516828536987
0.16521181166172028 0.61927324533462524 0.18743795156478882
0.21376848220825195 0.62678647041320801 0.20548070967197418
0.26709923148155212 0.6332126259803772 0.22186994552612305
0.3238646388053894 0.63984149694442749 0.23488853871822357
0.38232851028442383 0.64867818355560303 0.2444329708814621
0.44101151823997498 0.65951633453369141 0.2516624927520752
0.50014114379882812 0.67177110910415649 0.25757655501365662
0.56006795167922974 0.6840481162071228 0.26197808980941772
0.62025856971740723 0.69541221857070923 0.26359722018241882
0.68053758144378662 0.70611822605133057 0.26127681136131287
0.7401471734046936 0.71745091676712036 0.25607407093048096
0.79912734031677246 0.72831630706787109 0.2512022852897644
0.13183717429637909 0.70231229066848755 0.18570931255817413
0.17893338203430176 0.70968461036682129 0.20038436353206635
0.23007827997207642 0.71592706441879272 0.21665818989276886
0.28611078858375549 0.72115647792816162 0.23161981999874115
0.34480991959571838 0.726398766040802 0.24404971301555634
0.40592142939567566 0.73274999856948853 0.2531733512878418
0.46749740839004517 0.74086457490921021 0.26032969355583191
0.52890169620513916 0.75058579444885254 0.26659557223320007
0.58955824375152588 0.76138365268707275 0.2727026641368866
0.64965695142745972 0.77255755662918091 0.27694076299667358
0.70907527208328247 0.78366583585739136 0.27800250053405762
0.76732957363128662 0.79521173238754272 0.27590534090995789
0.82560610771179199 0.80618506669998169 0.27389347553253174
0.14558357000350952 0.78973096609115601 0.20258156955242157
0.19492551684379578 0.79613590240478516 0.21561510860919952
0.24812254309654236 0.80123424530029297 0.22968423366546631
0.30555814504623413 0.80553817749023438 0.24317830801010132
0.36605075001716614 0.80964893102645874 0.25454884767532349
0.4286009669303894 0.81426477432250977 0.26329490542411804
0.4919903576374054 0.81999748945236206 0.27005532383918762
0.55500417947769165 0.82731270790100098 0.27644833922386169
0.61658036708831787 0.83657145500183105 0.28421446681022644
0.67694246768951416 0.84680652618408203 0.2910226583480835
0.73604422807693481 0.85758507251739502 0.29526644945144653
0.79430538415908813 0.86885529756546021 0.29674753546714783
0.85222715139389038 0.88006782531738281 0.29773235321044922
0.031404998153448105 0.032316647469997406 0.031756952404975891
0.0356125608086586 0.035451747477054596 0.035979446023702621
0.039203822612762451 0.039309319108724594 0.041561726480722427
0.048632215708494186 0.043255884200334549 0.049428436905145645
0.066228263080120087 0.044326424598693848 0.057543676346540451
0.094095535576343536 0.042705565690994263 0.064326897263526917
0.13197074830532074 0.041458398103713989 0.069253973662853241
0.17628958821296692 0.042461425065994263 0.071754559874534607
0.22903232276439667 0.042915314435958862 0.072521209716796875
0.29340514540672302 0.041376914829015732 0.073232971131801605
0.36856701970100403 0.039237678050994873 0.074873082339763641
0.44962292909622192 0.03964664414525032 0.075891993939876556
0.53218811750411987 0.042578063905239105 0.077114850282669067
0.046479888260364532 0.048040397465229034 0.049208279699087143
0.051438439637422562 0.051982566714286804 0.054049234837293625
0.05499698594212532 0.057591680437326431 0.059168841689825058
0.060696020722389221 0.064619012176990509 0.065991662442684174
0.073534764349460602 0.069384299218654633 0.073431842029094696
0.10239340364933014 0.069218099117279053 0.080941550433635712
0.14420975744724274 0.069197572767734528 0.087051719427108765
0.19031566381454468 0.072746023535728455 0.090621188282966614
0.24463766813278198 0.074924558401107788 0.092602446675300598
0.31111806631088257 0.073731563985347748 0.093875512480735779
0.38899153470993042 0.071474321186542511 0.095425397157669067
0.47273367643356323 0.072257980704307556 0.096153214573860168
0.55680650472640991 0.075587809085845947 0.097683817148208618
0.063542984426021576 0.06711018830537796 0.068898804485797882
0.072006791830062866 0.072641201317310333 0.076108939945697784
0.078130103647708893 0.079117611050605774 0.085237853229045868
0.084172599017620087 0.088726058602333069 0.094163499772548676
0.094471678137779236 0.097316622734069824 0.10364720970392227
0.11808446049690247 0.10388734191656113 0.10922577977180481
0.15984538197517395 0.10679513961076736 0.11322100460529327
0.20829111337661743 0.11152505129575729 0.1155274510383606
0.26576977968215942 0.1135646179318428 0.11636364459991455
0.33480212092399597 0.11272234469652176 0.11707145720720291
0.41332510113716125 0.11151425540447235 0.11779242008924484
0.4980224072933197 0.11310344189405441 0.1179707869887352
0.5822950005531311 0.11766423285007477 0.11901775002479553
0.080786071717739105 0.094320602715015411 0.095560811460018158
0.097928412258625031 0.10046159476041794 0.10767208784818649
0.10680610686540604 0.11171285808086395 0.11784742772579193
0.11678414791822433 0.12249963730573654 0.1292126476764679
0.12796691060066223 0.13571707904338837 0.14133739471435547
0.14698582887649536 0.14635400474071503 0.14820469915866852
0.18223457038402557 0.15210303664207458 0.14863386750221252
0.23167240619659424 0.15693472325801849 0.14631855487823486
0.29254856705665588 0.15908642113208771 0.14380119740962982
0.36287865042686462 0.15988297760486603 0.14265789091587067
0.44050908088684082 0.16080783307552338 0.14258654415607452
0.52293622493743896 0.16317756474018097 0.14261417090892792
0.60567265748977661 0.1694178432226181 0.14326119422912598
0.09354681521654129 0.13697238266468048 0.1222371831536293
0.12430103123188019 0.14104066789150238 0.14319230616092682
0.14333391189575195 0.1511838436126709 0.15973043441772461
0.15650448203086853 0.16308508813381195 0.17292733490467072
