assets/lut/shamoonabbasi spy 29.cube
# Created by: G'MIC (https://gmic.eu)
TITLE "spy_29"
# LUT size
LUT_3D_SIZE 13
# Data domain
DOMAIN_MIN 0.0 0.0 0.0
DOMAIN_MAX 1.0 1.0 1.0
# LUT data points
0.039021763950586319 0.059403408318758011 0.064132049679756165
0.041244968771934509 0.063661210238933563 0.06825893372297287
0.048327665776014328 0.070147059857845306 0.073821678757667542
0.06622999906539917 0.073749706149101257 0.07825171947479248
0.09442099928855896 0.073972813785076141 0.079932659864425659
0.12640006840229034 0.074604660272598267 0.080769479274749756
0.16777737438678741 0.076027825474739075 0.081529296934604645
0.21960094571113586 0.075793877243995667 0.082064762711524963
0.28195148706436157 0.073595337569713593 0.081758372485637665
0.3482305109500885 0.066716678440570831 0.08022645115852356
0.42001360654830933 0.059787794947624207 0.080413594841957092
0.50592577457427979 0.048427388072013855 0.079723969101905823
0.59395647048950195 0.033000990748405457 0.072428084909915924
0.053192242980003357 0.079669833183288574 0.08583252876996994
0.055947922170162201 0.085613861680030823 0.091917581856250763
0.062025479972362518 0.093790419399738312 0.098887078464031219
0.077455751597881317 0.1020108088850975 0.10412760823965073
0.10847409069538116 0.10425600409507751 0.10289323329925537
0.1509363055229187 0.1036672368645668 0.10302048921585083
0.20327030122280121 0.10113698989152908 0.10302593559026718
0.26039549708366394 0.098532594740390778 0.10186329483985901
0.33005368709564209 0.097237005829811096 0.10198492556810379
0.40127530694007874 0.089279010891914368 0.099340803921222687
0.47519728541374207 0.081122994422912598 0.096765764057636261
0.56215906143188477 0.070010632276535034 0.091704413294792175
0.64957749843597412 0.060728482902050018 0.085508145391941071
0.070665784180164337 0.10583531856536865 0.11300185322761536
0.077942132949829102 0.11619056016206741 0.12493322044610977
0.087165474891662598 0.12812665104866028 0.13659192621707916
0.10407312214374542 0.14147664606571198 0.14133891463279724
0.13198505342006683 0.15154461562633514 0.13802693784236908
0.18075063824653625 0.15967774391174316 0.13473670184612274
0.24007946252822876 0.15949702262878418 0.13035467267036438
0.31079640984535217 0.15004770457744598 0.12741565704345703
0.39301615953445435 0.13973885774612427 0.12737332284450531
0.47594580054283142 0.13668589293956757 0.12630461156368256
0.55317384004592896 0.13272246718406677 0.1236860379576683
0.63847869634628296 0.12546271085739136 0.11623898893594742
0.71991801261901855 0.12220034003257751 0.1065719872713089
0.087923161685466766 0.14636522531509399 0.14575174450874329
0.10267890244722366 0.15958365797996521 0.16058935225009918
0.11831201612949371 0.17469877004623413 0.17479702830314636
0.14187732338905334 0.19482733309268951 0.1810624748468399
0.17040430009365082 0.2102750837802887 0.17598311603069305
0.21752393245697021 0.22737373411655426 0.16993565857410431
0.2773934006690979 0.23811712861061096 0.16348373889923096
0.35677570104598999 0.24089984595775604 0.15726450085639954
0.44232374429702759 0.23668321967124939 0.15464012324810028
0.53064215183258057 0.23063048720359802 0.15284287929534912
0.61878395080566406 0.22015136480331421 0.15166296064853668
0.70729702711105347 0.21020635962486267 0.14652098715305328
0.78600537776947021 0.20859627425670624 0.13900671899318695
0.098525345325469971 0.19848589599132538 0.1677967756986618
0.12341109663248062 0.21046634018421173 0.18486081063747406
0.1518426388502121 0.23184078931808472 0.20288129150867462
0.18228739500045776 0.25530436635017395 0.21028408408164978
0.21624563634395599 0.27467077970504761 0.2087799608707428
0.25965079665184021 0.29427745938301086 0.20290294289588928
0.32108122110366821 0.31411761045455933 0.19849927723407745
0.39875459671020508 0.33024567365646362 0.18916717171669006
0.48445615172386169 0.33742532134056091 0.18218298256397247
0.57177507877349854 0.34062591195106506 0.17676571011543274
0.65767282247543335 0.33868426084518433 0.17349553108215332
0.74338918924331665 0.3293401300907135 0.16849143803119659
0.8240693211555481 0.31807810068130493 0.16535493731498718
0.1076943501830101 0.26208782196044922 0.18575876951217651
0.14435502886772156 0.27301079034805298 0.20597155392169952
0.18362331390380859 0.29145851731300354 0.22279298305511475
0.22311180830001831 0.31635639071464539 0.23323319852352142
0.26482108235359192 0.34032511711120605 0.23663908243179321
0.31474825739860535 0.36545929312705994 0.23614245653152466
0.37673452496528625 0.38993945717811584 0.23385730385780334
0.44768455624580383 0.41323366761207581 0.22510021924972534
0.52657961845397949 0.43190178275108337 0.21352218091487885
0.60928010940551758 0.44608825445175171 0.20330345630645752
0.68847692012786865 0.45207458734512329 0.19817960262298584
0.7668757438659668 0.4507286548614502 0.19322739541530609
0.83505493402481079 0.44724375009536743 0.18963804841041565
0.11919634789228439 0.33381149172782898 0.20374421775341034
0.16970448195934296 0.34355360269546509 0.22579105198383331
0.22259584069252014 0.36141678690910339 0.24585206806659698
0.26989170908927917 0.38437715172767639 0.25768062472343445
0.31692191958427429 0.40894362330436707 0.26348975300788879
0.36932602524757385 0.43540456891059875 0.26628640294075012
0.42930999398231506 0.46102583408355713 0.26496449112892151
0.49873191118240356 0.48877048492431641 0.25734186172485352
0.57163256406784058 0.5142553448677063 0.24672555923461914
0.64462226629257202 0.53589224815368652 0.23786307871341705
0.71598231792449951 0.54971301555633545 0.22856846451759338
0.78516364097595215 0.55765300989151001 0.22166222333908081
0.84195172786712646 0.5601813793182373 0.21883420646190643
0.14912267029285431 0.42029094696044922 0.22304841876029968
0.21364285051822662 0.42774194478988647 0.24695712327957153
0.27583092451095581 0.44351786375045776 0.26877632737159729
0.32925868034362793 0.46408146619796753 0.28339192271232605
0.37932655215263367 0.48808193206787109 0.29131925106048584
0.43306443095207214 0.5143425464630127 0.29633674025535583
0.48950967192649841 0.53730219602584839 0.29622325301170349
0.55151975154876709 0.56258082389831543 0.29112410545349121
0.61914843320846558 0.59208548069000244 0.28570452332496643
0.6822962760925293 0.61584323644638062 0.27760878205299377
0.74088203907012939 0.63287931680679321 0.26955768465995789
0.79852038621902466 0.64494621753692627 0.26039567589759827
0.85562455654144287 0.65407305955886841 0.25196006894111633
0.20183511078357697 0.51065522432327271 0.24214005470275879
0.26588654518127441 0.51795309782028198 0.26550754904747009
0.33215421438217163 0.52794969081878662 0.28993278741836548
0.39365664124488831 0.54306823015213013 0.31032922863960266
0.44634398818016052 0.5657724142074585 0.31995448470115662
0.49858200550079346 0.58997660875320435 0.32635882496833801
0.55199801921844482 0.61195653676986694 0.32953846454620361
0.60719108581542969 0.63413137197494507 0.32981184124946594
0.66121339797973633 0.65637195110321045 0.32644137740135193
0.71361070871353149 0.67586088180541992 0.32069718837738037
0.76434755325317383 0.69459760189056396 0.31361523270606995
0.81588441133499146 0.7136273980140686 0.30601900815963745
0.85774022340774536 0.72502446174621582 0.29723089933395386
0.2679993212223053 0.59601318836212158 0.26304656267166138
0.33298057317733765 0.60385864973068237 0.28761667013168335
0.39955377578735352 0.60939043760299683 0.31516927480697632
0.45991727709770203 0.62068009376525879 0.33706995844841003
0.51302319765090942 0.63929814100265503 0.35187801718711853
0.56174492835998535 0.65771603584289551 0.36126929521560669
0.61047482490539551 0.67791831493377686 0.36647143959999084
0.65884685516357422 0.69790452718734741 0.37034314870834351
0.70253151655197144 0.71621495485305786 0.36965593695640564
0.74652320146560669 0.7358088493347168 0.36641970276832581
0.78937947750091553 0.75239276885986328 0.36216095089912415
0.83681315183639526 0.77133125066757202 0.35230597853660583
0.87398117780685425 0.78425037860870361 0.34213164448738098
0.3545568585395813 0.6765325665473938 0.2914351224899292
0.41418665647506714 0.68108320236206055 0.31714370846748352
0.47807532548904419 0.68785649538040161 0.34695976972579956
0.53427135944366455 0.69604116678237915 0.37369176745414734
0.57983726263046265 0.7078743577003479 0.3955078125
0.62234193086624146 0.72391039133071899 0.40718600153923035
0.66216027736663818 0.74085044860839844 0.41510367393493652
0.70194470882415771 0.75900274515151978 0.41955485939979553
0.73948049545288086 0.77515363693237305 0.42146459221839905
0.77802777290344238 0.79125124216079712 0.42381903529167175
0.81862688064575195 0.8084716796875 0.41732662916183472
0.85992032289505005 0.82235008478164673 0.40783345699310303
0.89776235818862915 0.83486765623092651 0.3979085385799408
0.45742422342300415 0.75383096933364868 0.33267039060592651
0.50530296564102173 0.75766384601593018 0.35819971561431885
0.55997145175933838 0.76394081115722656 0.39097073674201965
0.60716956853866577 0.77083522081375122 0.42850065231323242
0.6477813720703125 0.78081488609313965 0.45651647448539734
0.68399304151535034 0.79295778274536133 0.47405654191970825
0.71508258581161499 0.80572992563247681 0.4804474413394928
0.74619090557098389 0.81982982158660889 0.48569348454475403
0.78132909536361694 0.83507722616195679 0.49101054668426514
0.81792676448822021 0.84744715690612793 0.50026392936706543
0.85224997997283936 0.85971856117248535 0.49305298924446106
0.88669246435165405 0.87085819244384766 0.4807867705821991
0.91954511404037476 0.88097047805786133 0.46829086542129517
0.54764455556869507 0.82745647430419922 0.38961371779441833
0.58779388666152954 0.83242529630661011 0.42070940136909485
0.63336396217346191 0.83652442693710327 0.45819857716560364
0.67327308654785156 0.84113043546676636 0.49523818492889404
0.70790779590606689 0.84846442937850952 0.52786791324615479
0.74086719751358032 0.85589176416397095 0.5500066876411438
0.76973128318786621 0.86424416303634644 0.55926764011383057
0.79859429597854614 0.87392991781234741 0.56610679626464844
0.82964396476745605 0.88555717468261719 0.57264643907546997
0.85895156860351562 0.8970370888710022 0.57827281951904297
0.88472837209701538 0.9062386155128479 0.5708012580871582
0.91324567794799805 0.91535204648971558 0.55717927217483521
0.9388878345489502 0.92124974727630615 0.53679907321929932
0.039447665214538574 0.061319928616285324 0.066008500754833221
0.042863193899393082 0.067042119801044464 0.070610359311103821
0.04970182478427887 0.073781765997409821 0.076742403209209442
0.063824191689491272 0.078583739697933197 0.085790194571018219
0.088638350367546082 0.080896712839603424 0.09162718802690506
0.11796106398105621 0.081952638924121857 0.093318864703178406
0.15580950677394867 0.083944045007228851 0.093524187803268433
0.20634159445762634 0.085513249039649963 0.096585683524608612
0.26575016975402832 0.085437208414077759 0.098604045808315277
0.33069205284118652 0.081841565668582916 0.098633848130702972
0.40208110213279724 0.075259953737258911 0.098587945103645325
0.48648670315742493 0.06713518500328064 0.097800999879837036
0.572640061378479 0.058473668992519379 0.09534948319196701
0.055002938956022263 0.083221688866615295 0.088925167918205261
0.058416716754436493 0.08918723464012146 0.094530321657657623
0.064009241759777069 0.097080782055854797 0.10245436429977417
0.074104130268096924 0.10652648657560349 0.11261958628892899
0.098837144672870636 0.11115714907646179 0.11701653897762299
0.14008861780166626 0.11093626171350479 0.12081357091665268
0.18854966759681702 0.10962068289518356 0.12071473151445389
0.24517910182476044 0.10973872989416122 0.12156490236520767
0.31410324573516846 0.11148519814014435 0.12381880730390549
0.38088193535804749 0.1075320839881897 0.12313398718833923
0.45396867394447327 0.10331454128026962 0.12117209285497665
0.53874498605728149 0.096934616565704346 0.11781883984804153
0.62416285276412964 0.092663109302520752 0.1127607598900795
0.07300606369972229 0.10830229520797729 0.11654540151357651
0.08055897057056427 0.11898435652256012 0.12891443073749542
0.091017991304397583 0.13390915095806122 0.14498299360275269
0.1011262908577919 0.14667889475822449 0.1581510454416275
0.12151351571083069 0.15746183693408966 0.16134746372699738
0.16523909568786621 0.16560451686382294 0.16067489981651306
0.2247723788022995 0.16387626528739929 0.1583387553691864
0.29549208283424377 0.15760837495326996 0.15629282593727112
0.37863942980766296 0.15945868194103241 0.15943485498428345
0.45313039422035217 0.15837764739990234 0.15916784107685089
0.52764946222305298 0.15783224999904633 0.1575620174407959
0.61120295524597168 0.1563853919506073 0.15094630420207977
0.69269877672195435 0.15334193408489227 0.14128036797046661
0.094528540968894958 0.1520548015832901 0.15780840814113617
0.11141488701105118 0.16447022557258606 0.17655138671398163
0.12649133801460266 0.18193885684013367 0.19550648331642151
0.14106704294681549 0.19930157065391541 0.20973864197731018
0.16157978773117065 0.21514864265918732 0.21351481974124908
0.2053178995847702 0.23393112421035767 0.2090192437171936
0.26415663957595825 0.24613867700099945 0.20285245776176453
0.34052214026451111 0.2489854097366333 0.19883473217487335
0.42817986011505127 0.2478460967540741 0.19741009175777435
0.51511353254318237 0.23877331614494324 0.19571809470653534
0.60269486904144287 0.23125803470611572 0.19363111257553101
0.68860942125320435 0.2289821058511734 0.18939569592475891
0.7648661732673645 0.23171718418598175 0.18175014853477478
0.10684394091367722 0.21088084578514099 0.18986573815345764
0.13518300652503967 0.21807965636253357 0.21143929660320282
0.16352224349975586 0.23810413479804993 0.23620317876338959
0.18677003681659698 0.25802677869796753 0.25172281265258789
0.21334990859031677 0.27726978063583374 0.25554955005645752
0.25478032231330872 0.301047682762146 0.25081348419189453
0.30794522166252136 0.3201175332069397 0.24539175629615784
0.38319262862205505 0.33594071865081787 0.23937037587165833
0.46995094418525696 0.34423878788948059 0.23377621173858643
0.55770289897918701 0.34644314646720886 0.23042236268520355
0.64614927768707275 0.34297725558280945 0.2276906818151474
0.73474961519241333 0.33481311798095703 0.22509215772151947
0.81230354309082031 0.32828718423843384 0.22253341972827911
0.11118237674236298 0.27789756655693054 0.21397183835506439
0.15246300399303436 0.28475043177604675 0.23606875538825989
0.19638854265213013 0.29752993583679199 0.26002666354179382
0.23674377799034119 0.32139492034912109 0.27908852696418762
0.27147874236106873 0.34460258483886719 0.28751781582832336
0.31181281805038452 0.3677181601524353 0.28770330548286438
0.36411318182945251 0.39157572388648987 0.28504034876823425
0.43117734789848328 0.41510048508644104 0.27875569462776184
0.51264446973800659 0.43485814332962036 0.27136319875717163
0.59555822610855103 0.44931605458259583 0.26453894376754761
0.67685455083847046 0.45699876546859741 0.26012095808982849
0.75769233703613281 0.45454910397529602 0.25683683156967163
0.82667893171310425 0.45220714807510376 0.25439980626106262
0.11720705032348633 0.35086250305175781 0.23527921736240387
0.17805460095405579 0.36029979586601257 0.25970408320426941
0.23459172248840332 0.3684425950050354 0.2839629054069519
0.284941166639328 0.38916680216789246 0.30299243330955505
0.32687604427337646 0.4115746021270752 0.31434175372123718
0.37350749969482422 0.43797081708908081 0.31882742047309875
0.42666223645210266 0.46424511075019836 0.31818625330924988
0.4914182722568512 0.49221375584602356 0.31418085098266602
0.56217962503433228 0.51690834760665894 0.30719864368438721
0.63184052705764771 0.5378231406211853 0.3007887601852417
0.703715980052948 0.5526576042175293 0.29482337832450867
0.77454352378845215 0.5600428581237793 0.29031425714492798
0.83434629440307617 0.56275832653045654 0.28721567988395691
0.14727947115898132 0.43367984890937805 0.2560269832611084
0.2192244678735733 0.44277116656303406 0.28055837750434875
0.28499722480773926 0.45103615522384644 0.30609571933746338
0.34142252802848816 0.46675512194633484 0.32628372311592102
0.38931697607040405 0.48751682043075562 0.33977377414703369
0.43967026472091675 0.51501810550689697 0.34777569770812988
0.49217164516448975 0.54001539945602417 0.3504357635974884
0.55035889148712158 0.56613695621490479 0.34916117787361145
0.61259454488754272 0.59265124797821045 0.34516245126724243
0.67207998037338257 0.61433809995651245 0.3400721549987793
0.72998303174972534 0.63133329153060913 0.3353935182094574
0.79150897264480591 0.64674699306488037 0.32954913377761841
0.8460957407951355 0.65759170055389404 0.32605633139610291
0.19763857126235962 0.52082675695419312 0.27402573823928833
0.27138420939445496 0.52826583385467529 0.29835161566734314
0.34281072020530701 0.53666973114013672 0.32639691233634949
0.40467149019241333 0.54801011085510254 0.3504084050655365
0.45513969659805298 0.56657516956329346 0.36451983451843262
0.50463879108428955 0.59095084667205811 0.37691983580589294
0.55455672740936279 0.61270296573638916 0.38233497738838196
0.60552561283111572 0.63456606864929199 0.38542306423187256
0.65849035978317261 0.65772020816802979 0.38554424047470093
0.70941531658172607 0.68035292625427246 0.38362175226211548
0.75703239440917969 0.69707006216049194 0.37883114814758301
0.80960929393768311 0.71610671281814575 0.37313711643218994
0.85467159748077393 0.72778999805450439 0.36880308389663696
0.25973647832870483 0.60345655679702759 0.29313933849334717
0.33290675282478333 0.61054879426956177 0.31731775403022766
0.40814921259880066 0.61634695529937744 0.348531574010849
0.46973106265068054 0.6260867714881897 0.37472036480903625
0.51981234550476074 0.641437828540802 0.39397576451301575
0.56610935926437378 0.65865570306777954 0.40890270471572876
0.61245709657669067 0.67851996421813965 0.41984260082244873
0.65861600637435913 0.69736778736114502 0.42742925882339478
0.69920367002487183 0.71460628509521484 0.42822182178497314
0.73957967758178711 0.73409366607666016 0.42959988117218018
0.78235435485839844 0.75269985198974609 0.42697808146476746
0.82949566841125488 0.77255135774612427 0.42151644825935364
0.86803543567657471 0.78667950630187988 0.41569685935974121
0.34438011050224304 0.68267929553985596 0.32089430093765259
0.41120949387550354 0.68708014488220215 0.34476181864738464
0.47958853840827942 0.69428396224975586 0.37695828080177307
0.53628277778625488 0.70056343078613281 0.40891632437705994
0.58223605155944824 0.70964199304580688 0.43613532185554504
0.62388312816619873 0.72221487760543823 0.4556364119052887
0.66331928968429565 0.73875325918197632 0.46788892149925232
0.70134609937667847 0.75702983140945435 0.47589462995529175
0.73558586835861206 0.7727314829826355 0.47864541411399841
0.77295565605163574 0.79149359464645386 0.48264753818511963
0.81150722503662109 0.80762946605682373 0.48068183660507202
0.85259860754013062 0.82488656044006348 0.47752970457077026
0.88628625869750977 0.83337622880935669 0.47168657183647156
0.44374597072601318 0.7569316029548645 0.35979434847831726
0.49832397699356079 0.76254069805145264 0.39004740118980408
0.55362462997436523 0.76798826456069946 0.42029383778572083
0.60428351163864136 0.77385252714157104 0.45789685845375061
0.64644718170166016 0.7824169397354126 0.4932771623134613
0.68424248695373535 0.7923474907875061 0.51871168613433838
0.71422058343887329 0.80438321828842163 0.52905780076980591
0.74330389499664307 0.81743741035461426 0.53519213199615479
0.77717667818069458 0.83218425512313843 0.54012632369995117
0.81292939186096191 0.84854841232299805 0.54775720834732056
0.84517931938171387 0.86019504070281982 0.54627764225006104
0.88007479906082153 0.87084347009658813 0.54116415977478027
0.91240519285202026 0.88015830516815186 0.53467482328414917
0.53819620609283447 0.83052617311477661 0.41687256097793579
0.57995599508285522 0.83458822965621948 0.44816514849662781
0.62746989727020264 0.83988302946090698 0.48611342906951904
0.66730237007141113 0.84227859973907471 0.52140587568283081
0.70443427562713623 0.84904283285140991 0.55533123016357422
0.73910051584243774 0.85594254732131958 0.58094990253448486
0.76854318380355835 0.86251819133758545 0.59362578392028809
0.79524701833724976 0.86960780620574951 0.59937453269958496
0.82497304677963257 0.88244360685348511 0.60602128505706787
0.85528397560119629 0.89568442106246948 0.61383980512619019
0.88154399394989014 0.90679734945297241 0.61305099725723267
0.90836179256439209 0.91514527797698975 0.60351091623306274
0.93384003639221191 0.92119669914245605 0.58954131603240967
0.040617819875478745 0.0636725053191185 0.069894902408123016
0.044070687144994736 0.069489516317844391 0.074427016079425812
0.05038890615105629 0.076113291084766388 0.08077055960893631
0.062014114111661911 0.080493450164794922 0.090247586369514465
0.084335997700691223 0.08441656082868576 0.10029026120901108
0.11281739920377731 0.087585315108299255 0.10648784041404724
0.15050637722015381 0.088175982236862183 0.10951898247003555
0.19858233630657196 0.09046771377325058 0.11267511546611786
0.2536376416683197 0.091062925755977631 0.11584463715553284
0.31425914168357849 0.09142785519361496 0.11735464632511139
0.38221770524978638 0.08965243399143219 0.11971502751111984
0.46244460344314575 0.08534926176071167 0.12086976319551468
0.5496705174446106 0.078200638294219971 0.12058663368225098
0.055582500994205475 0.084935225546360016 0.090140290558338165
0.059593319892883301 0.091351993381977081 0.09700533002614975
0.065745845437049866 0.099538199603557587 0.10600405186414719
0.074272260069847107 0.10987628251314163 0.11759606003761292
0.092544764280319214 0.11571802198886871 0.12734848260879517
0.12986922264099121 0.11783228814601898 0.1364886611700058
0.17524461448192596 0.12063377350568771 0.14121372997760773
0.23179523646831512 0.12272979319095612 0.14365631341934204
0.29382947087287903 0.12587228417396545 0.14691804349422455
0.36063525080680847 0.129160076379776 0.14939229190349579
0.42935249209403992 0.12713570892810822 0.14978526532649994
0.50936245918273926 0.123854860663414 0.14838616549968719
0.59832096099853516 0.12071187794208527 0.14362677931785583
0.075275599956512451 0.11358004063367844 0.12311603128910065
0.083999067544937134 0.12423420697450638 0.1346367746591568
0.092472925782203674 0.1361963301897049 0.14756719768047333
0.10158713907003403 0.14876817166805267 0.16109099984169006
0.11565870046615601 0.16209538280963898 0.17335778474807739
0.14996694028377533 0.1724541187286377 0.18251568078994751
0.20806887745857239 0.17627105116844177 0.1876407265663147
0.27829599380493164 0.17645801603794098 0.18985742330551147
0.35461631417274475 0.17929258942604065 0.19256205856800079
0.42797347903251648 0.18276104331016541 0.19256404042243958
0.49780276417732239 0.18369629979133606 0.19304302334785461
0.58279848098754883 0.18359848856925964 0.18842439353466034
0.66744959354400635 0.18440431356430054 0.18157145380973816
0.095733776688575745 0.15806201100349426 0.1667780727148056
0.11727601289749146 0.17080485820770264 0.18482770025730133
0.13312605023384094 0.19067695736885071 0.20444037020206451
0.14665992558002472 0.20761410892009735 0.21989808976650238
0.16192185878753662 0.22359758615493774 0.23534463346004486
0.18755924701690674 0.23904551565647125 0.24101470410823822
0.24154649674892426 0.25545096397399902 0.24148949980735779
0.32065042853355408 0.26077592372894287 0.24233101308345795
0.40976142883300781 0.2580026388168335 0.24143663048744202
0.4943230152130127 0.25242456793785095 0.23889243602752686
0.57605600357055664 0.25008988380432129 0.2375798225402832
0.65908539295196533 0.25654914975166321 0.23541790246963501
0.73860639333724976 0.25941863656044006 0.22686950862407684
0.10295180976390839 0.21792738139629364 0.20331390202045441
0.14495210349559784 0.22631953656673431 0.22942627966403961
0.17640574276447296 0.24669481813907623 0.25660532712936401
0.19858525693416595 0.26783850789070129 0.27796801924705505
0.21700817346572876 0.28479543328285217 0.29122260212898254
0.24510185420513153 0.30606698989868164 0.29644644260406494
0.29194676876068115 0.32729780673980713 0.29462656378746033
