assets/lut/shamoonabbasi industrial 33.cube
# Created by: G'MIC (https://gmic.eu)
TITLE "industrial_33"
# LUT size
LUT_3D_SIZE 13
# Data domain
DOMAIN_MIN 0.0 0.0 0.0
DOMAIN_MAX 1.0 1.0 1.0
# LUT data points
0.013019426725804806 0.018713260069489479 0.016687026247382164
0.026924775913357735 0.01613432914018631 0.013404905796051025
0.062832057476043701 0.021076621487736702 0.014140394516289234
0.15620888769626617 0.041860945522785187 0.010626100935041904
0.27044501900672913 0.075368009507656097 0.0083379410207271576
0.37311854958534241 0.10796257108449936 0.0082843108102679253
0.45396131277084351 0.13490332663059235 0.0084359860047698021
0.51470804214477539 0.15551331639289856 0.0081852180883288383
0.55944043397903442 0.16943685710430145 0.010324111208319664
0.59062314033508301 0.18002450466156006 0.011559340171515942
0.62165087461471558 0.18963815271854401 0.011764706112444401
0.64540815353393555 0.19720211625099182 0.011764706112444401
0.65137261152267456 0.20002800226211548 0.012579166330397129
0.015689011663198471 0.034502066671848297 0.031343631446361542
0.026058482006192207 0.031087148934602737 0.026019975543022156
0.061374902725219727 0.032999675720930099 0.020935462787747383
0.13568015396595001 0.044521212577819824 0.013554292730987072
0.24484050273895264 0.074512049555778503 0.010930378921329975
0.34951907396316528 0.10503783822059631 0.010151956230401993
0.43451225757598877 0.13138240575790405 0.0084169274196028709
0.50210893154144287 0.15490183234214783 0.0078431377187371254
0.55270665884017944 0.17161688208580017 0.0078438557684421539
0.5859265923500061 0.18211197853088379 0.0090120350942015648
0.61858874559402466 0.19291268289089203 0.011764706112444401
0.64567065238952637 0.20114117860794067 0.011764706112444401
0.65499299764633179 0.20466192066669464 0.011799711734056473
0.018553566187620163 0.068106330931186676 0.059005063027143478
0.025486232712864876 0.065251372754573822 0.053858350962400436
0.05625775083899498 0.062360126525163651 0.043395202606916428
0.12027770280838013 0.065339632332324982 0.026052797213196754
0.21452204883098602 0.083108909428119659 0.016147419810295105
0.31339222192764282 0.10555855184793472 0.01234512310475111
0.4057801365852356 0.13011099398136139 0.0087194107472896576
0.48307505249977112 0.15844160318374634 0.0081334132701158524
0.54329979419708252 0.17703936994075775 0.0078431377187371254
0.58208614587783813 0.18639636039733887 0.0082163792103528976
0.6155204176902771 0.19676409661769867 0.010047105140984058
0.64355242252349854 0.20536518096923828 0.01123340055346489
0.6596648097038269 0.21005463600158691 0.011741369031369686
0.021148411557078362 0.11735299974679947 0.097049683332443237
0.028494726866483688 0.11435671150684357 0.093173004686832428
0.049293637275695801 0.10485465824604034 0.078583270311355591
0.10798852890729904 0.10440005362033844 0.057645745575428009
0.20437316596508026 0.11838752776384354 0.030787823721766472
0.30611580610275269 0.13684023916721344 0.015301498584449291
0.39872503280639648 0.1553986668586731 0.010548654943704605
0.4783610999584198 0.17688630521297455 0.0086748162284493446
0.53933799266815186 0.18816711008548737 0.0078431377187371254
0.58072632551193237 0.1922675222158432 0.0078587550669908524
0.61480098962783813 0.20245110988616943 0.0080010956153273582
0.64495909214019775 0.21037609875202179 0.0092236241325736046
0.66522091627120972 0.21646873652935028 0.0098559362813830376
0.026267856359481812 0.18918387591838837 0.15371190011501312
0.035262491554021835 0.18645144999027252 0.15041626989841461
0.052345771342515945 0.17595931887626648 0.13767196238040924
0.091801255941390991 0.16813406348228455 0.11648604273796082
0.18690125644207001 0.17321139574050903 0.075954198837280273
0.31209108233451843 0.19117236137390137 0.029197977855801582
0.41111192107200623 0.20646472275257111 0.012309414334595203
0.48840463161468506 0.21557649970054626 0.0092743821442127228
0.54932725429534912 0.21836143732070923 0.0078431377187371254
0.59099322557449341 0.21983890235424042 0.0078026866540312767
0.62369441986083984 0.22042575478553772 0.0078431377187371254
0.65420585870742798 0.22715090215206146 0.0078811943531036377
0.67637699842453003 0.23161201179027557 0.0078890928998589516
0.038913726806640625 0.27458909153938293 0.22272028028964996
0.046224884688854218 0.26776307821273804 0.21653993427753448
0.057567071169614792 0.25636190176010132 0.20559632778167725
0.083551160991191864 0.24447499215602875 0.18750980496406555
0.15216866135597229 0.24093227088451385 0.15946224331855774
0.29207530617713928 0.25719401240348816 0.10332873463630676
0.43649113178253174 0.28481394052505493 0.027395585551857948
0.52272260189056396 0.29401573538780212 0.01105951052159071
0.58139002323150635 0.29072085022926331 0.0077920202165842056
0.61992132663726807 0.28249764442443848 0.0044640335254371166
0.6508215069770813 0.27334374189376831 0.005493583157658577
0.67532336711883545 0.26450648903846741 0.0073029762133955956
0.69536787271499634 0.26048704981803894 0.0074142157100141048
0.062182318419218063 0.35686632990837097 0.28966853022575378
0.062923237681388855 0.35091876983642578 0.28382018208503723
0.071204543113708496 0.34024521708488464 0.27420279383659363
0.094658225774765015 0.33120983839035034 0.26208043098449707
0.14090684056282043 0.32489311695098877 0.24124963581562042
0.24074788391590118 0.32447528839111328 0.20776253938674927
0.4157988429069519 0.35024252533912659 0.12271441519260406
0.55941480398178101 0.37988275289535522 0.025989562273025513
0.61849802732467651 0.38123536109924316 0.01021163072437048
0.65761244297027588 0.37179550528526306 0.0026073830667883158
0.68988549709320068 0.35967922210693359 0.0020846647676080465
0.71297299861907959 0.34058019518852234 0.0031663333065807819
0.72952920198440552 0.33436158299446106 0.003553921589627862
0.076556921005249023 0.43281564116477966 0.35281899571418762
0.081861548125743866 0.42788341641426086 0.34653136134147644
0.094078391790390015 0.42176362872123718 0.33918967843055725
0.11402465403079987 0.41905194520950317 0.33424460887908936
0.15157909691333771 0.41160905361175537 0.31612852215766907
0.22252574563026428 0.41170170903205872 0.29262024164199829
0.35154932737350464 0.41677173972129822 0.26143753528594971
0.53846085071563721 0.44603151082992554 0.14174917340278625
0.6536409854888916 0.47133854031562805 0.039068933576345444
0.69460004568099976 0.46301236748695374 0.0097614666447043419
0.72752422094345093 0.44920206069946289 0.0020813886076211929
0.75746941566467285 0.44021528959274292 0
0.77885645627975464 0.42999747395515442 0
0.083720125257968903 0.50371086597442627 0.41308629512786865
0.098598748445510864 0.49832141399383545 0.40502461791038513
0.11434794217348099 0.4936428964138031 0.39799690246582031
0.12920168042182922 0.49038505554199219 0.39283892512321472
0.16004323959350586 0.4910351037979126 0.38674825429916382
0.21836704015731812 0.49349108338356018 0.37104767560958862
0.32285568118095398 0.4924030601978302 0.33929899334907532
0.46951377391815186 0.4925263524055481 0.29221779108047485
0.61839121580123901 0.51374310255050659 0.17646521329879761
0.71955627202987671 0.53542608022689819 0.064651668071746826
0.75907528400421143 0.52877920866012573 0.020621072500944138
0.78704029321670532 0.51717609167098999 0.0018646538956090808
0.81528443098068237 0.51054877042770386 0.00019453460117802024
0.082068756222724915 0.56555044651031494 0.46630463004112244
0.097816213965415955 0.55887991189956665 0.45759421586990356
0.12304733693599701 0.55184519290924072 0.44748428463935852
0.14227451384067535 0.54967641830444336 0.44237408041954041
0.16757093369960785 0.55132538080215454 0.43880131840705872
0.21605037152767181 0.55440545082092285 0.42757567763328552
0.30533280968666077 0.55758476257324219 0.39767169952392578
0.42403918504714966 0.55305266380310059 0.37359574437141418
0.55405610799789429 0.54903227090835571 0.32494622468948364
0.68436479568481445 0.56831139326095581 0.20401929318904877
0.77960515022277832 0.59119230508804321 0.088549040257930756
0.81412696838378906 0.58221966028213501 0.021508324891328812
0.84214490652084351 0.57243716716766357 0.0033863142598420382
0.07331828773021698 0.62038075923919678 0.51453280448913574
0.094287768006324768 0.61525332927703857 0.50673902034759521
0.12337477505207062 0.60846400260925293 0.49668210744857788
0.14651039242744446 0.60583728551864624 0.4906252920627594
0.17219698429107666 0.60466337203979492 0.48557808995246887
0.21199657022953033 0.60844743251800537 0.47902262210845947
0.28824344277381897 0.61398202180862427 0.45503363013267517
0.39110210537910461 0.6148107647895813 0.42752170562744141
0.50824463367462158 0.60450512170791626 0.40516051650047302
0.62887167930603027 0.60448539257049561 0.34623563289642334
0.75097644329071045 0.62331849336624146 0.23146986961364746
0.83196699619293213 0.63606256246566772 0.10702511668205261
0.86741048097610474 0.62876945734024048 0.029187146574258804
0.071186438202857971 0.67083996534347534 0.55751752853393555
0.084925815463066101 0.66882121562957764 0.55413323640823364
0.11429394036531448 0.66389280557632446 0.5461609959602356
0.1461435854434967 0.66096585988998413 0.5398106575012207
0.17592029273509979 0.65757501125335693 0.5328029990196228
0.20982910692691803 0.65972024202346802 0.5275871753692627
0.27051949501037598 0.66524434089660645 0.51073575019836426
0.36794871091842651 0.6711764931678772 0.48085522651672363
0.47276031970977783 0.66914224624633789 0.45912620425224304
0.57935839891433716 0.66255420446395874 0.44054001569747925
0.69152253866195679 0.65953284502029419 0.38014605641365051
0.81459921598434448 0.68051004409790039 0.2625809907913208
0.89608114957809448 0.69036537408828735 0.13066153228282928
0.065201118588447571 0.70255666971206665 0.58524155616760254
0.074926130473613739 0.70686215162277222 0.58822369575500488
0.110525943338871 0.70298326015472412 0.58271622657775879
0.1502755880355835 0.70077145099639893 0.57692283391952515
0.179549440741539 0.70252817869186401 0.57360094785690308
0.21081852912902832 0.70252710580825806 0.56629174947738647
0.255820631980896 0.70821589231491089 0.55738615989685059
0.35101783275604248 0.71917521953582764 0.53201001882553101
0.44772469997406006 0.72388941049575806 0.505482017993927
0.54055041074752808 0.7271496057510376 0.49591302871704102
0.64002996683120728 0.72279661893844604 0.48887819051742554
0.75905507802963257 0.72115612030029297 0.42580553889274597
0.89030098915100098 0.74515509605407715 0.30842068791389465
0.014403922483325005 0.024046445265412331 0.025223182514309883
0.028511270880699158 0.022236527875065804 0.023194840177893639
0.064930334687232971 0.023885449394583702 0.021904380992054939
0.15573206543922424 0.036774519830942154 0.018683997914195061
0.26898401975631714 0.066996537148952484 0.014033269137144089
0.37317100167274475 0.10295728594064713 0.013261039741337299
0.45519018173217773 0.13183164596557617 0.012569501996040344
0.51761019229888916 0.15367458760738373 0.013129095546901226
0.5644303560256958 0.16853997111320496 0.012882442213594913
0.59375524520874023 0.17862246930599213 0.012438725680112839
0.62487530708312988 0.18923500180244446 0.01220341119915247
0.64802151918411255 0.19730286300182343 0.012925690039992332
0.65400367975234985 0.20026604831218719 0.016518611460924149
0.015676476061344147 0.040479548275470734 0.040487777441740036
0.026787074282765388 0.036004144698381424 0.034741837531328201
0.061054512858390808 0.03305402398109436 0.027893500402569771
0.1377260833978653 0.041201364248991013 0.020864928141236305
0.24343638122081757 0.067089080810546875 0.016758235171437263
0.35077914595603943 0.10111386328935623 0.015256455168128014
0.43538570404052734 0.12866327166557312 0.012774089351296425
0.50349104404449463 0.1525612473487854 0.012598957866430283
0.55306488275527954 0.16879713535308838 0.012360591441392899
0.58730232715606689 0.18038457632064819 0.012366261333227158
0.62022805213928223 0.19195781648159027 0.012438725680112839
0.64647108316421509 0.20035958290100098 0.012749301269650459
0.65617674589157104 0.2035512775182724 0.014875493943691254
0.019612256437540054 0.076449781656265259 0.069335281848907471
0.025404388085007668 0.068957321345806122 0.060449667274951935
0.053582943975925446 0.061030801385641098 0.047360572963953018
0.11889564990997314 0.061762850731611252 0.028942033648490906
0.21614032983779907 0.07976214587688446 0.0227839145809412
0.31678509712219238 0.10230536013841629 0.01776530034840107
0.40736964344978333 0.12835417687892914 0.013588041067123413
0.48248487710952759 0.15443810820579529 0.013143367134034634
0.54192823171615601 0.17255346477031708 0.012452353723347187
0.58190315961837769 0.184052973985672 0.011968515813350677
0.61651647090911865 0.19614534080028534 0.012494614347815514
0.64380300045013428 0.20402613282203674 0.013337003998458385
0.65932881832122803 0.20807886123657227 0.014375694096088409
0.02076091431081295 0.12513996660709381 0.10808190703392029
0.026115283370018005 0.1194930300116539 0.10030504316091537
0.047010429203510284 0.10876979678869247 0.085896857082843781
0.10817936807870865 0.10599256306886673 0.061208970844745636
0.20670375227928162 0.11738338321447372 0.034030482172966003
0.30806165933609009 0.13379698991775513 0.020852347835898399
0.39860880374908447 0.15123598277568817 0.014768457971513271
0.47874242067337036 0.16924822330474854 0.012649999931454659
0.5370560884475708 0.18278892338275909 0.011809076182544231
0.58039075136184692 0.19141235947608948 0.010952893644571304
0.61549896001815796 0.20310774445533752 0.011695039458572865
0.64555245637893677 0.21115867793560028 0.012895741499960423
0.66577506065368652 0.21695588529109955 0.013035493902862072
0.023029955103993416 0.19771489500999451 0.16433036327362061
0.028543164953589439 0.19276316463947296 0.15883755683898926
0.044506311416625977 0.18017299473285675 0.14397849142551422
0.088549762964248657 0.16763782501220703 0.11856023967266083
0.18745985627174377 0.17099937796592712 0.07907598465681076
0.31535756587982178 0.19013689458370209 0.031554650515317917
0.4145418107509613 0.20532940328121185 0.016865046694874763
0.49319720268249512 0.21202783286571503 0.012506971135735512
0.54906928539276123 0.21702374517917633 0.010927491821348667
0.59053695201873779 0.21716319024562836 0.0092962225899100304
0.62382513284683228 0.21966814994812012 0.009990692138671875
0.65427243709564209 0.22609785199165344 0.010819214396178722
0.67554944753646851 0.23092462122440338 0.010629870928823948
0.031581670045852661 0.28165218234062195 0.23162421584129333
0.037103001028299332 0.27626365423202515 0.22548450529575348
0.049831703305244446 0.2669188380241394 0.21538020670413971
0.084085322916507721 0.25181245803833008 0.19529750943183899
0.15410001575946808 0.24382111430168152 0.16399098932743073
0.29819101095199585 0.25980597734451294 0.10493774712085724
0.43751505017280579 0.2833162248134613 0.031047536060214043
0.52321970462799072 0.29092615842819214 0.010281835682690144
0.58165556192398071 0.29137468338012695 0.0072366753593087196
0.62125986814498901 0.28201228380203247 0.0064368904568254948
0.65134716033935547 0.27147355675697327 0.0072358525358140469
0.675822913646698 0.26243087649345398 0.0082405088469386101
0.69430679082870483 0.25999659299850464 0.0081798331812024117
0.040421146899461746 0.36692488193511963 0.30388122797012329
0.048477698117494583 0.36024609208106995 0.29438728094100952
0.061895962804555893 0.35243275761604309 0.28629583120346069
0.088025234639644623 0.34185981750488281 0.27380719780921936
0.14246515929698944 0.32963669300079346 0.24726863205432892
0.24602428078651428 0.32821547985076904 0.2117159515619278
0.41837319731712341 0.35174587368965149 0.12344951182603836
0.55186796188354492 0.37546905875205994 0.030747342854738235
0.61899125576019287 0.37853506207466125 0.008695654571056366
0.65861320495605469 0.37103581428527832 0.0036292432341724634
0.69086414575576782 0.35731664299964905 0.0025921841152012348
0.71399801969528198 0.33771350979804993 0.0039284797385334969
0.72982561588287354 0.3269655704498291 0.0044496422633528709
0.04388783872127533 0.44643163681030273 0.37069648504257202
0.059673085808753967 0.43947142362594604 0.36091515421867371
0.078193262219429016 0.43109557032585144 0.35104662179946899
0.098256967961788177 0.42705181241035461 0.34501361846923828
0.14322727918624878 0.41560003161430359 0.32430845499038696
0.2196974903345108 0.41642916202545166 0.29991546273231506
0.35062864422798157 0.42161226272583008 0.26356714963912964
0.53320956230163574 0.44447925686836243 0.15066041052341461
0.65208780765533447 0.46778732538223267 0.042116321623325348
0.6948237419128418 0.46187189221382141 0.014034031890332699
0.72741508483886719 0.44902625679969788 0.0015090942615643144
0.75671207904815674 0.43794640898704529 0.00011686437210300937
0.77765458822250366 0.42625325918197632 0.00049573113210499287
0.046518962830305099 0.51438766717910767 0.42796501517295837
0.068764492869377136 0.50735950469970703 0.41779348254203796
0.09404812753200531 0.50032860040664673 0.40759432315826416
0.11130755394697189 0.4961736798286438 0.40171155333518982
0.15214946866035461 0.49416971206665039 0.39218258857727051
0.21677371859550476 0.49422714114189148 0.3724273145198822
0.3214104175567627 0.49455159902572632 0.34198465943336487
0.47274690866470337 0.49434682726860046 0.29602125287055969
0.62094861268997192 0.51349174976348877 0.17481359839439392
0.72002112865447998 0.53386831283569336 0.06533341109752655
0.75829541683197021 0.52788239717483521 0.022137779742479324
0.78779608011245728 0.51665639877319336 0.0037339453119784594
0.81463015079498291 0.50774914026260376 0.00054167205234989524
0.042971264570951462 0.57233333587646484 0.47942155599594116
0.063868336379528046 0.569122314453125 0.47164607048034668
0.10099641233682632 0.56014907360076904 0.4586891233921051
0.12527430057525635 0.55770653486251831 0.45298007130622864
0.15733927488327026 0.55632930994033813 0.44722199440002441
0.2128395289182663 0.55731654167175293 0.43284928798675537
0.30324235558509827 0.55970829725265503 0.40199539065361023
0.42587548494338989 0.55474889278411865 0.3745323121547699
0.55525839328765869 0.54972010850906372 0.32119664549827576
0.68796420097351074 0.5708121657371521 0.19994068145751953
0.78157645463943481 0.59180593490600586 0.091230206191539764
0.8141559362411499 0.58079028129577637 0.026229588314890862
0.83691245317459106 0.57093065977096558 0.0056420122273266315
0.035451371222734451 0.6247900128364563 0.52694952487945557
0.060264885425567627 0.61740505695343018 0.51801145076751709
0.095706626772880554 0.61463677883148193 0.50772446393966675
0.1207844614982605 0.61419898271560669 0.50303471088409424
0.15807843208312988 0.61022168397903442 0.4945511519908905
0.20844811201095581 0.61260974407196045 0.48532328009605408
0.28532311320304871 0.61758595705032349 0.46040898561477661
0.39506751298904419 0.61505627632141113 0.42578020691871643
0.50989168882369995 0.60546165704727173 0.40014734864234924
0.6292346715927124 0.60469335317611694 0.34709209203720093
0.75329351425170898 0.62516880035400391 0.23061065375804901
0.83034944534301758 0.63488966226577759 0.11044283211231232
0.86260902881622314 0.62800365686416626 0.032207801938056946
0.039783626794815063 0.67212522029876709 0.56918609142303467
0.052301757037639618 0.67181563377380371 0.56532508134841919
0.076065108180046082 0.67196130752563477 0.55987632274627686
0.10837949812412262 0.66943860054016113 0.55408251285552979
0.1534678041934967 0.66414254903793335 0.54359757900238037
0.20330566167831421 0.66249209642410278 0.53281724452972412
0.26619359850883484 0.66661876440048218 0.51550108194351196
0.36631372570991516 0.67137736082077026 0.48217883706092834
0.4731050431728363 0.66929620504379272 0.45978182554244995
0.58057242631912231 0.66348153352737427 0.44148194789886475
0.69441461563110352 0.66242122650146484 0.38250619173049927
0.81707888841629028 0.68077594041824341 0.25979477167129517
0.89770805835723877 0.69214838743209839 0.13480401039123535
0.045268699526786804 0.70547616481781006 0.59555208683013916
0.041107296943664551 0.70942056179046631 0.59883254766464233
0.067089661955833435 0.71309733390808105 0.59820699691772461
0.10683029890060425 0.7136605978012085 0.5950324535369873
0.14902515709400177 0.71069610118865967 0.58615905046463013
0.19955649971961975 0.70553696155548096 0.57232743501663208
0.24737992882728577 0.70759797096252441 0.561359703540802
0.33543300628662109 0.71963167190551758 0.54033368825912476
0.44303703308105469 0.72707462310791016 0.50792652368545532
0.53951466083526611 0.72878760099411011 0.49661904573440552
0.64086002111434937 0.72465777397155762 0.48908364772796631
0.76216238737106323 0.72280800342559814 0.42053797841072083
0.87902230024337769 0.73905909061431885 0.30849537253379822
0.017887100577354431 0.043662890791893005 0.051626093685626984
0.029197229072451591 0.037618629634380341 0.045566078275442123
0.059655074030160904 0.037723943591117859 0.046886488795280457
0.14823144674301147 0.037736840546131134 0.044156048446893692
0.2681090235710144 0.052485357969999313 0.032263990491628647
0.37488532066345215 0.086706049740314484 0.022082310169935226
0.4581855833530426 0.12163306027650833 0.018744764849543571
0.52604919672012329 0.14792156219482422 0.018274029716849327
0.56665003299713135 0.1612398773431778 0.017794530838727951
0.59928560256958008 0.17454332113265991 0.017275283113121986
0.62781155109405518 0.18632414937019348 0.018006792291998863
0.64913260936737061 0.19540794193744659 0.0193215012550354
0.65746200084686279 0.19942867755889893 0.021908987313508987
0.017980029806494713 0.054887060075998306 0.061872906982898712
0.027409812435507774 0.048819057643413544 0.055025633424520493
0.053695276379585266 0.044903188943862915 0.050208549946546555
0.13243477046489716 0.044902712106704712 0.045337677001953125
0.24475567042827606 0.055154360830783844 0.035186499357223511
0.35434585809707642 0.086961023509502411 0.025923591107130051
0.4397643506526947 0.11982496827840805 0.020115766674280167
0.50926929712295532 0.1472901850938797 0.02047443762421608
0.5553213357925415 0.16315045952796936 0.02023620530962944
0.59163480997085571 0.17622452974319458 0.018250484019517899
0.62290287017822266 0.18849252164363861 0.01837310753762722
0.64678984880447388 0.19745902717113495 0.018454054370522499
0.65780878067016602 0.20153461396694183 0.019666200503706932
0.022113889455795288 0.0838288813829422 0.087793417274951935
0.027296701446175575 0.074751473963260651 0.077656596899032593
0.0532798171043396 0.070022046566009521 0.069576352834701538
0.1197262778878212 0.06608128547668457 0.054069057106971741
0.21491619944572449 0.072683624923229218 0.040948756039142609
0.32158783078193665 0.094260379672050476 0.032019387930631638
0.41240289807319641 0.12114840000867844 0.025082413107156754
0.48565983772277832 0.14766131341457367 0.023058557882905006
0.54425132274627686 0.16779285669326782 0.022610459476709366
0.58452087640762329 0.17998199164867401 0.019683763384819031
0.61843007802963257 0.1924574226140976 0.018762819468975067
0.6437370777130127 0.20123682916164398 0.018106453120708466
0.65985548496246338 0.20546673238277435 0.017871931195259094
0.021623348817229271 0.13602188229560852 0.1280805915594101
0.026075549423694611 0.12952980399131775 0.12039382010698318
0.04754658043384552 0.12300537526607513 0.11039324104785919
0.11134016513824463 0.11339347809553146 0.083501346409320831
0.20829519629478455 0.11531360447406769 0.051814645528793335
0.31191360950469971 0.12807582318782806 0.034661222249269485
0.40276220440864563 0.14467473328113556 0.027915535494685173
0.48142638802528381 0.16420909762382507 0.025762535631656647
0.5418965220451355 0.17848600447177887 0.021736085414886475
0.58296495676040649 0.18729500472545624 0.019165817648172379
0.61738091707229614 0.19910953938961029 0.018047124147415161
0.64716380834579468 0.20941483974456787 0.01799977570772171
0.66537117958068848 0.2155425101518631 0.017085356637835503
0.016522590070962906 0.21239478886127472 0.18784104287624359
0.019173774868249893 0.20764899253845215 0.18294632434844971
