assets/lut/shamoonabbasi rest 33.cube
# Created by: G'MIC (https://gmic.eu)
TITLE "rest_33"
# LUT size
LUT_3D_SIZE 13
# Data domain
DOMAIN_MIN 0.0 0.0 0.0
DOMAIN_MAX 1.0 1.0 1.0
# LUT data points
0.060490701347589493 0.0818801149725914 0.081011019647121429
0.068897172808647156 0.090311087667942047 0.087864026427268982
0.081429965794086456 0.10114362835884094 0.097228720784187317
0.11532346159219742 0.10480386763811111 0.10160673409700394
0.16783028841018677 0.10217041522264481 0.10308821499347687
0.23283317685127258 0.10193173587322235 0.1054263561964035
0.3058411180973053 0.099822074174880981 0.10678716748952866
0.39017444849014282 0.096389517188072205 0.10810337215662003
0.47802442312240601 0.088968388736248016 0.10593128949403763
0.57068920135498047 0.079312942922115326 0.10048162192106247
0.66281086206436157 0.076963804662227631 0.097737647593021393
0.76282095909118652 0.078378371894359589 0.086651086807250977
0.84725016355514526 0.09569917619228363 0.077292047441005707
0.092322945594787598 0.11519989371299744 0.10971830785274506
0.10560502856969833 0.12844347953796387 0.12053334712982178
0.11859992891550064 0.1412607729434967 0.12987266480922699
0.14847554266452789 0.15320214629173279 0.13532249629497528
0.20950524508953094 0.15609632432460785 0.13509775698184967
0.28757032752037048 0.15467821061611176 0.13491837680339813
0.37236440181732178 0.14667987823486328 0.13412266969680786
0.46581417322158813 0.13876417279243469 0.13359254598617554
0.55790227651596069 0.13677936792373657 0.13173395395278931
0.64787250757217407 0.14008742570877075 0.12720941007137299
0.73252767324447632 0.14340609312057495 0.11798436939716339
0.81843042373657227 0.15232215821743011 0.10733554512262344
0.88826972246170044 0.17473016679286957 0.096755459904670715
0.14150550961494446 0.16772037744522095 0.14953666925430298
0.15930742025375366 0.18425451219081879 0.16182234883308411
0.17997032403945923 0.203250452876091 0.17517523467540741
0.2088153064250946 0.22021201252937317 0.17764671146869659
0.26729035377502441 0.23643293976783752 0.17353902757167816
0.34807199239730835 0.24796842038631439 0.1697283536195755
0.44142702221870422 0.24922721087932587 0.16786888241767883
0.53859037160873413 0.23546317219734192 0.16473852097988129
0.64065343141555786 0.22162163257598877 0.1638958752155304
0.73304891586303711 0.22816193103790283 0.1634351909160614
0.80916160345077515 0.2328193187713623 0.15312975645065308
0.87759888172149658 0.24598026275634766 0.14271612465381622
0.93528503179550171 0.26463904976844788 0.12932293117046356
0.17953969538211823 0.23624290525913239 0.1843755841255188
0.21920561790466309 0.25737938284873962 0.20308119058609009
0.25470525026321411 0.28134655952453613 0.21804766356945038
0.29410943388938904 0.30570301413536072 0.22059518098831177
0.34594056010246277 0.32900768518447876 0.21788111329078674
0.41844931244850159 0.34771737456321716 0.21178369224071503
0.50677567720413208 0.35953852534294128 0.20271532237529755
0.60308682918548584 0.36348819732666016 0.19718146324157715
0.69914531707763672 0.36252561211585999 0.19227784872055054
0.78198826313018799 0.36047849059104919 0.19144149124622345
0.85797107219696045 0.35535183548927307 0.1875985711812973
0.92406737804412842 0.35618793964385986 0.18332323431968689
0.97433066368103027 0.36383506655693054 0.17454768717288971
0.21388290822505951 0.30887594819068909 0.21338328719139099
0.26804205775260925 0.33549085259437561 0.23048131167888641
0.3221433162689209 0.36041355133056641 0.2437351793050766
0.37686905264854431 0.38917180895805359 0.25260883569717407
0.42965781688690186 0.4133746325969696 0.25124222040176392
0.49291178584098816 0.43668070435523987 0.24833445250988007
0.56872749328613281 0.45773249864578247 0.23875157535076141
0.65818274021148682 0.47435343265533447 0.2297985851764679
0.73943024873733521 0.48384362459182739 0.22179454565048218
0.80964744091033936 0.48643499612808228 0.2171122133731842
0.87565803527832031 0.48591500520706177 0.21437376737594604
0.93815535306930542 0.4825063943862915 0.21049453318119049
0.98377597332000732 0.4791405200958252 0.20805090665817261
0.25750741362571716 0.3833061158657074 0.24080407619476318
0.32628467679023743 0.41558012366294861 0.25650838017463684
0.38796770572662354 0.44227492809295654 0.26792770624160767
0.44988593459129333 0.47173801064491272 0.2779143750667572
0.50634497404098511 0.49616402387619019 0.27980256080627441
0.56855672597885132 0.52355366945266724 0.27719122171401978
0.63062208890914917 0.54637593030929565 0.27161476016044617
0.70192378759384155 0.5695115327835083 0.26440525054931641
0.77134716510772705 0.58454006910324097 0.25595930218696594
0.83249408006668091 0.59136086702346802 0.24884301424026489
0.88923084735870361 0.59340751171112061 0.24486157298088074
0.94434523582458496 0.59307003021240234 0.23802958428859711
0.99020034074783325 0.58882158994674683 0.23527488112449646
0.3136037290096283 0.46320024132728577 0.2703491747379303
0.38321754336357117 0.49367806315422058 0.28152340650558472
0.45122173428535461 0.52192264795303345 0.29262629151344299
0.51736044883728027 0.5517578125 0.30345427989959717
0.57431530952453613 0.57572126388549805 0.3083459734916687
0.63420146703720093 0.60206121206283569 0.30971452593803406
0.68688708543777466 0.62352925539016724 0.30478408932685852
0.74281728267669678 0.64395642280578613 0.30047893524169922
0.79810011386871338 0.66130936145782471 0.29349854588508606
0.85351032018661499 0.67478740215301514 0.28544849157333374
0.9032929539680481 0.68129616975784302 0.27829185128211975
0.95261466503143311 0.68150877952575684 0.27177914977073669
0.99080109596252441 0.67906326055526733 0.26464042067527771
0.38226938247680664 0.55064660310745239 0.29749089479446411
0.44691485166549683 0.57396316528320312 0.30917501449584961
0.51754605770111084 0.60073578357696533 0.32170680165290833
0.58241581916809082 0.62796610593795776 0.33386152982711792
0.63491755723953247 0.64867883920669556 0.34155291318893433
0.68762433528900146 0.67220127582550049 0.34590557217597961
0.73507565259933472 0.69275766611099243 0.34393197298049927
0.7796592116355896 0.70966935157775879 0.33847609162330627
0.82841485738754272 0.72861409187316895 0.33257681131362915
0.87529301643371582 0.74447786808013916 0.32770249247550964
0.91990435123443604 0.75746148824691772 0.31529304385185242
0.96223199367523193 0.75939780473709106 0.30369460582733154
0.99184352159500122 0.75653398036956787 0.29174205660820007
0.46543920040130615 0.64345252513885498 0.32841971516609192
0.52409559488296509 0.65727370977401733 0.34717437624931335
0.58476275205612183 0.67700648307800293 0.36111778020858765
0.64083945751190186 0.6986238956451416 0.37260264158248901
0.68806600570678711 0.71634560823440552 0.38074401021003723
0.73071247339248657 0.73563337326049805 0.38612231612205505
0.77332437038421631 0.75517922639846802 0.3882758617401123
0.81590491533279419 0.77366554737091064 0.38608944416046143
0.85895746946334839 0.79079717397689819 0.38003265857696533
0.89760798215866089 0.80399179458618164 0.37063932418823242
0.93284130096435547 0.81214964389801025 0.35697594285011292
0.96853232383728027 0.82025825977325439 0.3401678204536438
0.99047279357910156 0.82476955652236938 0.32712650299072266
0.54480063915252686 0.71919673681259155 0.3726898729801178
0.59644019603729248 0.72824627161026001 0.39361295104026794
0.64519870281219482 0.74281656742095947 0.41155025362968445
0.69240754842758179 0.76174813508987427 0.42281004786491394
0.73279803991317749 0.77909427881240845 0.42988160252571106
0.77094972133636475 0.79473292827606201 0.43813487887382507
0.80802381038665771 0.81143867969512939 0.43980523943901062
0.84792864322662354 0.8272135853767395 0.43867290019989014
0.88544303178787231 0.83941000699996948 0.43286684155464172
0.91974848508834839 0.85095453262329102 0.42244938015937805
0.95048385858535767 0.85998314619064331 0.40795671939849854
0.98017787933349609 0.86654955148696899 0.39079937338829041
0.99365192651748657 0.87375277280807495 0.38646861910820007
0.62160158157348633 0.7908245325088501 0.42835003137588501
0.66119915246963501 0.79720926284790039 0.45600220561027527
0.70286256074905396 0.80842643976211548 0.47569137811660767
0.74191278219223022 0.82102000713348389 0.48534852266311646
0.77680987119674683 0.83514922857284546 0.4937225878238678
0.8108096718788147 0.85021770000457764 0.50015264749526978
0.84523087739944458 0.86153590679168701 0.5059356689453125
0.88133394718170166 0.87300485372543335 0.50327622890472412
0.91152149438858032 0.88304638862609863 0.49686235189437866
0.94205176830291748 0.89568454027175903 0.48881211876869202
0.97022861242294312 0.90410596132278442 0.46340829133987427
0.9935230016708374 0.91228532791137695 0.44600710272789001
0.99803042411804199 0.919441819190979 0.45393833518028259
0.69355690479278564 0.85767114162445068 0.5114094614982605
0.72796171903610229 0.86037963628768921 0.54079866409301758
0.76534932851791382 0.86700671911239624 0.56113183498382568
0.79603046178817749 0.87369555234909058 0.56569308042526245
0.82504814863204956 0.88456100225448608 0.57062435150146484
0.85126453638076782 0.89153426885604858 0.56745356321334839
0.88129866123199463 0.90359139442443848 0.57368916273117065
0.90892595052719116 0.91193580627441406 0.56167620420455933
0.93606287240982056 0.92049092054367065 0.5484321117401123
0.96260714530944824 0.926746666431427 0.5286824107170105
0.98696666955947876 0.93183284997940063 0.49672210216522217
0.99914038181304932 0.93554377555847168 0.48675572872161865
1 0.93487167358398438 0.48260593414306641
0.73844796419143677 0.89358580112457275 0.56683474779129028
0.76562774181365967 0.89059412479400635 0.58994978666305542
0.79945367574691772 0.89417219161987305 0.60917890071868896
0.82335346937179565 0.89932495355606079 0.60635983943939209
0.84786355495452881 0.90559172630310059 0.60394996404647827
0.87328153848648071 0.91059595346450806 0.59476387500762939
0.89717227220535278 0.91549581289291382 0.58573317527770996
0.92396610975265503 0.92235094308853149 0.57122588157653809
0.95011454820632935 0.92834514379501343 0.55195879936218262
0.97854876518249512 0.93422025442123413 0.52371019124984741
0.99592244625091553 0.93713998794555664 0.49973201751708984
0.99986660480499268 0.93725490570068359 0.49275100231170654
1 0.93725490570068359 0.49152019619941711
0.063061237335205078 0.083417795598506927 0.083274677395820618
0.071448065340518951 0.092311620712280273 0.089763492345809937
0.082650549709796906 0.10413181036710739 0.10002867877483368
0.10765626281499863 0.11065439134836197 0.10839538276195526
0.16049633920192719 0.11028812080621719 0.11679708212614059
0.22165563702583313 0.11076414585113525 0.12035392224788666
0.2939172089099884 0.11377747356891632 0.12434887140989304
0.37571829557418823 0.11353016644716263 0.12735871970653534
0.45946642756462097 0.1104937270283699 0.12799115478992462
0.54849714040756226 0.10971836745738983 0.12627977132797241
0.64406889677047729 0.10968200117349625 0.12300463020801544
0.74850654602050781 0.11517217010259628 0.11719236522912979
0.82604324817657471 0.12745647132396698 0.11087251454591751
0.09610641747713089 0.1181550994515419 0.1116025447845459
0.11118771135807037 0.13379500806331635 0.12334451079368591
0.12385167181491852 0.1483902782201767 0.13455007970333099
0.14264334738254547 0.16145265102386475 0.14456696808338165
0.19411037862300873 0.16771003603935242 0.15143144130706787
0.27197739481925964 0.16487827897071838 0.15558111667633057
0.35884994268417358 0.16121987998485565 0.15828976035118103
0.44813549518585205 0.15792833268642426 0.15948054194450378
0.53767889738082886 0.16123305261135101 0.16015580296516418
0.62744921445846558 0.16843926906585693 0.15837335586547852
0.71170568466186523 0.17224152386188507 0.15050618350505829
0.80093139410018921 0.18250115215778351 0.1427801102399826
0.87315255403518677 0.20111432671546936 0.13523715734481812
0.14879091084003448 0.17368908226490021 0.15468759834766388
0.16990888118743896 0.19418834149837494 0.16943830251693726
0.19010160863399506 0.21388629078865051 0.18368372321128845
0.20940026640892029 0.2309175431728363 0.19606359302997589
0.249250128865242 0.2466435581445694 0.2012212872505188
0.32770809531211853 0.25794708728790283 0.2010786235332489
0.42491132020950317 0.2574613094329834 0.20173363387584686
0.52462273836135864 0.24167777597904205 0.19951549172401428
0.62527143955230713 0.23906515538692474 0.20016840100288391
0.71662837266921997 0.25087693333625793 0.20105928182601929
0.78962206840515137 0.25922819972038269 0.19428242743015289
0.86145138740539551 0.27445271611213684 0.18635986745357513
0.92303687334060669 0.29416599869728088 0.17782588303089142
0.19689981639385223 0.24250192940235138 0.19962684810161591
0.23796927928924561 0.26428353786468506 0.2193835973739624
0.27062657475471497 0.28982540965080261 0.23835201561450958
0.29954266548156738 0.31281277537345886 0.25240939855575562
0.33801233768463135 0.33674788475036621 0.25685670971870422
0.40668359398841858 0.35755836963653564 0.25224757194519043
0.49037152528762817 0.36799359321594238 0.24757348001003265
0.59056746959686279 0.37163046002388 0.24335627257823944
0.68442815542221069 0.37125974893569946 0.24046817421913147
0.76815611124038696 0.37027958035469055 0.23995281755924225
0.84592801332473755 0.36562171578407288 0.23970109224319458
0.91107827425003052 0.37429565191268921 0.23609469830989838
0.96145248413085938 0.38451501727104187 0.22853405773639679
0.23123341798782349 0.31479030847549438 0.23729643225669861
0.2930530309677124 0.34082701802253723 0.25757050514221191
0.34597879648208618 0.36662891507148743 0.27977621555328369
0.38861694931983948 0.39244171977043152 0.29423648118972778
0.43048256635665894 0.41815093159675598 0.29864001274108887
0.48818090558052063 0.44226360321044922 0.29512450098991394
0.559661865234375 0.46492978930473328 0.289244145154953
0.64590239524841309 0.48273015022277832 0.28333255648612976
0.72489190101623535 0.49162024259567261 0.27805763483047485
0.79628735780715942 0.49394333362579346 0.27525162696838379
0.86550182104110718 0.49205571413040161 0.27393952012062073
0.92917943000793457 0.48876586556434631 0.27236011624336243
0.98320746421813965 0.48356753587722778 0.27117285132408142
0.27419582009315491 0.38959571719169617 0.27002272009849548
0.34407994151115417 0.41877651214599609 0.28756242990493774
0.40863049030303955 0.44695553183555603 0.30617815256118774
0.46822994947433472 0.47567379474639893 0.32203102111816406
0.51788663864135742 0.50192862749099731 0.32926246523857117
0.5692979097366333 0.52679431438446045 0.33010035753250122
0.62482178211212158 0.55070787668228149 0.32702314853668213
0.69251328706741333 0.57399797439575195 0.32176506519317627
0.76005107164382935 0.58916348218917847 0.3161112368106842
0.82157248258590698 0.59586960077285767 0.31115442514419556
0.87974172830581665 0.59841442108154297 0.30730411410331726
0.93715250492095947 0.59790158271789551 0.30403664708137512
0.98717409372329712 0.59350144863128662 0.30175128579139709
0.32667559385299683 0.46932089328765869 0.29772865772247314
0.39667680859565735 0.49545538425445557 0.31496846675872803
0.46658822894096375 0.52366393804550171 0.33171284198760986
0.53205883502960205 0.55428469181060791 0.34693998098373413
0.58550524711608887 0.57907587289810181 0.35727286338806152
0.63716500997543335 0.60452336072921753 0.36168304085731506
0.68602657318115234 0.62724429368972778 0.36178991198539734
0.73548579216003418 0.64718860387802124 0.35856154561042786
0.78898328542709351 0.66370570659637451 0.35280737280845642
0.8443228006362915 0.67814677953720093 0.34784060716629028
0.89429545402526855 0.68408453464508057 0.34349933266639709
0.94737613201141357 0.68478298187255859 0.33734482526779175
0.98840868473052979 0.68296468257904053 0.33360764384269714
0.39533650875091553 0.55826586484909058 0.32632094621658325
0.46245750784873962 0.57816439867019653 0.34516918659210205
0.53236871957778931 0.60511606931686401 0.36217716336250305
0.59379953145980835 0.63001245260238647 0.37681794166564941
0.64518088102340698 0.65245306491851807 0.38896715641021729
0.69259071350097656 0.67564988136291504 0.39848190546035767
0.7355613112449646 0.69613897800445557 0.40134817361831665
0.77831572294235229 0.71405971050262451 0.39889514446258545
0.8251272439956665 0.73287868499755859 0.39588275551795959
0.86800777912139893 0.74526280164718628 0.39079368114471436
0.91098225116729736 0.7577710747718811 0.38435181975364685
0.95626616477966309 0.76170873641967773 0.37493988871574402
0.98737537860870361 0.7599257230758667 0.36936214566230774
0.47340103983879089 0.64748150110244751 0.35837355256080627
0.53253287076950073 0.65989083051681519 0.38098916411399841
0.59375500679016113 0.67754095792770386 0.39978620409965515
0.6485782265663147 0.69857501983642578 0.41537398099899292
0.69337481260299683 0.71840250492095947 0.42867228388786316
0.73285055160522461 0.73585444688796997 0.43902570009231567
0.77205228805541992 0.75496971607208252 0.44528564810752869
0.81424069404602051 0.77401101589202881 0.44495698809623718
0.85447561740875244 0.79063940048217773 0.44429358839988708
0.89197432994842529 0.80547678470611572 0.43845900893211365
0.92695307731628418 0.8150365948677063 0.43086576461791992
0.95958107709884644 0.821788489818573 0.41973507404327393
0.98407971858978271 0.82619136571884155 0.4076240062713623
0.55035227537155151 0.72263079881668091 0.39984363317489624
0.59999561309814453 0.72822242975234985 0.42826616764068604
0.65142369270324707 0.74317771196365356 0.4489644467830658
0.69605958461761475 0.76256901025772095 0.46420121192932129
0.73435026407241821 0.77921050786972046 0.47621098160743713
0.77134734392166138 0.79565238952636719 0.48657399415969849
0.80737173557281494 0.81206047534942627 0.49423983693122864
0.84394437074661255 0.82615602016448975 0.49608218669891357
0.8806348443031311 0.83899277448654175 0.49635961651802063
0.91414064168930054 0.85180771350860596 0.48872753977775574
0.94310426712036133 0.86049568653106689 0.47860181331634521
0.97126132249832153 0.86641865968704224 0.46736630797386169
0.98732995986938477 0.87415981292724609 0.46002316474914551
0.62242043018341064 0.79221111536026001 0.4578176736831665
0.66447967290878296 0.79547828435897827 0.48873281478881836
0.70339381694793701 0.80659949779510498 0.50975114107131958
0.74279052019119263 0.82205724716186523 0.52470141649246216
0.77833515405654907 0.83564692735671997 0.53398054838180542
0.81290662288665771 0.84978240728378296 0.54363131523132324
0.84529858827590942 0.86110663414001465 0.55041414499282837
0.87657696008682251 0.87252259254455566 0.55129998922348022
0.90928298234939575 0.88445532321929932 0.54941630363464355
0.93787884712219238 0.8955419659614563 0.53972911834716797
0.96587008237838745 0.90606385469436646 0.52561044692993164
0.98638927936553955 0.91165006160736084 0.51538938283920288
0.99391227960586548 0.91576659679412842 0.51193630695343018
0.69039416313171387 0.85884922742843628 0.5322304368019104
0.72864562273025513 0.86093103885650635 0.56362307071685791
0.76547741889953613 0.86672472953796387 0.5868191123008728
0.79966562986373901 0.87515509128570557 0.59623152017593384
0.82592439651489258 0.88382649421691895 0.598876953125
0.85386377573013306 0.89357256889343262 0.601112961769104
0.88105159997940063 0.90335202217102051 0.60331398248672485
0.90813636779785156 0.91410714387893677 0.60071080923080444
0.93356651067733765 0.92080223560333252 0.58992016315460205
0.95954912900924683 0.92788761854171753 0.57388138771057129
0.98510617017745972 0.93523281812667847 0.55518037080764771
0.9968300461769104 0.93851399421691895 0.54429131746292114
0.99943774938583374 0.93682897090911865 0.5403633713722229
0.73491233587265015 0.89339971542358398 0.58254939317703247
0.76331233978271484 0.89084309339523315 0.60460829734802246
0.79963606595993042 0.89481967687606812 0.62852334976196289
0.82677513360977173 0.89962422847747803 0.63107001781463623
0.84975576400756836 0.90494513511657715 0.62839037179946899
0.87282192707061768 0.9097411036491394 0.62332069873809814
0.89774304628372192 0.91603958606719971 0.61782181262969971
0.92259389162063599 0.92302262783050537 0.60897856950759888
0.94826686382293701 0.92916285991668701 0.59431272745132446
0.9744078516960144 0.93492245674133301 0.57559883594512939
0.99551653861999512 0.93969249725341797 0.55812567472457886
0.99698996543884277 0.93979275226593018 0.55235755443572998
0.99708563089370728 0.93854516744613647 0.55043679475784302
0.065649859607219696 0.087521962821483612 0.087004475295543671
0.074162907898426056 0.095728315412998199 0.09273403137922287
0.085545681416988373 0.10668891668319702 0.10219979286193848
0.11027069389820099 0.11535393446683884 0.116233229637146
0.15746951103210449 0.11759214103221893 0.12984435260295868
0.21302343904972076 0.1201348677277565 0.13768213987350464
0.28165781497955322 0.12630990147590637 0.14531713724136353
0.35713565349578857 0.1303425133228302 0.1503659188747406
0.4397033154964447 0.12933751940727234 0.15165033936500549
0.52681034803390503 0.13033926486968994 0.15128384530544281
0.62249565124511719 0.13693378865718842 0.15133026242256165
0.72640585899353027 0.14534673094749451 0.15028797090053558
0.808818519115448 0.15464136004447937 0.14526589214801788
0.099748514592647552 0.12300857901573181 0.11658204346895218
0.11410746723413467 0.13775815069675446 0.12665168941020966
0.12794288992881775 0.1524919867515564 0.13839827477931976
0.14663770794868469 0.16994060575962067 0.15182065963745117
0.18387655913829803 0.17769908905029297 0.16426199674606323
0.26003962755203247 0.17591144144535065 0.17562924325466156
0.34161379933357239 0.17381541430950165 0.18288388848304749
0.42666944861412048 0.17911653220653534 0.18825159966945648
0.51561832427978516 0.1835920661687851 0.18908306956291199
0.60484224557876587 0.18695782124996185 0.1860710084438324
0.69056743383407593 0.19608587026596069 0.18350061774253845
0.78055047988891602 0.20919527113437653 0.17974665760993958
0.85500562191009521 0.22421154379844666 0.17452172935009003
0.15171794593334198 0.17931258678436279 0.16059388220310211
0.17408263683319092 0.19811607897281647 0.17394782602787018
0.1960875391960144 0.21948572993278503 0.18853060901165009
0.22044329345226288 0.24354588985443115 0.20523251593112946
0.24346403777599335 0.25934141874313354 0.21788299083709717
0.30582135915756226 0.27162382006645203 0.22737935185432434
0.40289232134819031 0.27155151963233948 0.23354759812355042
0.50688916444778442 0.26362130045890808 0.23782162368297577
0.6082342267036438 0.26553183794021606 0.24210448563098907
0.69255608320236206 0.27178451418876648 0.23959644138813019
0.76794779300689697 0.2796001136302948 0.23351456224918365
0.83858376741409302 0.29345813393592834 0.22673624753952026
0.90217667818069458 0.31266430020332336 0.22305086255073547
0.20367634296417236 0.24914468824863434 0.21109478175640106
0.25167495012283325 0.27313783764839172 0.22897043824195862
0.28277149796485901 0.29974344372749329 0.24710215628147125
0.3119235634803772 0.32507890462875366 0.26485216617584229
0.33952564001083374 0.34695553779602051 0.28069671988487244
0.3819085955619812 0.36594134569168091 0.28787511587142944
0.46393191814422607 0.37981769442558289 0.28770694136619568
0.56975549459457397 0.38518291711807251 0.28824236989021301
0.67045670747756958 0.38280400633811951 0.28756546974182129
0.75780618190765381 0.37820461392402649 0.2902587354183197
0.83081340789794922 0.37862390279769897 0.28914663195610046
0.88944894075393677 0.39063966274261475 0.28627756237983704
0.94457167387008667 0.40406045317649841 0.27793294191360474
0.24385955929756165 0.32159188389778137 0.25919541716575623
0.31547439098358154 0.34840685129165649 0.2785850465297699
0.36724051833152771 0.37357190251350403 0.30005991458892822
0.40601766109466553 0.40102756023406982 0.32022923231124878
0.43666839599609375 0.4243151843547821 0.33412393927574158
0.47712847590446472 0.44841068983078003 0.34068989753723145
0.54161560535430908 0.47164255380630493 0.3366541862487793
0.63022750616073608 0.49150353670120239 0.33235460519790649
0.7121279239654541 0.49900138378143311 0.3295188844203949
