assets/lut/shamoonabbasi day for night.cube
# Created by: G'MIC (https://gmic.eu)
TITLE "day_for_night"
# LUT size
LUT_3D_SIZE 13
# Data domain
DOMAIN_MIN 0.0 0.0 0.0
DOMAIN_MAX 1.0 1.0 1.0
# LUT data points
0 0 0
0 0 0
0 0 0
0.00024678846239112318 0.0014938953099772334 0
0.0082537932321429253 0.0039122337475419044 0
0.02466919831931591 0.0045476877130568027 0
0.047130584716796875 0.0086355172097682953 0
0.076614558696746826 0.016390901058912277 0
0.11546255648136139 0.030470065772533417 0
0.16694411635398865 0.046712867915630341 0
0.23448057472705841 0.062025107443332672 0
0.31695598363876343 0.076455973088741302 0
0.40516749024391174 0.090326793491840363 0
0 0 0
0 0 0
0 0 0
0.00098158896435052156 0.0012111290125176311 0
0.010193843394517899 0.0039215688593685627 0
0.02617594413459301 0.0040428312495350838 0
0.047810468822717667 0.0080662891268730164 0
0.077470444142818451 0.016062239184975624 0
0.11799453943967819 0.030821481719613075 0
0.17305079102516174 0.046598710119724274 0
0.24362260103225708 0.061536781489849091 0
0.32343834638595581 0.076714850962162018 0
0.40890586376190186 0.092164166271686554 0
0.0014647389762103558 0.0017074435018002987 0
0.00011070101754739881 0.0008149988716468215 0
0.00099168659653514624 0.00083269603783264756 0
0.0049424865283071995 0.0023211310617625713 0
0.014290438964962959 0.0039530736394226551 0
0.029003337025642395 0.0051696179434657097 0
0.047943878918886185 0.0091341501101851463 0
0.076139651238918304 0.016984632238745689 0
0.11669540405273438 0.030863877385854721 0
0.17152312397956848 0.045826900750398636 0
0.24106109142303467 0.06052049994468689 0
0.31984421610832214 0.075968094170093536 0
0.40592741966247559 0.093022048473358154 0
0.010172062553465366 0.0085038580000400543 0
0.0066574248485267162 0.0067666145041584969 0
0.0077748764306306839 0.0066757951863110065 0
0.011863858439028263 0.007267387118190527 0
0.018191738054156303 0.008533223532140255 0
0.030167987570166588 0.010606040246784687 0
0.046801920980215073 0.014266219921410084 0.00050599343376234174
0.07308071106672287 0.019806431606411934 0.0006624109810218215
0.11147550493478775 0.030439235270023346 0
0.16141398251056671 0.045639697462320328 0
0.2264288067817688 0.060174517333507538 0
0.30583831667900085 0.075541190803050995 6.0676124121528119e-05
0.39618381857872009 0.093298368155956268 0
0.023471787571907043 0.019254093989729881 0
0.019698005169630051 0.017341628670692444 0
0.020336451008915901 0.017218137159943581 0
0.023631062358617783 0.018625445663928986 0
0.027872152626514435 0.020040474832057953 0
0.037353307008743286 0.022128265351057053 0
0.049847189337015152 0.02674001082777977 0.0021875419188290834
0.071225740015506744 0.030570639297366142 0.0040257023647427559
0.10885398834943771 0.035786017775535583 0.0011513205245137215
0.15704625844955444 0.048820793628692627 0
0.21918220818042755 0.062545999884605408 0
0.29818832874298096 0.07795754075050354 0
0.39128336310386658 0.097286894917488098 0
0.033012479543685913 0.034700281918048859 0.0020961537957191467
0.029551217332482338 0.034129302948713303 0.0024273591116070747
0.031149530783295631 0.034020278602838516 0.0019677854143083096
0.036095533519983292 0.033822227269411087 0.001035099383443594
0.041187167167663574 0.035397965461015701 0.000666569743771106
0.049647536128759384 0.03789043053984642 0.00025734995142556727
0.058717481791973114 0.0441398024559021 0.0026672661770135164
0.073084257543087006 0.049842506647109985 0.010127692483365536
0.11062509566545486 0.052359264343976974 0.007541402243077755
0.16477864980697632 0.059866543859243393 0.0015641007339581847
0.22727818787097931 0.073087193071842194 0.00030077766859903932
0.30684083700180054 0.089205034077167511 0
0.40003189444541931 0.11037130653858185 8.595784311182797e-05
0.0235481858253479 0.060954764485359192 0.013151790015399456
0.021307254210114479 0.061179772019386292 0.01536274328827858
0.024192046374082565 0.061209257692098618 0.01446685753762722
0.031341493129730225 0.060013998299837112 0.011999137699604034
0.034467898309230804 0.060282822698354721 0.01191979181021452
0.042043767869472504 0.062927618622779846 0.011488686315715313
0.057509046047925949 0.06751665472984314 0.012201975099742413
0.079926721751689911 0.072568736970424652 0.017350664362311363
0.11426942050457001 0.078622959554195404 0.018170645460486412
0.16526003181934357 0.086890801787376404 0.017931306734681129
0.23254998028278351 0.098772607743740082 0.013580008409917355
0.32076343894004822 0.11460539698600769 0.0033795374911278486
0.41607499122619629 0.13801398873329163 0.0055197621695697308
0.0029357161838561296 0.093655064702033997 0.038917586207389832
0.0036486606113612652 0.094275787472724915 0.045322973281145096
0.0037376552354544401 0.097251787781715393 0.044641006737947464
0.0068074543960392475 0.09749940037727356 0.041614368557929993
0.0087308250367641449 0.098272614181041718 0.042876284569501877
0.011194296181201935 0.10262346267700195 0.045061778277158737
0.024805240333080292 0.10855798423290253 0.044186312705278397
0.066462814807891846 0.11023424565792084 0.038528487086296082
0.11497620493173599 0.11460199952125549 0.036028273403644562
0.16351790726184845 0.12530401349067688 0.04381745308637619
0.23156529664993286 0.1386566162109375 0.044808931648731232
0.32580271363258362 0.15609420835971832 0.032660748809576035
0.42790079116821289 0.18070812523365021 0.033345121890306473
0 0.12941250205039978 0.078562073409557343
0 0.13068957626819611 0.084308966994285583
0 0.13600297272205353 0.084583401679992676
0 0.1399705559015274 0.082031235098838806
5.2897135901730508e-05 0.14189247786998749 0.084812551736831665
9.9571079772431403e-05 0.1475723534822464 0.088363245129585266
0.0021770552266389132 0.1576114296913147 0.086591847240924835
0.031277164816856384 0.16519510746002197 0.077934816479682922
0.10405632108449936 0.16624043881893158 0.075570635497570038
0.17488090693950653 0.17215035855770111 0.068858698010444641
0.23954842984676361 0.1867753267288208 0.072080664336681366
0.32490646839141846 0.20985805988311768 0.078130938112735748
0.43418833613395691 0.23636503517627716 0.077525153756141663
0 0.17973273992538452 0.11119229346513748
1.4002182979311328e-05 0.18328195810317993 0.11504850536584854
2.3920396415633149e-05 0.18882580101490021 0.11763679981231689
0 0.19428521394729614 0.11700699478387833
0 0.19848844408988953 0.1179637685418129
0 0.20595994591712952 0.12243564426898956
7.0594338467344642e-05 0.21849054098129272 0.12211505323648453
0.015890369191765785 0.23195067048072815 0.11515172570943832
0.092895790934562683 0.2383769154548645 0.11682459712028503
0.18460147082805634 0.24070802330970764 0.11184971779584885
0.25829741358757019 0.24722661077976227 0.10425684601068497
0.33674290776252747 0.27127116918563843 0.1129259318113327
0.4393022358417511 0.3025696873664856 0.11956387758255005
8.7708118371665478e-05 0.24688881635665894 0.14011275768280029
0.0012036641128361225 0.25353920459747314 0.14279939234256744
0.0019576128106564283 0.26120159029960632 0.14581462740898132
0.0020501827821135521 0.26903605461120605 0.1466984748840332
0.0014773050788789988 0.27595558762550354 0.14721761643886566
0.0010855580912902951 0.28508672118186951 0.15043306350708008
0.0046653449535369873 0.29879054427146912 0.15224826335906982
0.032966285943984985 0.31604471802711487 0.15205751359462738
0.10972387343645096 0.33144345879554749 0.16024525463581085
0.20534585416316986 0.33765894174575806 0.1644580066204071
0.28827208280563354 0.33696067333221436 0.15507520735263824
0.36569902300834656 0.35059845447540283 0.15329775214195251
0.45246529579162598 0.37763902544975281 0.15884660184383392
0.0025064058136194944 0.33243533968925476 0.1700352281332016
0.0047992332838475704 0.34018358588218689 0.17257794737815857
0.0072442297823727131 0.35003370046615601 0.1750108003616333
0.0091747511178255081 0.36038750410079956 0.17662185430526733
0.010804673656821251 0.37040120363235474 0.17834579944610596
0.01494833268225193 0.37963855266571045 0.18154409527778625
0.031329691410064697 0.39244553446769714 0.18595859408378601
0.07605164498090744 0.41074743866920471 0.19276508688926697
0.15556581318378448 0.43086570501327515 0.205034539103508
0.25003468990325928 0.44379585981369019 0.21648049354553223
0.3369566798210144 0.44530603289604187 0.21690535545349121
0.41426020860671997 0.44821158051490784 0.21246904134750366
0.49185323715209961 0.46084138751029968 0.20909400284290314
0.009219449944794178 0.42928755283355713 0.20076082646846771
0.01220149639993906 0.4373704195022583 0.20309624075889587
0.01664326898753643 0.44746279716491699 0.20570957660675049
0.021882060915231705 0.45932292938232422 0.20810183882713318
0.029420411214232445 0.47035461664199829 0.21104960143566132
0.042787142097949982 0.47905096411705017 0.21559348702430725
0.071416489779949188 0.49038204550743103 0.2224116325378418
0.12621384859085083 0.50695979595184326 0.23288936913013458
0.2095220535993576 0.52648311853408813 0.24709980189800262
0.30677074193954468 0.54204410314559937 0.26211196184158325
0.3975120484828949 0.54987895488739014 0.27525535225868225
0.47531366348266602 0.55285614728927612 0.28053638339042664
0.54888564348220825 0.55848890542984009 0.27738809585571289
0 0 0
0 0 0
0 0 0
0.00034760119160637259 0.00025761922006495297 0
0.0081778727471828461 0.00318120326846838 0
0.023976285010576248 0.0048392051830887794 0
0.046221025288105011 0.0088208513334393501 0
0.075150355696678162 0.016062432900071144 0
0.11374825984239578 0.029554478824138641 0
0.1653321236371994 0.045305259525775909 0
0.23416455090045929 0.060774963349103928 0
0.31689202785491943 0.074151121079921722 0
0.40580791234970093 0.086877785623073578 0
0 0 0
0 0 0
0 0 0
0.00093401741469278932 0.00098791683558374643 0
0.0095002716407179832 0.0039143282920122147 0
0.026380950585007668 0.0051721460185945034 0
0.046936243772506714 0.0094626182690262794 0
0.075215540826320648 0.017205750569701195 0
0.11549821496009827 0.030085783451795578 0
0.16964249312877655 0.045341819524765015 0
0.23932944238185883 0.060682587325572968 0
0.32177379727363586 0.074901565909385681 0
0.40928724408149719 0.088764607906341553 0
0.00057248881785199046 0.0015153024578467011 0
0.00034816967672668397 0.00043711942271329463 0
0.0023809245321899652 0.00017577526159584522 0
0.0057848761789500713 0.0012699500657618046 0
0.013699579983949661 0.0037102194037288427 0
0.028828714042901993 0.0057133692316710949 0
0.047110568732023239 0.0098072271794080734 0
0.074120916426181793 0.017212169244885445 0
0.11468856036663055 0.028889600187540054 0
0.1676943302154541 0.04388776421546936 0
0.2351984977722168 0.059054281562566757 4.083969906787388e-05
0.316255122423172 0.07397894561290741 0.0021463131997734308
0.40414085984230042 0.089389204978942871 0.0014715007273480296
0.008436569944024086 0.0082839066162705421 0
0.0065362518653273582 0.0065774056129157543 0
0.0089070042595267296 0.006486556027084589 0.00041114958003163338
0.012385169975459576 0.0067067164927721024 0.00062958960188552737
0.017674628645181656 0.007672672625631094 4.0734983485890552e-05
0.029728040099143982 0.010011530481278896 0
0.045742467045783997 0.013307459652423859 0.0017457699868828058
0.070489205420017242 0.018729999661445618 0.0027831732295453548
0.10817790031433105 0.029206549748778343 0.00012542126933112741
0.15812084078788757 0.043513849377632141 0
0.22285459935665131 0.057895045727491379 1.478008198319003e-05
0.30227595567703247 0.072553165256977081 0.0022384345065802336
0.39197111129760742 0.088882356882095337 0.0036767099518328905
0.022708863019943237 0.019320409744977951 1.5797335436218418e-05
0.019647246226668358 0.01747640036046505 0.00037927067023701966
0.021005189046263695 0.017542656511068344 0.0017019982915371656
0.023883549496531487 0.018929470330476761 0.0022209316957741976
0.027484370395541191 0.019684586673974991 0.00078443641541525722
0.036636665463447571 0.021502640098333359 2.994911301357206e-05
0.048813361674547195 0.025091448798775673 0.0026925180573016405
0.06922498345375061 0.029271369799971581 0.0051062637940049171
0.10641799867153168 0.034619230777025223 0.0020671170204877853
0.15485912561416626 0.046412643045186996 0
0.21758140623569489 0.059531927108764648 0
0.29548603296279907 0.07339167594909668 2.3022819732432254e-05
0.38647013902664185 0.090562142431735992 0.0012241437798365951
0.033284761011600494 0.034652050584554672 0.0020243625622242689
0.030837848782539368 0.034068629145622253 0.0036313224118202925
0.032455295324325562 0.034090589731931686 0.0048886765725910664
0.037023372948169708 0.034452803432941437 0.0043293670751154423
0.039931893348693848 0.037073172628879547 0.0020667132921516895
0.047225039452314377 0.038167558610439301 0.00041535322088748217
0.056381061673164368 0.043352268636226654 0.0031778523698449135
0.071009404957294464 0.049249269068241119 0.01062361802905798
0.10893147438764572 0.051067575812339783 0.0085053537040948868
0.16192944347858429 0.058146264404058456 0.0021119958255439997
0.22569310665130615 0.070213019847869873 0.00022493250435218215
0.30497545003890991 0.08411591500043869 0
0.39587640762329102 0.10293972492218018 0
0.023227661848068237 0.060944665223360062 0.012208168394863605
0.023032244294881821 0.061054710298776627 0.015483676455914974
0.025749970227479935 0.060797940939664841 0.016342103481292725
0.032223362475633621 0.059188514947891235 0.014810480177402496
0.035683292895555496 0.059242323040962219 0.01305019948631525
0.040724750608205795 0.062614321708679199 0.011430747807025909
0.056236594915390015 0.066598840057849884 0.01321010198444128
0.077942386269569397 0.073069602251052856 0.019089866429567337
0.11295879632234573 0.078629709780216217 0.019527165219187737
0.16333959996700287 0.086518049240112305 0.01924978569149971
0.23192553222179413 0.097057148814201355 0.014967061579227448
0.31999391317367554 0.11106320470571518 0.0037692200858145952
0.41432785987854004 0.13232114911079407 0.0039170808158814907
0.0032431958243250847 0.093408651649951935 0.040747951716184616
0.0048929252661764622 0.093499936163425446 0.045854635536670685
0.005569038912653923 0.095055781304836273 0.046597454696893692
0.0082409428432583809 0.095375955104827881 0.044456526637077332
0.010541788302361965 0.096160143613815308 0.044539552181959152
0.012034247629344463 0.10089611262083054 0.044941876083612442
0.026420548558235168 0.10757452249526978 0.045606575906276703
0.064008645713329315 0.11253900080919266 0.042952295392751694
0.11428173631429672 0.11553782969713211 0.038407284766435623
0.16403307020664215 0.12543867528438568 0.045197386294603348
0.23170477151870728 0.13822627067565918 0.049097578972578049
0.32522684335708618 0.15476657450199127 0.035141471773386002
0.42740252614021301 0.1782713383436203 0.033132724463939667
0 0.12889277935028076 0.083684898912906647
0 0.13170477747917175 0.085207410156726837
0 0.13492377102375031 0.087087564170360565
0 0.1378779411315918 0.086387306451797485
9.4903683930169791e-05 0.14010366797447205 0.0886969193816185
0 0.14727748930454254 0.089539423584938049
0.0013065862003713846 0.15844267606735229 0.088185824453830719
0.03027852438390255 0.16715322434902191 0.082341931760311127
0.10172506421804428 0.16869176924228668 0.075152531266212463
0.17293082177639008 0.17389379441738129 0.072357192635536194
0.2397819459438324 0.18708167970180511 0.074385397136211395
0.32486250996589661 0.2097410261631012 0.07853265106678009
0.43271854519844055 0.23727944493293762 0.081337995827198029
0 0.18086688220500946 0.11351069808006287
0 0.18576830625534058 0.11434768885374069
0 0.18936936557292938 0.1195778027176857
0 0.19356995820999146 0.12133345007896423
0 0.19820921123027802 0.12301912158727646
0 0.20610834658145905 0.12477453052997589
0 0.21823008358478546 0.1231696754693985
0.015957746654748917 0.23104521632194519 0.1189350038766861
0.094182871282100677 0.23959735035896301 0.11929174512624741
0.18494866788387299 0.24332185089588165 0.1174502968788147
0.25841143727302551 0.24996718764305115 0.10868397355079651
0.3369884192943573 0.27152246236801147 0.1134609580039978
0.44004011154174805 0.30491182208061218 0.12475146353244781
0 0.2488371729850769 0.14247043430805206
3.291111454473139e-07 0.2553749680519104 0.14432238042354584
2.6807598260347731e-05 0.26122453808784485 0.14876149594783783
5.1311417337274179e-05 0.26838785409927368 0.15101578831672668
2.4533740088372724e-06 0.2753899097442627 0.15226207673549652
0 0.28419637680053711 0.15384680032730103
0.00062332150992006063 0.29637473821640015 0.15399874746799469
0.028726525604724884 0.31326732039451599 0.15477673709392548
0.11189498752355576 0.33098530769348145 0.16142328083515167
0.20656880736351013 0.33987954258918762 0.16832353174686432
0.28757005929946899 0.3402499258518219 0.16071599721908569
0.36573940515518188 0.35020402073860168 0.15364645421504974
0.45284992456436157 0.38019108772277832 0.1605222225189209
1.068115216185106e-05 0.33567845821380615 0.17329578101634979
0.00060897530056536198 0.34246030449867249 0.17586995661258698
0.0027523862663656473 0.35049140453338623 0.17892029881477356
0.0042620492167770863 0.36010277271270752 0.1807376891374588
0.0037494883872568607 0.36971041560173035 0.18234281241893768
0.0043616797775030136 0.37828370928764343 0.18439759314060211
0.016738772392272949 0.39018356800079346 0.1874631941318512
0.064331874251365662 0.40782415866851807 0.19335885345935822
0.15139488875865936 0.4304753839969635 0.20566630363464355
0.24903728067874908 0.44628283381462097 0.2218615859746933
0.33718261122703552 0.44984155893325806 0.22776032984256744
0.41594472527503967 0.44946748018264771 0.22050005197525024
0.49124351143836975 0.46027228236198425 0.21331465244293213
0.0025744717568159103 0.43472680449485779 0.20410631597042084
0.0050446605309844017 0.44189387559890747 0.20678368210792542
0.0087564652785658836 0.45010131597518921 0.2094922661781311
0.01288948766887188 0.46049639582633972 0.21165797114372253
0.017480034381151199 0.47054246068000793 0.21409232914447784
0.026918418705463409 0.47877657413482666 0.21777176856994629
0.052120238542556763 0.48875761032104492 0.22411327064037323
0.10734948515892029 0.50401276350021362 0.23447374999523163
0.19781219959259033 0.52510207891464233 0.25062671303749084
0.3024132251739502 0.54516887664794922 0.27163827419281006
0.39888128638267517 0.55549943447113037 0.2916949987411499
0.48010122776031494 0.55730730295181274 0.29942542314529419
0.54946106672286987 0.55890446901321411 0.29145398736000061
0.0020609537605196238 0 0
0.0017980239354074001 0 0
0.0024049796629697084 0 1.7951517293113284e-05
0.0058101876638829708 2.423454679956194e-05 0.00074187631253153086
0.015982698649168015 0.0010640013497322798 0.0015088848304003477
0.03187866136431694 0.0039166617207229137 0.00092546053929254413
0.051682908087968826 0.0083959689363837242 1.077091019396903e-05
0.079211771488189697 0.014593027532100677 0
0.11497458815574646 0.02734801359474659 0
0.16489402949810028 0.043725196272134781 0
0.23415806889533997 0.058759007602930069 0
0.31732332706451416 0.071690745651721954 0
0.40704435110092163 0.083004862070083618 0
0.0028442980255931616 0 6.4475862018298358e-05
0.0032824496738612652 0 0.00048065185546875
0.0033944672904908657 0 0.00063792208675295115
0.0062192133627831936 0.00025619805091992021 0.001297685201279819
0.01728801429271698 0.0014078776584938169 0.0026696447748690844
0.035479765385389328 0.0038799061439931393 0.0020507513545453548
0.054357297718524933 0.0089027704671025276 0.00033787745633162558
0.079710565507411957 0.015837276354432106 0
0.11514222621917725 0.028368422761559486 0
0.16654026508331299 0.043836243450641632 0
0.23556044697761536 0.059225358068943024 0
0.31972247362136841 0.073130331933498383 0
0.40905338525772095 0.086118124425411224 0
0.0041155349463224411 0.0012420056154951453 0.00088987161871045828
0.00545527134090662 0.00017143698642030358 0.0017463384428992867
0.0067733018659055233 0.00071767170447856188 0.0019816530402749777
0.0095351571217179298 0.0027224072255194187 0.001868079649284482
0.019164185971021652 0.0022551743313670158 0.0023008459247648716
0.036073528230190277 0.0052078398875892162 0.0016334833344444633
0.054704926908016205 0.009409826248884201 0.0012237399350851774
0.076744407415390015 0.016359217464923859 0.00038405772647820413
0.11215487867593765 0.027602985501289368 0
0.16326652467250824 0.042035449296236038 0
0.23006448149681091 0.057745929807424545 0
0.31180575489997864 0.073136515915393829 0.00095336016966030002
0.40089172124862671 0.087759338319301605 0.0018074035178869963
0.010444027371704578 0.0074562821537256241 0.0024538526777178049
0.0091614667326211929 0.0064856437966227531 0.003117983927950263
0.012242276221513748 0.0065512266010046005 0.0053989933803677559
0.016342971473932266 0.0073245628736913204 0.0057658925652503967
0.020586755126714706 0.0095136454328894615 0.0029661441221833229
0.034996330738067627 0.010510672815144062 0.0024873022921383381
0.05259348452091217 0.012448164634406567 0.0047968546859920025
0.07329414039850235 0.017941508442163467 0.0036899193655699492
0.10765056312084198 0.027431458234786987 0.00016850490646902472
0.15619200468063354 0.040860015898942947 0
0.21901889145374298 0.056296255439519882 0
0.29725506901741028 0.071812227368354797 0.0016756094992160797
0.38680770993232727 0.087288007140159607 0.0039215688593685627
0.022991225123405457 0.018822554498910904 0.0054441564716398716
0.019626228138804436 0.018502000719308853 0.0067636077292263508
0.021391909569501877 0.019097376614809036 0.010129756294190884
0.024661120027303696 0.020450307056307793 0.011129685677587986
0.028720751404762268 0.021749025210738182 0.0076984181068837643
0.039696324616670609 0.022224171087145805 0.0053809969685971737
0.053231466561555862 0.023928802460432053 0.0072736102156341076
0.072434566915035248 0.027524806559085846 0.0075288359075784683
0.10743312537670135 0.03293941542506218 0.0020407582633197308
0.15513819456100464 0.043590426445007324 0
0.21620005369186401 0.057773005217313766 0
0.29276123642921448 0.072415024042129517 4.1168812458636239e-05
0.38272130489349365 0.088038139045238495 0.0014607597840949893
0.034171849489212036 0.033689476549625397 0.0098209008574485779
0.031691890209913254 0.034528739750385284 0.012184621766209602
0.031519558280706406 0.036443524062633514 0.015267525799572468
0.035577062517404556 0.036621555685997009 0.01410700473934412
0.039854954928159714 0.037363268435001373 0.009854649193584919
0.047735564410686493 0.038779031485319138 0.0066996854729950428
0.058269113302230835 0.042565558105707169 0.0083732455968856812
0.073964230716228485 0.047028589993715286 0.012710526585578918
0.10920862108469009 0.050041541457176208 0.0093067390844225883
0.16035456955432892 0.057194489985704422 0.0020679100416600704
0.22517991065979004 0.069102056324481964 0.0001051360450219363
0.30408266186714172 0.08276849240064621 0
0.39535859227180481 0.10052499175071716 0
0.028366746380925179 0.058158636093139648 0.018410282209515572
0.025990908965468407 0.060115963220596313 0.020927967503666878
0.025630861520767212 0.06097705289721489 0.022002486512064934
0.032536406069993973 0.058585911989212036 0.021341914311051369
0.036672703921794891 0.058946061879396439 0.01804453507065773
0.04304281622171402 0.062102463096380234 0.01668974943459034
0.058495495468378067 0.06520003080368042 0.018495911732316017
0.080401524901390076 0.071127511560916901 0.020891211926937103
0.11150088161230087 0.077909223735332489 0.021317500621080399
0.16188150644302368 0.086286567151546478 0.019197007641196251
0.23254929482936859 0.097467519342899323 0.015341859310865402
0.31968531012535095 0.11133956909179688 0.0060014761984348297
0.4156661331653595 0.13031123578548431 0.0038026398979127407
0.0051082237623631954 0.092778854072093964 0.043647706508636475
0.0073549458757042885 0.092352971434593201 0.047446500509977341
0.0069887945428490639 0.093905657529830933 0.048238970339298248
0.010995782911777496 0.093504898250102997 0.048768121749162674
0.012142540886998177 0.095216356217861176 0.04646402969956398
0.015308096073567867 0.10022017359733582 0.047273028641939163
0.027337152510881424 0.10722020268440247 0.049812659621238708
