assets/lut/shamoonabbasi elegance 38.cube
# Created by: G'MIC (https://gmic.eu)
TITLE "elegance_38"
# LUT size
LUT_3D_SIZE 7
# Data domain
DOMAIN_MIN 0.0 0.0 0.0
DOMAIN_MAX 1.0 1.0 1.0
# LUT data points
0.02082010917365551 0.021523913368582726 0.020123321563005447
0.13265146315097809 0.020915821194648743 0.016252748668193817
0.27986347675323486 0.014219067059457302 0.012412112206220627
0.43829843401908875 0.016314039006829262 0.0057922513224184513
0.60277092456817627 0.018204035237431526 0.0039392807520925999
0.7733461856842041 0.018179381266236305 0.0070389690808951855
0.94777333736419678 0.024828607216477394 0.012543128803372383
0.021107932552695274 0.13279753923416138 0.017623363062739372
0.14173726737499237 0.13793648779392242 0.01075535174459219
0.28874269127845764 0.13397446274757385 0.015154714696109295
0.44977700710296631 0.13507832586765289 0.01300342008471489
0.6175079345703125 0.13355574011802673 0.01174347847700119
0.79004102945327759 0.13291388750076294 0.015167550183832645
0.96387356519699097 0.14746265113353729 0.01742185652256012
0.015393574722111225 0.27927348017692566 0.012144125998020172
0.14160333573818207 0.28452616930007935 0.010430235415697098
0.29006204009056091 0.28448587656021118 0.011136746965348721
0.45457255840301514 0.28227239847183228 0.010809056460857391
0.62617677450180054 0.27755054831504822 0.011525696143507957
0.80173063278198242 0.27564278244972229 0.01548423059284687
0.97487848997116089 0.28817161917686462 0.017947357147932053
0.011257919482886791 0.44328960776329041 0.0062871896661818027
0.13949759304523468 0.44892358779907227 0.0062720207497477531
0.28920635581016541 0.45042946934700012 0.006253350991755724
0.45482358336448669 0.44885224103927612 0.0057438272051513195
0.62875354290008545 0.44474062323570251 0.0068466933444142342
0.80671250820159912 0.4428727924823761 0.010441574268043041
0.98059141635894775 0.45013287663459778 0.015767984092235565
0.010014552623033524 0.61458039283752441 0.001665900694206357
0.14029601216316223 0.61967003345489502 0.001940558897331357
0.28882506489753723 0.62269610166549683 0.0024995093699544668
0.45332905650138855 0.62269532680511475 0.0031912112608551979
0.62783169746398926 0.6203685998916626 0.0045861038379371166
0.8080328106880188 0.61920183897018433 0.0080280527472496033
0.98257172107696533 0.62323904037475586 0.014555344358086586
0.010118207894265652 0.79111707210540771 0
0.14178957045078278 0.79611539840698242 1.7951517293113284e-05
0.28889957070350647 0.80015873908996582 0.0006198658375069499
0.45200625061988831 0.80107706785202026 0.0015982234617695212
0.62622189521789551 0.79991620779037476 0.0039737476035952568
0.8073117733001709 0.79899328947067261 0.0088103646412491798
0.98321545124053955 0.8019329309463501 0.017039161175489426
0.010712911374866962 0.96983402967453003 0
0.14424049854278564 0.97380858659744263 0
0.29231712222099304 0.97739642858505249 0
0.45319584012031555 0.97870326042175293 0.0010422650957480073
0.62686598300933838 0.97825735807418823 0.0041513331234455109
0.80798053741455078 0.97798448801040649 0.010603706352412701
0.98400735855102539 0.97943681478500366 0.021046297624707222
0.015446397475898266 0.0227483119815588 0.12496457248926163
0.13605958223342896 0.023161765187978745 0.11230169236660004
0.27974039316177368 0.023005766794085503 0.098300546407699585
0.43787583708763123 0.021984834223985672 0.090794235467910767
0.60222744941711426 0.020576013252139091 0.08505789190530777
0.77465629577636719 0.016400760039687157 0.083501853048801422
0.95079714059829712 0.024793064221739769 0.074591875076293945
0.016826225444674492 0.1414342075586319 0.12425902485847473
0.14242422580718994 0.14359608292579651 0.11539794504642487
0.2904151976108551 0.14198023080825806 0.11257361620664597
0.45221465826034546 0.14023011922836304 0.10890184342861176
0.61862313747406006 0.13700339198112488 0.10417316108942032
0.79146713018417358 0.13558894395828247 0.10171391814947128
0.96663182973861694 0.14778655767440796 0.097272478044033051
0.014637427404522896 0.28443402051925659 0.12023924291133881
0.14377419650554657 0.28841868042945862 0.11555580049753189
0.2932191789150238 0.28876054286956787 0.11531803011894226
0.45754778385162354 0.28834396600723267 0.11081945151090622
0.62851989269256592 0.28414824604988098 0.10787907242774963
0.80430096387863159 0.28119561076164246 0.10903043299913406
0.97789722681045532 0.29037308692932129 0.11008031666278839
0.012608830817043781 0.44525042176246643 0.11210381239652634
0.14277726411819458 0.45076221227645874 0.11056659370660782
0.29264774918556213 0.45418006181716919 0.10908177495002747
0.45701739192008972 0.45543792843818665 0.10469391942024231
0.63118934631347656 0.45223093032836914 0.10375446826219559
0.81044226884841919 0.44847729802131653 0.10653375089168549
0.98324596881866455 0.45287266373634338 0.1131686344742775
0.012409928254783154 0.61567294597625732 0.09977596253156662
0.14348028600215912 0.62179064750671387 0.10094104707241058
0.29195234179496765 0.62670093774795532 0.10150587558746338
0.45448189973831177 0.62842404842376709 0.10087500512599945
0.629791259765625 0.62669813632965088 0.10150254517793655
0.81144767999649048 0.62460088729858398 0.10526183247566223
0.98496705293655396 0.62648892402648926 0.11498867720365524
0.013249775394797325 0.79157990217208862 0.086985960602760315
0.14465485513210297 0.79832249879837036 0.089852906763553619
0.28895816206932068 0.80434262752532959 0.094004325568675995
0.45094209909439087 0.80643600225448608 0.098568394780158997
0.62649893760681152 0.8054928183555603 0.10345782339572906
0.80897319316864014 0.80412155389785767 0.11028062552213669
0.98417234420776367 0.80524593591690063 0.12141142040491104
0.014479633420705795 0.96980118751525879 0.077328532934188843
0.14710716903209686 0.97535842657089233 0.08148675411939621
0.28954461216926575 0.98014390468597412 0.088252082467079163
0.44994094967842102 0.98156225681304932 0.096389234066009521
0.62550115585327148 0.98114371299743652 0.10564617067575455
0.80774801969528198 0.98041224479675293 0.116759292781353
0.98400735855102539 0.98132574558258057 0.12932881712913513
0.011646450497210026 0.020180735737085342 0.24252516031265259
0.136479452252388 0.020148841664195061 0.23066124320030212
0.28093793988227844 0.018073812127113342 0.21939575672149658
0.43919321894645691 0.013229310512542725 0.21272879838943481
0.60607415437698364 0.0066509470343589783 0.21042394638061523
0.77973520755767822 0.0044701667502522469 0.20361669361591339
0.95688575506210327 0.012445038184523582 0.18756067752838135
0.013631364330649376 0.1457107812166214 0.24361829459667206
0.14252535998821259 0.14564451575279236 0.23655787110328674
0.29076957702636719 0.14264298975467682 0.23182158172130585
0.45233777165412903 0.1369367390871048 0.22836336493492126
0.62051898241043091 0.12849031388759613 0.22497783601284027
0.79485666751861572 0.12634435296058655 0.21846623718738556
0.97054141759872437 0.13989613950252533 0.2080264687538147
0.014497645199298859 0.28870916366577148 0.24108399450778961
0.14622440934181213 0.28908348083496094 0.23775973916053772
0.29656049609184265 0.28987517952919006 0.23612084984779358
0.45921969413757324 0.28832840919494629 0.23228916525840759
0.63034409284591675 0.28379705548286438 0.22780823707580566
0.80735868215560913 0.28206416964530945 0.2246071994304657
0.98078972101211548 0.28943851590156555 0.22237971425056458
0.014494054019451141 0.44721347093582153 0.23358559608459473
0.14746788144111633 0.45187467336654663 0.23283356428146362
0.29656863212585449 0.45521584153175354 0.23243634402751923
0.46031445264816284 0.45681893825531006 0.22939486801624298
0.63402456045150757 0.45455926656723022 0.22531145811080933
0.81390738487243652 0.45188593864440918 0.2243565171957016
0.98570245504379272 0.45473217964172363 0.22776113450527191
0.015203214250504971 0.61616498231887817 0.22188015282154083
0.14884665608406067 0.62259268760681152 0.22338840365409851
0.2965390682220459 0.62820625305175781 0.2257319837808609
0.45846164226531982 0.63055944442749023 0.22597604990005493
0.63298296928405762 0.63048547506332397 0.22351096570491791
0.81440752744674683 0.62889117002487183 0.2232932448387146
0.98681741952896118 0.62965220212936401 0.23040387034416199
0.018412481993436813 0.79144024848937988 0.20895516872406006
0.15155307948589325 0.79885727167129517 0.21254919469356537
0.29521486163139343 0.80582606792449951 0.21772223711013794
0.45512378215789795 0.80917173624038696 0.22176274657249451
0.62946528196334839 0.80934679508209229 0.22457094490528107
0.8111114501953125 0.80828720331192017 0.22821640968322754
0.98568218946456909 0.80879706144332886 0.23702254891395569
0.0217868871986866 0.96915644407272339 0.19896489381790161
0.15511605143547058 0.9754834771156311 0.20420528948307037
0.29606437683105469 0.98080158233642578 0.21177691221237183
0.4545285701751709 0.9829641580581665 0.21946977078914642
0.62817203998565674 0.98304218053817749 0.22680646181106567
0.80926871299743652 0.98264616727828979 0.23502238094806671
0.98442596197128296 0.9832039475440979 0.24570812284946442
0.0094171259552240372 0.017806828022003174 0.372426837682724
0.13416717946529388 0.014917545951902866 0.36436891555786133
0.27960580587387085 0.011447802186012268 0.3568863570690155
0.43987196683883667 0.0065214270725846291 0.35162872076034546
0.60965585708618164 0.0021428724285215139 0.34867653250694275
0.78495830297470093 0.0015007468173280358 0.34063491225242615
0.96322780847549438 0.0049184910021722317 0.32874235510826111
0.011798813939094543 0.14553222060203552 0.37374386191368103
0.14019621908664703 0.14351890981197357 0.36934199929237366
0.28768926858901978 0.13986530900001526 0.36572346091270447
0.44978019595146179 0.13276992738246918 0.36284881830215454
0.62110257148742676 0.12361590564250946 0.35997450351715088
0.79782748222351074 0.1216014176607132 0.3531041145324707
0.97420632839202881 0.13178512454032898 0.34334498643875122
0.013103186152875423 0.28872549533843994 0.37162831425666809
0.145539790391922 0.29155242443084717 0.37024995684623718
0.29490286111831665 0.29071101546287537 0.36910957098007202
0.45756697654724121 0.28786748647689819 0.36720812320709229
0.63034981489181519 0.28317934274673462 0.36349207162857056
0.8091856837272644 0.28119540214538574 0.35901620984077454
0.98292940855026245 0.28682947158813477 0.35503500699996948
0.014522058889269829 0.44821682572364807 0.36478057503700256
0.14850085973739624 0.45301374793052673 0.36539769172668457
0.29776594042778015 0.45619937777519226 0.36713945865631104
0.46118840575218201 0.45687296986579895 0.36666411161422729
0.63497418165206909 0.45589444041252136 0.36247438192367554
0.8155893087387085 0.45316928625106812 0.35985395312309265
0.98743367195129395 0.45489275455474854 0.36042511463165283
0.016285810619592667 0.61665040254592896 0.35401752591133118
0.15186531841754913 0.62350344657897949 0.35677728056907654
0.30049020051956177 0.62881588935852051 0.36110913753509521
0.46178573369979858 0.63164836168289185 0.36330616474151611
0.6351017951965332 0.63287413120269775 0.36008724570274353
0.81553876399993896 0.63129270076751709 0.35883358120918274
0.98749417066574097 0.63125181198120117 0.36179071664810181
0.021438553929328918 0.79094845056533813 0.34139344096183777
0.15664473176002502 0.79852938652038574 0.34603127837181091
0.30127015709877014 0.80556172132492065 0.35256615281105042
0.46101373434066772 0.80954229831695557 0.3570159375667572
0.63328689336776733 0.81121325492858887 0.35851889848709106
0.81307405233383179 0.81056380271911621 0.36011004447937012
0.98632335662841797 0.81088370084762573 0.36544948816299438
0.027026921510696411 0.96838235855102539 0.33101984858512878
0.16222627460956573 0.97459930181503296 0.3374868631362915
0.30513846874237061 0.98000168800354004 0.34581926465034485
0.46255004405975342 0.98273158073425293 0.35304027795791626
0.63328880071640015 0.98398870229721069 0.35869747400283813
0.81201231479644775 0.98400735855102539 0.36438745260238647
0.9855695366859436 0.98437964916229248 0.37247654795646667
0.010540472343564034 0.016077857464551926 0.50999540090560913
0.13502870500087738 0.011816391721367836 0.50582218170166016
0.28098899126052856 0.0078780679032206535 0.50080251693725586
0.44285121560096741 0.0047491635195910931 0.49565699696540833
0.61383187770843506 0.0020502426195889711 0.49078178405761719
0.79008537530899048 0.0014705882640555501 0.48377516865730286
0.96835887432098389 0.0026370328851044178 0.47637692093849182
0.012459130026400089 0.14228115975856781 0.51227653026580811
0.14077429473400116 0.14029364287853241 0.50993841886520386
0.28741878271102905 0.13769164681434631 0.50787651538848877
0.4495493471622467 0.13217417895793915 0.5049712061882019
0.62199276685714722 0.12568788230419159 0.50123006105422974
0.79995429515838623 0.1226213350892067 0.49521723389625549
0.97687608003616333 0.12871497869491577 0.48841977119445801
0.013033758848905563 0.28698372840881348 0.51065146923065186
0.14511604607105255 0.28948214650154114 0.51024889945983887
0.29289731383323669 0.29153227806091309 0.51023286581039429
0.45624083280563354 0.2896294891834259 0.50954717397689819
0.62963950634002686 0.28535681962966919 0.50657671689987183
0.80930805206298828 0.28246298432350159 0.50240498781204224
0.98345816135406494 0.28546273708343506 0.49834594130516052
0.012975416146218777 0.44739219546318054 0.50514441728591919
0.14717793464660645 0.4541497528553009 0.50638061761856079
0.29658371210098267 0.45820897817611694 0.50908923149108887
0.4602142870426178 0.45882353186607361 0.50969159603118896
0.63411301374435425 0.45807826519012451 0.50724786520004272
0.81458830833435059 0.45428293943405151 0.50427353382110596
0.98690110445022583 0.45439663529396057 0.50300306081771851
0.013923794962465763 0.61658567190170288 0.49638408422470093
0.14921191334724426 0.62427741289138794 0.49948164820671082
0.30021718144416809 0.63010227680206299 0.50413972139358521
0.46244758367538452 0.63336467742919922 0.50657469034194946
0.63595432043075562 0.6344028115272522 0.50482898950576782
0.81518769264221191 0.63175070285797119 0.50299733877182007
0.98704022169113159 0.63136434555053711 0.50278425216674805
0.01738351583480835 0.79094338417053223 0.48564431071281433
0.15476775169372559 0.79846972227096558 0.49031239748001099
0.30408653616905212 0.80525296926498413 0.49640291929244995
0.46469631791114807 0.80952960252761841 0.50070363283157349
0.63654947280883789 0.81120699644088745 0.50192725658416748
0.81419825553894043 0.81121325492858887 0.50159311294555664
0.98633581399917603 0.8120121955871582 0.5034785270690918
0.02246488630771637 0.96842533349990845 0.47661706805229187
0.16176684200763702 0.97395306825637817 0.48218867182731628
0.30903694033622742 0.97917813062667847 0.48956173658370972
0.46835765242576599 0.9820360541343689 0.49580740928649902
0.63805770874023438 0.98344957828521729 0.5001792311668396
0.81483960151672363 0.98400735855102539 0.50336462259292603
0.98645478487014771 0.98520791530609131 0.50870037078857422
0.017125356942415237 0.01703369989991188 0.65189570188522339
0.14769522845745087 0.012254542671144009 0.6495850682258606
0.29186281561851501 0.0079374872148036957 0.6466219425201416
0.45133781433105469 0.0050352807156741619 0.64257979393005371
0.62085545063018799 0.0024331484455615282 0.63788455724716187
0.79660922288894653 0.001850621891207993 0.63249427080154419
0.9734567403793335 0.0022292193025350571 0.62793725728988647
0.018226863816380501 0.13765169680118561 0.65580970048904419
0.14936953783035278 0.1383417546749115 0.65496081113815308
0.29420933127403259 0.13851228356361389 0.65367811918258667
0.45443457365036011 0.13456049561500549 0.65133011341094971
0.6257096529006958 0.12951789796352386 0.64782285690307617
0.80313938856124878 0.12647286057472229 0.64308077096939087
0.97918194532394409 0.12906743586063385 0.63852393627166748
0.015404270961880684 0.28132122755050659 0.65642756223678589
0.14817826449871063 0.2877081036567688 0.65713423490524292
0.29604920744895935 0.29254135489463806 0.65773433446884155
0.45751670002937317 0.29136911034584045 0.65712332725524902
0.63070237636566162 0.28747281432151794 0.65433770418167114
0.80958384275436401 0.28407126665115356 0.65096849203109741
0.98343497514724731 0.2854735255241394 0.64749062061309814
0.011651341803371906 0.44481691718101501 0.65309017896652222
0.14431518316268921 0.45312559604644775 0.65433120727539062
0.29545381665229797 0.45904776453971863 0.65778839588165283
0.46007111668586731 0.45938357710838318 0.65784311294555664
0.63465583324432373 0.45706978440284729 0.65783387422561646
0.81401664018630981 0.45320087671279907 0.65392154455184937
0.98626106977462769 0.45315897464752197 0.65147465467453003
0.0096037918701767921 0.61606037616729736 0.64640182256698608
0.14340467751026154 0.62402516603469849 0.64995163679122925
0.29681184887886047 0.63018667697906494 0.65375399589538574
0.46284404397010803 0.63259804248809814 0.65670394897460938
0.63768792152404785 0.63187962770462036 0.65753167867660522
0.81626182794570923 0.62987500429153442 0.65386497974395752
0.98703122138977051 0.63023644685745239 0.65024495124816895
0.01144593209028244 0.79123836755752563 0.6380385160446167
0.14808252453804016 0.79815179109573364 0.64236080646514893
0.30182582139968872 0.80441665649414062 0.64706659317016602
0.46655380725860596 0.80813801288604736 0.65066373348236084
0.6393744945526123 0.80934262275695801 0.65221953392028809
0.8166043758392334 0.80976408720016479 0.65001493692398071
0.98676365613937378 0.81153577566146851 0.65002918243408203
0.015518472529947758 0.96911847591400146 0.63018161058425903
0.15675884485244751 0.97382915019989014 0.63453966379165649
0.30946013331413269 0.97853296995162964 0.64025235176086426
0.47180020809173584 0.98115444183349609 0.64543294906616211
0.64224809408187866 0.98263686895370483 0.64878612756729126
0.81849032640457153 0.98395293951034546 0.65009254217147827
0.98817729949951172 0.98526597023010254 0.65385836362838745
0.027512330561876297 0.021108709275722504 0.79715949296951294
0.16370466351509094 0.01419830322265625 0.79608321189880371
0.30768653750419617 0.0097341947257518768 0.7944607138633728
0.46425530314445496 0.0062778545543551445 0.7917325496673584
0.63118165731430054 0.003765166038647294 0.78834855556488037
0.80520617961883545 0.0024322508834302425 0.78471285104751587
0.97933822870254517 0.0027122946921736002 0.7819945216178894
0.027246333658695221 0.134744793176651 0.80351579189300537
0.16173002123832703 0.13925644755363464 0.80267119407653809
0.30591079592704773 0.14097301661968231 0.80181264877319336
0.46385544538497925 0.13838537037372589 0.80036777257919312
0.63284176588058472 0.13387131690979004 0.79785114526748657
0.80877482891082764 0.13044038414955139 0.79453635215759277
0.98205333948135376 0.13114982843399048 0.79130572080612183
0.019662266597151756 0.27877902984619141 0.80504906177520752
0.15436558425426483 0.28733670711517334 0.80662894248962402
0.30156096816062927 0.29385945200920105 0.80765563249588013
0.46309125423431396 0.29386165738105774 0.80684983730316162
0.63500994443893433 0.29028096795082092 0.80483055114746094
0.81256210803985596 0.28666242957115173 0.80272889137268066
0.9847182035446167 0.28722816705703735 0.80009251832962036
0.01164900790899992 0.44438034296035767 0.80439656972885132
0.14505107700824738 0.4529869556427002 0.80723917484283447
0.29679691791534424 0.45978787541389465 0.80833333730697632
0.46288901567459106 0.45981922745704651 0.80848681926727295
0.63731282949447632 0.45690283179283142 0.80833333730697632
0.815804123878479 0.45346245169639587 0.80769163370132446
0.98676532506942749 0.45338380336761475 0.80441176891326904
0.0075367647223174572 0.61677020788192749 0.80022889375686646
0.14127457141876221 0.62394899129867554 0.8040773868560791
0.29718610644340515 0.62981486320495605 0.80641067028045654
0.46488282084465027 0.63086950778961182 0.80833333730697632
0.64003634452819824 0.63033598661422729 0.80833333730697632
0.81802809238433838 0.6288144588470459 0.80703538656234741
0.98812961578369141 0.62992274761199951 0.80441176891326904
0.0077956407330930233 0.79299896955490112 0.7934340238571167
0.14446796476840973 0.79860275983810425 0.7973054051399231
0.30193996429443359 0.80400490760803223 0.80074620246887207
0.46895584464073181 0.80689340829849243 0.80407649278640747
0.64259093999862671 0.80749332904815674 0.80443507432937622
0.82000488042831421 0.80891352891921997 0.80441176891326904
0.98901718854904175 0.81100845336914062 0.80441176891326904
0.011722804047167301 0.97099334001541138 0.78626984357833862
0.15335063636302948 0.97462278604507446 0.79017406702041626
0.31014332175254822 0.97844195365905762 0.79447466135025024
0.47504538297653198 0.98064583539962769 0.79816353321075439
0.64668244123458862 0.98205161094665527 0.80049020051956177
0.8231201171875 0.98372101783752441 0.80320119857788086
0.99028944969177246 0.98562002182006836 0.80489468574523926
