assets/lut/shamoonabbasi day for night.cube
# Created by: G'MIC (https://gmic.eu)
TITLE "day_for_night"
# LUT size
LUT_3D_SIZE 5
# Data domain
DOMAIN_MIN 0.0 0.0 0.0
DOMAIN_MAX 1.0 1.0 1.0
# LUT data points
0 0 0
0.00024678846239112318 0.0014938953099772334 0
0.047130584716796875 0.0086355172097682953 0
0.16694411635398865 0.046712867915630341 0
0.40516749024391174 0.090326793491840363 0
0.010172062553465366 0.0085038580000400543 0
0.011863858439028263 0.007267387118190527 0
0.046801920980215073 0.014266219921410084 0.00050599343376234174
0.16141398251056671 0.045639697462320328 0
0.39618381857872009 0.093298368155956268 0
0.0235481858253479 0.060954764485359192 0.013151790015399456
0.031341493129730225 0.060013998299837112 0.011999137699604034
0.057509046047925949 0.06751665472984314 0.012201975099742413
0.16526003181934357 0.086890801787376404 0.017931306734681129
0.41607499122619629 0.13801398873329163 0.0055197621695697308
0 0.17973273992538452 0.11119229346513748
0 0.19428521394729614 0.11700699478387833
7.0594338467344642e-05 0.21849054098129272 0.12211505323648453
0.18460147082805634 0.24070802330970764 0.11184971779584885
0.4393022358417511 0.3025696873664856 0.11956387758255005
0.009219449944794178 0.42928755283355713 0.20076082646846771
0.021882060915231705 0.45932292938232422 0.20810183882713318
0.071416489779949188 0.49038204550743103 0.2224116325378418
0.30677074193954468 0.54204410314559937 0.26211196184158325
0.54888564348220825 0.55848890542984009 0.27738809585571289
0.011230708099901676 0 0.0039679436013102531
0.016867633908987045 0 0.0055741104297339916
0.064516596496105194 0.0040833265520632267 0.0041496725752949715
0.16776368021965027 0.038934774696826935 0
0.40823614597320557 0.077300816774368286 0
0.018281988799571991 0.0070572500117123127 0.011574120260775089
0.022696835920214653 0.0078999539837241173 0.012261184863746166
0.062927648425102234 0.009092024527490139 0.014381588436663151
0.15621165931224823 0.036110837012529373 0
0.38051679730415344 0.087844327092170715 0.0023302414920181036
0.031351335346698761 0.058289472013711929 0.031844060868024826
0.035882987082004547 0.058590952306985855 0.032500695437192917
0.056781470775604248 0.066933542490005493 0.03348878026008606
0.16048790514469147 0.0860719233751297 0.028047120198607445
0.42139109969139099 0.12716041505336761 0.0019347097259014845
0 0.18073466420173645 0.11946608871221542
6.5478154283482581e-05 0.19503273069858551 0.12613426148891449
0 0.2229197770357132 0.13450285792350769
0.17682604491710663 0.25103789567947388 0.12553010880947113
0.44347852468490601 0.31117570400238037 0.1348022073507309
0 0.43944743275642395 0.21296519041061401
0.0039608674123883247 0.46164250373840332 0.22261747717857361
0.029330773279070854 0.49620020389556885 0.23223419487476349
0.30623379349708557 0.54698026180267334 0.27087146043777466
0.55218064785003662 0.56454730033874512 0.31306082010269165
0.041675582528114319 0.023263564333319664 0.085881583392620087
0.039222072809934616 0.019196692854166031 0.08133203536272049
0.065756916999816895 0.019778875634074211 0.090445421636104584
0.17300023138523102 0.013020803220570087 0.067637123167514801
0.42135855555534363 0.034554827958345413 0.0033582351170480251
0.042390666902065277 0.028899801895022392 0.095921352505683899
0.041727956384420395 0.026283249258995056 0.090714506804943085
0.061455611139535904 0.026624627411365509 0.093750268220901489
0.15021437406539917 0.020291944965720177 0.080303296446800232
0.39434629678726196 0.046381976455450058 0.010259277187287807
0.0079163946211338043 0.085638381540775299 0.12787483632564545
0.011621139012277126 0.083040587604045868 0.12834703922271729
0.039878275245428085 0.085747875273227692 0.13673748075962067
0.14797982573509216 0.075968511402606964 0.1314559280872345
0.43266287446022034 0.087929055094718933 0.054346106946468353
0.0016310298815369606 0.18616282939910889 0.17002832889556885
0.0010529761202633381 0.19924420118331909 0.18723799288272858
0 0.22668305039405823 0.22011947631835938
0.090495303273200989 0.24616082012653351 0.22936360538005829
0.42987599968910217 0.28297621011734009 0.19823844730854034
0 0.43820971250534058 0.26658862829208374
0 0.45178782939910889 0.28999778628349304
0.00064701755763962865 0.48719590902328491 0.31398257613182068
0.13731352984905243 0.52684903144836426 0.33121010661125183
0.50535398721694946 0.57021403312683105 0.37561589479446411
0.11763507872819901 0.09479166567325592 0.2990453839302063
0.11349101364612579 0.092370711266994476 0.29820680618286133
0.11654419451951981 0.086638100445270538 0.30233776569366455
0.13837967813014984 0.063022375106811523 0.29674315452575684
0.36044701933860779 0.021547818556427956 0.23979689180850983
0.11870696395635605 0.10275494307279587 0.3120734691619873
0.11835092306137085 0.099776476621627808 0.31032183766365051
0.12032877653837204 0.092106461524963379 0.29967334866523743
0.1278831958770752 0.068039640784263611 0.29548633098602295
0.33791938424110413 0.035819768905639648 0.25687167048454285
0.12952104210853577 0.14145629107952118 0.33068165183067322
0.12188514322042465 0.14249104261398315 0.3265063464641571
0.12671801447868347 0.14125825464725494 0.3221457302570343
0.15355187654495239 0.12354649603366852 0.32778704166412354
0.34739083051681519 0.08469824492931366 0.31740602850914001
0.010728484950959682 0.25137367844581604 0.36564439535140991
0.012147925794124603 0.26483866572380066 0.38149911165237427
0.012938675470650196 0.28510037064552307 0.40663805603981018
0.078474573791027069 0.29291874170303345 0.42043712735176086
0.30837103724479675 0.25790286064147949 0.41590175032615662
0.00012893676466774195 0.43363139033317566 0.40981200337409973
0.0035803401842713356 0.45082846283912659 0.43433603644371033
0.003943334799259901 0.47616219520568848 0.47749495506286621
0.07768586277961731 0.49616357684135437 0.5138847827911377
0.23793715238571167 0.52025538682937622 0.53376573324203491
0.19929486513137817 0.17541617155075073 0.56942570209503174
0.20161144435405731 0.17494696378707886 0.58356845378875732
0.20124273002147675 0.16906602680683136 0.58848708868026733
0.20005176961421967 0.14795376360416412 0.57341116666793823
0.23319798707962036 0.10566885024309158 0.54579108953475952
0.20081157982349396 0.18539868295192719 0.5995786190032959
0.20415113866329193 0.18269164860248566 0.60572206974029541
0.20036311447620392 0.17492678761482239 0.59679722785949707
0.18897126615047455 0.15368899703025818 0.58172047138214111
0.22100964188575745 0.11369550973176956 0.55943399667739868
0.22351671755313873 0.22297579050064087 0.62053424119949341
0.21977977454662323 0.21580027043819427 0.61645066738128662
0.20952799916267395 0.21272353827953339 0.61230373382568359
0.21455880999565125 0.19603116810321808 0.62173843383789062
0.24712620675563812 0.16163204610347748 0.60866469144821167
0.17634426057338715 0.34063151478767395 0.65864390134811401
0.16543172299861908 0.34761035442352295 0.65883767604827881
0.16827487945556641 0.36006775498390198 0.672099769115448
0.18480069935321808 0.35770833492279053 0.66327309608459473
0.26583957672119141 0.30632755160331726 0.65129548311233521
0.068408042192459106 0.47720006108283997 0.68087506294250488
0.073519386351108551 0.48552528023719788 0.69041150808334351
0.081126116216182709 0.50216883420944214 0.6935151219367981
0.1255563348531723 0.51925098896026611 0.7041623592376709
0.24724970757961273 0.52938073873519897 0.74496030807495117
