assets/lut/shamoonabbasi wooden gold 20.cube
# Created by: G'MIC (https://gmic.eu)
TITLE "wooden_gold_20"
# LUT size
LUT_3D_SIZE 5
# Data domain
DOMAIN_MIN 0.0 0.0 0.0
DOMAIN_MAX 1.0 1.0 1.0
# LUT data points
0.0048277759924530983 0.024091383442282677 0.020982541143894196
0.08671405166387558 0.041001010686159134 0.020570239052176476
0.36379796266555786 0.052588444203138351 0
0.57579278945922852 0.077362895011901855 0.0014970666961744428
0.72643482685089111 0.063501797616481781 9.1014189820270985e-05
6.247127748792991e-05 0.11525993794202805 0.059537295252084732
0.14941859245300293 0.14414358139038086 0.013939053751528263
0.55003368854522705 0.18237763643264771 0.00034664379199966788
0.80742752552032471 0.21102498471736908 0
0.91597926616668701 0.22837415337562561 0
0 0.33325609564781189 0.12355182319879532
0.19126409292221069 0.44605767726898193 0.011301272548735142
0.68242096900939941 0.51718109846115112 0.0037279913667589426
0.91622215509414673 0.55086857080459595 0.0015299030346795917
0.98592263460159302 0.56170600652694702 0.008638748899102211
0.00056961656082421541 0.5299297571182251 0.19841434061527252
0.26107668876647949 0.68694889545440674 0.0016293544322252274
0.7725447416305542 0.75048911571502686 0.010410742834210396
0.97805756330490112 0.78359276056289673 0
1 0.80241930484771729 0
0 0.64585888385772705 0.27002686262130737
0.33628854155540466 0.79988735914230347 0.022973109036684036
0.85140091180801392 0.8601832389831543 0.0075430925935506821
1 0.88176655769348145 0.03451087698340416
0.99965441226959229 0.88268780708312988 0.1302776038646698
0.0035527397412806749 0.042533081024885178 0.08501848578453064
0.092420347034931183 0.047058660537004471 0.090428538620471954
0.41499632596969604 0.052250448614358902 0.055340845137834549
0.66173911094665527 0.041610255837440491 0.052904166281223297
0.83455115556716919 0.0022579715587198734 0.065820179879665375
0.0021670772694051266 0.13650237023830414 0.14136509597301483
0.16900405287742615 0.17258432507514954 0.14634054899215698
0.62366068363189697 0.20538821816444397 0.12165467441082001
0.92645746469497681 0.17890247702598572 0.10100868344306946
0.99999135732650757 0.20262612402439117 0.11475186794996262
0.0031765357125550508 0.38322204351425171 0.2531890869140625
0.2152521163225174 0.49336248636245728 0.21339766681194305
0.70814210176467896 0.57041722536087036 0.17702852189540863
0.98272490501403809 0.58659237623214722 0.063216038048267365
1 0.59984564781188965 0.036044176667928696
0.00064837886020541191 0.5870593786239624 0.38760921359062195
0.19893525540828705 0.75523483753204346 0.21765972673892975
0.79132121801376343 0.82400572299957275 0.1463003009557724
0.99612343311309814 0.84366917610168457 0.17190113663673401
1 0.85949242115020752 0.1881536990404129
0.0072793848812580109 0.69377994537353516 0.5160948634147644
0.21431498229503632 0.86633396148681641 0.39829662442207336
0.80757659673690796 0.90942144393920898 0.35667234659194946
1 0.92730569839477539 0.38556557893753052
1 0.92806011438369751 0.51008784770965576
0 0.095549911260604858 0.22752442955970764
0.075142592191696167 0.059125535190105438 0.31314727663993835
0.4494481086730957 0.05541718378663063 0.30910336971282959
0.71432960033416748 0.033324282616376877 0.33450326323509216
0.86607259511947632 0.0044733681716024876 0.38205012679100037
7.5575881055556238e-05 0.20572678744792938 0.34541505575180054
0.14181889593601227 0.22007037699222565 0.46980088949203491
0.65625166893005371 0.23488351702690125 0.4938456118106842
0.9451940655708313 0.20256431400775909 0.55049842596054077
0.9995695948600769 0.23454998433589935 0.58607685565948486
0.002516772598028183 0.47094172239303589 0.5152052640914917
0.25905898213386536 0.56742995977401733 0.56969952583312988
0.71879905462265015 0.64096361398696899 0.58166563510894775
0.9924083948135376 0.63694638013839722 0.54714405536651611
0.99999302625656128 0.64791703224182129 0.55414950847625732
0 0.66553884744644165 0.66557067632675171
0.11236605048179626 0.82478666305541992 0.67938023805618286
0.73049122095108032 0.89454406499862671 0.61934429407119751
0.98597019910812378 0.90739172697067261 0.62976551055908203
1 0.91952180862426758 0.6603693962097168
0.0012996748555451632 0.76159870624542236 0.77423161268234253
0.16675108671188354 0.9160771369934082 0.80792105197906494
0.75149643421173096 0.95592260360717773 0.76683920621871948
0.98692268133163452 0.97324734926223755 0.77006560564041138
1 0.97729754447937012 0.81659162044525146
0.00077308207983151078 0.1546991765499115 0.36637356877326965
0.044650763273239136 0.087235227227210999 0.52440351247787476
0.46112245321273804 0.076451458036899567 0.55611032247543335
0.73608660697937012 0.066980980336666107 0.59306782484054565
0.90376001596450806 0 0.67825651168823242
0 0.27357620000839233 0.51340174674987793
0.10155108571052551 0.24357111752033234 0.75028961896896362
0.68116390705108643 0.24210402369499207 0.8006432056427002
0.94316548109054565 0.23124484717845917 0.8421979546546936
1 0.24921952188014984 0.86929512023925781
0.0037910761311650276 0.53747278451919556 0.68550533056259155
0.21221056580543518 0.63174223899841309 0.79526013135910034
0.69427764415740967 0.67942869663238525 0.87269240617752075
0.96511125564575195 0.67328524589538574 0.86105871200561523
0.99716663360595703 0.68771350383758545 0.85308694839477539
0.010076186619699001 0.70849770307540894 0.79552441835403442
0.11952564120292664 0.85780733823776245 0.89239209890365601
0.68391388654708862 0.92980682849884033 0.89340656995773315
0.968994140625 0.94233608245849609 0.88577055931091309
1 0.95197188854217529 0.89434981346130371
5.1924762374255806e-05 0.79541140794754028 0.88258576393127441
0.13115403056144714 0.94741642475128174 0.97955787181854248
0.72989499568939209 0.98128294944763184 0.94937515258789062
0.96332263946533203 0.99394387006759644 0.94320303201675415
0.99604731798171997 0.9978824257850647 0.95733755826950073
0.0012257595080882311 0.19910052418708801 0.46041545271873474
0.038864165544509888 0.096509851515293121 0.68281269073486328
0.49514445662498474 0.055681072175502777 0.75179493427276611
0.77122753858566284 0.05707143247127533 0.77637434005737305
0.91940617561340332 0.00074229523306712508 0.84436333179473877
0.0033379499800503254 0.31500375270843506 0.60676771402359009
0.077734716236591339 0.26989427208900452 0.8887026309967041
0.69831907749176025 0.24186451733112335 0.97781503200531006
0.95250189304351807 0.24432820081710815 0.9883233904838562
1 0.26550048589706421 0.99855130910873413
0 0.57689517736434937 0.77219086885452271
0.059389032423496246 0.67025792598724365 0.94117200374603271
0.67104685306549072 0.69041270017623901 0.99801969528198242
0.95242303609848022 0.67981231212615967 0.9977295994758606
1 0.6985284686088562 0.99521136283874512
0.0033122941385954618 0.73301666975021362 0.86309832334518433
0.07974553108215332 0.87783575057983398 0.98257875442504883
0.67345255613327026 0.94050884246826172 0.99836593866348267
0.95261132717132568 0.95918816328048706 0.99510180950164795
0.99941331148147583 0.9571232795715332 0.99535948038101196
0.0013055091258138418 0.81831997632980347 0.93215090036392212
0.087637327611446381 0.95186048746109009 0.99995851516723633
0.69447153806686401 0.98905211687088013 1
0.95507133007049561 0.99943649768829346 0.99820739030838013
0.99303412437438965 1 0.99986213445663452
