assets/lut/shamoonabbasi night king 141.cube
# Created by: G'MIC (https://gmic.eu)
TITLE "night_king_141"
# LUT size
LUT_3D_SIZE 13
# Data domain
DOMAIN_MIN 0.0 0.0 0.0
DOMAIN_MAX 1.0 1.0 1.0
# LUT data points
0 0 0
0.0045457277446985245 3.0338062060764059e-05 0
0.049922987818717957 0 0
0.11774063110351562 0 0
0.18777608871459961 0 0
0.25597348809242249 0 0
0.32204285264015198 0 0
0.38746130466461182 0.00071620568633079529 0
0.45295602083206177 0.0041846032254397869 0
0.51878327131271362 0.009877791628241539 0
0.58456039428710938 0.014932296238839626 0
0.65003830194473267 0.017773931846022606 4.487879323278321e-06
0.71615827083587646 0.020493241026997566 0.0017473407788202167
0 0.0076936311088502407 0
0.007341048214584589 0.0093546397984027863 0
0.056935135275125504 0.0062809665687382221 0
0.12443753331899643 0.0095936041325330734 0
0.19260059297084808 0.010311934165656567 0.00022563560924027115
0.25871145725250244 0.0070197312161326408 0.0012662102235481143
0.32340088486671448 0.011496944352984428 0.0003443848981987685
0.38789811730384827 0.021572951227426529 0
0.45288589596748352 0.031129784882068634 0
0.51806104183197021 0.03828105702996254 0
0.58351331949234009 0.043084222823381424 0
0.64910489320755005 0.045864567160606384 0.00025580910732969642
0.715018630027771 0.049690891057252884 0.0048100640997290611
0 0.059401076287031174 0
0.004512532614171505 0.060770567506551743 0
0.05278841033577919 0.056888207793235779 0
0.12389424443244934 0.059904091060161591 0
0.19416087865829468 0.060745809227228165 0.0012128642993047833
0.25966450572013855 0.057747155427932739 0.0044520809315145016
0.3237445056438446 0.061232592910528183 0.0014538036193698645
0.38748735189437866 0.067553482949733734 0
0.45200735330581665 0.07345658540725708 0
0.51691180467605591 0.077695541083812714 0
0.58222568035125732 0.08000868558883667 0
0.64795243740081787 0.080901458859443665 0.00063539395341649652
0.71484172344207764 0.084389463067054749 0.0088971750810742378
9.5098155725281686e-05 0.13106362521648407 7.234461372718215e-05
0.008897055871784687 0.13071504235267639 0
0.053960911929607391 0.12735238671302795 0
0.12284242361783981 0.12649136781692505 0
0.19350793957710266 0.12665010988712311 2.297794162586797e-05
0.25942167639732361 0.12771837413311005 0.00044889262062497437
0.32306283712387085 0.12824079394340515 5.6322882301174104e-05
0.38715377449989319 0.12793402373790741 0
0.45136365294456482 0.12854963541030884 0
0.51570844650268555 0.12864768505096436 0
0.58131885528564453 0.12772670388221741 0
0.64773285388946533 0.12728635966777802 0.00035270242369733751
0.71443426609039307 0.12917208671569824 0.0077874278649687767
0.0024101706221699715 0.19854030013084412 0.0012144200736656785
0.020851150155067444 0.19857402145862579 2.2439395252149552e-05
0.063562683761119843 0.19612042605876923 0
0.12600502371788025 0.19396388530731201 0
0.19364812970161438 0.19399401545524597 0
0.25831902027130127 0.1953965425491333 0
0.32200932502746582 0.19519241154193878 0
0.38612738251686096 0.19290867447853088 0
0.45012038946151733 0.19020445644855499 0
0.51530957221984863 0.18813519179821014 0
0.58070451021194458 0.18581476807594299 0
0.64773285388946533 0.1852567046880722 7.1806067580837407e-07
0.71445858478546143 0.1872868686914444 0.00084369134856387973
0.0064100679010152817 0.26311466097831726 0.002842143876478076
0.031357049942016602 0.26345321536064148 0.00041414148290641606
0.072915263473987579 0.26227545738220215 0
0.12940113246440887 0.2605842649936676 0
0.19263303279876709 0.26037168502807617 0
0.25648754835128784 0.26101168990135193 0
0.32077735662460327 0.26034837961196899 0
0.38494753837585449 0.25800833106040955 0
0.44994243979454041 0.2548196017742157 0
0.51493173837661743 0.25199759006500244 0
0.5807146430015564 0.25020110607147217 0
0.64773285388946533 0.25043097138404846 0
0.71489632129669189 0.25294744968414307 0
0.0091240080073475838 0.32641422748565674 0.0032006357796490192
0.038634520024061203 0.3271273672580719 0.00039636949077248573
0.079646870493888855 0.32667773962020874 0
0.13236129283905029 0.32610872387886047 0
0.1920795738697052 0.32587924599647522 0
0.2553093433380127 0.32583820819854736 0
0.31941822171211243 0.32495656609535217 0
0.38428068161010742 0.32283768057823181 0
0.44932422041893005 0.32012486457824707 0
0.51488971710205078 0.31769546866416931 0
0.58100289106369019 0.31659221649169922 0
0.64773285388946533 0.3172793984413147 0
0.71495097875595093 0.31987348198890686 0
0.010686777532100677 0.39014515280723572 0.0030438890680670738
0.043177016079425812 0.39097672700881958 0.00027968463837169111
0.084801994264125824 0.39098337292671204 0
0.13542504608631134 0.39067298173904419 0
0.1930510550737381 0.39042967557907104 0
0.2550203800201416 0.39012068510055542 0
0.31875059008598328 0.38906764984130859 0
0.38365742564201355 0.38739672303199768 0
0.44926470518112183 0.38537630438804626 0
0.51488971710205078 0.38373070955276489 0
0.58131128549575806 0.38326865434646606 0
0.64773285388946533 0.38421145081520081 0
0.71495097875595093 0.38649401068687439 0
0.011372599750757217 0.4536651074886322 0.0029773786664009094
0.046447917819023132 0.45424655079841614 0.00018166934023611248
0.088881067931652069 0.45476192235946655 0
0.13895298540592194 0.45464560389518738 0
0.19528424739837646 0.45436751842498779 0
0.25600489974021912 0.45397040247917175 0
0.31924828886985779 0.4533352255821228 0
0.38391956686973572 0.45214363932609558 0
0.44932788610458374 0.45069700479507446 0
0.51526057720184326 0.44966298341751099 0
0.58171755075454712 0.44966357946395874 0
0.64778590202331543 0.45091632008552551 0
0.71495097875595093 0.45312684774398804 0
0.011695427820086479 0.51819688081741333 0.0037212895695120096
0.048880156129598618 0.51867246627807617 0.00039690802805125713
0.092782206833362579 0.5190010666847229 0
0.1426868736743927 0.51904773712158203 0
0.19846737384796143 0.51894950866699219 0
0.25808230042457581 0.51863831281661987 0
0.32079797983169556 0.51802420616149902 0
0.38493567705154419 0.51709097623825073 0
0.45019391179084778 0.51632452011108398 0
0.51611292362213135 0.51600503921508789 0
0.58216351270675659 0.51633834838867188 0
0.64885199069976807 0.51745951175689697 0
0.71582871675491333 0.51970314979553223 0
0.012212955392897129 0.5829043984413147 0.0052751130424439907
0.051282994449138641 0.58349013328552246 0.0010397369042038918
0.096325114369392395 0.58403557538986206 5.385455096984515e-06
0.14687834680080414 0.584064781665802 0
0.20211121439933777 0.58402401208877563 0
0.2611689567565918 0.58361524343490601 0
0.32306745648384094 0.5830574631690979 0
0.38684698939323425 0.5825074315071106 0
0.45170125365257263 0.58212649822235107 0
0.51726871728897095 0.58210784196853638 0
0.58346462249755859 0.58264434337615967 0
0.65005803108215332 0.58416002988815308 0
0.71764850616455078 0.58671671152114868 0
0.012884236872196198 0.6483650803565979 0.0081939697265625
0.053955841809511185 0.64882814884185791 0.0026803109794855118
0.10032022744417191 0.64932096004486084 0.0004179412208031863
0.1513303816318512 0.64932596683502197 5.3854552106713527e-07
0.20647227764129639 0.64932596683502197 0
0.26501411199569702 0.64927542209625244 0
0.32633230090141296 0.64892148971557617 0
0.38941845297813416 0.64859378337860107 0
0.4538988471031189 0.64841991662979126 0
0.5193488597869873 0.64920437335968018 0
0.58548414707183838 0.64945811033248901 0
0.65227103233337402 0.65168029069900513 0
0.71982592344284058 0.65401709079742432 0
0.015053214505314827 0.71495097875595093 0.01285527553409338
0.057743370532989502 0.71495097875595093 0.0059001697227358818
0.10515474528074265 0.71495097875595093 0.0020171371288597584
0.1565375030040741 0.71495097875595093 0.00046386718167923391
0.21156437695026398 0.71495097875595093 9.3347889560391195e-06
0.26987379789352417 0.71495097875595093 0
0.33045318722724915 0.71495097875595093 0
0.39316087961196899 0.71495097875595093 0
0.45715141296386719 0.71495097875595093 0
0.52235132455825806 0.7162894606590271 0
0.58839482069015503 0.71736204624176025 0
0.65527224540710449 0.71920222043991089 0
0.72304147481918335 0.72191387414932251 0
0 0 0.0066368849948048592
0.0039682723581790924 0.00019972557493019849 0.0069628246128559113
0.049401182681322098 0 0.011994096450507641
0.11954396218061447 0.00010470222332514822 0.014953344129025936
0.19078011810779572 0.0011119768023490906 0.011283994652330875
0.25860211253166199 0.00038209802005439997 0.0072144153527915478
0.32375228404998779 0 0.0077358023263514042
0.38828706741333008 0.00036269542761147022 0.0082881106063723564
0.4539046585559845 0.002275743754580617 0.0073049208149313927
0.51981282234191895 0.0061919717118144035 0.006646384485065937
0.58516734838485718 0.010752703994512558 0.0085848337039351463
0.65001589059829712 0.013901220634579659 0.015965629369020462
0.71514236927032471 0.018197333440184593 0.028152629733085632
0.00033196841832250357 0.0089498031884431839 0.0055290968157351017
0.0062664407305419445 0.0080952811986207962 0.006476967129856348
0.054620720446109772 0.0078150583431124687 0.008989955298602581
0.1253361850976944 0.012558103539049625 0.0096870725974440575
0.19506311416625977 0.015798876062035561 0.012399755418300629
0.26056075096130371 0.013025575317442417 0.015703702345490456
0.32450464367866516 0.013953324407339096 0.016421733424067497
0.38835784792900085 0.019474118947982788 0.013668030500411987
0.4536190927028656 0.026599898934364319 0.0099959578365087509
0.51899868249893188 0.032687243074178696 0.0081002777442336082
0.58425760269165039 0.03740425780415535 0.01047046110033989
0.64939236640930176 0.041661370545625687 0.019999619573354721
0.71495097875595093 0.047620061784982681 0.034003209322690964
9.3347889560391195e-06 0.059971410781145096 0.0053604124113917351
0.0048921471461653709 0.058254584670066833 0.0062740552239120007
0.051586434245109558 0.057322200387716293 0.0063452329486608505
0.12403248995542526 0.060712717473506927 0.0049556656740605831
0.1953875869512558 0.060972563922405243 0.010147768072783947
0.2609744668006897 0.057942919433116913 0.016861634328961372
0.32460153102874756 0.059335999190807343 0.018805081024765968
0.38829430937767029 0.064387932419776917 0.015550710260868073
0.45286953449249268 0.069321274757385254 0.01044865045696497
0.51760053634643555 0.073077872395515442 0.0068302829749882221
0.58269202709197998 0.075712896883487701 0.0084365392103791237
0.64820444583892822 0.078663378953933716 0.020280143246054649
0.71428292989730835 0.084172040224075317 0.036704163998365402
0 0.13003671169281006 0.010391953401267529
0.0059344274923205376 0.13047552108764648 0.0062586315907537937
0.050477765500545502 0.12786851823329926 0.0067271962761878967
0.12135002017021179 0.1266319751739502 0.0080328993499279022
0.19354751706123352 0.12580257654190063 0.0095685170963406563
0.25997841358184814 0.12478158622980118 0.0088810641318559647
0.32390382885932922 0.12493896484375 0.010455441661179066
0.38750845193862915 0.12561364471912384 0.0122617082670331
0.45186004042625427 0.12596291303634644 0.0090160742402076721
0.51632320880889893 0.12628990411758423 0.0051195928826928139
0.5815771222114563 0.12661674618721008 0.0054778605699539185
0.64773285388946533 0.12748681008815765 0.015337626449763775
0.71400600671768188 0.1319185346364975 0.031772732734680176
0.00084367638919502497 0.1979057639837265 0.020917899906635284
0.016319604590535164 0.198759526014328 0.014705702662467957
0.058612313121557236 0.19699575006961823 0.012944838963449001
0.12261925637722015 0.19470173120498657 0.013848084025084972
0.19181488454341888 0.19436274468898773 0.010650425218045712
0.25811737775802612 0.19442811608314514 0.0054482854902744293
0.32230415940284729 0.19419993460178375 0.0060795056633651257
0.38680127263069153 0.19246159493923187 0.0092485463246703148
0.45126953721046448 0.19000986218452454 0.0079903248697519302
0.51582318544387817 0.18775379657745361 0.0048703812062740326
0.58144819736480713 0.18634845316410065 0.0045137442648410797
0.64773285388946533 0.18738792836666107 0.0080815637484192848
0.71409803628921509 0.19106116890907288 0.017341000959277153
0.004054768942296505 0.26285234093666077 0.028912398964166641
0.02662322111427784 0.2637118399143219 0.021755741909146309
0.067499510943889618 0.26297712326049805 0.017085758969187737
0.12501852214336395 0.26173457503318787 0.013933608308434486
0.19000399112701416 0.26159611344337463 0.0096970349550247192
0.2556384801864624 0.26182112097740173 0.0065775252878665924
0.32075732946395874 0.26139944791793823 0.0068570156581699848
0.38567352294921875 0.25904437899589539 0.0079867346212267876
0.45048445463180542 0.25590282678604126 0.0072407443076372147
0.51581418514251709 0.25308850407600403 0.0049217222258448601
0.58156448602676392 0.25196066498756409 0.0037001816090196371
0.64773285388946533 0.25325721502304077 0.0035665773320943117
0.71482044458389282 0.2569003701210022 0.0055651045404374599
0.006631260272115469 0.32645156979560852 0.032972477376461029
0.033936623483896255 0.3274935781955719 0.024031365290284157
0.074343815445899963 0.3270188570022583 0.016176335513591766
0.1275600790977478 0.32665440440177917 0.010345818474888802
0.18910457193851471 0.32667151093482971 0.0070534949190914631
0.25370553135871887 0.3267485499382019 0.00582911167293787
0.31912475824356079 0.32627344131469727 0.0064978208392858505
0.384561687707901 0.32435953617095947 0.0072525623254477978
0.450156569480896 0.3215671181678772 0.0067313099279999733
0.51579552888870239 0.3192695677280426 0.0051292120479047298
0.58162516355514526 0.31844323873519897 0.0036530138459056616
0.64773285388946533 0.31980332732200623 0.0026630326174199581
0.71477127075195312 0.32279524207115173 0.0037707609590142965
0.0083066308870911598 0.39029666781425476 0.034380476921796799
0.038874097168445587 0.39117431640625 0.02359924279153347
0.07993665337562561 0.39117646217346191 0.013793092221021652
0.13104335963726044 0.39117646217346191 0.0071366704069077969
0.18991075456142426 0.39117646217346191 0.0046408260241150856
0.25314676761627197 0.39117258787155151 0.0048702466301620007
0.31810787320137024 0.39060768485069275 0.0057971281930804253
0.38387775421142578 0.3888181746006012 0.0066072950139641762
0.4497579038143158 0.38684552907943726 0.0064727184362709522
0.51569443941116333 0.38524839282035828 0.0056597241200506687
0.58177179098129272 0.38493025302886963 0.0043239369988441467
0.64773285388946533 0.38596120476722717 0.0034926470834761858
0.7143741250038147 0.38840624690055847 0.0040984358638525009
0.0089204972609877586 0.45380410552024841 0.035770311951637268
0.042505361139774323 0.45502772927284241 0.023965513333678246
0.084787406027317047 0.45557597279548645 0.013360386714339256
0.13503725826740265 0.45557597279548645 0.0068557439371943474
0.19220110774040222 0.45557597279548645 0.0046813217923045158
0.25422796607017517 0.4554038941860199 0.0049337050877511501
0.31846043467521667 0.45435336232185364 0.0059707942418754101
0.38385069370269775 0.45329800248146057 0.0070152883417904377
0.44977828860282898 0.45192047953605652 0.0072857425548136234
0.51589500904083252 0.45086637139320374 0.0064797494560480118
0.58199506998062134 0.45086777210235596 0.0053685805760324001
0.64773285388946533 0.45207184553146362 0.0044060200452804565
0.71480494737625122 0.4542517364025116 0.0048167509958148003
0.0093647679314017296 0.51851290464401245 0.03843587264418602
0.045728631317615509 0.51914447546005249 0.026527225971221924
0.089177332818508148 0.51960784196853638 0.016124038025736809
0.13953594863414764 0.51960784196853638 0.0096351774409413338
0.19567550718784332 0.51960784196853638 0.0069592045620083809
0.25634473562240601 0.51949024200439453 0.0067823370918631554
0.31976708769798279 0.51883649826049805 0.0075761233456432819
0.38453739881515503 0.51807272434234619 0.0085278376936912537
0.45030668377876282 0.51706624031066895 0.0087383193895220757
0.51627629995346069 0.51650208234786987 0.0083106998354196548
0.58210784196853638 0.51669478416442871 0.0071477852761745453
0.64818292856216431 0.51809853315353394 0.0061769373714923859
0.71495264768600464 0.52031338214874268 0.0068113137967884541
0.0094809141010046005 0.58311212062835693 0.042881790548563004
0.048163935542106628 0.58412504196166992 0.031416427344083786
0.093270242214202881 0.58437103033065796 0.02143464982509613
0.14398512244224548 0.58441799879074097 0.014546802267432213
0.19967053830623627 0.58441102504730225 0.011128922924399376
0.25941604375839233 0.58434927463531494 0.010211421176791191
0.32178625464439392 0.58394479751586914 0.010240891017019749
0.38616529107093811 0.5831267237663269 0.010802534408867359
0.45121431350708008 0.58265584707260132 0.010906967334449291
0.51683676242828369 0.58226495981216431 0.010494097135961056
0.58293831348419189 0.58321863412857056 0.0098344394937157631
0.64933538436889648 0.58431541919708252 0.0097062801942229271
0.71646076440811157 0.58679503202438354 0.010654733516275883
0.01128940936177969 0.64858543872833252 0.048958826810121536
0.051231250166893005 0.64928281307220459 0.038032159209251404
0.097513221204280853 0.64967262744903564 0.028591515496373177
0.14868795871734619 0.64995938539505005 0.02152537927031517
0.20407664775848389 0.64992141723632812 0.017233440652489662
0.26304298639297485 0.64966040849685669 0.015263127163052559
0.32470452785491943 0.64935380220413208 0.014554116874933243
0.38813105225563049 0.64930731058120728 0.014287492260336876
0.45293816924095154 0.64919549226760864 0.014284186065196991
0.51837003231048584 0.64936619997024536 0.013972831889986992
0.58434993028640747 0.64954054355621338 0.013611692935228348
0.65104585886001587 0.6515430212020874 0.013976722024381161
0.71824008226394653 0.653739333152771 0.016051184386014938
0.012968055903911591 0.71495097875595093 0.056485135108232498
0.055073097348213196 0.71495097875595093 0.045830145478248596
0.10229677706956863 0.71532547473907471 0.037234019488096237
0.15374903380870819 0.71566778421401978 0.030114879831671715
0.20917584002017975 0.7156747579574585 0.02515704557299614
0.26752960681915283 0.71552073955535889 0.022112991660833359
0.32848241925239563 0.71515417098999023 0.020473809912800789
0.39143413305282593 0.71495097875595093 0.019601978361606598
0.45561057329177856 0.71495097875595093 0.01917063444852829
0.52082353830337524 0.71615791320800781 0.018974991515278816
0.58679056167602539 0.7173004150390625 0.019125515595078468
0.65344995260238647 0.71878170967102051 0.020284002646803856
0.72108703851699829 0.7215765118598938 0.023051183670759201
0 0 0.057639490813016891
0.0081557482481002808 0 0.058393858373165131
0.056347101926803589 0 0.061996877193450928
0.12487371265888214 0.00052947999211028218 0.063477687537670135
0.19403134286403656 0.0021445031743496656 0.059639755636453629
0.25952795147895813 0.00013637168740388006 0.054682414978742599
0.32341212034225464 0 0.054090820252895355
0.38824155926704407 1.7951516610992257e-06 0.054634153842926025
0.45404157042503357 0.00017065908468794078 0.054403506219387054
0.52037447690963745 0.00086101458873599768 0.054951909929513931
0.58523285388946533 0.0022249408066272736 0.058542676270008087
0.64999997615814209 0.0057294359430670738 0.064607568085193634
0.71465259790420532 0.012789243832230568 0.07253989577293396
0.00011298983736196533 0.0049369810149073601 0.059278108179569244
0.009473494254052639 0.0066948537714779377 0.060332741588354111
0.060426808893680573 0.0054359734058380127 0.060809370130300522
0.12948556244373322 0.01003869716078043 0.058170229196548462
0.19749350845813751 0.013640071265399456 0.058268468827009201
0.26101875305175781 0.0097229005768895149 0.061538800597190857
0.32413658499717712 0.0090704970061779022 0.063001878559589386
0.38835784792900085 0.013530881144106388 0.061452183872461319
0.45407325029373169 0.018441084772348404 0.058546029031276703
0.51988106966018677 0.02178579568862915 0.057695589959621429
0.58503073453903198 0.025352133437991142 0.061716895550489426
0.64996856451034546 0.032927315682172775 0.068415999412536621
0.71495097875595093 0.043151542544364929 0.07734883576631546
5.834242983837612e-06 0.055209469050168991 0.057771958410739899
0.0050197076052427292 0.058595187962055206 0.059316553175449371
0.053223270922899246 0.055952198803424835 0.05638224259018898
0.12599213421344757 0.056812569499015808 0.051922325044870377
0.19687759876251221 0.057311054319143295 0.054497558623552322
0.26159751415252686 0.054041050374507904 0.060146946460008621
0.32463115453720093 0.054631505161523819 0.063757039606571198
0.38835784792900085 0.059545062482357025 0.063868701457977295
0.45363041758537292 0.063545942306518555 0.059501335024833679
0.51882106065750122 0.065611280500888824 0.055838357657194138
0.58390700817108154 0.068147920072078705 0.057645998895168304
0.64916336536407471 0.073721975088119507 0.066246658563613892
0.71458804607391357 0.082510210573673248 0.077587321400642395
0 0.12595739960670471 0.06019299104809761
0.0064429789781570435 0.12885284423828125 0.057143867015838623
0.050435338169336319 0.1272282600402832 0.054660826921463013
0.12099139392375946 0.1251266747713089 0.052978336811065674
0.19371519982814789 0.12367174029350281 0.053330965340137482
0.26047033071517944 0.12187368422746658 0.053612906485795975
0.32451006770133972 0.12199945002794266 0.058318838477134705
0.38831254839897156 0.12299486249685287 0.062109660357236862
0.4530017077922821 0.12306511402130127 0.058616191148757935
0.51775169372558594 0.12257535010576248 0.052265122532844543
0.58279627561569214 0.12349449843168259 0.05174744501709938
0.64829295873641968 0.12676092982292175 0.06004771962761879
0.71431934833526611 0.13317650556564331 0.072022125124931335
0.0011176912812516093 0.19456002116203308 0.067712016403675079
0.015504859387874603 0.19667695462703705 0.062886737287044525
0.055997930467128754 0.19634561240673065 0.05966726690530777
0.11986725777387619 0.1949228048324585 0.057777091860771179
0.19037820398807526 0.19410954415798187 0.0545792356133461
0.25802850723266602 0.19352231919765472 0.051085095852613449
0.32312792539596558 0.19350190460681915 0.055604569613933563
0.38765621185302734 0.19222578406333923 0.061230216175317764
0.45240738987922668 0.18943388760089874 0.058081667870283127
0.51724457740783691 0.18699365854263306 0.051772817969322205
0.58246999979019165 0.1864013671875 0.049442127346992493
0.64802920818328857 0.18835955858230591 0.053049664944410324
0.71435219049453735 0.1931728720664978 0.061646852642297745
0.0038339502643793821 0.26079431176185608 0.074325427412986755
0.024087613448500633 0.26204410195350647 0.068680658936500549
0.063246302306652069 0.26199802756309509 0.064009860157966614
0.12098424881696701 0.26177835464477539 0.059791162610054016
0.18763327598571777 0.26182597875595093 0.055279720574617386
0.2549927830696106 0.26182597875595093 0.05295785516500473
0.32132425904273987 0.26174625754356384 0.055658765137195587
0.38673052191734314 0.25972187519073486 0.058732517063617706
0.45194995403289795 0.25647786259651184 0.057284187525510788
0.51704216003417969 0.25350862741470337 0.052421391010284424
0.58241182565689087 0.25222256779670715 0.049143996089696884
0.64813542366027832 0.25441133975982666 0.048415374010801315
0.71492373943328857 0.25815215706825256 0.052838269621133804
0.0052238316275179386 0.32536205649375916 0.078456580638885498
0.030663104727864265 0.32617300748825073 0.071160048246383667
0.069862440228462219 0.3262881338596344 0.064141325652599335
0.12365605682134628 0.32660892605781555 0.057677235454320908
0.18691475689411163 0.32692590355873108 0.053258739411830902
0.25309273600578308 0.32811161875724792 0.052725818008184433
0.31965917348861694 0.32676535844802856 0.054711777716875076
0.38571807742118835 0.32514393329620361 0.057193577289581299
0.45146676898002625 0.32245779037475586 0.057003125548362732
0.51693093776702881 0.32013934850692749 0.053805064409971237
0.58255589008331299 0.31959772109985352 0.050392989069223404
0.64818090200424194 0.3206653892993927 0.048566676676273346
0.71455270051956177 0.32358971238136292 0.051437858492136002
0.0066066817380487919 0.38952505588531494 0.080806449055671692
