assets/lut/shamoonabbasi hlg 1 1.cube
# Created by: G'MIC (https://gmic.eu)
TITLE "hlg_1_1"
# LUT size
LUT_3D_SIZE 7
# Data domain
DOMAIN_MIN 0.0 0.0 0.0
DOMAIN_MAX 1.0 1.0 1.0
# LUT data points
0.017899172380566597 0.021094392985105515 0.023069284856319427
0.13436159491539001 0.043439183384180069 0.041435018181800842
0.51055800914764404 0.13789856433868408 0.12437207251787186
0.68788564205169678 0.18529364466667175 0.16458158195018768
0.82144880294799805 0.22152189910411835 0.19918377697467804
0.85367637872695923 0.2345653772354126 0.20882019400596619
0.8554840087890625 0.24114055931568146 0.21355715394020081
0.029610233381390572 0.099534697830677032 0.023814152926206589
0.25011366605758667 0.13060377538204193 0.062562219798564911
0.60555237531661987 0.21075908839702606 0.15058349072933197
0.7720065712928772 0.26563948392868042 0.19171413779258728
0.87366580963134766 0.30520802736282349 0.20875237882137299
0.89150500297546387 0.32880136370658875 0.20158426463603973
0.91142714023590088 0.35727205872535706 0.18842615187168121
0.05679047480225563 0.31882971525192261 0.031773988157510757
0.43459054827690125 0.41689217090606689 0.060234908014535904
0.7603374719619751 0.42043343186378479 0.11643563210964203
0.8780476450920105 0.43804079294204712 0.14484536647796631
0.92928296327590942 0.46492740511894226 0.14208367466926575
0.94044309854507446 0.48502573370933533 0.1391267329454422
0.94407927989959717 0.49601972103118896 0.12919290363788605
0.088114477694034576 0.50255495309829712 0.045830611139535904
0.55695319175720215 0.60040032863616943 0.063115604221820831
0.77526706457138062 0.6296575665473938 0.097352124750614166
0.89752554893493652 0.62807583808898926 0.11816118657588959
0.94220829010009766 0.61720311641693115 0.12031938135623932
0.94644606113433838 0.63541865348815918 0.13269604742527008
0.94901961088180542 0.65154898166656494 0.13377448916435242
0.11865168809890747 0.76757431030273438 0.051697287708520889
0.58414727449417114 0.76245802640914917 0.043922066688537598
0.79482990503311157 0.76068484783172607 0.077591612935066223
0.89952492713928223 0.7836911678314209 0.10030689835548401
0.9480435848236084 0.76635557413101196 0.1146618127822876
0.94988977909088135 0.77172905206680298 0.12014158815145493
0.94954550266265869 0.78107231855392456 0.12335693091154099
0.16947276890277863 0.84720677137374878 0.064987227320671082
0.65379822254180908 0.85196465253829956 0.053950201719999313
0.8355059027671814 0.86121875047683716 0.06543305516242981
0.91849702596664429 0.88262158632278442 0.080074220895767212
0.95146244764328003 0.85431927442550659 0.10224828124046326
0.9529411792755127 0.85331863164901733 0.1063573807477951
0.9529411792755127 0.85381835699081421 0.10640294849872589
0.29751491546630859 0.86112642288208008 0.074297048151493073
0.70411229133605957 0.87043768167495728 0.065999262034893036
0.85401350259780884 0.87389069795608521 0.072723805904388428
0.92608249187469482 0.88784611225128174 0.084239527583122253
0.9529411792755127 0.85360074043273926 0.10268507152795792
0.9529411792755127 0.85415071249008179 0.10734031349420547
0.9529411792755127 0.85375922918319702 0.10679967701435089
0.021811751648783684 0.030548229813575745 0.060464628040790558
0.15358702838420868 0.049743235111236572 0.066454105079174042
0.52447879314422607 0.14156536757946014 0.14306265115737915
0.70076173543930054 0.19120028614997864 0.18618394434452057
0.82957148551940918 0.22371697425842285 0.21888038516044617
0.84852737188339233 0.23824390769004822 0.23728743195533752
0.84800595045089722 0.2452937513589859 0.24395419657230377
0.030887005850672722 0.11845734715461731 0.064222611486911774
0.25478032231330872 0.14867343008518219 0.088263764977455139
0.62335288524627686 0.22474777698516846 0.17614328861236572
0.77389883995056152 0.27465558052062988 0.20745359361171722
0.88651251792907715 0.33012577891349792 0.20850934088230133
0.91096049547195435 0.37321987748146057 0.1936248391866684
0.92250519990921021 0.40358555316925049 0.18959736824035645
0.05430164560675621 0.33385357260704041 0.060916706919670105
0.44125998020172119 0.45409071445465088 0.082045413553714752
0.77429938316345215 0.45868101716041565 0.1341654360294342
0.88792151212692261 0.46666979789733887 0.15046641230583191
0.93660110235214233 0.5007975697517395 0.14770065248012543
0.94559097290039062 0.52821952104568481 0.14940652251243591
0.94684350490570068 0.55004662275314331 0.16213957965373993
0.092064425349235535 0.518207848072052 0.07456633448600769
0.53804570436477661 0.62465405464172363 0.078239649534225464
0.78543263673782349 0.66287243366241455 0.12040858715772629
0.90396928787231445 0.65408766269683838 0.14327003061771393
0.94284868240356445 0.64748471975326538 0.14676016569137573
0.94901782274246216 0.66426247358322144 0.15579007565975189
0.94901961088180542 0.67797160148620605 0.15900738537311554
0.10615266114473343 0.78740173578262329 0.079554826021194458
0.57322239875793457 0.78756916522979736 0.06813754141330719
0.80541980266571045 0.78585022687911987 0.094888396561145782
0.90459376573562622 0.80284023284912109 0.12212778627872467
0.94872194528579712 0.78042840957641602 0.13788741827011108
0.9499402642250061 0.79001188278198242 0.14349791407585144
0.95292586088180542 0.79503041505813599 0.14764763414859772
0.16517740488052368 0.85632342100143433 0.093183122575283051
0.65103256702423096 0.87998878955841064 0.078687958419322968
0.84178292751312256 0.88464546203613281 0.083856068551540375
0.91716814041137695 0.88968950510025024 0.10097014158964157
0.95164835453033447 0.86651897430419922 0.12067870795726776
0.9529411792755127 0.86301940679550171 0.12398500740528107
0.9529411792755127 0.8651808500289917 0.1262766420841217
0.27673161029815674 0.86707204580307007 0.09996236115694046
0.7016177773475647 0.89596849679946899 0.090325511991977692
0.85606390237808228 0.89202451705932617 0.090981051325798035
0.92262119054794312 0.89093708992004395 0.10618908703327179
0.95170962810516357 0.86795085668563843 0.12410782277584076
0.9529411792755127 0.86853808164596558 0.12944889068603516
0.9529411792755127 0.86938846111297607 0.13136433064937592
0.034324318170547485 0.086366273462772369 0.20664495229721069
0.18303461372852325 0.075960986316204071 0.17100903391838074
0.57245594263076782 0.1596282571554184 0.20713579654693604
0.73513692617416382 0.20330765843391418 0.25265562534332275
0.83174294233322144 0.23032605648040771 0.27221542596817017
0.85613763332366943 0.25065663456916809 0.27573570609092712
0.87209618091583252 0.28155273199081421 0.28488302230834961
0.042477864772081375 0.17131349444389343 0.23253224790096283
0.22606351971626282 0.18749904632568359 0.23259289562702179
0.66038990020751953 0.27136078476905823 0.26148012280464172
0.81002366542816162 0.35184147953987122 0.31171613931655884
0.9050295352935791 0.43298178911209106 0.35355627536773682
0.91354191303253174 0.48339709639549255 0.40098345279693604
0.91610729694366455 0.51779580116271973 0.43965736031532288
0.086702428758144379 0.49452278017997742 0.31714069843292236
0.32995438575744629 0.51740902662277222 0.25965490937232971
0.74372690916061401 0.55288422107696533 0.22577078640460968
0.86872601509094238 0.57292330265045166 0.22797738015651703
0.93699783086776733 0.59227043390274048 0.2431633472442627
0.94830417633056641 0.60386461019515991 0.25066095590591431
0.94747096300125122 0.61720526218414307 0.2707030177116394
0.10459201037883759 0.63140565156936646 0.26920366287231445
0.42056059837341309 0.66376477479934692 0.2475428432226181
0.77160847187042236 0.71498924493789673 0.17693500220775604
0.89368802309036255 0.7001691460609436 0.20259304344654083
0.94107365608215332 0.69010573625564575 0.21639181673526764
0.94901961088180542 0.70126861333847046 0.23526670038700104
0.94901961088180542 0.71267104148864746 0.25359529256820679
0.10515120625495911 0.81417000293731689 0.16106927394866943
0.4886925220489502 0.81910306215286255 0.14918887615203857
0.79271209239959717 0.82906103134155273 0.14156974852085114
0.89534914493560791 0.82711213827133179 0.16761119663715363
0.94636571407318115 0.80323100090026855 0.19985450804233551
0.94902008771896362 0.80760663747787476 0.20684859156608582
0.951119065284729 0.81236499547958374 0.22400300204753876
0.13375520706176758 0.88200420141220093 0.18169863522052765
0.57797908782958984 0.91419261693954468 0.15500925481319427
0.81571692228317261 0.91617131233215332 0.14622123539447784
0.90748536586761475 0.90600216388702393 0.15180850028991699
0.94728738069534302 0.88900905847549438 0.16592516005039215
0.9529411792755127 0.8848302960395813 0.16767914593219757
0.9529411792755127 0.88206499814987183 0.17219275236129761
0.18043310940265656 0.88962948322296143 0.24182702600955963
0.64787185192108154 0.9262126088142395 0.16935127973556519
0.82722610235214233 0.92141783237457275 0.15167349576950073
0.91056877374649048 0.90955346822738647 0.14996081590652466
0.95126515626907349 0.88899028301239014 0.16257175803184509
0.9529411792755127 0.88963466882705688 0.17085149884223938
0.9529411792755127 0.88796001672744751 0.16196481883525848
0.048770755529403687 0.15460294485092163 0.35953414440155029
0.15087069571018219 0.13902844488620758 0.31230440735816956
0.63548356294631958 0.18998655676841736 0.26660013198852539
0.78235930204391479 0.23916563391685486 0.28135442733764648
0.88831096887588501 0.2995506227016449 0.30517694354057312
0.90101271867752075 0.34267774224281311 0.36131742596626282
0.89755851030349731 0.40521109104156494 0.45497635006904602
0.057688664644956589 0.23955148458480835 0.40555036067962646
0.21222579479217529 0.26059606671333313 0.4178052544593811
0.69969868659973145 0.37589597702026367 0.40242931246757507
0.82908517122268677 0.45441693067550659 0.47250565886497498
0.8997495174407959 0.5268549919128418 0.53828197717666626
0.9059065580368042 0.56301653385162354 0.57761168479919434
0.9064328670501709 0.57916718721389771 0.60148447751998901
0.11003681272268295 0.53678208589553833 0.57890337705612183
0.26389148831367493 0.58854573965072632 0.57114297151565552
0.70345878601074219 0.61336672306060791 0.5238831639289856
0.84232980012893677 0.63841873407363892 0.52605170011520386
0.92613929510116577 0.65292525291442871 0.53434693813323975
0.93626558780670166 0.6632380485534668 0.55106407403945923
0.93572676181793213 0.67048704624176025 0.5584787130355835
0.15786838531494141 0.76411086320877075 0.66710597276687622
0.31865856051445007 0.72253799438476562 0.56725269556045532
0.74261140823364258 0.73754054307937622 0.48397320508956909
0.87096351385116577 0.73558318614959717 0.43738815188407898
0.9398505687713623 0.72125422954559326 0.46134448051452637
0.94898515939712524 0.73072338104248047 0.49469804763793945
0.9487004280090332 0.74002605676651001 0.51332718133926392
0.16595134139060974 0.92282617092132568 0.56258928775787354
0.33566510677337646 0.84877723455429077 0.45821717381477356
0.76489853858947754 0.84787279367446899 0.44479748606681824
0.88499277830123901 0.84371626377105713 0.35449153184890747
0.94694817066192627 0.81945228576660156 0.41432365775108337
0.9498181939125061 0.82425582408905029 0.44679233431816101
0.95043289661407471 0.82605040073394775 0.44876080751419067
0.18133334815502167 0.96503466367721558 0.52526283264160156
0.43617406487464905 0.95331215858459473 0.36546686291694641
0.78812050819396973 0.93645459413528442 0.40414711833000183
0.89690369367599487 0.92126023769378662 0.34246096014976501
0.94847822189331055 0.9066278338432312 0.32206359505653381
0.9529411792755127 0.90673941373825073 0.3269711434841156
0.9529411792755127 0.90617024898529053 0.32617628574371338
0.20190456509590149 0.96239674091339111 0.54626786708831787
0.52229732275009155 0.9604758620262146 0.37750580906867981
0.80104035139083862 0.94127440452575684 0.40730217099189758
0.90414977073669434 0.92704278230667114 0.34104865789413452
0.94737058877944946 0.91269075870513916 0.30983173847198486
0.9529411792755127 0.91101467609405518 0.31435322761535645
0.9529411792755127 0.90986341238021851 0.31823980808258057
0.059462811797857285 0.21649152040481567 0.48333308100700378
0.15319320559501648 0.206224724650383 0.42740321159362793
0.68759411573410034 0.24841691553592682 0.32175686955451965
0.8247254490852356 0.32519164681434631 0.39930766820907593
0.88753360509872437 0.40900334715843201 0.50107616186141968
0.89478224515914917 0.44432857632637024 0.56171298027038574
0.89441347122192383 0.46752527356147766 0.60144412517547607
0.068479113280773163 0.2922312319278717 0.52371490001678467
0.2152017205953598 0.34063929319381714 0.5592796802520752
0.71377444267272949 0.40843650698661804 0.5047527551651001
0.83951830863952637 0.48159205913543701 0.5701897144317627
0.89623332023620605 0.55427908897399902 0.63146358728408813
0.90466153621673584 0.57235461473464966 0.6536785364151001
0.90791153907775879 0.58877384662628174 0.66769605875015259
0.11882844567298889 0.56201297044754028 0.67851030826568604
0.26507171988487244 0.61108756065368652 0.67978614568710327
0.70060920715332031 0.63974320888519287 0.64197069406509399
0.83454233407974243 0.66391253471374512 0.64102810621261597
0.91241806745529175 0.68565213680267334 0.65460669994354248
0.92507970333099365 0.69270402193069458 0.66373997926712036
0.92583960294723511 0.70208531618118286 0.67173606157302856
0.16035731136798859 0.75255870819091797 0.74733239412307739
0.27415674924850464 0.76111674308776855 0.71169161796569824
0.72853934764862061 0.75168770551681519 0.64044684171676636
0.85693120956420898 0.75450223684310913 0.61350458860397339
0.93584036827087402 0.75331604480743408 0.6274031400680542
0.94299280643463135 0.76214444637298584 0.64113026857376099
0.94601446390151978 0.7693411111831665 0.64953291416168213
0.1886294037103653 0.91489660739898682 0.77214306592941284
0.30045238137245178 0.88864618539810181 0.66721999645233154
0.74381417036056519 0.86226075887680054 0.59465152025222778
0.88000404834747314 0.84918874502182007 0.56079357862472534
0.94482159614562988 0.83469122648239136 0.58360505104064941
0.94903826713562012 0.84099304676055908 0.5991746187210083
0.94905024766921997 0.84574633836746216 0.60153943300247192
0.21110773086547852 0.97855079174041748 0.75107294321060181
0.3930722177028656 0.97405385971069336 0.5527535080909729
0.76707899570465088 0.94967013597488403 0.54186755418777466
0.88960134983062744 0.93138718605041504 0.52066504955291748
0.94463646411895752 0.91773462295532227 0.50913083553314209
0.9529411792755127 0.92043334245681763 0.51430445909500122
0.9529411792755127 0.91772228479385376 0.51706480979919434
0.22855097055435181 0.98025047779083252 0.7477419376373291
0.45868951082229614 0.97270762920379639 0.54082173109054565
0.78320711851119995 0.9568905234336853 0.54109716415405273
0.89915144443511963 0.93733566999435425 0.52397364377975464
0.94946962594985962 0.92620253562927246 0.5012626051902771
0.9529411792755127 0.92604166269302368 0.50148594379425049
0.9529411792755127 0.92604166269302368 0.49638986587524414
0.070885241031646729 0.28501772880554199 0.59281212091445923
0.15101149678230286 0.27615603804588318 0.53846549987792969
0.6784207820892334 0.32399868965148926 0.47650933265686035
0.82968729734420776 0.38042593002319336 0.53946363925933838
0.89110702276229858 0.44831803441047668 0.62195879220962524
0.89795750379562378 0.46332466602325439 0.65807449817657471
0.90673786401748657 0.47229704260826111 0.68906068801879883
0.084929294884204865 0.37262308597564697 0.63522851467132568
0.21512272953987122 0.41471591591835022 0.67122071981430054
0.7346988320350647 0.43894016742706299 0.65032011270523071
0.86122769117355347 0.48275122046470642 0.6549341082572937
0.9069141149520874 0.55450379848480225 0.70150792598724365
0.91480726003646851 0.57365566492080688 0.72153609991073608
0.92050725221633911 0.58748757839202881 0.74160802364349365
0.1275903582572937 0.59352833032608032 0.75086253881454468
0.25333228707313538 0.6377444863319397 0.75578218698501587
0.69938719272613525 0.65018129348754883 0.73313242197036743
0.83617782592773438 0.66591066122055054 0.71115553379058838
0.90608757734298706 0.69415962696075439 0.72215026617050171
0.91965210437774658 0.70843678712844849 0.73271143436431885
0.92129236459732056 0.71615159511566162 0.74006778001785278
0.1596902459859848 0.73354744911193848 0.80501085519790649
0.27751931548118591 0.75563430786132812 0.77992802858352661
0.70343756675720215 0.76725107431411743 0.74224328994750977
0.84703046083450317 0.76666605472564697 0.71359419822692871
0.9255487322807312 0.77234774827957153 0.71932351589202881
0.93841612339019775 0.78375685214996338 0.7336878776550293
0.94106286764144897 0.79063159227371216 0.73527532815933228
0.18364183604717255 0.87436211109161377 0.84327596426010132
0.2764681875705719 0.89318990707397461 0.79049813747406006
0.6916845440864563 0.88339442014694214 0.69691640138626099
0.87337589263916016 0.86130958795547485 0.67509168386459351
0.94396603107452393 0.85027247667312622 0.68853545188903809
0.94878154993057251 0.85643011331558228 0.69788402318954468
0.94901961088180542 0.85833168029785156 0.69938045740127563
0.21318040788173676 0.94804245233535767 0.86058461666107178
0.3299027681350708 0.97971779108047485 0.74487447738647461
0.72467941045761108 0.97111958265304565 0.61579197645187378
0.88380736112594604 0.94129866361618042 0.63822829723358154
0.94787240028381348 0.92975080013275146 0.63367873430252075
0.9529411792755127 0.92962837219238281 0.6330447793006897
0.9529411792755127 0.92934376001358032 0.63233089447021484
0.2280334085226059 0.95768636465072632 0.8591504693031311
0.36215698719024658 0.98360013961791992 0.71783673763275146
0.74148058891296387 0.9722474217414856 0.61535918712615967
0.89144933223724365 0.94685494899749756 0.6300356388092041
0.95071607828140259 0.93685060739517212 0.62301957607269287
0.9529411792755127 0.93895518779754639 0.6234663724899292
0.9529411792755127 0.93764901161193848 0.61822247505187988
0.086000286042690277 0.35820811986923218 0.68710589408874512
0.15942707657814026 0.35261642932891846 0.65845572948455811
0.68432307243347168 0.35328343510627747 0.6144290566444397
0.84187573194503784 0.3947964608669281 0.62624317407608032
0.89301025867462158 0.44607675075531006 0.67076957225799561
0.90323108434677124 0.4676947295665741 0.69188487529754639
0.90914332866668701 0.47638562321662903 0.70119726657867432
0.098594143986701965 0.43817144632339478 0.71936380863189697
0.23222087323665619 0.4778934121131897 0.75829249620437622
0.74505186080932617 0.46676701307296753 0.77423757314682007
0.88517463207244873 0.49619415402412415 0.74743175506591797
0.9193960428237915 0.56424820423126221 0.7561337947845459
0.92461341619491577 0.58501893281936646 0.76206696033477783
0.92536765336990356 0.58284986019134521 0.76389575004577637
0.13784904778003693 0.62636452913284302 0.80797839164733887
0.25472936034202576 0.66125166416168213 0.80792516469955444
0.69338870048522949 0.66726338863372803 0.81143665313720703
0.85127407312393188 0.65987932682037354 0.77983981370925903
0.91050159931182861 0.6869475245475769 0.76533818244934082
0.92168843746185303 0.70319670438766479 0.77384793758392334
0.92541855573654175 0.70674371719360352 0.78707414865493774
0.16267311573028564 0.73972845077514648 0.85681706666946411
0.27435734868049622 0.75891810655593872 0.83400595188140869
0.68808543682098389 0.77408963441848755 0.81506925821304321
0.84394675493240356 0.77150511741638184 0.78439223766326904
0.92178499698638916 0.78548544645309448 0.78892207145690918
0.93241316080093384 0.79720383882522583 0.79949456453323364
0.93495142459869385 0.80239748954772949 0.80475103855133057
0.18321549892425537 0.84201747179031372 0.88668537139892578
0.28743752837181091 0.873119056224823 0.86239200830459595
0.65762698650360107 0.8917468786239624 0.80351048707962036
0.8626410961151123 0.87070482969284058 0.75712078809738159
0.94428259134292603 0.86397463083267212 0.76225358247756958
0.94901961088180542 0.86851596832275391 0.76713234186172485
0.94919854402542114 0.87182456254959106 0.76912057399749756
0.20586150884628296 0.90463888645172119 0.90833103656768799
0.29991203546524048 0.96490973234176636 0.86844062805175781
0.65810811519622803 0.97939878702163696 0.71641236543655396
0.87605148553848267 0.94813978672027588 0.71474772691726685
0.94605004787445068 0.93820106983184814 0.72195017337799072
0.94901961088180542 0.93788129091262817 0.7220873236656189
0.94946324825286865 0.93892502784729004 0.72142302989959717
0.21966032683849335 0.91385960578918457 0.9076998233795166
0.31444793939590454 0.97043359279632568 0.86400216817855835
0.67595773935317993 0.98390853404998779 0.70647859573364258
0.88535982370376587 0.95355403423309326 0.70607197284698486
0.94888877868652344 0.94509804248809814 0.71261072158813477
0.94901961088180542 0.94806927442550659 0.71425271034240723
0.94901961088180542 0.94822597503662109 0.71455901861190796
