assets/lut/shamoonabbasi morroco 16.cube
# Created by: G'MIC (https://gmic.eu)
TITLE "morroco_16"
# LUT size
LUT_3D_SIZE 13
# Data domain
DOMAIN_MIN 0.0 0.0 0.0
DOMAIN_MAX 1.0 1.0 1.0
# LUT data points
0.0021590439137071371 0.0024324753321707249 0.0072814789600670338
0.020160196349024773 0.00015617819735780358 0.0055352901108562946
0.054795809090137482 2.8004365958622657e-05 0.0031664380803704262
0.1009342148900032 0 0.0010620566317811608
0.15358102321624756 0 0.00018687528790906072
0.20903187990188599 0.00022385541524272412 0.00012619915651157498
0.26786831021308899 0.0027833825442939997 0.0012351840268820524
0.33668673038482666 0.0041593066416680813 0.0027645484078675508
0.42146685719490051 0.00027717140619643033 0.0003408394695725292
0.51941037178039551 0 0
0.62754887342453003 0 0
0.74344390630722046 0 0
0.86479270458221436 0 0
0.00073782226536422968 0.022626494988799095 0.0038220274727791548
0.016642402857542038 0.018586834892630577 0.0033805100247263908
0.052818045020103455 0.017335016280412674 0.0026059020310640335
0.10209500044584274 0.015428700484335423 0.0023641400039196014
0.15702494978904724 0.012563369236886501 0.0030320559162646532
0.21449252963066101 0.013406102545559406 0.004855182021856308
0.27497786283493042 0.018144195899367332 0.0078163594007492065
0.34504202008247375 0.016716631129384041 0.0089073479175567627
0.42938411235809326 0.0064128055237233639 0.0049318200908601284
0.52653604745864868 0.00043545890366658568 0.00020680147281382233
0.63443285226821899 0 0
0.75029230117797852 8.9682784164324403e-05 0
0.87169378995895386 0.0011985180899500847 0
0.0010215609800070524 0.056989230215549469 0.0012018840061500669
0.016101537272334099 0.058236889541149139 0.0004566267307382077
0.053067628294229507 0.057626418769359589 0.0015206729294732213
0.10341958701610565 0.055768195539712906 0.0025427276268601418
0.16059005260467529 0.053323812782764435 0.0048534017987549305
0.21861876547336578 0.052233513444662094 0.0076617971062660217
0.28112432360649109 0.052188362926244736 0.010079073719680309
0.35370123386383057 0.046991772949695587 0.0091941086575388908
0.43860140442848206 0.034659937024116516 0.0055076000280678272
0.53536325693130493 0.021440992131829262 0.00054367666598409414
0.64263242483139038 0.016819972544908524 0
0.75800096988677979 0.018446514382958412 0
0.87912130355834961 0.024104144424200058 0
0.0031978681217879057 0.099149413406848907 0.0017589643830433488
0.02002481184899807 0.10415594279766083 0.00049380131531506777
0.055652320384979248 0.10642126947641373 0.00088129978394135833
0.10488533973693848 0.10709747672080994 0.0022391525562852621
0.16066177189350128 0.10624992847442627 0.0032467562705278397
0.22026543319225311 0.10442726314067841 0.0054780850186944008
0.28539746999740601 0.10228512436151505 0.0068423100747168064
0.36003214120864868 0.095809072256088257 0.0045431549660861492
0.44641155004501343 0.084351241588592529 0.00072408939013257623
0.54364305734634399 0.072289332747459412 0
0.6501927375793457 0.064035512506961823 0
0.76513451337814331 0.061711136251688004 0
0.88599830865859985 0.064872995018959045 0
0.0052446853369474411 0.14943820238113403 0.0036311428993940353
0.025115398690104485 0.15447025001049042 0.0018725077388808131
0.059173271059989929 0.15884773433208466 0.0018174564465880394
0.10611678659915924 0.16175077855587006 0.002243236405774951
0.16071058809757233 0.16259521245956421 0.0018832486821338534
0.2220587432384491 0.16168899834156036 0.0019439846510067582
0.28867533802986145 0.15994127094745636 0.0019808001816272736
0.36486077308654785 0.15405777096748352 0.0006945441709831357
0.45203366875648499 0.14481502771377563 0
0.54930555820465088 0.13353724777698517 0
0.65603131055831909 0.12330877035856247 0
0.77117353677749634 0.11789210885763168 0
0.89245486259460449 0.1177993044257164 0
0.0060026133432984352 0.20609213411808014 0.0050863679498434067
0.027699563652276993 0.21044965088367462 0.0034473345149308443
0.060953043401241302 0.21538259088993073 0.00234959926456213
0.10580933839082718 0.2190859466791153 0.0022128983400762081
0.16053009033203125 0.22127747535705566 0.00080692069604992867
0.22215251624584198 0.22209228575229645 0.00036944221938028932
0.29074224829673767 0.22099356353282928 0.00016246121958829463
0.36768034100532532 0.21719194948673248 6.283030870690709e-06
0.45476317405700684 0.21001748740673065 0
0.55242437124252319 0.2003820538520813 0
0.66006934642791748 0.19020722806453705 0
0.77618926763534546 0.18249136209487915 0
0.89860981702804565 0.18008437752723694 0
0.0055477367714047432 0.26899421215057373 0.0059267678298056126
0.027298182249069214 0.27275940775871277 0.0045992834493517876
0.059264719486236572 0.27750846743583679 0.004161834716796875
0.10244330763816833 0.28161066770553589 0.0026581708807498217
0.15595452487468719 0.28474888205528259 0.0014230167726054788
0.21822334825992584 0.28691557049751282 0.00032582003041170537
0.28810504078865051 0.28754249215126038 0
0.3664093017578125 0.28593930602073669 0
0.45458441972732544 0.28136828541755676 0
0.55313563346862793 0.27376168966293335 0
0.66255265474319458 0.26442000269889832 0
0.78012961149215698 0.25584724545478821 6.1753220506943762e-05
0.90432238578796387 0.25124678015708923 0.00041315416456200182
0.0040719872340559959 0.33850321173667908 0.0057925805449485779
0.024187499657273293 0.34228065609931946 0.0047056609764695168
0.054235763847827911 0.34693440794944763 0.0045955884270370007
0.095031976699829102 0.35151204466819763 0.0044143078848719597
0.14699544012546539 0.35542404651641846 0.0031609178986400366
0.20946905016899109 0.35918885469436646 0.0013937557814642787
0.2808462381362915 0.36209428310394287 0.00023642147425562143
0.36174041032791138 0.3630092442035675 0
0.45202019810676575 0.36088854074478149 0
0.55191856622695923 0.35557535290718079 0
0.66321194171905518 0.34719797968864441 0
0.78290790319442749 0.33778715133666992 0.00055069266818463802
0.9099278450012207 0.33239758014678955 0.0029447965789586306
0.0021305757109075785 0.41552275419235229 0.0046003903262317181
0.019256306812167168 0.42004561424255371 0.0035473094321787357
0.04650941863656044 0.4254208505153656 0.0035473094321787357
0.084572777152061462 0.43070650100708008 0.0041412352584302425
0.13471399247646332 0.4357660710811615 0.0044321548193693161
0.19692873954772949 0.44135400652885437 0.0021927626803517342
0.2706301212310791 0.44651398062705994 0.00032797420863062143
0.35466912388801575 0.44949483871459961 0
0.44762459397315979 0.44961601495742798 0
0.54960638284683228 0.44650101661682129 0
0.66228985786437988 0.43924006819725037 0
0.78532284498214722 0.4295450747013092 0.00060821231454610825
0.91464835405349731 0.42314794659614563 0.0044922772794961929
0.0006465687183663249 0.50041025876998901 0.0024711159057915211
0.012985858134925365 0.50624257326126099 0.0010898665059357882
0.03698914498090744 0.5134778618812561 0.00092869176296517253
0.071975693106651306 0.52089810371398926 0.0012384901056066155
0.12006550282239914 0.52805376052856445 0.0016992008313536644
0.18210709095001221 0.53539955615997314 0.0010280384449288249
0.25751042366027832 0.54191762208938599 8.903952402761206e-05
0.34459012746810913 0.54629415273666382 0
0.44127923250198364 0.54786831140518188 0
0.54631376266479492 0.54627323150634766 0
0.66121667623519897 0.54074150323867798 0
0.78663641214370728 0.53256821632385254 2.6702880859375e-05
0.91765719652175903 0.52723902463912964 0.0011566760949790478
0.00017269358795601875 0.59341078996658325 0.00068839575396850705
0.0075248568318784237 0.6007544994354248 1.7951516610992257e-06
0.027624571695923805 0.61065733432769775 0
0.059319797903299332 0.62081342935562134 0
0.1051189973950386 0.63070535659790039 0
0.16603462398052216 0.63996630907058716 0
0.24191208183765411 0.64793407917022705 0
0.33160459995269775 0.65342181921005249 0
0.43206799030303955 0.65596491098403931 0
0.54121357202529907 0.65549582242965698 0
0.65925115346908569 0.65175098180770874 0
0.78590458631515503 0.64604294300079346 0
0.91844671964645386 0.64243263006210327 0
0.00014935662329662591 0.69258493185043335 5.6008731917245314e-05
0.0046058506704866886 0.70285964012145996 0
0.020798956975340843 0.71547114849090576 0
0.049226213246583939 0.7286069393157959 0
0.092644169926643372 0.74105381965637207 0
0.15165397524833679 0.75240576267242432 0
0.22624273598194122 0.7621418833732605 0
0.31565165519714355 0.76925712823867798 0
0.41940456628799438 0.77272748947143555 0
0.5328173041343689 0.77308577299118042 0
0.65458565950393677 0.77118700742721558 0
0.78367328643798828 0.76764446496963501 0
0.91770482063293457 0.76557278633117676 0
0.00053616694640368223 0.79901123046875 0
0.0048526986502110958 0.81144410371780396 0
0.01899026520550251 0.82628887891769409 0
0.045820556581020355 0.84150773286819458 0
0.086813904345035553 0.85617572069168091 0
0.1437249481678009 0.86935210227966309 0
0.21612353622913361 0.88119953870773315 0.00014702291809953749
0.30434191226959229 0.89020293951034546 0.0013037588214501739
0.40961849689483643 0.89486587047576904 0.00031135408789850771
0.52591514587402344 0.89649432897567749 0
0.65017646551132202 0.89598262310028076 0
0.78039908409118652 0.89434748888015747 0
0.91485947370529175 0.89351850748062134 0
0.0016289056511595845 0.0012275096960365772 0.02996927872300148
0.019593497738242149 0.00073098577558994293 0.027201319113373756
0.05351918563246727 0.0011027466971427202 0.023334428668022156
0.098977304995059967 0.0016697004903107882 0.017434408888220787
0.15107852220535278 0.0017665489576756954 0.010339983738958836
0.20685318112373352 0.0031539318151772022 0.0054429746232926846
0.26734653115272522 0.0063513959757983685 0.0061529572121798992
0.33726584911346436 0.0066861170344054699 0.0055079590529203415
0.42040523886680603 0.0021331638563424349 0.0010898514883592725
0.51655828952789307 1.7772001228877343e-05 0
0.62384319305419922 0 0
0.73989063501358032 0 0
0.86169862747192383 0 0
0.00095460179727524519 0.021454591304063797 0.023970181122422218
0.017706897109746933 0.020476995036005974 0.023693772032856941
0.054065436124801636 0.021083442494273186 0.02384643629193306
0.10294241458177567 0.020734958350658417 0.022500684484839439
0.15713141858577728 0.019861513748764992 0.019791606813669205
0.21406576037406921 0.020758146420121193 0.017759136855602264
0.27560734748840332 0.023102479055523872 0.017285559326410294
0.34626707434654236 0.020939202979207039 0.015605343505740166
0.42961415648460388 0.013073431327939034 0.0090193655341863632
0.52557152509689331 0.0044274274259805679 0.0016545613761991262
0.63300299644470215 0.0013581070816144347 1.8101112800650299e-05
0.74910318851470947 0.0009831148199737072 0
0.87084859609603882 0.0019384346669539809 0
0.001614679116755724 0.058312628418207169 0.017026474699378014
0.016912661492824554 0.060628343373537064 0.017976453527808189
0.054425615817308426 0.059974312782287598 0.02192707359790802
0.10569758713245392 0.058567706495523453 0.024548742920160294
0.16127927601337433 0.057282838970422745 0.024992864578962326
0.2197825014591217 0.056614894419908524 0.024536237120628357
0.28320258855819702 0.055547304451465607 0.023488512262701988
0.35559147596359253 0.051490530371665955 0.020136065781116486
0.43974560499191284 0.04231688380241394 0.013067088089883327
0.53569877147674561 0.031604588031768799 0.0048648910596966743
0.64231544733047485 0.02450244314968586 0.00036330876173451543
0.75783747434616089 0.022458918392658234 0
0.87921053171157837 0.024894550442695618 0
0.0027329688891768456 0.10288437455892563 0.017723383381962776
0.018768595531582832 0.10759744048118591 0.017999386414885521
0.055242292582988739 0.10914921760559082 0.021145405247807503
0.10626296699047089 0.10914743691682816 0.023724289610981941
0.16295225918292999 0.10807979851961136 0.024810716509819031
0.2230333685874939 0.10690794140100479 0.02479858323931694
0.28842073678970337 0.10440311580896378 0.023295773193240166
0.36275514960289001 0.09965147078037262 0.017958981916308403
0.44824254512786865 0.091604374349117279 0.0093025211244821548
0.54441899061203003 0.080253690481185913 0.0031800363212823868
0.65057528018951416 0.069745562970638275 0.0010453617433086038
0.76544833183288574 0.064264722168445587 0.00014892278704792261
0.88664817810058594 0.064500577747821808 0
0.0032856960315257311 0.15228353440761566 0.022521238774061203
0.022294303402304649 0.15794101357460022 0.021557077765464783
0.057571828365325928 0.16226485371589661 0.022032463923096657
0.10629232227802277 0.16447912156581879 0.02238750085234642
0.16297343373298645 0.16458334028720856 0.022048516198992729
0.22450174391269684 0.16454985737800598 0.021059148013591766
0.29163238406181335 0.16194389760494232 0.019364256411790848
0.36740460991859436 0.15777914226055145 0.01433193776756525
0.45380702614784241 0.15081959962844849 0.0067059085704386234
0.55037742853164673 0.14008599519729614 0.0029414906166493893
0.65669077634811401 0.12778979539871216 0.0024348539300262928
0.77167648077011108 0.11921856552362442 0.001734310993924737
0.89323490858078003 0.11752528697252274 0.0011238098377361894
0.004401741549372673 0.20785345137119293 0.025234118103981018
0.024908088147640228 0.21317189931869507 0.024202624335885048
0.058106996119022369 0.21856904029846191 0.023638572543859482
0.10500114411115646 0.22243903577327728 0.022161521017551422
0.16104622185230255 0.22437293827533722 0.019858237355947495
0.22410963475704193 0.22484859824180603 0.017000520601868629
0.29246634244918823 0.22394326329231262 0.015193520113825798
0.36914739012718201 0.22068338096141815 0.012448269873857498
0.4560210108757019 0.2148294597864151 0.0080475006252527237
0.55315732955932617 0.20534910261631012 0.0055891596712172031
0.6604195237159729 0.19396814703941345 0.005390586331486702
0.77659451961517334 0.18443779647350311 0.0059199463576078415
0.89954185485839844 0.17989729344844818 0.0061848210170865059
0.0038600997067987919 0.26942652463912964 0.025757180526852608
0.024538211524486542 0.27477237582206726 0.024576134979724884
0.056777056306600571 0.28046366572380066 0.024505615234375
0.10084541141986847 0.2851921021938324 0.022944940254092216
0.15561340749263763 0.28857436776161194 0.020143141970038414
0.21918085217475891 0.29056230187416077 0.016701942309737206
0.2894713282585144 0.29109618067741394 0.014432540163397789
0.36795854568481445 0.28960782289505005 0.012507674284279346
0.45556613802909851 0.28544548153877258 0.0096398144960403442
0.55369454622268677 0.27836844325065613 0.0082506369799375534
0.66278964281082153 0.2684873640537262 0.0087664136663079262
0.78056579828262329 0.25856733322143555 0.011429416015744209
0.90557008981704712 0.25246807932853699 0.014197750017046928
0.0022237291559576988 0.33840793371200562 0.023841064423322678
0.02094624750316143 0.34366527199745178 0.023364018648862839
0.051013574004173279 0.34991317987442017 0.023558298125863075
0.092485181987285614 0.35534974932670593 0.023458758369088173
0.14551568031311035 0.35990646481513977 0.021558469161391258
0.20918960869312286 0.36336204409599304 0.018934361636638641
0.28196814656257629 0.36588674783706665 0.015573075041174889
0.36337873339653015 0.36652377247810364 0.012310866266489029
0.45334005355834961 0.36488112807273865 0.0094984313473105431
0.55232536792755127 0.36043968796730042 0.0083412621170282364
0.6632159948348999 0.35213193297386169 0.0098720323294401169
0.78358769416809082 0.34188249707221985 0.014994886703789234
0.91131389141082764 0.33489713072776794 0.020198073238134384
0.00064754113554954529 0.41534909605979919 0.019809408113360405
0.014852067455649376 0.42125204205513 0.018673870712518692
0.041877582669258118 0.42825257778167725 0.019020814448595047
0.080338843166828156 0.4349530041217804 0.020083708688616753
0.13172745704650879 0.44077587127685547 0.020270254462957382
0.19586445391178131 0.44618356227874756 0.018586371093988419
0.2713436484336853 0.45044973492622375 0.014778615906834602
0.3566625714302063 0.45291060209274292 0.01023571565747261
0.44973966479301453 0.45364278554916382 0.007017187774181366
0.55070853233337402 0.45179483294487 0.0058312509208917618
0.66259562969207764 0.44535163044929504 0.0073637720197439194
0.7865065336227417 0.43503740429878235 0.013711472973227501
0.91678422689437866 0.42751327157020569 0.020650647580623627
1.6156365063579869e-06 0.50048601627349854 0.013780302368104458
0.0074599920772016048 0.50800400972366333 0.01147022657096386
0.030309863388538361 0.51681017875671387 0.011173607781529427
0.065507091581821442 0.5255582332611084 0.012156168930232525
0.11506740748882294 0.53330028057098389 0.013845660723745823
0.17968244850635529 0.54015082120895386 0.01357370987534523
0.25809773802757263 0.54574704170227051 0.010829821228981018
0.34815147519111633 0.54948645830154419 0.0065474417060613632
0.44583818316459656 0.55155497789382935 0.0038723365869373083
0.54958850145339966 0.55131137371063232 0.0032314076088368893
0.66359156370162964 0.54673647880554199 0.0043961317278444767
0.78912830352783203 0.53851556777954102 0.00809504184871912
0.92078089714050293 0.5318945050239563 0.014193247072398663
0 0.59410327672958374 0.006887353491038084
0.0017420899821445346 0.60366725921630859 0.0030165130738168955
0.017977502197027206 0.61489611864089966 0.0018561867764219642
0.049630917608737946 0.62630826234817505 0.0022410822566598654
0.097228690981864929 0.63644325733184814 0.0040944116190075874
0.16201020777225494 0.64502322673797607 0.0063010570593178272
0.24198402464389801 0.65193313360214233 0.0064573101699352264
0.33589616417884827 0.65658044815063477 0.0040111914277076721
0.43830576539039612 0.65961617231369019 0.0021989112719893456
0.54563087224960327 0.66073012351989746 0.002192328916862607
0.66231799125671387 0.65792816877365112 0.0023981132544577122
0.78947746753692627 0.65210580825805664 0.0029886283446103334
0.92246842384338379 0.64709842205047607 0.0053203958086669445
0 0.69500541687011719 0.0016646441072225571
9.1881847765762359e-05 0.70686644315719604 2.5341558284708299e-05
0.008329339325428009 0.72091597318649292 0
0.035971280187368393 0.73502832651138306 0
0.081343859434127808 0.74748039245605469 9.5771341875661165e-05
0.14468556642532349 0.75818771123886108 0.0015627692919224501
0.22449301183223724 0.76673007011413574 0.0044607575982809067
0.31901010870933533 0.77314817905426025 0.0052743051201105118
0.42414826154708862 0.77736783027648926 0.0037281708791851997
0.53629064559936523 0.77954918146133423 0.0028477837331593037
0.65678280591964722 0.77874523401260376 0.0021400302648544312
0.78604388236999512 0.77491658926010132 0.0013048658147454262
0.92076832056045532 0.77102190256118774 0.0021315780468285084
0 0.80261963605880737 8.3818624261766672e-05
1.0531556654314045e-05 0.8163568377494812 0
0.0047210841439664364 0.83268386125564575 0
0.029003830626606941 0.84891462326049805 0
0.072571292519569397 0.86346888542175293 0
0.13424067199230194 0.8760683536529541 0.00033724916283972561
0.21219787001609802 0.8866850733757019 0.0050204857252538204
0.305093914270401 0.89514195919036865 0.0098756831139326096
0.41098266839981079 0.90105694532394409 0.0094309337437152863
0.52646088600158691 0.90471106767654419 0.0067723742686212063
0.64986824989318848 0.90557456016540527 0.0045215832069516182
0.78086620569229126 0.90352463722229004 0.0033933303784579039
0.91701710224151611 0.90100997686386108 0.0047256769612431526
0.0022581811062991619 0.00020267262880224735 0.064393259584903717
0.02074299193918705 0.0005888097221031785 0.061316754668951035
0.053793333470821381 0.0025006912183016539 0.057095680385828018
0.098489709198474884 0.0044190199114382267 0.050677727907896042
0.15078993141651154 0.0034495634026825428 0.042285904288291931
0.20744061470031738 0.0037502064369618893 0.034410186111927032
0.26974540948867798 0.0045987446792423725 0.030598495155572891
0.34036904573440552 0.0047462764196097851 0.025550872087478638
0.42224037647247314 0.0029643189627677202 0.015474940650165081
0.51584720611572266 0.00037702673580497503 0.0067554847337305546
0.62125569581985474 0 0.0022344102617353201
0.73729187250137329 0 0.00010561475210124627
0.8599550724029541 0 0
0.0022481281775981188 0.017698744311928749 0.059928476810455322
0.021186918020248413 0.019372498616576195 0.059932976961135864
0.057127319276332855 0.021869644522666931 0.05983053520321846
0.1053803414106369 0.022402474656701088 0.05772075429558754
0.15860255062580109 0.021926656365394592 0.053165975958108902
0.21601922810077667 0.021769758313894272 0.048103887587785721
0.27881625294685364 0.021894762292504311 0.044115491211414337
0.35019871592521667 0.019638825207948685 0.038671828806400299
0.4325166642665863 0.014873100444674492 0.029898041859269142
0.52657270431518555 0.009194767102599144 0.019202243536710739
0.63232934474945068 0.0045485254377126694 0.0087505113333463669
0.74869042634963989 0.0027835620567202568 0.0018280178774148226
0.8714137077331543 0.0033728207927197218 6.4475862018298358e-05
0.0026780820917338133 0.056113552302122116 0.054298881441354752
0.021217480301856995 0.058211635798215866 0.057053212076425552
0.058628890663385391 0.058959465473890305 0.060408156365156174
0.10938674211502075 0.05858217179775238 0.061663370579481125
0.16424286365509033 0.058051194995641708 0.059735391288995743
0.22281825542449951 0.056909240782260895 0.056734751909971237
0.28698492050170898 0.054744765162467957 0.052755005657672882
0.35955622792243958 0.051009159535169601 0.046479318290948868
0.44297844171524048 0.044343013316392899 0.037851534783840179
0.53754544258117676 0.036472935229539871 0.027886005118489265
0.64334321022033691 0.02927328459918499 0.017276344820857048
0.75871270895004272 0.025537662208080292 0.0076198205351829529
0.88029336929321289 0.026233373209834099 0.0023869832511991262
0.0026510499883443117 0.10269797593355179 0.053784582763910294
0.02068462036550045 0.10702348500490189 0.056500006467103958
0.057475488632917404 0.10870537906885147 0.059480089694261551
0.1089492067694664 0.10878162831068039 0.061368577182292938
0.16568388044834137 0.10797066986560822 0.060831420123577118
0.22644199430942535 0.1067945584654808 0.058343295007944107
0.29223424196243286 0.10380594432353973 0.054989594966173172
0.36646226048469543 0.099284395575523376 0.04800809919834137
0.45114311575889587 0.092564105987548828 0.038491778075695038
0.54626798629760742 0.08306615799665451 0.030158324167132378
0.65176868438720703 0.072704300284385681 0.023549862205982208
0.76644384860992432 0.065836966037750244 0.016543714329600334
0.88779300451278687 0.064392447471618652 0.010715395212173462
0.0022819370497018099 0.15372228622436523 0.056192629039287567
0.021955423057079315 0.1594310849905014 0.057375289499759674
0.058252297341823578 0.16366273164749146 0.058601036667823792
0.10766065865755081 0.16471371054649353 0.05909130722284317
0.16488645970821381 0.16534486413002014 0.058434206992387772
0.2270330935716629 0.16477979719638824 0.056726418435573578
0.29466751217842102 0.16224236786365509 0.053533993661403656
0.3706500232219696 0.15804289281368256 0.047609470784664154
0.45624804496765137 0.15173481404781342 0.039119239896535873
0.55220097303390503 0.1420494019985199 0.032520562410354614
0.65803432464599609 0.12994052469730377 0.029193833470344543
0.77292406558990479 0.12058769911527634 0.025962844491004944
0.89467388391494751 0.11752451211214066 0.022693021222949028
0.0024658951442688704 0.20909871160984039 0.057330574840307236
0.024110367521643639 0.21559795737266541 0.057361170649528503
0.058178681880235672 0.22098186612129211 0.057671133428812027
0.10567852854728699 0.22494326531887054 0.057815041393041611
0.16214703023433685 0.22724613547325134 0.056303240358829498
0.22508777678012848 0.22722657024860382 0.05425039678812027
0.29461872577667236 0.2254101037979126 0.051872432231903076
0.37197181582450867 0.22201019525527954 0.048258807510137558
0.45856389403343201 0.21661178767681122 0.042562149465084076
0.55518150329589844 0.2080848217010498 0.037852868437767029
0.66192042827606201 0.19687022268772125 0.03570207953453064
0.77812868356704712 0.18654917180538177 0.034710783511400223
0.9013906717300415 0.18070799112319946 0.034001145511865616
