assets/lut/shamoonabbasi hlg 1 1.cube
# Created by: G'MIC (https://gmic.eu)
TITLE "hlg_1_1"
# LUT size
LUT_3D_SIZE 13
# Data domain
DOMAIN_MIN 0.0 0.0 0.0
DOMAIN_MAX 1.0 1.0 1.0
# LUT data points
0.017899172380566597 0.021094392985105515 0.023069284856319427
0.034283790737390518 0.022743897512555122 0.02501322515308857
0.13436159491539001 0.043439183384180069 0.041435018181800842
0.34188207983970642 0.095159135758876801 0.087289802730083466
0.51055800914764404 0.13789856433868408 0.12437207251787186
0.61168807744979858 0.16488894820213318 0.14682561159133911
0.68788564205169678 0.18529364466667175 0.16458158195018768
0.75876998901367188 0.20398661494255066 0.18257454037666321
0.82144880294799805 0.22152189910411835 0.19918377697467804
0.84978890419006348 0.2315441370010376 0.20639817416667938
0.85367637872695923 0.2345653772354126 0.20882019400596619
0.85492622852325439 0.23785142600536346 0.21087692677974701
0.8554840087890625 0.24114055931568146 0.21355715394020081
0.019942458719015121 0.034547336399555206 0.02392883226275444
0.044349968433380127 0.040020737797021866 0.027168752625584602
0.18962028622627258 0.069808825850486755 0.053955886512994766
0.40812253952026367 0.12270689010620117 0.10226133465766907
0.5572313666343689 0.16089470684528351 0.13602393865585327
0.65131276845932007 0.18827645480632782 0.15910933911800385
0.72420257329940796 0.20973847806453705 0.17731083929538727
0.79764312505722046 0.23482842743396759 0.19720089435577393
0.85123735666275024 0.25404128432273865 0.21087273955345154
0.86098343133926392 0.26228213310241699 0.21498982608318329
0.86223906278610229 0.26466768980026245 0.21920518577098846
0.86238998174667358 0.27072340250015259 0.22185724973678589
0.86454427242279053 0.27762559056282043 0.22203527390956879
0.029610233381390572 0.099534697830677032 0.023814152926206589
0.062541410326957703 0.10893672704696655 0.025588421151041985
0.25011366605758667 0.13060377538204193 0.062562219798564911
0.48566970229148865 0.18224236369132996 0.1214003786444664
0.60555237531661987 0.21075908839702606 0.15058349072933197
0.69610869884490967 0.23927491903305054 0.17346574366092682
0.7720065712928772 0.26563948392868042 0.19171413779258728
0.83499205112457275 0.28484293818473816 0.20681083202362061
0.87366580963134766 0.30520802736282349 0.20875237882137299
0.8853604793548584 0.31790927052497864 0.20676027238368988
0.89150500297546387 0.32880136370658875 0.20158426463603973
0.90078175067901611 0.34258213639259338 0.1975625604391098
0.91142714023590088 0.35727205872535706 0.18842615187168121
0.042612757533788681 0.21347710490226746 0.026579434052109718
0.090370878577232361 0.23572339117527008 0.028820307925343513
0.35390773415565491 0.26354813575744629 0.065666362643241882
0.58105695247650146 0.27207726240158081 0.12808707356452942
0.6924288272857666 0.29476234316825867 0.1622450053691864
0.76731550693511963 0.31866687536239624 0.18219336867332458
0.83326429128646851 0.34729966521263123 0.18956699967384338
0.87967884540557861 0.36893752217292786 0.18850201368331909
0.91271740198135376 0.3911016583442688 0.17444893717765808
0.92188155651092529 0.40202996134757996 0.16467231512069702
0.92671161890029907 0.4116457998752594 0.15919710695743561
0.93130183219909668 0.42295551300048828 0.1562182605266571
0.93671935796737671 0.43313118815422058 0.15004780888557434
0.05679047480225563 0.31882971525192261 0.031773988157510757
0.14139808714389801 0.36159735918045044 0.03406892716884613
0.43459054827690125 0.41689217090606689 0.060234908014535904
0.65459871292114258 0.42659685015678406 0.09491710364818573
0.7603374719619751 0.42043343186378479 0.11643563210964203
0.82601690292358398 0.42999589443206787 0.13330648839473724
0.8780476450920105 0.43804079294204712 0.14484536647796631
0.90980017185211182 0.44425097107887268 0.14462494850158691
0.92928296327590942 0.46492740511894226 0.14208367466926575
0.93661737442016602 0.47580739855766296 0.13992670178413391
0.94044309854507446 0.48502573370933533 0.1391267329454422
0.9431731104850769 0.49186915159225464 0.1338190883398056
0.94407927989959717 0.49601972103118896 0.12919290363788605
0.079218678176403046 0.40872630476951599 0.038544956594705582
0.21734872460365295 0.46489658951759338 0.040163107216358185
0.51295381784439087 0.52397364377975464 0.06426016241312027
0.68537485599517822 0.54826110601425171 0.090392991900444031
0.77294331789016724 0.54188722372055054 0.10098277032375336
0.84016519784927368 0.53730183839797974 0.1095689982175827
0.89042788743972778 0.53358334302902222 0.11845969408750534
0.9209781289100647 0.53174597024917603 0.12406140565872192
0.93879765272140503 0.53441667556762695 0.12217851728200912
0.94117391109466553 0.54854458570480347 0.13125066459178925
0.94338858127593994 0.55880832672119141 0.13644027709960938
0.94536435604095459 0.56637173891067505 0.13267916440963745
0.94743126630783081 0.57249671220779419 0.12838368117809296
0.088114477694034576 0.50255495309829712 0.045830611139535904
0.27643242478370667 0.55747509002685547 0.044079367071390152
0.55695319175720215 0.60040032863616943 0.063115604221820831
0.70533937215805054 0.62126797437667847 0.086860328912734985
0.77526706457138062 0.6296575665473938 0.097352124750614166
0.84324735403060913 0.63094240427017212 0.10966500639915466
0.89752554893493652 0.62807583808898926 0.11816118657588959
0.92576712369918823 0.62318277359008789 0.11940310895442963
0.94220829010009766 0.61720311641693115 0.12031938135623932
0.94509720802307129 0.62575292587280273 0.12634597718715668
0.94644606113433838 0.63541865348815918 0.13269604742527008
0.94835799932479858 0.6443818211555481 0.13377934694290161
0.94901961088180542 0.65154898166656494 0.13377448916435242
0.12096645683050156 0.64274460077285767 0.048600215464830399
0.27809107303619385 0.6778026819229126 0.044327441602945328
0.57396984100341797 0.68301171064376831 0.050735488533973694
0.71993136405944824 0.68537908792495728 0.076062284409999847
0.7809981107711792 0.69695365428924561 0.088840141892433167
0.84211832284927368 0.70627164840698242 0.10134215652942657
0.90141260623931885 0.70901834964752197 0.11254170536994934
0.93020808696746826 0.70522177219390869 0.11776456981897354
0.94611501693725586 0.69855684041976929 0.12101066112518311
0.94842410087585449 0.70338141918182373 0.12446781247854233
0.94901961088180542 0.71105498075485229 0.12808540463447571
0.94901961088180542 0.71808367967605591 0.13035683333873749
0.94901961088180542 0.72382378578186035 0.13148806989192963
0.11865168809890747 0.76757431030273438 0.051697287708520889
0.28732442855834961 0.77310091257095337 0.045910406857728958
0.58414727449417114 0.76245802640914917 0.043922066688537598
0.72984933853149414 0.75213950872421265 0.06154898926615715
0.79482990503311157 0.76068484783172607 0.077591612935066223
0.8469272255897522 0.77309244871139526 0.089748471975326538
0.89952492713928223 0.7836911678314209 0.10030689835548401
0.93396639823913574 0.78181767463684082 0.10852622240781784
0.9480435848236084 0.76635557413101196 0.1146618127822876
0.94979894161224365 0.7675851583480835 0.11769889295101166
0.94988977909088135 0.77172905206680298 0.12014158815145493
0.94947689771652222 0.7773897647857666 0.12238547950983047
0.94954550266265869 0.78107231855392456 0.12335693091154099
0.13243381679058075 0.83365654945373535 0.056721944361925125
0.33067172765731812 0.83153319358825684 0.051408760249614716
0.60222744941711426 0.82706344127655029 0.047106049954891205
0.75088584423065186 0.81872028112411499 0.055226538330316544
0.81845718622207642 0.82773256301879883 0.066589891910552979
0.86518383026123047 0.83593738079071045 0.077880412340164185
0.90958911180496216 0.85075050592422485 0.085180304944515228
0.93911385536193848 0.84383320808410645 0.09672980010509491
0.94944608211517334 0.82784765958786011 0.10546904802322388
0.95292544364929199 0.82604598999023438 0.10861439257860184
0.9529411792755127 0.82857990264892578 0.11017102748155594
0.9529411792755127 0.82974040508270264 0.11071452498435974
0.9529411792755127 0.83181136846542358 0.1113378182053566
0.16947276890277863 0.84720677137374878 0.064987227320671082
0.42062234878540039 0.84834545850753784 0.058442298322916031
0.65379822254180908 0.85196465253829956 0.053950201719999313
0.77773058414459229 0.85649889707565308 0.055619437247514725
0.8355059027671814 0.86121875047683716 0.06543305516242981
0.87850111722946167 0.86763852834701538 0.075493484735488892
0.91849702596664429 0.88262158632278442 0.080074220895767212
0.94328564405441284 0.86929619312286377 0.092719584703445435
0.95146244764328003 0.85431927442550659 0.10224828124046326
0.9529411792755127 0.85180282592773438 0.10515278577804565
0.9529411792755127 0.85331863164901733 0.1063573807477951
0.9529411792755127 0.85259294509887695 0.1063438281416893
0.9529411792755127 0.85381835699081421 0.10640294849872589
0.2282995730638504 0.85533583164215088 0.071310557425022125
0.49376758933067322 0.86006736755371094 0.06468094140291214
0.69094568490982056 0.86511552333831787 0.061831247061491013
0.79292184114456177 0.867240309715271 0.062573328614234924
0.84715032577514648 0.86991626024246216 0.070387221872806549
0.88707512617111206 0.87826699018478394 0.078044131398200989
0.92355436086654663 0.88912266492843628 0.081725567579269409
0.94592005014419556 0.86884963512420654 0.094194687902927399
0.95288962125778198 0.8552061915397644 0.10265550762414932
0.9529411792755127 0.85356122255325317 0.10531647503376007
0.9529411792755127 0.85359352827072144 0.10701417922973633
0.9529411792755127 0.85340201854705811 0.10737901926040649
0.9529411792755127 0.85370570421218872 0.10697411745786667
0.29751491546630859 0.86112642288208008 0.074297048151493073
0.54225742816925049 0.86641442775726318 0.069057732820510864
0.70411229133605957 0.87043768167495728 0.065999262034893036
0.79487490653991699 0.87150841951370239 0.067342795431613922
0.85401350259780884 0.87389069795608521 0.072723805904388428
0.89357674121856689 0.88481241464614868 0.078406974673271179
0.92608249187469482 0.88784611225128174 0.084239527583122253
0.94619077444076538 0.86396855115890503 0.095848709344863892
0.9529411792755127 0.85360074043273926 0.10268507152795792
0.9529411792755127 0.85344243049621582 0.10580383241176605
0.9529411792755127 0.85415071249008179 0.10734031349420547
0.9529411792755127 0.8542020320892334 0.1074017658829689
0.9529411792755127 0.85375922918319702 0.10679967701435089
0.019195122644305229 0.023271478712558746 0.030141433700919151
0.036524888128042221 0.023580005392432213 0.029886119067668915
0.14072944223880768 0.045010928064584732 0.047184079885482788
0.3475496768951416 0.09762515127658844 0.090744778513908386
0.5165829062461853 0.13966743648052216 0.12797859311103821
0.61780226230621338 0.16630589962005615 0.1515038013458252
0.6935240626335144 0.18822026252746582 0.17146125435829163
0.76586270332336426 0.20671293139457703 0.18892015516757965
0.82695764303207397 0.22243565320968628 0.20384123921394348
0.84425979852676392 0.23208490014076233 0.21291893720626831
0.85069078207015991 0.23493435978889465 0.21511952579021454
0.85217714309692383 0.23778660595417023 0.21831358969211578
0.85335260629653931 0.24213936924934387 0.22245639562606812
0.022424571216106415 0.036910980939865112 0.031466420739889145
0.047986362129449844 0.04268169030547142 0.03331897035241127
0.18913343548774719 0.073094554245471954 0.059384185820817947
0.40948605537414551 0.12550421059131622 0.10728913545608521
0.56266385316848755 0.16451051831245422 0.14452818036079407
0.66046673059463501 0.19431008398532867 0.16978402435779572
0.73300671577453613 0.22007682919502258 0.18749397993087769
0.80296003818511963 0.2384534478187561 0.20401762425899506
0.85390287637710571 0.25189611315727234 0.21757428348064423
0.85750085115432739 0.26105126738548279 0.2215983122587204
0.85902237892150879 0.26752015948295593 0.22423206269741058
0.86118847131729126 0.27435040473937988 0.22705730795860291
0.8644406795501709 0.28427669405937195 0.22550955414772034
0.029364896938204765 0.10254757106304169 0.031251467764377594
0.067519046366214752 0.11541158705949783 0.032784122973680496
0.25720009207725525 0.13699297606945038 0.06808365136384964
0.49214214086532593 0.18684963881969452 0.12790285050868988
0.61370867490768433 0.21730451285839081 0.1586473137140274
0.70196187496185303 0.24639762938022614 0.18035554885864258
0.77497589588165283 0.27105593681335449 0.1971583366394043
0.83809965848922729 0.288850337266922 0.20834317803382874
0.88113695383071899 0.31716516613960266 0.20538134872913361
0.89588081836700439 0.33656990528106689 0.20238618552684784
0.89967691898345947 0.34629958868026733 0.19823352992534637
0.90917474031448364 0.36214619874954224 0.19086575508117676
0.91540038585662842 0.3730587363243103 0.18322651088237762
0.042135965079069138 0.21835796535015106 0.033413786441087723
0.094989031553268433 0.24638530611991882 0.035026699304580688
0.35950005054473877 0.27428188920021057 0.072770841419696808
0.59796994924545288 0.28363910317420959 0.13358764350414276
0.70307475328445435 0.30520367622375488 0.16714994609355927
0.77611690759658813 0.33151394128799438 0.18257711827754974
0.83933264017105103 0.35858190059661865 0.18741188943386078
0.88801193237304688 0.3824743926525116 0.18363897502422333
0.91721808910369873 0.40401864051818848 0.16842740774154663
0.92786955833435059 0.42150694131851196 0.16295914351940155
0.93226534128189087 0.43095681071281433 0.15866290032863617
0.9373510479927063 0.43964633345603943 0.15412664413452148
0.9394305944442749 0.45142185688018799 0.15478134155273438
0.061313074082136154 0.32681077718734741 0.040204454213380814
0.15864481031894684 0.37739503383636475 0.04222208634018898
0.44111576676368713 0.43127980828285217 0.06721910834312439
0.66694509983062744 0.44173961877822876 0.10143338143825531
0.77022814750671387 0.43266451358795166 0.11933103203773499
0.83263474702835083 0.44105774164199829 0.13360196352005005
0.88444995880126953 0.44775798916816711 0.14375309646129608
0.91484624147415161 0.45542842149734497 0.1454681009054184
0.9332268238067627 0.47422540187835693 0.13890999555587769
0.94008111953735352 0.49073302745819092 0.1399390697479248
0.94304740428924561 0.5022856593132019 0.14147865772247314
0.94541019201278687 0.5073208212852478 0.13968347012996674
0.94569069147109985 0.51508140563964844 0.14153625071048737
0.077732473611831665 0.41694739460945129 0.049079954624176025
0.22889763116836548 0.47755551338195801 0.049509041011333466
0.5146862268447876 0.53507614135742188 0.069417335093021393
0.68890863656997681 0.56149208545684814 0.098317824304103851
0.77784049510955811 0.55344504117965698 0.11027136445045471
0.84755480289459229 0.54765623807907104 0.11926055699586868
0.89632183313369751 0.54400813579559326 0.12924762070178986
0.92312753200531006 0.54133349657058716 0.13280358910560608
0.93899434804916382 0.55220288038253784 0.13112296164035797
0.94396877288818359 0.56618261337280273 0.13778531551361084
0.9453238844871521 0.57501620054244995 0.14192040264606476
0.94798266887664795 0.57845884561538696 0.13786868751049042
0.94900083541870117 0.58432239294052124 0.13654063642024994
0.10047364979982376 0.51708155870437622 0.05348428338766098
0.292257159948349 0.56996214389801025 0.052135437726974487
0.55560028553009033 0.60823220014572144 0.067591182887554169
0.70391148328781128 0.63255226612091064 0.093221865594387054
0.77942270040512085 0.64141792058944702 0.10566246509552002
0.851540207862854 0.64122015237808228 0.11875222623348236
0.90108364820480347 0.63878834247589111 0.12760879099369049
0.92764449119567871 0.63219583034515381 0.12915760278701782
0.9428715705871582 0.62852227687835693 0.12934163212776184
0.9455224871635437 0.63846325874328613 0.13501591980457306
0.94786667823791504 0.64577096700668335 0.13968132436275482
0.94900250434875488 0.65432345867156982 0.14016485214233398
0.94901961088180542 0.66177737712860107 0.14113490283489227
0.12002880871295929 0.655750572681427 0.057195849716663361
0.28577485680580139 0.68443650007247925 0.054484020918607712
0.56451797485351562 0.69152450561523438 0.056762248277664185
0.7213701605796814 0.6958850622177124 0.082405447959899902
0.7875247597694397 0.70691072940826416 0.095948204398155212
0.84932142496109009 0.71563452482223511 0.10817769169807434
0.90328735113143921 0.71883893013000488 0.11989516019821167
0.93126368522644043 0.7120966911315918 0.12488937377929688
0.94538229703903198 0.7035331130027771 0.12728525698184967
0.94851726293563843 0.71083313226699829 0.13225935399532318
0.94901961088180542 0.71938866376876831 0.13634388148784637
0.94901961088180542 0.72502189874649048 0.13915051519870758
0.94901961088180542 0.72985094785690308 0.14049291610717773
0.11578621715307236 0.78153759241104126 0.060471359640359879
0.29128608107566833 0.77990919351577759 0.05409177765250206
0.58446890115737915 0.76946288347244263 0.050278156995773315
0.73351269960403442 0.75890141725540161 0.068617664277553558
0.8008003830909729 0.76725417375564575 0.084679186344146729
0.85232579708099365 0.78201204538345337 0.095841951668262482
0.90283030271530151 0.79225856065750122 0.10729528963565826
0.93345081806182861 0.78339028358459473 0.11542392522096634
0.94915443658828735 0.77052539587020874 0.1212560161948204
0.95005488395690918 0.77517753839492798 0.12546406686306
0.95000326633453369 0.78019404411315918 0.12882210314273834
0.95093351602554321 0.7828291654586792 0.13203179836273193
0.95153892040252686 0.78584736585617065 0.13319680094718933
0.14506524801254272 0.83363980054855347 0.065735176205635071
0.33421918749809265 0.83751684427261353 0.058099828660488129
0.61872667074203491 0.83008432388305664 0.053071551024913788
0.75655370950698853 0.83032214641571045 0.060787800699472427
0.82301849126815796 0.83629727363586426 0.072677567601203918
0.8686288595199585 0.84341835975646973 0.084116570651531219
0.91143518686294556 0.85565507411956787 0.092441082000732422
0.93883985280990601 0.84491151571273804 0.10261812061071396
0.95127874612808228 0.82938742637634277 0.1125248596072197
0.9529411792755127 0.83104819059371948 0.11517377197742462
0.9529411792755127 0.83354777097702026 0.11771178990602493
0.9529411792755127 0.83301639556884766 0.12021007388830185
0.9529411792755127 0.83582180738449097 0.11981778591871262
0.1856391429901123 0.85191184282302856 0.0729994997382164
0.41807058453559875 0.85600000619888306 0.065972059965133667
0.66409802436828613 0.86127972602844238 0.061139289289712906
0.78311258554458618 0.86673235893249512 0.063587114214897156
0.84032279253005981 0.87182962894439697 0.070973493158817291
0.87994688749313354 0.87850886583328247 0.07958095520734787
0.91887998580932617 0.88764601945877075 0.086364045739173889
0.94226109981536865 0.87164449691772461 0.099334627389907837
0.9515349268913269 0.85794520378112793 0.10898829251527786
0.9529411792755127 0.85664194822311401 0.11155678331851959
0.9529411792755127 0.85712498426437378 0.11343509703874588
0.9529411792755127 0.85687345266342163 0.11467533558607101
0.9529411792755127 0.85798072814941406 0.11449815332889557
0.2450113445520401 0.8599732518196106 0.078865200281143188
0.49667304754257202 0.86814451217651367 0.072779923677444458
0.69269311428070068 0.87529999017715454 0.069163486361503601
0.79906076192855835 0.87711703777313232 0.069931715726852417
0.85117852687835693 0.88004469871520996 0.076728403568267822
0.88817328214645386 0.8869863748550415 0.083822868764400482
0.92410606145858765 0.89438897371292114 0.089130133390426636
0.9454529881477356 0.87262922525405884 0.10178183764219284
0.95282810926437378 0.85933995246887207 0.1100858673453331
0.9529411792755127 0.85953938961029053 0.11324887722730637
0.9529411792755127 0.85961014032363892 0.11535762995481491
0.9529411792755127 0.85950392484664917 0.11639711260795593
0.9529411792755127 0.85998433828353882 0.11654666066169739
0.30040761828422546 0.86464017629623413 0.082608647644519806
0.54096740484237671 0.87493467330932617 0.077410556375980377
0.70864349603652954 0.88243007659912109 0.074736274778842926
0.80588895082473755 0.88121241331100464 0.073509231209754944
0.85630053281784058 0.88232815265655518 0.080117091536521912
0.8943246603012085 0.88910508155822754 0.087189406156539917
0.92530369758605957 0.88950252532958984 0.093394920229911804
0.94464194774627686 0.86762183904647827 0.10399322211742401
0.95281648635864258 0.85895156860351562 0.11129301786422729
0.9529411792755127 0.86056017875671387 0.11562354862689972
0.9529411792755127 0.86073809862136841 0.11740176379680634
0.9529411792755127 0.86077773571014404 0.11795154958963394
0.9529411792755127 0.86139363050460815 0.11858630925416946
0.021811751648783684 0.030548229813575745 0.060464628040790558
0.039842136204242706 0.029554210603237152 0.056655734777450562
0.15358702838420868 0.049743235111236572 0.066454105079174042
0.36436659097671509 0.10139456391334534 0.1075064092874527
0.52447879314422607 0.14156536757946014 0.14306265115737915
0.62530273199081421 0.16820715367794037 0.16654746234416962
0.70076173543930054 0.19120028614997864 0.18618394434452057
0.77306348085403442 0.20993596315383911 0.20482532680034637
0.82957148551940918 0.22371697425842285 0.21888038516044617
0.8475269079208374 0.23395724594593048 0.2291761040687561
0.84852737188339233 0.23824390769004822 0.23728743195533752
0.84656590223312378 0.24190656840801239 0.24382542073726654
0.84800595045089722 0.2452937513589859 0.24395419657230377
0.023493239656090736 0.045395884662866592 0.061693813651800156
0.049804463982582092 0.050512965768575668 0.062705457210540771
0.195574089884758 0.077624090015888214 0.081442110240459442
0.42752587795257568 0.13240386545658112 0.12831425666809082
0.57892453670501709 0.17074368894100189 0.16451723873615265
0.66899234056472778 0.19723328948020935 0.18822862207889557
0.73531365394592285 0.22212354838848114 0.20467332005500793
0.79953289031982422 0.23843930661678314 0.22136151790618896
0.84822350740432739 0.25086623430252075 0.23518632352352142
0.85142606496810913 0.26019713282585144 0.23675251007080078
0.85613209009170532 0.27187818288803101 0.24001026153564453
0.86081361770629883 0.2845102846622467 0.24216431379318237
0.8653862476348877 0.295747309923172 0.24165390431880951
0.030887005850672722 0.11845734715461731 0.064222611486911774
0.065971031785011292 0.13290749490261078 0.066318780183792114
0.25478032231330872 0.14867343008518219 0.088263764977455139
0.49476730823516846 0.19126750528812408 0.14321503043174744
0.62335288524627686 0.22474777698516846 0.17614328861236572
0.70587670803070068 0.25083848834037781 0.19514830410480499
0.77389883995056152 0.27465558052062988 0.20745359361171722
0.83856844902038574 0.29867014288902283 0.21280559897422791
0.88651251792907715 0.33012577891349792 0.20850934088230133
0.90236431360244751 0.35075157880783081 0.19818538427352905
0.91096049547195435 0.37321987748146057 0.1936248391866684
0.91820394992828369 0.3936440646648407 0.19020675122737885
0.92250519990921021 0.40358555316925049 0.18959736824035645
0.039383277297019958 0.23642094433307648 0.058532431721687317
0.091798879206180573 0.26686018705368042 0.057749923318624496
0.3579077422618866 0.29427012801170349 0.084894560277462006
0.61115306615829468 0.2981235682964325 0.14199911057949066
0.71460580825805664 0.32108825445175171 0.16920916736125946
0.78688508272171021 0.3480638861656189 0.17651253938674927
0.84931463003158569 0.37860187888145447 0.17583203315734863
0.89757966995239258 0.4063057005405426 0.17121890187263489
0.92750447988510132 0.43125122785568237 0.16250273585319519
0.93750900030136108 0.44845014810562134 0.15933465957641602
0.94079911708831787 0.46447697281837463 0.15981748700141907
0.94329500198364258 0.47994372248649597 0.16170382499694824
0.94328337907791138 0.48760849237442017 0.16651055216789246
0.05430164560675621 0.33385357260704041 0.060916706919670105
0.14655137062072754 0.39119982719421387 0.060838334262371063
0.44125998020172119 0.45409071445465088 0.082045413553714752
0.67236268520355225 0.46693822741508484 0.11719735711812973
0.77429938316345215 0.45868101716041565 0.1341654360294342
0.83762258291244507 0.4631313681602478 0.14488090574741364
