assets/lut/shamoonabbasi date 39.cube
# Created by: G'MIC (https://gmic.eu)
TITLE "date_39"
# LUT size
LUT_3D_SIZE 7
# Data domain
DOMAIN_MIN 0.0 0.0 0.0
DOMAIN_MAX 1.0 1.0 1.0
# LUT data points
0.016686413437128067 0.018699018284678459 0.026626750826835632
0.090482838451862335 0.038561876863241196 0.039704445749521255
0.28135284781455994 0.081363409757614136 0.076489903032779694
0.47609281539916992 0.12975245714187622 0.12168033421039581
0.62231701612472534 0.16651745140552521 0.15467184782028198
0.74340277910232544 0.1937461644411087 0.18050660192966461
0.84602326154708862 0.21716172993183136 0.20144882798194885
0.027779582887887955 0.08399345725774765 0.03326377272605896
0.11562903970479965 0.093907393515110016 0.03741779550909996
0.32057398557662964 0.12541294097900391 0.084764339029788971
0.500396728515625 0.16995982825756073 0.12755754590034485
0.63836491107940674 0.20615582168102264 0.15805676579475403
0.75843137502670288 0.23344625532627106 0.18219365179538727
0.86315053701400757 0.258869469165802 0.20755702257156372
0.028787575662136078 0.17818352580070496 0.029097449034452438
0.14219407737255096 0.2034667581319809 0.032742101699113846
0.42386987805366516 0.21112588047981262 0.09582335501909256
0.5809403657913208 0.23478253185749054 0.15449391305446625
0.70206654071807861 0.2645532488822937 0.17782248556613922
0.8028290867805481 0.29057314991950989 0.19872619211673737
0.883933424949646 0.32276073098182678 0.21256484091281891
0.039831288158893585 0.29516446590423584 0.034946873784065247
0.18899126350879669 0.34911340475082397 0.035767082124948502
0.50766324996948242 0.39592483639717102 0.074270837008953094
0.68594884872436523 0.37624529004096985 0.10822773724794388
0.79273241758346558 0.37246638536453247 0.15895934402942657
0.88364952802658081 0.3929440975189209 0.17497590184211731
0.92938512563705444 0.42047083377838135 0.1613927036523819
0.048211924731731415 0.37806254625320435 0.037619676440954208
0.24607442319393158 0.46305307745933533 0.033422134816646576
0.54498386383056641 0.53199654817581177 0.060874026268720627
0.69417417049407959 0.56786829233169556 0.093688786029815674
0.81070411205291748 0.56753790378570557 0.10400920361280441
0.91276973485946655 0.55193400382995605 0.11800706386566162
0.94693785905838013 0.55862981081008911 0.12156283855438232
0.041029643267393112 0.5317874550819397 0.042784254997968674
0.25142791867256165 0.62458264827728271 0.039630156010389328
0.57349640130996704 0.66786891222000122 0.043586552143096924
0.71412986516952515 0.69218963384628296 0.078024588525295258
0.80714422464370728 0.71874392032623291 0.097211591899394989
0.91114401817321777 0.73300707340240479 0.12025927007198334
0.95102876424789429 0.70300549268722534 0.12796966731548309
0.026840688660740852 0.78016018867492676 0.037466537207365036
0.22800743579864502 0.825794517993927 0.039874177426099777
0.56109297275543213 0.83003002405166626 0.036523871123790741
0.71788400411605835 0.83198648691177368 0.050195161253213882
0.82159233093261719 0.83949637413024902 0.064949735999107361
0.91639631986618042 0.87820535898208618 0.080289386212825775
0.96463143825531006 0.85370594263076782 0.090569786727428436
0.024381181225180626 0.0390625 0.075393736362457275
0.12001079320907593 0.04682464525103569 0.08020598441362381
0.31468445062637329 0.088431671261787415 0.10917264223098755
0.49606671929359436 0.14082904160022736 0.15246202051639557
0.63900971412658691 0.17727203667163849 0.18487249314785004
0.75411099195480347 0.20281699299812317 0.20968866348266602
0.8489411473274231 0.22445116937160492 0.23372983932495117
0.031364902853965759 0.098556637763977051 0.09413553774356842
0.095760375261306763 0.10559586435556412 0.096685357391834259
0.30940946936607361 0.13242347538471222 0.11695128679275513
0.49599805474281311 0.17085473239421844 0.15531244874000549
0.63857614994049072 0.20507153868675232 0.18980908393859863
0.76069551706314087 0.23640820384025574 0.21181139349937439
0.84882307052612305 0.25153940916061401 0.23765663802623749
0.03641987219452858 0.21337834000587463 0.076682209968566895
0.11503087729215622 0.2380358874797821 0.06763814389705658
0.4171234667301178 0.22681275010108948 0.10518362373113632
0.58596086502075195 0.24049553275108337 0.16115681827068329
0.70190608501434326 0.26945430040359497 0.18995632231235504
0.81260186433792114 0.30929076671600342 0.20051251351833344
0.90021365880966187 0.3369593620300293 0.19729779660701752
0.037385094910860062 0.30672004818916321 0.060457117855548859
0.15361547470092773 0.36978656053543091 0.063104428350925446
0.48684152960777283 0.43344336748123169 0.092035733163356781
0.69163596630096436 0.42077198624610901 0.1323084831237793
0.80966281890869141 0.41112127900123596 0.1580929160118103
0.89645266532897949 0.42708411812782288 0.16264998912811279
0.94377917051315308 0.45793691277503967 0.15465930104255676
0.034680340439081192 0.3832743763923645 0.057483509182929993
0.18931868672370911 0.4889514148235321 0.06789068877696991
0.52085655927658081 0.5616382360458374 0.073650583624839783
0.69093966484069824 0.60861945152282715 0.12101711332798004
0.82181841135025024 0.60942226648330688 0.14225558936595917
0.91932386159896851 0.59139096736907959 0.15452994406223297
0.94590532779693604 0.5982549786567688 0.14946508407592773
0.058187760412693024 0.53757721185684204 0.077112875878810883
0.21190562844276428 0.65259468555450439 0.07220739871263504
0.54317641258239746 0.6993144154548645 0.065862827003002167
0.71179765462875366 0.73054581880569458 0.09536367654800415
0.82752233743667603 0.76124721765518188 0.12201430648565292
0.92231231927871704 0.76178038120269775 0.15553924441337585
0.95181906223297119 0.73233872652053833 0.15911103785037994
0.049015089869499207 0.81408983469009399 0.085095182061195374
0.17585255205631256 0.85047399997711182 0.084925524890422821
0.53442138433456421 0.8611762523651123 0.07110963761806488
0.72200143337249756 0.87563920021057129 0.080424696207046509
0.83964318037033081 0.88180744647979736 0.085304528474807739
0.92206275463104248 0.90221726894378662 0.099029675126075745
0.96331906318664551 0.86948776245117188 0.11501406133174896
0.024035271257162094 0.074229910969734192 0.1769154965877533
0.10860133171081543 0.07057170569896698 0.17096275091171265
0.35914677381515503 0.099183849990367889 0.16368855535984039
0.53890419006347656 0.15342240035533905 0.19855205714702606
0.6663849949836731 0.18433128297328949 0.22794602811336517
0.76606225967407227 0.20738761126995087 0.24821116030216217
0.8388981819152832 0.22362838685512543 0.2659231424331665
0.038503952324390411 0.13455478847026825 0.19810853898525238
0.086621932685375214 0.1379927396774292 0.19641683995723724
0.34208381175994873 0.14287029206752777 0.18335446715354919
0.53574484586715698 0.18220540881156921 0.20844604074954987
0.67152625322341919 0.21340768039226532 0.2298748642206192
0.76596653461456299 0.23699226975440979 0.24617987871170044
0.84416371583938599 0.2576497495174408 0.25938040018081665
0.056823056191205978 0.25693076848983765 0.23872150480747223
0.096372194588184357 0.27462810277938843 0.23423144221305847
0.36492487788200378 0.28083962202072144 0.21755556762218475
0.59467917680740356 0.29773476719856262 0.21197071671485901
0.73161417245864868 0.33033519983291626 0.22150884568691254
0.83043116331100464 0.3510744571685791 0.22732135653495789
0.91600579023361206 0.38109338283538818 0.22769647836685181
0.073702387511730194 0.44173341989517212 0.24587607383728027
0.11212854087352753 0.41871321201324463 0.20206490159034729
0.4071790874004364 0.47606655955314636 0.18409444391727448
0.65029984712600708 0.48649993538856506 0.17984415590763092
0.79380875825881958 0.49498444795608521 0.18001052737236023
0.88841104507446289 0.51507902145385742 0.17517705261707306
0.9454035758972168 0.53370261192321777 0.17874707281589508
0.064544737339019775 0.47805508971214294 0.16661091148853302
0.12108579277992249 0.48848205804824829 0.17079800367355347
0.43470099568367004 0.60263818502426147 0.16159616410732269
0.67262047529220581 0.65429937839508057 0.14274464547634125
0.81216537952423096 0.66095811128616333 0.1540181040763855
0.91449368000030518 0.63721305131912231 0.19170427322387695
0.94974738359451294 0.64029216766357422 0.19057023525238037
0.059619348496198654 0.6127820611000061 0.10762453079223633
0.14134223759174347 0.64096081256866455 0.12160394340753555
0.4774782657623291 0.73995596170425415 0.12974978983402252
0.69004857540130615 0.76386004686355591 0.11793706566095352
0.81833267211914062 0.7954634428024292 0.11231622099876404
0.91857415437698364 0.77674031257629395 0.18218222260475159
0.95251119136810303 0.74991089105606079 0.18530276417732239
0.069752052426338196 0.83249008655548096 0.1154065728187561
0.13115878403186798 0.84268134832382202 0.11863289773464203
0.48258289694786072 0.88242262601852417 0.10258162021636963
0.7008625864982605 0.90864336490631104 0.10741418600082397
0.83079385757446289 0.91877400875091553 0.11468200385570526
0.91534137725830078 0.9133264422416687 0.12814085185527802
0.95846462249755859 0.87627696990966797 0.14780186116695404
0.028150850906968117 0.12918069958686829 0.30113279819488525
0.079042993485927582 0.12754872441291809 0.28619086742401123
0.36294388771057129 0.11862284690141678 0.24585530161857605
0.59081321954727173 0.16828836500644684 0.24686916172504425
0.7015610933303833 0.1952894926071167 0.26274588704109192
0.78213143348693848 0.22082513570785522 0.27962687611579895
0.86178356409072876 0.24594341218471527 0.27329298853874207
0.048914007842540741 0.18253129720687866 0.32117182016372681
0.079990267753601074 0.1934242844581604 0.32593148946762085
0.32142886519432068 0.18042582273483276 0.30412912368774414
0.60351312160491943 0.23498336970806122 0.28008177876472473
0.72648924589157104 0.26734438538551331 0.29045253992080688
0.81614285707473755 0.2940363883972168 0.29916819930076599
0.89384055137634277 0.32798895239830017 0.30800431966781616
0.062061849981546402 0.27993541955947876 0.38989409804344177
0.09547075629234314 0.29975152015686035 0.39781329035758972
0.26707518100738525 0.33106198906898499 0.41144582629203796
0.58597207069396973 0.3966900110244751 0.39090800285339355
0.73693859577178955 0.43203082680702209 0.40837964415550232
0.84475052356719971 0.44608792662620544 0.41462463140487671
0.91131508350372314 0.48111298680305481 0.42523974180221558
0.089804962277412415 0.46821311116218567 0.48779648542404175
0.13847985863685608 0.50857269763946533 0.49433395266532898
0.26849588751792908 0.53076171875 0.47634470462799072
0.59469974040985107 0.54368466138839722 0.45027437806129456
0.75661081075668335 0.57371002435684204 0.45769879221916199
0.8743249773979187 0.59141051769256592 0.44141882658004761
0.93815046548843384 0.60344058275222778 0.44649651646614075
0.12493237107992172 0.66308945417404175 0.54871481657028198
0.1535053551197052 0.64591771364212036 0.4959259033203125
0.27481582760810852 0.62977832555770874 0.45922070741653442
0.63773483037948608 0.67630332708358765 0.43667188286781311
0.78764992952346802 0.69652539491653442 0.38012325763702393
0.89897841215133667 0.68670135736465454 0.35570484399795532
0.94844609498977661 0.67789030075073242 0.38436463475227356
0.12556743621826172 0.78139311075210571 0.4472653865814209
0.14089168608188629 0.73676121234893799 0.3765900731086731
0.29657751321792603 0.75331050157546997 0.38445782661437988
0.66290217638015747 0.78949451446533203 0.40683495998382568
0.79474920034408569 0.8117372989654541 0.33133697509765625
0.90540128946304321 0.79434818029403687 0.24305108189582825
0.94915676116943359 0.7689318060874939 0.34796828031539917
0.087623998522758484 0.9392121434211731 0.20298527181148529
0.11032451689243317 0.89021915197372437 0.21566611528396606
0.34639427065849304 0.90850871801376343 0.21628966927528381
0.6780124306678772 0.93445402383804321 0.26950341463088989
0.81747394800186157 0.93186163902282715 0.30722561478614807
0.91000378131866455 0.92590749263763428 0.20429046452045441
0.95321226119995117 0.9006837010383606 0.22652040421962738
0.057259146124124527 0.19597229361534119 0.44363158941268921
0.070781022310256958 0.19936154782772064 0.42038765549659729
0.29415649175643921 0.19116079807281494 0.37355139851570129
0.62234979867935181 0.23735722899436951 0.31034818291664124
0.76602178812026978 0.25120711326599121 0.29362025856971741
0.83915722370147705 0.29718953371047974 0.32213136553764343
0.90615779161453247 0.32846182584762573 0.33535605669021606
0.061280224472284317 0.24090713262557983 0.45783057808876038
0.087899588048458099 0.25643694400787354 0.48003336787223816
0.24889546632766724 0.24935047328472137 0.46696603298187256
0.61055558919906616 0.29877689480781555 0.37976807355880737
0.75490778684616089 0.34943518042564392 0.4100269079208374
0.8400152325630188 0.38268834352493286 0.43096870183944702
0.89649337530136108 0.43114730715751648 0.46892645955085754
0.072499431669712067 0.33504799008369446 0.51959085464477539
0.11277490109205246 0.35934346914291382 0.54588907957077026
0.20517270267009735 0.3994409441947937 0.57244300842285156
0.57959669828414917 0.42217525839805603 0.52080738544464111
0.74330013990402222 0.47681328654289246 0.51711905002593994
0.84367573261260986 0.50371658802032471 0.53348398208618164
0.90213370323181152 0.55268985033035278 0.56536036729812622
0.095743127167224884 0.4801851212978363 0.60851490497589111
0.13837617635726929 0.50997912883758545 0.62521803379058838
0.2101447582244873 0.55767756700515747 0.63845282793045044
0.57134556770324707 0.58218634128570557 0.61303055286407471
0.74407088756561279 0.61517053842544556 0.60403430461883545
0.85787081718444824 0.62984311580657959 0.60561460256576538
0.92232346534729004 0.65608865022659302 0.61783289909362793
0.12539738416671753 0.64656960964202881 0.67231011390686035
0.17476846277713776 0.68782341480255127 0.69132041931152344
0.21943752467632294 0.70688533782958984 0.67882513999938965
0.57472497224807739 0.70003223419189453 0.62565511465072632
0.76810312271118164 0.71939784288406372 0.61132353544235229
0.88303250074386597 0.71978223323822021 0.59955489635467529
0.94284403324127197 0.72951889038085938 0.61799347400665283
0.15536326169967651 0.81442588567733765 0.72879880666732788
0.19676768779754639 0.83196353912353516 0.702159583568573
0.21867018938064575 0.81420564651489258 0.65547901391983032
0.57121866941452026 0.81605035066604614 0.58755159378051758
0.78768688440322876 0.8237311840057373 0.58596217632293701
0.9033312201499939 0.81417018175125122 0.53144556283950806
0.95047944784164429 0.79587119817733765 0.58492147922515869
0.16738507151603699 0.98088574409484863 0.63922202587127686
0.19300477206707001 0.97880935668945312 0.57556825876235962
0.21424117684364319 0.93792426586151123 0.51956099271774292
0.54875040054321289 0.96514946222305298 0.43899238109588623
0.79293519258499146 0.9475138783454895 0.51038140058517456
0.90115487575531006 0.93257856369018555 0.48833653330802917
0.95369362831115723 0.91851526498794556 0.46707779169082642
0.076616577804088593 0.28417307138442993 0.58600527048110962
0.098132520914077759 0.2804017961025238 0.56136095523834229
0.21368007361888885 0.27866700291633606 0.53794956207275391
0.60832762718200684 0.30363637208938599 0.48226070404052734
0.76491051912307739 0.33832466602325439 0.46700656414031982
0.84468120336532593 0.38794249296188354 0.51861321926116943
0.89530247449874878 0.44086405634880066 0.56694072484970093
0.072152093052864075 0.32411655783653259 0.60480564832687378
0.11120838671922684 0.33839386701583862 0.62096476554870605
0.18763107061386108 0.34848755598068237 0.61434590816497803
0.60376060009002686 0.33438098430633545 0.58031725883483887
0.762775719165802 0.36765113472938538 0.53633648157119751
0.84692704677581787 0.40133059024810791 0.55109983682632446
0.89240318536758423 0.47033995389938354 0.59892982244491577
0.084528006613254547 0.40043577551841736 0.63755875825881958
0.11995948106050491 0.43181559443473816 0.66969329118728638
0.18465439975261688 0.48002490401268005 0.69985085725784302
0.54638880491256714 0.46457669138908386 0.69121932983398438
0.76253026723861694 0.46854469180107117 0.63394820690155029
0.8590010404586792 0.49398338794708252 0.62254053354263306
0.90044116973876953 0.556743323802948 0.65512442588806152
0.10492019355297089 0.52725958824157715 0.7098156213760376
0.14639845490455627 0.55743813514709473 0.72997277975082397
0.22301775217056274 0.59836494922637939 0.74224364757537842
0.54390686750411987 0.62162917852401733 0.74451398849487305
0.75178271532058716 0.61484789848327637 0.70658582448959351
0.85838800668716431 0.62757784128189087 0.68921566009521484
0.91192352771759033 0.67031401395797729 0.71114897727966309
0.12557283043861389 0.64765840768814087 0.760670006275177
0.16452915966510773 0.66725313663482666 0.76471257209777832
0.21044787764549255 0.69672894477844238 0.76761919260025024
0.51382529735565186 0.72474545240402222 0.76137322187423706
0.7559133768081665 0.73648291826248169 0.73982357978820801
0.86542540788650513 0.73875457048416138 0.72359299659729004
0.93158555030822754 0.76427757740020752 0.7435728907585144
0.14759214222431183 0.77665883302688599 0.80022245645523071
0.18920594453811646 0.79974019527435303 0.80582600831985474
0.19724075496196747 0.82211422920227051 0.80345362424850464
0.41047835350036621 0.84367948770523071 0.77660417556762695
0.7523949146270752 0.84013873338699341 0.72783529758453369
0.8885796070098877 0.82797747850418091 0.69625335931777954
0.94870579242706299 0.82285445928573608 0.72101813554763794
0.17887228727340698 0.9440503716468811 0.82964861392974854
0.21943169832229614 0.96651124954223633 0.80915248394012451
0.23988328874111176 0.97607862949371338 0.77283632755279541
0.38594719767570496 0.98050755262374878 0.66165691614151001
0.73003578186035156 0.96796083450317383 0.59558027982711792
0.89671152830123901 0.94251865148544312 0.64757424592971802
0.95293885469436646 0.93673264980316162 0.64324080944061279
0.090392075479030609 0.3803962767124176 0.71356761455535889
0.12084652483463287 0.37998849153518677 0.70868176221847534
0.16405892372131348 0.37607556581497192 0.68384283781051636
0.57154613733291626 0.36195081472396851 0.68945139646530151
0.77374792098999023 0.36712145805358887 0.63243567943572998
0.85187309980392456 0.39138299226760864 0.62775272130966187
0.9012373685836792 0.45856082439422607 0.68352478742599487
0.088551387190818787 0.4131990373134613 0.72760182619094849
0.12565834820270538 0.4226631224155426 0.73658782243728638
0.17922241985797882 0.44096219539642334 0.73849976062774658
0.5293012261390686 0.41939434409141541 0.75573194026947021
0.775837242603302 0.40469804406166077 0.71629232168197632
0.87002074718475342 0.41873160004615784 0.67965304851531982
0.91078168153762817 0.48663899302482605 0.70706617832183838
0.094682700932025909 0.47864019870758057 0.74809378385543823
0.13169375061988831 0.49381384253501892 0.76305669546127319
0.21678008139133453 0.53900355100631714 0.7926870584487915
0.51464712619781494 0.53648513555526733 0.81406313180923462
0.76523292064666748 0.50989705324172974 0.81461691856384277
0.88445353507995605 0.52070438861846924 0.76944541931152344
0.92351537942886353 0.57486224174499512 0.76288354396820068
0.11143679171800613 0.582233726978302 0.7978251576423645
0.14956051111221313 0.60070395469665527 0.81266683340072632
0.21418754756450653 0.6356467604637146 0.8249661922454834
0.49287784099578857 0.65503156185150146 0.83635789155960083
0.75091731548309326 0.63337874412536621 0.84130191802978516
0.88392931222915649 0.62216663360595703 0.80049699544906616
0.92559492588043213 0.65666294097900391 0.78255409002304077
0.13316696882247925 0.67095690965652466 0.84095555543899536
0.17323872447013855 0.69336450099945068 0.84819960594177246
0.18727694451808929 0.71016412973403931 0.83845371007919312
0.47226002812385559 0.744476318359375 0.84686040878295898
0.74406194686889648 0.74848401546478271 0.84542703628540039
0.87247514724731445 0.73037582635879517 0.80630874633789062
0.92880123853683472 0.75993531942367554 0.81716084480285645
0.14865481853485107 0.76313269138336182 0.87115710973739624
0.1891295313835144 0.78176897764205933 0.8760560154914856
0.2009950578212738 0.79871529340744019 0.86751586198806763
0.39386674761772156 0.82841020822525024 0.8734288215637207
0.72350555658340454 0.85120213031768799 0.85844910144805908
0.87437182664871216 0.83862709999084473 0.81580823659896851
0.94859874248504639 0.84753769636154175 0.81336957216262817
0.16831295192241669 0.87716794013977051 0.90592390298843384
0.20826144516468048 0.90240156650543213 0.90709644556045532
0.22697837650775909 0.93630552291870117 0.90186303853988647
0.29904213547706604 0.9663272500038147 0.89382392168045044
0.64033967256546021 0.98252803087234497 0.79979687929153442
0.8578454852104187 0.9674065113067627 0.75990301370620728
0.95560842752456665 0.95633059740066528 0.7611769437789917
