assets/lut/shamoonabbasi city 7.cube
# Created by: G'MIC (https://gmic.eu)
TITLE "city_7"
# LUT size
LUT_3D_SIZE 13
# Data domain
DOMAIN_MIN 0.0 0.0 0.0
DOMAIN_MAX 1.0 1.0 1.0
# LUT data points
0.01347820833325386 0.039972148835659027 0.036563992500305176
0.020201334729790688 0.041715420782566071 0.035281267017126083
0.039799395948648453 0.043156042695045471 0.031181380152702332
0.082191258668899536 0.046580519527196884 0.023606738075613976
0.15555831789970398 0.050798453390598297 0.011198440566658974
0.25197413563728333 0.054038763046264648 0.000744868244510144
0.35065895318984985 0.057128936052322388 0
0.43642690777778625 0.062771864235401154 0
0.50670367479324341 0.06881231814622879 0
0.56750625371932983 0.071956664323806763 0
0.62318813800811768 0.069937624037265778 0
0.67316412925720215 0.065616458654403687 0
0.71587377786636353 0.062436271458864212 0.00035394408041611314
0.0095551284030079842 0.05892842635512352 0.042539395391941071
0.016393713653087616 0.061597142368555069 0.041808724403381348
0.038588251918554306 0.064015030860900879 0.038010779768228531
0.088092133402824402 0.068090803921222687 0.029758334159851074
0.17450140416622162 0.073718920350074768 0.016347518190741539
0.28229334950447083 0.078661002218723297 0.0031469906680285931
0.38934805989265442 0.083901666104793549 1.1848001122416463e-05
0.48242366313934326 0.091093756258487701 0
0.5581393837928772 0.098510131239891052 0
0.62231683731079102 0.1017400398850441 0
0.68176156282424927 0.098069854080677032 0
0.73434674739837646 0.091744318604469299 0
0.77722984552383423 0.088107511401176453 0
0.0043650008738040924 0.081681735813617706 0.050073422491550446
0.011248256079852581 0.08632342517375946 0.049248743802309036
0.038298618048429489 0.091072142124176025 0.043878562748432159
0.099840305745601654 0.097776360809803009 0.03168119490146637
0.20002645254135132 0.10509072244167328 0.01517779752612114
0.31770482659339905 0.11090204864740372 0.0039521013386547565
0.43052724003791809 0.11771805584430695 0.00051338347839191556
0.52948689460754395 0.12651509046554565 5.9240002883598208e-05
0.61109167337417603 0.13460679352283478 0
0.67863684892654419 0.13870419561862946 0
0.73928177356719971 0.13656817376613617 0
0.79140233993530273 0.13218316435813904 0
0.83150959014892578 0.13133327662944794 0
0.00026316923322156072 0.11307838559150696 0.062566332519054413
0.0052493074908852577 0.11901088058948517 0.061142612248659134
0.033098962157964706 0.12764577567577362 0.049463056027889252
0.10500503331422806 0.1393425315618515 0.028204135596752167
0.22382797300815582 0.14932040870189667 0.0078422399237751961
0.35090580582618713 0.15529182553291321 0.00085450714686885476
0.46801960468292236 0.16435214877128601 0.0013222488341853023
0.56997442245483398 0.17607410252094269 0.0027780870441347361
0.65586405992507935 0.18565434217453003 0.00072314694989472628
0.72687900066375732 0.19065411388874054 0
0.78774291276931763 0.19213016331195831 0
0.8364529013633728 0.19355179369449615 2.7031992431147955e-05
0.87121784687042236 0.19806340336799622 0.00070866604801267385
0 0.15790183842182159 0.079076461493968964
0.00090743420878425241 0.16401879489421844 0.076927885413169861
0.017314566299319267 0.17737960815429688 0.055565495043992996
0.085755951702594757 0.19640877842903137 0.020674357190728188
0.22485141456127167 0.21005500853061676 0.0016838522860780358
0.36989352107048035 0.21909835934638977 0
0.49566340446472168 0.23161736130714417 0.00057845772244036198
0.60062193870544434 0.24619127810001373 0.0037339003756642342
0.68764817714691162 0.25675696134567261 0.0024899800773710012
0.7617761492729187 0.26215717196464539 3.6755729524884373e-05
0.82263427972793579 0.26651731133460999 0
0.86696928739547729 0.27437335252761841 0.0010719449492171407
0.8960568904876709 0.28306406736373901 0.0058287973515689373
0 0.21701233088970184 0.095809012651443481
0.00010070800635730848 0.22480566799640656 0.092102378606796265
0.0071876826696097851 0.24314439296722412 0.065495692193508148
0.065299525856971741 0.26984074711799622 0.021378476172685623
0.20960833132266998 0.29049822688102722 0.00089000625303015113
0.37593862414360046 0.30519834160804749 0
0.51624143123626709 0.32095858454704285 8.0602309026289731e-05
0.62512844800949097 0.33733904361724854 0.0032444074749946594
0.71202540397644043 0.34877887368202209 0.0035607581958174706
0.78591042757034302 0.3529544472694397 0.00031388227944262326
0.84614235162734985 0.35673174262046814 1.516903103038203e-05
0.88760602474212646 0.36626085638999939 0.001230830792337656
0.91398125886917114 0.37556713819503784 0.0037609473802149296
0.00030124140903353691 0.28783833980560303 0.11244940757751465
0.00081344303907826543 0.29810437560081482 0.11013228446245193
0.013102767057716846 0.32098162174224854 0.084375865757465363
0.075470879673957825 0.3553793728351593 0.038367133587598801
0.21449969708919525 0.38534951210021973 0.0060574249364435673
0.38858881592750549 0.40504047274589539 0.00010320625733584166
0.53890001773834229 0.42325469851493835 6.4625460254319478e-06
0.65035021305084229 0.44123637676239014 0.0021116966381669044
0.73469197750091553 0.45386028289794922 0.0030091677326709032
0.8063780665397644 0.45718735456466675 0.00035219380515627563
0.86474806070327759 0.45772841572761536 0
0.90552949905395508 0.46266898512840271 0.00041073068859986961
0.93124938011169434 0.46832758188247681 0.0002996856055688113
0.0007191676995716989 0.36283275485038757 0.13034754991531372
0.00070655671879649162 0.3772425651550293 0.12814033031463623
0.015148461796343327 0.40610882639884949 0.1003713384270668
0.079950384795665741 0.45031902194023132 0.04636739194393158
0.22327737510204315 0.48667123913764954 0.0074071548879146576
0.40823027491569519 0.50740069150924683 0.00017975451191887259
0.56618958711624146 0.52377456426620483 0
0.67962563037872314 0.54081100225448608 7.2539085522294044e-05
0.76208609342575073 0.55263864994049072 0.00013477100583259016
0.83057832717895508 0.55495387315750122 0
0.88689839839935303 0.55279231071472168 1.2057435014867224e-05
0.92720556259155273 0.55379927158355713 0.00071702845161780715
0.95190060138702393 0.55634194612503052 8.4985469584353268e-05
6.9233014073688537e-05 0.42897778749465942 0.15161527693271637
0 0.44668093323707581 0.14836348593235016
0.0099412212148308754 0.4821287989616394 0.11206117272377014
0.076117753982543945 0.5347784161567688 0.043402712792158127
0.2331414669752121 0.57379531860351562 0.0030423032585531473
0.43347713351249695 0.59171068668365479 0
0.59141498804092407 0.60698884725570679 0
0.70386618375778198 0.62173742055892944 0
0.78658467531204224 0.63100337982177734 0
0.85360729694366455 0.63430619239807129 0
0.90880757570266724 0.63278913497924805 0.00022624894336331636
0.94902271032333374 0.63447111845016479 0.0030098110437393188
0.97295951843261719 0.63641482591629028 0.00051769183482974768
0 0.47791138291358948 0.17114292085170746
0 0.49618440866470337 0.16463719308376312
0.0082984771579504013 0.53366875648498535 0.12080567330121994
0.080447554588317871 0.58647280931472778 0.046607732772827148
0.24912524223327637 0.62585949897766113 0.0030042610596865416
0.44878247380256653 0.64733612537384033 0
0.59891217947006226 0.66504895687103271 0
0.70879119634628296 0.68026399612426758 0
0.79495549201965332 0.69061976671218872 2.1541820842685411e-06
0.86385661363601685 0.69699215888977051 0.00010156070493394509
0.92036813497543335 0.70112770795822144 0.0019895366858690977
0.96294504404067993 0.70486330986022949 0.0031400644220411777
0.98810291290283203 0.70715135335922241 0.00048132502706721425
2.4114870029734448e-05 0.5063246488571167 0.1830521821975708
0.00011240641470067203 0.52375811338424683 0.17413468658924103
0.004537919070571661 0.56321501731872559 0.12213753908872604
0.065459355711936951 0.61861729621887207 0.039601240307092667
0.23629651963710785 0.65983259677886963 0.00086726766312494874
0.44043338298797607 0.68448269367218018 0
0.59534025192260742 0.70431298017501831 0.00028665579156950116
0.70755034685134888 0.72140216827392578 0.0018372479826211929
0.79648417234420776 0.73507732152938843 0.0010227577295154333
0.87061303853988647 0.74589204788208008 0.002722826087847352
0.92987442016601562 0.75405049324035645 0.0036506352480500937
0.9725569486618042 0.75956243276596069 0.001604611286893487
0.99603825807571411 0.76187592744827271 0.00014216105046216398
0.0013327355263754725 0.51934540271759033 0.19015608727931976
0.001841870485804975 0.53908282518386841 0.18190550804138184
6.4176674641203135e-05 0.58354341983795166 0.12212052941322327
0.02662181481719017 0.6463966965675354 0.02393888495862484
0.20234711468219757 0.68892711400985718 0
0.4325312077999115 0.71319222450256348 5.6981105444720015e-05
0.59957480430603027 0.73406475782394409 0.00077031453838571906
0.71543562412261963 0.75241577625274658 0.0020497192163020372
0.80688780546188354 0.76875996589660645 0.0023054683115333319
0.88574010133743286 0.78179854154586792 0.0056748930364847183
0.9461931586265564 0.79107946157455444 0.0053400374017655849
0.98315823078155518 0.79611223936080933 0.0012948130024597049
0.99885767698287964 0.79736769199371338 0
0.001321261515840888 0.53011941909790039 0.20008474588394165
0.0030548095237463713 0.55305784940719604 0.19312827289104462
4.3951295083388686e-05 0.59956669807434082 0.13406990468502045
0.013614789582788944 0.6648247241973877 0.031733226031064987
0.18300071358680725 0.70885241031646729 0.00035880593350157142
0.4202788770198822 0.73566770553588867 0.00016044167568907142
0.59578448534011841 0.75904601812362671 5.9509278798941523e-05
0.7206835150718689 0.77891778945922852 0.00028471104451455176
0.81906932592391968 0.79538154602050781 0.0024056527763605118
0.90070545673370361 0.80855101346969604 0.0088385334238409996
0.95930629968643188 0.81733685731887817 0.0094918794929981232
0.99014431238174438 0.82117217779159546 0.0024289898574352264
0.99945080280303955 0.82232367992401123 0.00018961289606522769
0.011965419165790081 0.042668931186199188 0.052279185503721237
0.020153464749455452 0.043111298233270645 0.051967605948448181
0.040199235081672668 0.045754779130220413 0.048831954598426819
0.083427920937538147 0.049457162618637085 0.042075153440237045
0.16048659384250641 0.053230717778205872 0.029133113101124763
0.26500546932220459 0.054391689598560333 0.010821952484548092
0.37122061848640442 0.056212961673736572 0.00095460179727524519
0.4574592113494873 0.061759814620018005 6.5164007537532598e-05
0.52742987871170044 0.067422099411487579 0
0.59019756317138672 0.067041836678981781 0
0.65212994813919067 0.057855956256389618 0
0.70923340320587158 0.045466404408216476 0.00027015537489205599
0.75603926181793213 0.036353360861539841 0.0038567935116589069
0.009305587038397789 0.062377374619245529 0.058760158717632294
0.017205556854605675 0.064279727637767792 0.058616083115339279
0.040177229791879654 0.067564748227596283 0.056347880512475967
0.09149150550365448 0.072306551039218903 0.049550075083971024
0.17971619963645935 0.077609211206436157 0.036229599267244339
0.29307514429092407 0.081494487822055817 0.019344359636306763
0.40582287311553955 0.086059689521789551 0.0069182002916932106
0.49990728497505188 0.093248091638088226 0.0026351630222052336
0.57564008235931396 0.099620983004570007 0.0012541378382593393
0.64320927858352661 0.098028771579265594 0.00040266747237183154
0.71280169486999512 0.083380348980426788 0
0.77538520097732544 0.064924560487270355 1.6455557272365695e-07
0.82323145866394043 0.053940791636705399 0.00052725098794326186
0.0050190198235213757 0.08724067360162735 0.067771449685096741
0.014259248971939087 0.090457245707511902 0.068707577884197235
0.042543210089206696 0.094163678586483002 0.066992618143558502
0.10207163542509079 0.10210421681404114 0.056923750787973404
0.20207443833351135 0.11062365025281906 0.039718568325042725
0.32521718740463257 0.11649613082408905 0.02334919385612011
0.44379410147666931 0.12275891751050949 0.014253668487071991
0.54467272758483887 0.13099581003189087 0.0088560516014695168
0.62839740514755249 0.13671261072158813 0.0046489490196108818
0.70289260149002075 0.13436949253082275 0.0012646544491872191
0.77524793148040771 0.12091342359781265 0
0.8377457857131958 0.10358259826898575 0
0.88214033842086792 0.094638913869857788 0
0.0015189675614237785 0.11982465535402298 0.082525007426738739
0.010833276435732841 0.12370000779628754 0.084384724497795105
0.041808586567640305 0.13025155663490295 0.078395798802375793
0.10898518562316895 0.14342063665390015 0.059166554361581802
0.22211174666881561 0.15651944279670715 0.033842332661151886
0.35589030385017395 0.16390997171401978 0.019456721842288971
0.48011031746864319 0.17167016863822937 0.016521213576197624
0.58564335107803345 0.1816253662109375 0.013475814834237099
0.67509913444519043 0.18851472437381744 0.0081338919699192047
0.75575971603393555 0.18754182755947113 0.0018213908188045025
0.82785475254058838 0.18012997508049011 0
0.88492971658706665 0.17218810319900513 0
0.92198348045349121 0.17056028544902802 0
0.00010824764467542991 0.16468292474746704 0.10049184411764145
0.0071403952315449715 0.16921178996562958 0.10222754627466202
0.034757696092128754 0.18011277914047241 0.089141845703125
0.10469803214073181 0.19921638071537018 0.056917797774076462
0.23074585199356079 0.21736298501491547 0.024235818535089493
0.37737402319908142 0.22863262891769409 0.012329745106399059
0.50902289152145386 0.2393890917301178 0.013824388384819031
0.61647534370422363 0.25188389420509338 0.01593799889087677
0.70708471536636353 0.26089563965797424 0.01151453610509634
0.78994989395141602 0.26388680934906006 0.0022865445353090763
0.86168307065963745 0.26382872462272644 0
0.91223782300949097 0.26529338955879211 0
0.94069457054138184 0.26984646916389465 9.4709212135057896e-05
0.00039400588138960302 0.2258177250623703 0.11780042201280594
0.0048914141952991486 0.23133955895900726 0.11966540664434433
0.028641689568758011 0.24545536935329437 0.10380858182907104
0.097389310598373413 0.27172172069549561 0.064014211297035217
0.22961825132369995 0.29777121543884277 0.024068720638751984
0.38991087675094604 0.3150000274181366 0.010252186097204685
0.53071904182434082 0.33016282320022583 0.012177905067801476
0.63902020454406738 0.34554222226142883 0.016655717045068741
0.72724008560180664 0.35673049092292786 0.014287581667304039
0.80892020463943481 0.36216068267822266 0.0032585891894996166
0.87846273183822632 0.36522552371025085 0
0.92506074905395508 0.36917352676391602 0
0.95024126768112183 0.37370651960372925 8.9458389993524179e-06
0.0026298821903765202 0.30092149972915649 0.13615646958351135
0.0052796308882534504 0.30901142954826355 0.13935659825801849
0.028938084840774536 0.32600241899490356 0.12699899077415466
0.098577626049518585 0.36033505201339722 0.08390459418296814
0.23282907903194427 0.39613133668899536 0.036882840096950531
0.40234732627868652 0.41957038640975952 0.014473590068519115
0.55218255519866943 0.43767699599266052 0.010574908927083015
0.66231465339660645 0.45422881841659546 0.013832077383995056
0.74773919582366943 0.46658867597579956 0.012792101129889488
0.82415556907653809 0.47229394316673279 0.0040049087256193161
0.88829535245895386 0.47361785173416138 3.1265557481674477e-05
0.93411469459533691 0.47372162342071533 0
0.95960408449172974 0.47418880462646484 0
0.0018033644882962108 0.37948453426361084 0.15890699625015259
0.0018253999296575785 0.39235681295394897 0.16198979318141937
0.022594721987843513 0.41656297445297241 0.14550228416919708
0.091628298163414001 0.46126323938369751 0.091287069022655487
0.23513899743556976 0.50242215394973755 0.038701433688402176
0.42077162861824036 0.52556174993515015 0.016099443659186363
0.57853150367736816 0.5422092080116272 0.0084106596186757088
0.69018846750259399 0.55731439590454102 0.0084810294210910797
0.77425181865692139 0.56850862503051758 0.0072351344861090183
0.8458130955696106 0.57252049446105957 0.0029808343388140202
0.9059678316116333 0.57103639841079712 0.00056053610751405358
0.94996929168701172 0.56845629215240479 9.0505564003251493e-06
0.9738273024559021 0.56687605381011963 0
0.00018358418310526758 0.44761240482330322 0.18608185648918152
0 0.46501535177230835 0.18610703945159912
0.0090563306584954262 0.49801376461982727 0.15616743266582489
0.078427739441394806 0.5499001145362854 0.085843287408351898
0.23922370374202728 0.59103268384933472 0.028846785426139832
0.44145059585571289 0.61038887500762939 0.012817039154469967
0.59997779130935669 0.62540155649185181 0.0057239457964897156
0.71182310581207275 0.63883882761001587 0.004929905291646719
0.79747688770294189 0.64804720878601074 0.004298101644963026
0.86765050888061523 0.65192919969558716 0.00346349086612463
0.92579448223114014 0.65123534202575684 0.0045075956732034683
0.96897619962692261 0.64959204196929932 0.0025400947779417038
0.99035114049911499 0.64927905797958374 0
0 0.49585175514221191 0.21005241572856903
0 0.51400971412658691 0.20872931182384491
0.0029152813367545605 0.55040490627288818 0.17109960317611694
0.071339204907417297 0.6030648946762085 0.088468097150325775
0.24521777033805847 0.64429926872253418 0.020036375150084496
0.44914892315864563 0.66683775186538696 0.003210404422134161
0.60676294565200806 0.68322485685348511 0.0024457145482301712
0.71938538551330566 0.6968684196472168 0.0053267236799001694
0.80576121807098389 0.70720219612121582 0.0094171706587076187
0.87629753351211548 0.71393519639968872 0.010970620438456535
0.93537288904190063 0.71803903579711914 0.0066051110625267029
0.97937792539596558 0.71981191635131836 0.00061593146529048681
0.99831336736679077 0.72057139873504639 0
0 0.52109557390213013 0.22448433935642242
0 0.53997159004211426 0.22255635261535645
0.00035467708948999643 0.5796128511428833 0.17687390744686127
0.048406638205051422 0.63662093877792358 0.0803489089012146
0.21864356100559235 0.6811147928237915 0.0090399645268917084
0.43246558308601379 0.70599853992462158 0
0.60341984033584595 0.72234928607940674 0.0014629438519477844
0.72116392850875854 0.73797905445098877 0.0063585918396711349
0.81003803014755249 0.75137585401535034 0.011384403333067894
0.88429659605026245 0.76252985000610352 0.010940895415842533
0.94424641132354736 0.7709193229675293 0.0019735896494239569
0.98563855886459351 0.77533966302871704 0
0.99981224536895752 0.77647405862808228 0
0 0.53406977653503418 0.23256909847259521
8.4072933532297611e-05 0.5542340874671936 0.2334894984960556
1.3837627193424851e-05 0.59798741340637207 0.18515221774578094
0.019004955887794495 0.66373163461685181 0.067815147340297699
0.1796775758266449 0.71165913343429565 0.0038886724505573511
0.41134834289550781 0.73750060796737671 0
0.59852015972137451 0.75550663471221924 0
0.72552239894866943 0.7712397575378418 0.00060516060329973698
0.82249993085861206 0.78644585609436035 0.0014963038265705109
0.90430200099945068 0.79967480897903442 0.00070787320146337152
0.96364492177963257 0.80874955654144287 1.2296788554522209e-05
0.99478411674499512 0.81323963403701782 0
1 0.81412863731384277 0
0.0002499000693205744 0.54539024829864502 0.24531140923500061
0.0045500663109123707 0.56812471151351929 0.24694198369979858
0.003897438757121563 0.61263585090637207 0.20413552224636078
0.025577515363693237 0.67873013019561768 0.091086611151695251
0.17485262453556061 0.72984093427658081 0.013235802762210369
0.39958426356315613 0.7609785795211792 8.3235201600473374e-05
0.59107339382171631 0.78275191783905029 0
0.72921448945999146 0.800151526927948 0
0.83494746685028076 0.81535458564758301 0
0.92134064435958862 0.82769644260406494 0.00021698896307498217
0.97932928800582886 0.83601999282836914 0.00025227863807231188
0.99921715259552002 0.83927887678146362 0
1 0.8405495285987854 0
0.0086466921493411064 0.044800911098718643 0.074365623295307159
0.018567927181720734 0.045918527990579605 0.075260981917381287
0.038698278367519379 0.048223160207271576 0.074444681406021118
0.083202525973320007 0.051997795701026917 0.070830971002578735
0.16293027997016907 0.055524174124002457 0.061180219054222107
0.27450555562973022 0.054604951292276382 0.043220981955528259
0.38714092969894409 0.054620407521724701 0.026326932013034821
0.47585630416870117 0.059511266648769379 0.020027743652462959
0.54814964532852173 0.063409231603145599 0.019330836832523346
0.61484986543655396 0.058981098234653473 0.019572045654058456
0.6815040111541748 0.044282935559749603 0.019613258540630341
0.7428472638130188 0.02595723420381546 0.021256346255540848
0.79175281524658203 0.013076632283627987 0.028471613302826881
0.0071640461683273315 0.066048853099346161 0.08263745903968811
0.01705099456012249 0.068008929491043091 0.08293500542640686
0.041132427752017975 0.072182975709438324 0.081556461751461029
0.093005053699016571 0.076346620917320251 0.080254301428794861
0.18384505808353424 0.081190072000026703 0.071625635027885437
0.30255389213562012 0.084194973111152649 0.056294862180948257
0.41917455196380615 0.088261276483535767 0.04189465194940567
0.51589787006378174 0.094574511051177979 0.034119401127099991
0.59523338079452515 0.09756450355052948 0.030329251661896706
0.66910529136657715 0.089548401534557343 0.02678019180893898
0.74574190378189087 0.065821133553981781 0.022301722317934036
0.81463873386383057 0.037033636122941971 0.01908772811293602
0.86508041620254517 0.018933942541480064 0.022704105824232101
0.0032061259262263775 0.093446247279644012 0.093570441007614136
0.015637835487723351 0.095316179096698761 0.096300967037677765
0.045807048678398132 0.099264003336429596 0.09730326384305954
0.10364194214344025 0.10760076344013214 0.093864753842353821
0.20385175943374634 0.11595609784126282 0.082897752523422241
0.33196553587913513 0.1216190829873085 0.067958652973175049
0.45499664545059204 0.12800219655036926 0.054750122129917145
0.55977511405944824 0.13487832248210907 0.046188235282897949
0.64916008710861206 0.13636422157287598 0.03956177830696106
0.73221129179000854 0.1259879469871521 0.032177358865737915
0.81295466423034668 0.10173459351062775 0.022026332095265388
0.88257622718811035 0.072280377149581909 0.01345036830753088
0.93015831708908081 0.054389368742704391 0.012673875316977501
0.00094822904793545604 0.12766252458095551 0.10990075767040253
0.013661926612257957 0.1311025470495224 0.11368866264820099
0.049324169754981995 0.13658517599105835 0.11471811681985855
0.11332555860280991 0.14965036511421204 0.10590115934610367
0.2207542359828949 0.16335941851139069 0.088171474635601044
0.35860356688499451 0.17147865891456604 0.071705058217048645
0.49041897058486938 0.17867842316627502 0.060795459896326065
0.60195213556289673 0.18638800084590912 0.053019415587186813
0.69874364137649536 0.18878011405467987 0.044918477535247803
0.78913587331771851 0.18055078387260437 0.033312853425741196
0.86978477239608765 0.16520549356937408 0.017971247434616089
0.9323616623878479 0.14876812696456909 0.0074333790689706802
0.9702913761138916 0.14123190939426422 0.0046392106451094151
0.00029081455431878567 0.17370547354221344 0.12824580073356628
0.011272699572145939 0.17949803173542023 0.1315140575170517
0.047275543212890625 0.18877662718296051 0.129323810338974
0.11719777435064316 0.20665141940116882 0.11229994893074036
0.23079954087734222 0.22724625468254089 0.085385583341121674
0.37918183207511902 0.23851878941059113 0.068578504025936127
0.51945322751998901 0.2475532740354538 0.061997342854738235
0.63308185338973999 0.25731971859931946 0.057825949043035507
0.73075574636459351 0.26272600889205933 0.049962840974330902
0.82411843538284302 0.26177379488945007 0.031895671039819717
0.90506410598754883 0.25750195980072021 0.010620431043207645
0.95865201950073242 0.25336012244224548 0.0028248208109289408
0.98455804586410522 0.25390255451202393 0.0015104106860235333
0.00032652312074787915 0.23606255650520325 0.14664395153522491
0.0086850486695766449 0.24277032911777496 0.15118543803691864
0.045083317905664444 0.25399020314216614 0.14914032816886902
0.11716567724943161 0.27999317646026611 0.12488989531993866
0.23640124499797821 0.31046080589294434 0.087766207754611969
0.39519181847572327 0.32681295275688171 0.067008480429649353
0.54078620672225952 0.34014096856117249 0.062044810503721237
