assets/lut/shamoonabbasi golden sony 37.cube
# Created by: G'MIC (https://gmic.eu)
TITLE "golden_sony_37"
# LUT size
LUT_3D_SIZE 5
# Data domain
DOMAIN_MIN 0.0 0.0 0.0
DOMAIN_MAX 1.0 1.0 1.0
# LUT data points
0.027329029515385628 0.044289696961641312 0.050405703485012054
0.040503527969121933 0.049330063164234161 0.054267134517431259
0.092595286667346954 0.053153723478317261 0.056301191449165344
0.17448067665100098 0.053965505212545395 0.051752053201198578
0.37770068645477295 0.024279680103063583 0.044302143156528473
0.052035477012395859 0.080203160643577576 0.072768174111843109
0.080395735800266266 0.097135864198207855 0.079366095364093781
0.14606857299804688 0.10685442388057709 0.074604198336601257
0.30564653873443604 0.080683477222919464 0.06981717050075531
0.5735090970993042 0.020008565858006477 0.046499632298946381
0.074226722121238708 0.15611235797405243 0.098133429884910583
0.13669052720069885 0.18956275284290314 0.097900241613388062
0.2419956773519516 0.23029141128063202 0.088158547878265381
0.48439174890518188 0.22681704163551331 0.066115029156208038
0.82506108283996582 0.12132107466459274 0.034537956118583679
0.064206592738628387 0.30798149108886719 0.11257962882518768
0.1964428573846817 0.36656177043914795 0.12341682612895966
0.39228063821792603 0.45301321148872375 0.10178906470537186
0.68890345096588135 0.5505174994468689 0.022010684013366699
0.96142762899398804 0.56741833686828613 0.001436330727301538
0.25548973679542542 0.64711302518844604 0.13079756498336792
0.47113212943077087 0.69777590036392212 0.22707897424697876
0.65990918874740601 0.77087682485580444 0.26809525489807129
0.84919935464859009 0.8362882137298584 0.22432172298431396
0.99788081645965576 0.88142591714859009 0.072232745587825775
0.027608100324869156 0.047297235578298569 0.057317022234201431
0.042780227959156036 0.054306268692016602 0.062305286526679993
0.083009399473667145 0.06007792055606842 0.069516338407993317
0.16327260434627533 0.063703931868076324 0.070174828171730042
0.35503211617469788 0.041375581175088882 0.063106894493103027
0.05639222264289856 0.086371436715126038 0.081506185233592987
0.087423674762248993 0.10516661405563354 0.091038152575492859
0.12335991859436035 0.12040518969297409 0.10140062123537064
0.27483245730400085 0.1016179546713829 0.1011994481086731
0.53288549184799194 0.05605652928352356 0.079525604844093323
0.080531924962997437 0.15789292752742767 0.12345770746469498
0.17310680449008942 0.19713519513607025 0.13783156871795654
0.2462296336889267 0.23659506440162659 0.15381300449371338
0.45011469721794128 0.25414565205574036 0.13694790005683899
0.78890323638916016 0.17835396528244019 0.10758121311664581
0.086474277079105377 0.32452681660652161 0.15108105540275574
0.24812793731689453 0.38529205322265625 0.18401601910591125
0.45932391285896301 0.47808387875556946 0.19151698052883148
0.70238828659057617 0.56650567054748535 0.16347160935401917
0.95384883880615234 0.59805786609649658 0.12045969069004059
0.28671395778656006 0.66821247339248657 0.18273665010929108
0.51915490627288818 0.71780383586883545 0.29454007744789124
0.70005089044570923 0.78537839651107788 0.33989599347114563
0.87968528270721436 0.84984499216079712 0.3262074887752533
0.99638843536376953 0.89120608568191528 0.24236619472503662
0.022929247468709946 0.050991266965866089 0.078462772071361542
0.048177666962146759 0.056907311081886292 0.080772638320922852
0.093014627695083618 0.060100480914115906 0.085480555891990662
0.17100875079631805 0.059287607669830322 0.089834146201610565
0.34222307801246643 0.055677883327007294 0.087962821125984192
0.04249141737818718 0.094518877565860748 0.10485663264989853
0.092077575623989105 0.10899364948272705 0.10310956090688705
0.12909373641014099 0.12706130743026733 0.11330664902925491
0.25964680314064026 0.12414725869894028 0.13244098424911499
0.49740535020828247 0.10073322802782059 0.11986532807350159
0.070926636457443237 0.1777588278055191 0.15211392939090729
0.1859544962644577 0.20925027132034302 0.15611320734024048
0.26859790086746216 0.25474250316619873 0.1737898588180542
0.39162150025367737 0.29329678416252136 0.19283488392829895
0.74668329954147339 0.23860932886600494 0.18026569485664368
0.083429984748363495 0.36046671867370605 0.18934838473796844
0.29183420538902283 0.40677091479301453 0.23420757055282593
0.56017172336578369 0.49690642952919006 0.25901627540588379
0.72164171934127808 0.58596742153167725 0.28340548276901245
0.92746031284332275 0.63594663143157959 0.26674565672874451
0.3220151960849762 0.69141548871994019 0.24386973679065704
0.55402207374572754 0.73335444927215576 0.3545844554901123
0.74458247423171997 0.79749268293380737 0.41077971458435059
0.9101862907409668 0.86002379655838013 0.42460939288139343
0.99746280908584595 0.90982145071029663 0.41468316316604614
0.021850511431694031 0.057112719863653183 0.11875925958156586
0.048643000423908234 0.067339338362216949 0.12179987132549286
0.095613546669483185 0.070320919156074524 0.1319938451051712
0.19000071287155151 0.059339933097362518 0.13115309178829193
0.38912320137023926 0.023844670504331589 0.11146385222673416
0.025580357760190964 0.10446345061063766 0.14984345436096191
0.085633262991905212 0.11789995431900024 0.15659785270690918
0.15725716948509216 0.12822581827640533 0.15814505517482758
0.26832908391952515 0.13671939074993134 0.16503502428531647
0.48698940873146057 0.12924699485301971 0.15725100040435791
0.022480025887489319 0.19933900237083435 0.19040411710739136
0.16146394610404968 0.22594499588012695 0.2084251344203949
0.2888740599155426 0.27060145139694214 0.19719716906547546
0.42081344127655029 0.31169062852859497 0.21781043708324432
0.73480546474456787 0.28332746028900146 0.23929202556610107
0.03658275306224823 0.39307093620300293 0.23167981207370758
0.29163184762001038 0.42826378345489502 0.28733113408088684
0.59552007913589478 0.52753424644470215 0.29093512892723083
0.74809050559997559 0.61602228879928589 0.32374286651611328
0.87449759244918823 0.68953591585159302 0.36563530564308167
0.32944220304489136 0.72062760591506958 0.30283734202384949
0.57332348823547363 0.75685983896255493 0.41763222217559814
0.78044760227203369 0.81779080629348755 0.48803320527076721
0.95192629098892212 0.86965608596801758 0.51542681455612183
0.99038398265838623 0.92433220148086548 0.57926583290100098
0.015686275437474251 0.070229232311248779 0.18301291763782501
0.038017064332962036 0.074562236666679382 0.18659681081771851
0.10034264624118805 0.083312273025512695 0.19168993830680847
0.19482995569705963 0.073526822030544281 0.20787286758422852
0.4260706901550293 0.0078065460547804832 0.16892324388027191
0.013550403527915478 0.11351218074560165 0.21474955976009369
0.072276875376701355 0.12957797944545746 0.22285684943199158
0.15763714909553528 0.14646837115287781 0.23353466391563416
0.30117827653884888 0.13164924085140228 0.22290006279945374
0.53661423921585083 0.085308343172073364 0.19257764518260956
0.0019172219326719642 0.20550458133220673 0.2647654116153717
0.1094655767083168 0.2419910728931427 0.28340521454811096
0.29219189286231995 0.27508008480072021 0.28989335894584656
0.50861662626266479 0.29033550620079041 0.28783580660820007
0.75703901052474976 0.31876382231712341 0.28924909234046936
0.0047557605430483818 0.42426326870918274 0.28167897462844849
0.23622025549411774 0.47049778699874878 0.34158259630203247
0.54402947425842285 0.54857999086380005 0.36485493183135986
0.77425527572631836 0.6418803334236145 0.36157101392745972
0.89547193050384521 0.71413624286651611 0.40848317742347717
0.31214478611946106 0.75404685735702515 0.37091177701950073
0.56490778923034668 0.78830236196517944 0.48016703128814697
0.78034079074859619 0.83083027601242065 0.56300610303878784
0.96577513217926025 0.88733881711959839 0.56704020500183105
0.9852939248085022 0.91886472702026367 0.5994533896446228
