assets/lut/shamoonabbasi shadow king 39.cube
# Created by: G'MIC (https://gmic.eu)
TITLE "shadow_king_39"
# LUT size
LUT_3D_SIZE 5
# Data domain
DOMAIN_MIN 0.0 0.0 0.0
DOMAIN_MAX 1.0 1.0 1.0
# LUT data points
0.019788464531302452 0.024865603074431419 0.023002145811915398
0.047446772456169128 0.039829552173614502 0.0428466796875
0.13786378502845764 0.038430936634540558 0.042231153696775436
0.30872669816017151 0.031453002244234085 0.033499594777822495
0.54390078783035278 0.033036608248949051 0.023365005850791931
0.073424398899078369 0.091555804014205933 0.07921869307756424
0.1122414693236351 0.11641497164964676 0.10574536770582199
0.20117823779582977 0.14160485565662384 0.090474598109722137
0.38013973832130432 0.15216997265815735 0.08057047426700592
0.61939740180969238 0.16098137199878693 0.078979343175888062
0.092316754162311554 0.25043118000030518 0.10317345708608627
0.18733096122741699 0.27937090396881104 0.13973817229270935
0.30559447407722473 0.31714734435081482 0.14466424286365509
0.48497059941291809 0.35103768110275269 0.13607026636600494
0.69678878784179688 0.38270953297615051 0.12335975468158722
0.10709668695926666 0.51426643133163452 0.1203463226556778
0.23735778033733368 0.54522287845611572 0.16196794807910919
0.40276280045509338 0.5767664909362793 0.18245446681976318
0.58626043796539307 0.61259174346923828 0.18645437061786652
0.77600139379501343 0.64178097248077393 0.17128543555736542
0.14247608184814453 0.78803259134292603 0.15249517560005188
0.29809954762458801 0.80725234746932983 0.18584109842777252
0.48320856690406799 0.82310777902603149 0.20539569854736328
0.67095917463302612 0.84988927841186523 0.22137247025966644
0.8521541953086853 0.88129574060440063 0.22799640893936157
0.032083325088024139 0.03358134999871254 0.040614020079374313
0.052768751978874207 0.042932964861392975 0.055143874138593674
0.1329500824213028 0.043534792959690094 0.086066164076328278
0.29054921865463257 0.042848177254199982 0.099537670612335205
0.52781718969345093 0.041328266263008118 0.11098583787679672
0.080096736550331116 0.098426103591918945 0.10347375273704529
0.12096063792705536 0.12696747481822968 0.13397370278835297
0.17324845492839813 0.1583038717508316 0.16862979531288147
0.35464084148406982 0.16513256728649139 0.17574493587017059
0.59826362133026123 0.17337273061275482 0.1820518970489502
0.11068446189165115 0.25815564393997192 0.19151383638381958
0.23355834186077118 0.27690088748931885 0.26434195041656494
0.31200221180915833 0.32868167757987976 0.31461384892463684
0.46002161502838135 0.37045034766197205 0.29107162356376648
0.67227768898010254 0.39473766088485718 0.27391910552978516
0.12497749924659729 0.5201563835144043 0.25105458498001099
0.27983549237251282 0.5375632643699646 0.31994196772575378
0.43996384739875793 0.57182139158248901 0.3761867880821228
0.59200823307037354 0.61633336544036865 0.39620685577392578
0.76476538181304932 0.64708322286605835 0.37565705180168152
0.15322533249855042 0.7926221489906311 0.31235015392303467
0.32329952716827393 0.80226403474807739 0.36770880222320557
0.51396006345748901 0.81524479389190674 0.41670617461204529
0.69070005416870117 0.8413996696472168 0.44998365640640259
0.85203498601913452 0.87525719404220581 0.45696577429771423
0.029926210641860962 0.030754657462239265 0.12210234254598618
0.070394895970821381 0.040932029485702515 0.12814775109291077
0.14572101831436157 0.049183309078216553 0.16114650666713715
0.29755562543869019 0.045736305415630341 0.20215773582458496
0.52406692504882812 0.040967065840959549 0.23768904805183411
0.064530029892921448 0.11140090227127075 0.18710939586162567
0.13146194815635681 0.13772600889205933 0.16845132410526276
0.18297907710075378 0.16839282214641571 0.20592182874679565
0.34626132249832153 0.17845609784126282 0.27827465534210205
0.58480584621429443 0.18747052550315857 0.3197038471698761
0.10612275451421738 0.27331933379173279 0.29820680618286133
0.2497715950012207 0.29276445508003235 0.31554612517356873
0.32746899127960205 0.34564736485481262 0.37121734023094177
0.41409417986869812 0.39895924925804138 0.42781820893287659
0.64675378799438477 0.4173266589641571 0.4449341893196106
0.1319098025560379 0.53259694576263428 0.40738528966903687
0.30998367071151733 0.54526227712631226 0.46844404935836792
0.5075756311416626 0.57100623846054077 0.56804162263870239
0.59878110885620117 0.62245315313339233 0.62385529279708862
0.74007594585418701 0.66665101051330566 0.59466159343719482
0.1561344712972641 0.79356890916824341 0.49964487552642822
0.34611499309539795 0.80461698770523071 0.55675023794174194
0.5578797459602356 0.81571751832962036 0.62795758247375488
0.72040146589279175 0.84036797285079956 0.68709981441497803
0.85259073972702026 0.87498849630355835 0.69924467802047729
0.030742555856704712 0.028270212933421135 0.28529885411262512
0.081449516117572784 0.035999730229377747 0.28737363219261169
0.17202520370483398 0.041709106415510178 0.31404641270637512
0.32544639706611633 0.045174900442361832 0.3594164252281189
0.54089081287384033 0.048167478293180466 0.40231156349182129
0.055516455322504044 0.11766864359378815 0.35975208878517151
0.13143494725227356 0.13988775014877319 0.34637349843978882
0.22767667472362518 0.16292327642440796 0.35807862877845764
0.3764091432094574 0.17957395315170288 0.41946005821228027
0.59278607368469238 0.18538011610507965 0.48897829651832581
0.088601164519786835 0.28905656933784485 0.46828344464302063
0.2115090936422348 0.31846821308135986 0.45651111006736755
0.34548237919807434 0.36250287294387817 0.42942214012145996
0.43466383218765259 0.41566488146781921 0.48725128173828125
0.63385164737701416 0.43527951836585999 0.58567249774932861
0.12492527812719345 0.54850471019744873 0.58489888906478882
0.30024570226669312 0.56749081611633301 0.60643643140792847
0.52819865942001343 0.58786523342132568 0.62449890375137329
0.61747956275939941 0.64227139949798584 0.68082928657531738
0.69874608516693115 0.69107306003570557 0.73421621322631836
0.15502528846263885 0.80202353000640869 0.68441867828369141
0.35542944073677063 0.8173978328704834 0.71724039316177368
0.5969424843788147 0.82155364751815796 0.76899313926696777
0.78524303436279297 0.83572202920913696 0.84655177593231201
0.85618257522583008 0.87613469362258911 0.88115197420120239
0.020452581346035004 0.0072956457734107971 0.52553421258926392
0.087100118398666382 0.017196789383888245 0.52929145097732544
0.18899284303188324 0.03819873183965683 0.54980218410491943
0.35551416873931885 0.045481782406568527 0.57790684700012207
0.56606221199035645 0.04575735330581665 0.60879790782928467
0.050600972026586533 0.12140187621116638 0.60380035638809204
0.13338771462440491 0.13871929049491882 0.59433603286743164
0.2553589940071106 0.16507501900196075 0.59841227531433105
0.42002886533737183 0.18435922265052795 0.63001757860183716
0.62363642454147339 0.19232907891273499 0.67952871322631836
0.078473322093486786 0.30977201461791992 0.68365001678466797
0.1999150812625885 0.33280891180038452 0.67284727096557617
0.3512217104434967 0.36956319212913513 0.65713870525360107
0.49979719519615173 0.41159272193908691 0.67333012819290161
0.66227918863296509 0.4439752995967865 0.72600466012954712
0.11152179539203644 0.56218236684799194 0.77385801076889038
0.27589559555053711 0.58722472190856934 0.77267801761627197
0.48233592510223389 0.61663609743118286 0.75808709859848022
0.63307708501815796 0.65679323673248291 0.73491644859313965
0.71202546358108521 0.70970845222473145 0.77649915218353271
0.15406420826911926 0.81570082902908325 0.85444372892379761
0.34574815630912781 0.83078509569168091 0.86231791973114014
0.59001892805099487 0.83540105819702148 0.87331545352935791
0.7945970892906189 0.85086369514465332 0.88909512758255005
0.86330914497375488 0.88771897554397583 0.92255198955535889
