assets/lut/shamoonabbasi day for night.cube
# Created by: G'MIC (https://gmic.eu)
TITLE "day_for_night"
# LUT size
LUT_3D_SIZE 7
# Data domain
DOMAIN_MIN 0.0 0.0 0.0
DOMAIN_MAX 1.0 1.0 1.0
# LUT data points
0 0 0
0 0 0
0.0082537932321429253 0.0039122337475419044 0
0.047130584716796875 0.0086355172097682953 0
0.11546255648136139 0.030470065772533417 0
0.23448057472705841 0.062025107443332672 0
0.40516749024391174 0.090326793491840363 0
0.0014647389762103558 0.0017074435018002987 0
0.00099168659653514624 0.00083269603783264756 0
0.014290438964962959 0.0039530736394226551 0
0.047943878918886185 0.0091341501101851463 0
0.11669540405273438 0.030863877385854721 0
0.24106109142303467 0.06052049994468689 0
0.40592741966247559 0.093022048473358154 0
0.023471787571907043 0.019254093989729881 0
0.020336451008915901 0.017218137159943581 0
0.027872152626514435 0.020040474832057953 0
0.049847189337015152 0.02674001082777977 0.0021875419188290834
0.10885398834943771 0.035786017775535583 0.0011513205245137215
0.21918220818042755 0.062545999884605408 0
0.39128336310386658 0.097286894917488098 0
0.0235481858253479 0.060954764485359192 0.013151790015399456
0.024192046374082565 0.061209257692098618 0.01446685753762722
0.034467898309230804 0.060282822698354721 0.01191979181021452
0.057509046047925949 0.06751665472984314 0.012201975099742413
0.11426942050457001 0.078622959554195404 0.018170645460486412
0.23254998028278351 0.098772607743740082 0.013580008409917355
0.41607499122619629 0.13801398873329163 0.0055197621695697308
0 0.12941250205039978 0.078562073409557343
0 0.13600297272205353 0.084583401679992676
5.2897135901730508e-05 0.14189247786998749 0.084812551736831665
0.0021770552266389132 0.1576114296913147 0.086591847240924835
0.10405632108449936 0.16624043881893158 0.075570635497570038
0.23954842984676361 0.1867753267288208 0.072080664336681366
0.43418833613395691 0.23636503517627716 0.077525153756141663
8.7708118371665478e-05 0.24688881635665894 0.14011275768280029
0.0019576128106564283 0.26120159029960632 0.14581462740898132
0.0014773050788789988 0.27595558762550354 0.14721761643886566
0.0046653449535369873 0.29879054427146912 0.15224826335906982
0.10972387343645096 0.33144345879554749 0.16024525463581085
0.28827208280563354 0.33696067333221436 0.15507520735263824
0.45246529579162598 0.37763902544975281 0.15884660184383392
0.009219449944794178 0.42928755283355713 0.20076082646846771
0.01664326898753643 0.44746279716491699 0.20570957660675049
0.029420411214232445 0.47035461664199829 0.21104960143566132
0.071416489779949188 0.49038204550743103 0.2224116325378418
0.2095220535993576 0.52648311853408813 0.24709980189800262
0.3975120484828949 0.54987895488739014 0.27525535225868225
0.54888564348220825 0.55848890542984009 0.27738809585571289
0.0020609537605196238 0 0
0.0024049796629697084 0 1.7951517293113284e-05
0.015982698649168015 0.0010640013497322798 0.0015088848304003477
0.051682908087968826 0.0083959689363837242 1.077091019396903e-05
0.11497458815574646 0.02734801359474659 0
0.23415806889533997 0.058759007602930069 0
0.40704435110092163 0.083004862070083618 0
0.0041155349463224411 0.0012420056154951453 0.00088987161871045828
0.0067733018659055233 0.00071767170447856188 0.0019816530402749777
0.019164185971021652 0.0022551743313670158 0.0023008459247648716
0.054704926908016205 0.009409826248884201 0.0012237399350851774
0.11215487867593765 0.027602985501289368 0
0.23006448149681091 0.057745929807424545 0
0.40089172124862671 0.087759338319301605 0.0018074035178869963
0.022991225123405457 0.018822554498910904 0.0054441564716398716
0.021391909569501877 0.019097376614809036 0.010129756294190884
0.028720751404762268 0.021749025210738182 0.0076984181068837643
0.053231466561555862 0.023928802460432053 0.0072736102156341076
0.10743312537670135 0.03293941542506218 0.0020407582633197308
0.21620005369186401 0.057773005217313766 0
0.38272130489349365 0.088038139045238495 0.0014607597840949893
0.028366746380925179 0.058158636093139648 0.018410282209515572
0.025630861520767212 0.06097705289721489 0.022002486512064934
0.036672703921794891 0.058946061879396439 0.01804453507065773
0.058495495468378067 0.06520003080368042 0.018495911732316017
0.11150088161230087 0.077909223735332489 0.021317500621080399
0.23254929482936859 0.097467519342899323 0.015341859310865402
0.4156661331653595 0.13031123578548431 0.0038026398979127407
0 0.12910081446170807 0.084875665605068207
0 0.13380518555641174 0.089184656739234924
0.00023684033658355474 0.14096492528915405 0.088770098984241486
0.0010887894313782454 0.15984459221363068 0.090475954115390778
0.10213559865951538 0.1703650951385498 0.075642004609107971
0.23976927995681763 0.19040809571743011 0.077479235827922821
0.43425706028938293 0.23934026062488556 0.083329804241657257
0 0.24957291781902313 0.14618043601512909
0 0.26081597805023193 0.15279245376586914
6.8096087488811463e-05 0.27572965621948242 0.15548092126846313
0.00030577415600419044 0.29817578196525574 0.15760688483715057
0.11500643193721771 0.33410266041755676 0.16553086042404175
0.29121866822242737 0.34621903300285339 0.1678762286901474
0.45735496282577515 0.38606339693069458 0.16762919723987579
0.00015596876619383693 0.43816837668418884 0.20826767385005951
0.0041499868966639042 0.45191442966461182 0.21445377171039581
0.010446032509207726 0.47010204195976257 0.21791315078735352
0.038684200495481491 0.49055039882659912 0.22633415460586548
0.19268813729286194 0.52499091625213623 0.25151050090789795
0.40408360958099365 0.55744051933288574 0.29459229111671448
0.55141806602478027 0.56156224012374878 0.30488553643226624
0.020704725757241249 0.0017402798403054476 0.016144188120961189
0.020830715075135231 0.00084686279296875 0.012059126049280167
0.035195548087358475 0.0026244816835969687 0.015597100369632244
0.068794280290603638 0.0041715586557984352 0.018027884885668755
0.12866276502609253 0.013364066369831562 0.0062321382574737072
0.23808053135871887 0.045562878251075745 0
0.41235518455505371 0.067335285246372223 0
0.025850392878055573 0.0053628361783921719 0.016643239185214043
0.023677855730056763 0.005402793176472187 0.015756344422698021
0.033554285764694214 0.006113897543400526 0.016853511333465576
0.068813532590866089 0.0057171094231307507 0.023856367915868759
0.12788470089435577 0.01308765821158886 0.0075597278773784637
0.2308708131313324 0.046745434403419495 0
0.39572563767433167 0.080269530415534973 0
0.019849859178066254 0.02596740797162056 0.034116018563508987
0.020487692207098007 0.027042403817176819 0.033767238259315491
0.03014322929084301 0.02403474785387516 0.029215404763817787
0.056617677211761475 0.024420300498604774 0.037313200533390045
0.11234253644943237 0.024523297324776649 0.015490168705582619
0.21014077961444855 0.050361048430204391 0.00057928048772737384
0.3843478262424469 0.082408979535102844 0
0.027224866673350334 0.063079938292503357 0.053003616631031036
0.025890590623021126 0.063968762755393982 0.054081246256828308
0.030933484435081482 0.062327485531568527 0.055655103176832199
0.049017004668712616 0.069901019334793091 0.062686830759048462
0.10662057995796204 0.076993800699710846 0.056829415261745453
0.23202551901340485 0.092796340584754944 0.026552552357316017
0.42801931500434875 0.11947818845510483 0.0036993587855249643
6.7497705458663404e-05 0.12945632636547089 0.093474805355072021
0.00047303742030635476 0.13702096045017242 0.098883099853992462
0.0028466766234487295 0.14212711155414581 0.10663177073001862
0.0025667527224868536 0.1597365140914917 0.11908899992704391
0.080637820065021515 0.174356609582901 0.11369126290082932
0.23599220812320709 0.19243341684341431 0.10748308897018433
0.44012266397476196 0.23576614260673523 0.088130220770835876
0 0.25290951132774353 0.15648655593395233
0 0.26213672757148743 0.16359004378318787
0.002451474079862237 0.27874624729156494 0.17137150466442108
7.7939497714396566e-05 0.30654469132423401 0.18331597745418549
0.079039931297302246 0.33747032284736633 0.18976616859436035
0.28277617692947388 0.35151675343513489 0.19392059743404388
0.45916345715522766 0.38964956998825073 0.19306503236293793
0 0.44222059845924377 0.22091124951839447
4.3173396989004686e-05 0.45235541462898254 0.23295220732688904
0.0025339613202959299 0.47161746025085449 0.23598344624042511
0.018802942708134651 0.49742498993873596 0.24732960760593414
0.15482243895530701 0.5252615213394165 0.26546511054039001
0.38492348790168762 0.556374192237854 0.30078616738319397
0.55218303203582764 0.56736540794372559 0.32022452354431152
0.041675582528114319 0.023263564333319664 0.085881583392620087
0.038726985454559326 0.019220644608139992 0.07934117317199707
0.044628053903579712 0.02003072015941143 0.081311874091625214
0.065756916999816895 0.019778875634074211 0.090445421636104584
0.11527533084154129 0.017376380041241646 0.086577773094177246
0.24727615714073181 0.017399836331605911 0.037593662738800049
0.42135855555534363 0.034554827958345413 0.0033582351170480251
0.041861888021230698 0.024114077910780907 0.089060403406620026
0.042597781866788864 0.022775627672672272 0.087514482438564301
0.04568207636475563 0.022980378940701485 0.088873498141765594
0.064701974391937256 0.022546656429767609 0.09734218567609787
0.11502495408058167 0.016911599785089493 0.098040908575057983
0.23723354935646057 0.01921527273952961 0.046083025634288788
0.41041582822799683 0.044030942022800446 0.013311528600752354
0.036373123526573181 0.042312052100896835 0.1072126030921936
0.034750066697597504 0.042582433670759201 0.10587705671787262
0.03972829133272171 0.037159174680709839 0.09437955915927887
0.060387928038835526 0.035961329936981201 0.095748499035835266
0.093635499477386475 0.031849730759859085 0.0977812260389328
0.20772913098335266 0.027740208432078362 0.064892806112766266
0.39314419031143188 0.047115851193666458 0.0103110671043396
0.0079163946211338043 0.085638381540775299 0.12787483632564545
0.0098134512081742287 0.085403129458427429 0.12914875149726868
0.016880543902516365 0.081622913479804993 0.12849925458431244
0.039878275245428085 0.085747875273227692 0.13673748075962067
0.09425690770149231 0.082391329109668732 0.14038239419460297
0.22299446165561676 0.074546635150909424 0.10873429477214813
0.43266287446022034 0.087929055094718933 0.054346106946468353
5.7983397709904239e-05 0.13919265568256378 0.14406447112560272
0 0.14673607051372528 0.1544899195432663
0 0.15261457860469818 0.16587604582309723
0.0012104557827115059 0.17079506814479828 0.19132670760154724
0.042317736893892288 0.17767062783241272 0.20097202062606812
0.21051608026027679 0.1778348833322525 0.18491709232330322
0.43824496865272522 0.20545764267444611 0.13799537718296051
2.5281718990299851e-05 0.25376766920089722 0.20317792892456055
0 0.2649434506893158 0.21523512899875641
0.0037794525269418955 0.27909553050994873 0.23016136884689331
0 0.30358988046646118 0.25245893001556396
0.01263854093849659 0.32742306590080261 0.2647344172000885
0.18250098824501038 0.34612938761711121 0.26085403561592102
0.43827798962593079 0.37378862500190735 0.25306904315948486
0 0.43820971250534058 0.26658862829208374
0 0.44573992490768433 0.28419062495231628
0 0.46019750833511353 0.29694834351539612
0.00064701755763962865 0.48719590902328491 0.31398257613182068
0.046144388616085052 0.51002287864685059 0.32524782419204712
0.25523513555526733 0.54613900184631348 0.343952476978302
0.50535398721694946 0.57021403312683105 0.37561589479446411
0.08741479367017746 0.066532939672470093 0.21999034285545349
0.083707980811595917 0.063722677528858185 0.21694856882095337
0.081739731132984161 0.062513940036296844 0.21471431851387024
0.089988291263580322 0.058799263089895248 0.22024111449718475
0.10769515484571457 0.048886947333812714 0.2201894074678421
0.20281997323036194 0.027193795889616013 0.2011559009552002
0.40395772457122803 0.011483166366815567 0.13982538878917694
0.088791146874427795 0.06844908744096756 0.22883138060569763
0.087932512164115906 0.067847125232219696 0.22737167775630951
0.086559697985649109 0.066335998475551605 0.22278621792793274
0.094263233244419098 0.060122188180685043 0.2256508469581604
0.10794386267662048 0.048504848033189774 0.22645685076713562
0.19691818952560425 0.029048919677734375 0.21044996380805969
0.39638516306877136 0.018560416996479034 0.15451139211654663
0.091539599001407623 0.082945160567760468 0.23384875059127808
0.089699476957321167 0.081819884479045868 0.23188735544681549
0.087504245340824127 0.075228914618492126 0.22311145067214966
0.094470888376235962 0.06945878267288208 0.21792277693748474
0.09926731139421463 0.059067625552415848 0.21990343928337097
0.1697499006986618 0.042255640029907227 0.21105848252773285
0.37128996849060059 0.029442178085446358 0.16429691016674042
0.085248552262783051 0.11625444144010544 0.25460904836654663
0.087094053626060486 0.11726443469524384 0.25366175174713135
0.08243078738451004 0.1144980788230896 0.24698325991630554
0.091946229338645935 0.11396617442369461 0.24341769516468048
0.11146297305822372 0.10969441384077072 0.25031313300132751
0.18522742390632629 0.09093843400478363 0.25208216905593872
0.39325863122940063 0.070792660117149353 0.21746441721916199
0.014305773191154003 0.18067583441734314 0.27250909805297852
0.016734357923269272 0.18731139600276947 0.27796092629432678
0.018770031630992889 0.19448256492614746 0.28786608576774597
0.024088706821203232 0.2051936537027359 0.30562403798103333
0.049068033695220947 0.21325978636741638 0.32422581315040588
0.16849510371685028 0.19542029500007629 0.31338733434677124
0.37414640188217163 0.18308155238628387 0.28730654716491699
2.917121491918806e-05 0.27101877331733704 0.30323278903961182
0 0.2863973081111908 0.32102420926094055
0.00018122055917046964 0.29780939221382141 0.33338600397109985
0 0.3204810619354248 0.36016499996185303
0.008111332543194294 0.33768314123153687 0.38696295022964478
0.10040789097547531 0.34189993143081665 0.39073237776756287
0.34067574143409729 0.3366905152797699 0.3703179657459259
0 0.43405044078826904 0.35113364458084106
0.00070847157621756196 0.44557353854179382 0.36595427989959717
0.00014896766515448689 0.45854166150093079 0.38776656985282898
6.4954569097608328e-05 0.47709888219833374 0.41808369755744934
0.027995405718684196 0.4955044686794281 0.43545329570770264
0.13493530452251434 0.51518857479095459 0.44847869873046875
0.32102721929550171 0.5449068546295166 0.45262497663497925
0.14710330963134766 0.1234695166349411 0.38362240791320801
0.14715412259101868 0.12350782752037048 0.38545894622802734
0.14485426247119904 0.12115861475467682 0.39078691601753235
0.14634257555007935 0.11642089486122131 0.39306584000587463
0.14847217500209808 0.10516351461410522 0.38624894618988037
0.17054718732833862 0.076073713600635529 0.37766337394714355
0.285744309425354 0.047107905149459839 0.34531056880950928
0.14804321527481079 0.12747463583946228 0.399688720703125
0.15097072720527649 0.12854614853858948 0.40230700373649597
0.15085689723491669 0.12750932574272156 0.39904576539993286
0.15088838338851929 0.12103559076786041 0.39800605177879333
0.14381834864616394 0.10709692537784576 0.39392015337944031
0.15861104428768158 0.081785373389720917 0.38030543923377991
0.27830979228019714 0.051252372562885284 0.35819321870803833
0.15144544839859009 0.13878168165683746 0.40819880366325378
0.150814488530159 0.13810773193836212 0.40604698657989502
0.14884209632873535 0.13270340859889984 0.394868403673172
0.14942988753318787 0.12820738554000854 0.38798516988754272
0.14975909888744354 0.11701236665248871 0.38518384099006653
0.15857332944869995 0.092988349497318268 0.37530860304832458
0.26924362778663635 0.064122922718524933 0.36749523878097534
0.16849628090858459 0.16883464157581329 0.42015737295150757
0.15953683853149414 0.17189204692840576 0.42196002602577209
0.1587936133146286 0.16882911324501038 0.41458368301391602
0.15765091776847839 0.16965121030807495 0.41132497787475586
0.16729086637496948 0.16034750640392303 0.41361832618713379
0.17633585631847382 0.1357177197933197 0.4173198938369751
0.28000956773757935 0.10507600009441376 0.41945961117744446
0.11952270567417145 0.23779572546482086 0.44988241791725159
0.12761169672012329 0.24536514282226562 0.45448556542396545
0.11617044359445572 0.25223633646965027 0.46516165137290955
0.11224576085805893 0.26062971353530884 0.47262769937515259
0.14289078116416931 0.2587028443813324 0.46028897166252136
0.18511615693569183 0.24137535691261292 0.46176502108573914
0.27898576855659485 0.21128635108470917 0.47275373339653015
0.012214017100632191 0.3347507119178772 0.47552818059921265
0.026148537173867226 0.34837353229522705 0.49103635549545288
0.025096744298934937 0.3585471510887146 0.50105184316635132
0.027984948828816414 0.37409541010856628 0.52135622501373291
0.071677081286907196 0.38502314686775208 0.53685855865478516
0.13924872875213623 0.38587164878845215 0.55687469244003296
0.24620357155799866 0.36172595620155334 0.55397951602935791
0.005055655725300312 0.44310680031776428 0.49392572045326233
0.0088734645396471024 0.45132499933242798 0.50592947006225586
0.013981972821056843 0.46763250231742859 0.53298795223236084
0.023931046947836876 0.48248690366744995 0.55476623773574829
0.061224453151226044 0.49514105916023254 0.58136540651321411
0.13656342029571533 0.50573468208312988 0.61010110378265381
0.22229558229446411 0.51398766040802002 0.6211475133895874
0.19929486513137817 0.17541617155075073 0.56942570209503174
0.20175632834434509 0.17557564377784729 0.57865303754806519
0.20128239691257477 0.17369489371776581 0.5865628719329834
0.20124273002147675 0.16906602680683136 0.58848708868026733
0.20075803995132446 0.15797056257724762 0.58042407035827637
0.19838470220565796 0.13461826741695404 0.56623589992523193
0.23319798707962036 0.10566885024309158 0.54579108953475952
0.20016027987003326 0.18112552165985107 0.5908094048500061
0.20390386879444122 0.18110840022563934 0.60276210308074951
0.20376706123352051 0.17933249473571777 0.60293173789978027
0.20194633305072784 0.17374920845031738 0.60150039196014404
0.19530071318149567 0.16164448857307434 0.59322655200958252
0.18381506204605103 0.13867305219173431 0.57338398694992065
0.21784035861492157 0.10840388387441635 0.55764317512512207
0.20376460254192352 0.19216707348823547 0.60806858539581299
0.2063165009021759 0.18948566913604736 0.60769021511077881
0.20313000679016113 0.18370820581912994 0.59963762760162354
0.19971953332424164 0.17771203815937042 0.59390026330947876
0.19831080734729767 0.16737549006938934 0.59171891212463379
0.19323727488517761 0.14811761677265167 0.57860714197158813
0.22916756570339203 0.12162336707115173 0.56769150495529175
0.22351671755313873 0.22297579050064087 0.62053424119949341
0.22073179483413696 0.21820808947086334 0.61821192502975464
0.2168257087469101 0.21395677328109741 0.6142202615737915
0.20952799916267395 0.21272353827953339 0.61230373382568359
0.21498419344425201 0.20582270622253418 0.61962544918060303
0.21334609389305115 0.18675927817821503 0.6194688081741333
0.24712620675563812 0.16163204610347748 0.60866469144821167
0.21412144601345062 0.29178854823112488 0.64575850963592529
0.20799435675144196 0.28618326783180237 0.6389726996421814
0.20361696183681488 0.29352548718452454 0.64248943328857422
0.20008620619773865 0.30228391289710999 0.64988523721694946
0.20495440065860748 0.30441173911094666 0.65272784233093262
0.22856590151786804 0.28111758828163147 0.65146529674530029
0.27123016119003296 0.24510413408279419 0.63787686824798584
0.1224021315574646 0.39080572128295898 0.66682654619216919
0.12437757849693298 0.40122705698013306 0.68143129348754883
0.12190921604633331 0.40749743580818176 0.67781317234039307
0.13243837654590607 0.41573384404182434 0.69235068559646606
0.13504824042320251 0.42304453253746033 0.68575787544250488
0.17955814301967621 0.41140598058700562 0.68637359142303467
0.24431431293487549 0.38842898607254028 0.67617875337600708
0.068408042192459106 0.47720006108283997 0.68087506294250488
0.072640135884284973 0.48319271206855774 0.69298708438873291
0.07560303807258606 0.48944360017776489 0.68890184164047241
0.081126116216182709 0.50216883420944214 0.6935151219367981
0.10115781426429749 0.51510173082351685 0.70112103223800659
0.16164557635784149 0.52318817377090454 0.72351497411727905
0.24724970757961273 0.52938073873519897 0.74496030807495117
