assets/lut/shamoonabbasi shadow king 39.cube
# Created by: G'MIC (https://gmic.eu)
TITLE "shadow_king_39"
# LUT size
LUT_3D_SIZE 7
# Data domain
DOMAIN_MIN 0.0 0.0 0.0
DOMAIN_MAX 1.0 1.0 1.0
# LUT data points
0.019788464531302452 0.024865603074431419 0.023002145811915398
0.03460153192281723 0.03739706426858902 0.039486873894929886
0.068328037858009338 0.039895720779895782 0.043320927768945694
0.13786378502845764 0.038430936634540558 0.042231153696775436
0.24261575937271118 0.033630341291427612 0.037170350551605225
0.38324758410453796 0.030262816697359085 0.029685001820325851
0.54390078783035278 0.033036608248949051 0.023365005850791931
0.060268625617027283 0.061828494071960449 0.063804745674133301
0.073735013604164124 0.075597591698169708 0.077705740928649902
0.10386714339256287 0.089311800897121429 0.078084357082843781
0.1742388904094696 0.09771951287984848 0.072455942630767822
0.28229448199272156 0.10296777635812759 0.070545852184295654
0.42916709184646606 0.10473941266536713 0.063435740768909454
0.59440237283706665 0.10836884379386902 0.06273612380027771
0.078732416033744812 0.13560138642787933 0.087406933307647705
0.12274861335754395 0.15207499265670776 0.11542429029941559
0.16328929364681244 0.1707683801651001 0.12104728817939758
0.23374888300895691 0.19038335978984833 0.11031589657068253
0.34466221928596497 0.20194163918495178 0.10216348618268967
0.48775854706764221 0.21074612438678741 0.095623821020126343
0.64386862516403198 0.22562581300735474 0.093492023646831512
0.092316754162311554 0.25043118000030518 0.10317345708608627
0.15583989024162292 0.26866906881332397 0.13119277358055115
0.22103098034858704 0.29198160767555237 0.14474946260452271
0.30559447407722473 0.31714734435081482 0.14466424286365509
0.41870439052581787 0.34113433957099915 0.13888902962207794
0.55499094724655151 0.36168470978736877 0.13183906674385071
0.69678878784179688 0.38270953297615051 0.12335975468158722
0.10143784433603287 0.41874232888221741 0.114524245262146
0.17779551446437836 0.44056594371795654 0.14314445853233337
0.26874753832817078 0.46234551072120667 0.16320095956325531
0.37271562218666077 0.48862549662590027 0.1720670610666275
0.49058571457862854 0.51517271995544434 0.17450444400310516
0.62013167142868042 0.5341452956199646 0.16783088445663452
0.75044667720794678 0.55491644144058228 0.15603367984294891
0.11578870564699173 0.6090468168258667 0.1281103640794754
0.2038949728012085 0.62889468669891357 0.15636162459850311
0.31217843294143677 0.6431010365486145 0.17824307084083557
0.43096703290939331 0.66196537017822266 0.19021978974342346
0.55378717184066772 0.68567943572998047 0.1974724680185318
0.6781657338142395 0.70530647039413452 0.19535656273365021
0.80092954635620117 0.72601854801177979 0.1880648285150528
0.14247608184814453 0.78803259134292603 0.15249517560005188
0.24226361513137817 0.80155473947525024 0.17521080374717712
0.35768449306488037 0.81196892261505127 0.19431194663047791
0.48320856690406799 0.82310777902603149 0.20539569854736328
0.6092374324798584 0.83991819620132446 0.21608123183250427
0.73182547092437744 0.86005395650863647 0.22471566498279572
0.8521541953086853 0.88129574060440063 0.22799640893936157
0.031404998153448105 0.032316647469997406 0.031756952404975891
0.039203822612762451 0.039309319108724594 0.041561726480722427
0.066228263080120087 0.044326424598693848 0.057543676346540451
0.13197074830532074 0.041458398103713989 0.069253973662853241
0.22903232276439667 0.042915314435958862 0.072521209716796875
0.36856701970100403 0.039237678050994873 0.074873082339763641
0.53218811750411987 0.042578063905239105 0.077114850282669067
0.063542984426021576 0.06711018830537796 0.068898804485797882
0.078130103647708893 0.079117611050605774 0.085237853229045868
0.094471678137779236 0.097316622734069824 0.10364720970392227
0.15984538197517395 0.10679513961076736 0.11322100460529327
0.26576977968215942 0.1135646179318428 0.11636364459991455
0.41332510113716125 0.11151425540447235 0.11779242008924484
0.5822950005531311 0.11766423285007477 0.11901775002479553
0.09354681521654129 0.13697238266468048 0.1222371831536293
0.14333391189575195 0.1511838436126709 0.15973043441772461
0.16902437806129456 0.17710147798061371 0.18573407828807831
0.21602511405944824 0.19924750924110413 0.18685558438301086
0.32631811499595642 0.21121205389499664 0.17478209733963013
0.46955609321594238 0.22115238010883331 0.16989052295684814
0.62836927175521851 0.23250564932823181 0.16858328878879547
0.10623317211866379 0.25533559918403625 0.16312403976917267
0.18002098798751831 0.26939505338668823 0.20383948087692261
0.24471618235111237 0.29233506321907043 0.24595135450363159
0.30867487192153931 0.32653886079788208 0.25064444541931152
0.40849676728248596 0.35105705261230469 0.23977437615394592
0.5375676155090332 0.37509924173355103 0.22895938158035278
0.68118476867675781 0.38997036218643188 0.21964068710803986
0.11384773999452591 0.42314064502716064 0.19138339161872864
0.20090806484222412 0.43851697444915771 0.23129501938819885
0.29817774891853333 0.45798194408416748 0.27253729104995728
0.39155527949333191 0.48917320370674133 0.29181841015815735
0.49397227168083191 0.51739740371704102 0.29713201522827148
0.61350071430206299 0.54112356901168823 0.28926289081573486
0.7406843900680542 0.5599067211151123 0.27549049258232117
0.12673702836036682 0.61287963390350342 0.21815398335456848
0.22523321211338043 0.62458187341690063 0.2576027512550354
0.33854016661643982 0.63653445243835449 0.29502156376838684
0.45355224609375 0.65693944692611694 0.31881648302078247
0.56742864847183228 0.68230414390563965 0.33403673768043518
0.68314045667648315 0.7067335844039917 0.33573111891746521
0.79800522327423096 0.72777706384658813 0.32504963874816895
0.1493610143661499 0.79117661714553833 0.2557007372379303
0.25532102584838867 0.80036550760269165 0.28722229599952698
0.3759956955909729 0.80718517303466797 0.31881681084632874
0.50222539901733398 0.81736916303634644 0.3413466215133667
0.62483125925064087 0.83374136686325073 0.36009469628334045
0.74098140001296997 0.85409259796142578 0.37286356091499329
0.85234123468399048 0.87746220827102661 0.37466168403625488
0.030640516430139542 0.031899724155664444 0.058115493506193161
0.047018386423587799 0.03773028776049614 0.062686145305633545
0.074129708111286163 0.044719066470861435 0.079351268708705902
0.13499055802822113 0.04600544273853302 0.10592149943113327
0.22750090062618256 0.047157783061265945 0.12265969067811966
0.3637273907661438 0.04003530740737915 0.13700844347476959
0.52493029832839966 0.039176162332296371 0.1494789719581604
0.058575380593538284 0.073011748492717743 0.091194897890090942
0.084470547735691071 0.085169807076454163 0.090515226125717163
0.099667087197303772 0.10396050661802292 0.11132138967514038
0.1537511795759201 0.11634363234043121 0.14690494537353516
0.2579084038734436 0.1208016648888588 0.16971084475517273
0.40270885825157166 0.11761196702718735 0.18571677803993225
0.57050216197967529 0.12073675543069839 0.19612103700637817
0.091161288321018219 0.14613234996795654 0.15500982105731964
0.1510707288980484 0.16000086069107056 0.17016978561878204
0.17795197665691376 0.18424136936664581 0.1961347758769989
0.20326636731624603 0.21242110431194305 0.22845730185508728
0.30315569043159485 0.22602668404579163 0.24317459762096405
0.45096275210380554 0.23760342597961426 0.25140795111656189
0.61399483680725098 0.24623534083366394 0.25604972243309021
0.11201599985361099 0.26291581988334656 0.22141307592391968
0.20136725902557373 0.27337300777435303 0.25692275166511536
0.27847829461097717 0.29253241419792175 0.31538471579551697
0.31540760397911072 0.33171162009239197 0.35644003748893738
0.3867499828338623 0.36614936590194702 0.35531631112098694
0.5133899450302124 0.38807868957519531 0.34192240238189697
0.6631283164024353 0.40021875500679016 0.33239728212356567
0.12309368699789047 0.43001103401184082 0.27688664197921753
0.22157344222068787 0.44229206442832947 0.31989178061485291
0.33452713489532471 0.46077871322631836 0.37936490774154663
0.42512711882591248 0.48454371094703674 0.43393027782440186
0.49780011177062988 0.52160346508026123 0.45073512196540833
0.60016924142837524 0.55067688226699829 0.43352264165878296
0.72322237491607666 0.56985610723495483 0.41394275426864624
0.13690906763076782 0.6165156364440918 0.3244464099407196
0.24461288750171661 0.62456971406936646 0.36825412511825562
0.36800369620323181 0.63585937023162842 0.41912549734115601
0.48659008741378784 0.65404754877090454 0.46531102061271667
0.58615380525588989 0.67975610494613647 0.49581137299537659
0.68425756692886353 0.71260517835617065 0.50132668018341064
0.78843826055526733 0.73154282569885254 0.4866195023059845
0.15607933700084686 0.79383218288421631 0.37222728133201599
0.26906529068946838 0.79935425519943237 0.41106143593788147
0.39708992838859558 0.80482012033462524 0.45398649573326111
0.52725327014923096 0.81424522399902344 0.49234926700592041
0.64421707391738892 0.83066874742507935 0.52199763059616089
0.75045740604400635 0.85083800554275513 0.54037714004516602
0.85099434852600098 0.87422549724578857 0.54107296466827393
0.029926210641860962 0.030754657462239265 0.12210234254598618
0.055503126233816147 0.038083992898464203 0.12291064113378525
0.089294016361236572 0.045260485261678696 0.13607390224933624
0.14572101831436157 0.049183309078216553 0.16114650666713715
0.23628321290016174 0.049305859953165054 0.18816636502742767
0.36781328916549683 0.041511207818984985 0.21494105458259583
0.52406692504882812 0.040967065840959549 0.23768904805183411
0.05182979628443718 0.077151156961917877 0.15977756679058075
0.087643340229988098 0.089106105268001556 0.15105314552783966
0.12057305127382278 0.10483090579509735 0.1544521301984787
0.16837890446186066 0.11760438233613968 0.18972620368003845
0.26314407587051392 0.12416324764490128 0.22947028279304504
0.40237987041473389 0.12422024458646774 0.26368018984794617
0.56448912620544434 0.12789885699748993 0.28835543990135193
0.078159540891647339 0.15501970052719116 0.21926438808441162
0.14198696613311768 0.17144691944122314 0.20844535529613495
0.1862461268901825 0.19391556084156036 0.206058070063591
0.21346761286258698 0.22245639562606812 0.23878929018974304
0.29388630390167236 0.23927152156829834 0.29323804378509521
0.44118818640708923 0.24897441267967224 0.33413559198379517
0.60399174690246582 0.25704267621040344 0.35639426112174988
0.10612275451421738 0.27331933379173279 0.29820680618286133
0.19666619598865509 0.28627458214759827 0.30751714110374451
0.28979155421257019 0.30643934011459351 0.32905232906341553
0.32746899127960205 0.34564736485481262 0.37121734023094177
0.36862292885780334 0.38431084156036377 0.41250348091125488
0.48811012506484985 0.40565270185470581 0.43564251065254211
0.64675378799438477 0.4173266589641571 0.4449341893196106
0.12394684553146362 0.4414745569229126 0.37319761514663696
0.23013682663440704 0.4500160813331604 0.40630877017974854
0.36557283997535706 0.46208357810974121 0.4524918794631958
0.46179139614105225 0.48456987738609314 0.51880025863647461
0.50707423686981201 0.52966898679733276 0.56768405437469482
0.58249914646148682 0.56585401296615601 0.56291300058364868
0.70446819067001343 0.58673936128616333 0.54601103067398071
0.13958488404750824 0.62283504009246826 0.43976408243179321
0.25566688179969788 0.63130706548690796 0.47863191366195679
0.39424672722816467 0.64225983619689941 0.52902436256408691
0.52979582548141479 0.65786159038543701 0.59298580884933472
0.61756736040115356 0.67944788932800293 0.64877760410308838
0.68592590093612671 0.71393036842346191 0.65807729959487915
0.77830660343170166 0.74192392826080322 0.63699305057525635
0.1561344712972641 0.79356890916824341 0.49964487552642822
0.27725750207901001 0.80142903327941895 0.53576672077178955
0.41779473423957825 0.80776894092559814 0.57992684841156006
0.5578797459602356 0.81571751832962036 0.62795758247375488
0.67283076047897339 0.83078855276107788 0.67015570402145386
0.76511508226394653 0.85017842054367065 0.69856619834899902
0.85259073972702026 0.87498849630355835 0.69924467802047729
0.032574940472841263 0.032747771590948105 0.2196304053068161
0.061028305441141129 0.037452638149261475 0.21981947124004364
0.10173166543245316 0.041893184185028076 0.22930127382278442
0.16357380151748657 0.045571211725473404 0.25114732980728149
0.25541520118713379 0.047653302550315857 0.28132474422454834
0.38259324431419373 0.043694216758012772 0.31480205059051514
0.53281635046005249 0.0461871437728405 0.34255862236022949
0.048249457031488419 0.080230847001075745 0.2640526294708252
0.086528778076171875 0.09121500700712204 0.25729501247406006
0.13486567139625549 0.10509116947650909 0.25482118129730225
0.19310407340526581 0.11594656854867935 0.27632209658622742
0.28380107879638672 0.12360160797834396 0.31650114059448242
0.41526502370834351 0.12365752458572388 0.36255928874015808
0.56842797994613647 0.12819564342498779 0.39891323447227478
0.069993548095226288 0.16260358691215515 0.32310399413108826
0.12656588852405548 0.17938800156116486 0.31424129009246826
0.19105035066604614 0.19821824133396149 0.29781660437583923
0.24243623018264771 0.22252556681632996 0.31013721227645874
0.31841230392456055 0.24414673447608948 0.35733440518379211
0.44913846254348755 0.25217542052268982 0.41959196329116821
0.60262632369995117 0.25805538892745972 0.46378996968269348
0.093025803565979004 0.28596195578575134 0.40333640575408936
0.17501972615718842 0.30163022875785828 0.4042421281337738
0.27202615141868591 0.32289221882820129 0.38481190800666809
0.34236708283424377 0.35890689492225647 0.38683938980102539
0.38113677501678467 0.39899554848670959 0.43016976118087769
0.47696033120155334 0.42293074727058411 0.49544712901115417
0.63394880294799805 0.42975121736526489 0.54220318794250488
0.11664547026157379 0.45478746294975281 0.4837472140789032
0.21973696351051331 0.46559932827949524 0.50121837854385376
0.3556303083896637 0.47824311256408691 0.51373368501663208
0.47862344980239868 0.50055748224258423 0.53726518154144287
0.52001911401748657 0.54364907741546631 0.5816074013710022
0.56329655647277832 0.58408743143081665 0.62173354625701904
0.67754191160202026 0.60279715061187744 0.64504337310791016
0.13744296133518219 0.63237828016281128 0.55972164869308472
0.25520414113998413 0.64448589086532593 0.5842972993850708
0.40776798129081726 0.6510087251663208 0.61736124753952026
0.55909144878387451 0.65939778089523315 0.65944331884384155
0.65630543231964111 0.6823190450668335 0.72035360336303711
0.69485181570053101 0.72188973426818848 0.75785630941390991
0.75670069456100464 0.75299066305160522 0.75769346952438354
0.1543872207403183 0.79695010185241699 0.62564319372177124
0.28018918633460999 0.80886471271514893 0.65089130401611328
0.43326756358146667 0.81433504819869995 0.68509566783905029
0.58796423673629761 0.81784111261367798 0.72983324527740479
0.71880078315734863 0.82708466053009033 0.78364503383636475
0.79406613111495972 0.84858042001724243 0.82643479108810425
0.85385662317276001 0.87833577394485474 0.8296692967414856
0.027235621586441994 0.020143890753388405 0.36127397418022156
0.062513284385204315 0.025957264006137848 0.36059972643852234
0.10974661260843277 0.031655944883823395 0.36889490485191345
0.17848612368106842 0.038917511701583862 0.38793683052062988
0.27470433712005615 0.045243356376886368 0.41376051306724548
0.40330624580383301 0.044294904917478561 0.44240337610244751
0.54943114519119263 0.047129955142736435 0.46853736042976379
0.043793696910142899 0.07797037810087204 0.41097986698150635
0.085838541388511658 0.088198192417621613 0.4049285352230072
0.14360007643699646 0.10031657665967941 0.40339446067810059
0.21599717438220978 0.11010899394750595 0.41789209842681885
0.31132495403289795 0.1224486380815506 0.4471193253993988
0.43925198912620544 0.1251225471496582 0.4859643280506134
0.58565801382064819 0.12896108627319336 0.5233306884765625
0.062836818397045135 0.16840951144695282 0.46793696284294128
0.11939508467912674 0.18353579938411713 0.45956069231033325
0.19093354046344757 0.20093975961208344 0.44895395636558533
0.267030268907547 0.22131742537021637 0.45365491509437561
0.3569309413433075 0.24080358445644379 0.48040091991424561
0.47482478618621826 0.25289088487625122 0.5262988805770874
0.61640405654907227 0.26004832983016968 0.57613199949264526
0.084871970117092133 0.29282721877098083 0.53868108987808228
0.16008144617080688 0.31154617667198181 0.53343099355697632
0.25274401903152466 0.3345903754234314 0.51680678129196167
0.3460899293422699 0.36315050721168518 0.50216889381408691
0.41865801811218262 0.39801493287086487 0.51173478364944458
0.51085478067398071 0.42681258916854858 0.56826943159103394
0.64057010412216187 0.44006642699241638 0.62935853004455566
0.10782931745052338 0.46188423037528992 0.61230111122131348
0.20379629731178284 0.47906920313835144 0.61628490686416626
0.3287506103515625 0.49727573990821838 0.61214756965637207
0.4600328803062439 0.52090966701507568 0.59424519538879395
0.53318524360656738 0.55720460414886475 0.59570407867431641
0.57728153467178345 0.59823328256607056 0.63717412948608398
0.66956526041030884 0.62209641933441162 0.69898092746734619
0.13122756779193878 0.64129036664962769 0.68286925554275513
0.24387973546981812 0.65762734413146973 0.69497561454772949
0.39344134926795959 0.66637814044952393 0.70611220598220825
0.55383592844009399 0.67538142204284668 0.71685421466827393
0.66952317953109741 0.69479143619537354 0.73351424932479858
0.70476150512695312 0.73381489515304565 0.77137964963912964
0.74653726816177368 0.76762765645980835 0.80463820695877075
0.15471507608890533 0.80720072984695435 0.74205660820007324
0.2787838876247406 0.81931370496749878 0.75818973779678345
0.43476995825767517 0.82257020473480225 0.77761691808700562
0.59943079948425293 0.82603710889816284 0.80351775884628296
0.7443048357963562 0.83271533250808716 0.83809745311737061
0.82103389501571655 0.85073602199554443 0.88339686393737793
0.8584175705909729 0.87881124019622803 0.90702134370803833
0.020452581346035004 0.0072956457734107971 0.52553421258926392
0.062918916344642639 0.012593856081366539 0.52665632963180542
0.11585482209920883 0.023163873702287674 0.53404068946838379
0.18899284303188324 0.03819873183965683 0.54980218410491943
0.29188555479049683 0.046230901032686234 0.56861662864685059
0.42366600036621094 0.043390791863203049 0.58792006969451904
0.56606221199035645 0.04575735330581665 0.60879790782928467
0.041555680334568024 0.074840813875198364 0.57861495018005371
0.087335295975208282 0.084351889789104462 0.5734979510307312
0.14775824546813965 0.096970468759536743 0.57341718673706055
0.23012769222259521 0.11443255841732025 0.58202457427978516
0.33487728238105774 0.12663586437702179 0.60131585597991943
0.46447280049324036 0.12915293872356415 0.62834852933883667
0.60604363679885864 0.13262051343917847 0.65805256366729736
0.059067804366350174 0.17640385031700134 0.62834751605987549
0.11904793232679367 0.18823154270648956 0.62163960933685303
0.19388033449649811 0.20405261218547821 0.61439502239227295
0.28353020548820496 0.2250344455242157 0.61578911542892456
0.38657727837562561 0.24377116560935974 0.63198685646057129
0.50585591793060303 0.25661164522171021 0.66134011745452881
0.63730764389038086 0.26718881726264954 0.69670861959457397
0.078473322093486786 0.30977201461791992 0.68365001678466797
0.15513864159584045 0.32398626208305359 0.67835843563079834
0.2482140064239502 0.34406086802482605 0.66610181331634521
0.3512217104434967 0.36956319212913513 0.65713870525360107
0.45155560970306396 0.3965507447719574 0.66434401273727417
0.55001980066299438 0.42464587092399597 0.68850672245025635
0.66227918863296509 0.4439752995967865 0.72600466012954712
0.099981553852558136 0.47432267665863037 0.74375873804092407
0.19458548724651337 0.49132588505744934 0.74222093820571899
0.3114561140537262 0.51143956184387207 0.73323291540145874
0.43656879663467407 0.53527343273162842 0.71825534105300903
0.54156941175460815 0.56241512298583984 0.70183497667312622
0.61205410957336426 0.59911054372787476 0.71288001537322998
0.69047421216964722 0.62643188238143921 0.75571185350418091
0.12369176745414734 0.64960414171218872 0.80265182256698608
0.23142169415950775 0.66708552837371826 0.8049623966217041
0.373313307762146 0.67903882265090942 0.80396229028701782
0.52463436126708984 0.69547432661056519 0.79861891269683838
0.65635353326797485 0.71132069826126099 0.78279000520706177
0.72069638967514038 0.7467041015625 0.78911203145980835
0.75769555568695068 0.7790343165397644 0.8205755352973938
0.15406420826911926 0.81570082902908325 0.85444372892379761
0.27292308211326599 0.82841157913208008 0.85967057943344116
0.42594629526138306 0.83085459470748901 0.86595726013183594
0.59001892805099487 0.83540105819702148 0.87331545352935791
0.73688328266143799 0.84590405225753784 0.88271033763885498
0.82917195558547974 0.86200088262557983 0.89760434627532959
0.86330914497375488 0.88771897554397583 0.92255198955535889
