assets/lut/shamoonabbasi rest 33.cube
# Created by: G'MIC (https://gmic.eu)
TITLE "rest_33"
# LUT size
LUT_3D_SIZE 7
# Data domain
DOMAIN_MIN 0.0 0.0 0.0
DOMAIN_MAX 1.0 1.0 1.0
# LUT data points
0.060490701347589493 0.0818801149725914 0.081011019647121429
0.081429965794086456 0.10114362835884094 0.097228720784187317
0.16783028841018677 0.10217041522264481 0.10308821499347687
0.3058411180973053 0.099822074174880981 0.10678716748952866
0.47802442312240601 0.088968388736248016 0.10593128949403763
0.66281086206436157 0.076963804662227631 0.097737647593021393
0.84725016355514526 0.09569917619228363 0.077292047441005707
0.14150550961494446 0.16772037744522095 0.14953666925430298
0.17997032403945923 0.203250452876091 0.17517523467540741
0.26729035377502441 0.23643293976783752 0.17353902757167816
0.44142702221870422 0.24922721087932587 0.16786888241767883
0.64065343141555786 0.22162163257598877 0.1638958752155304
0.80916160345077515 0.2328193187713623 0.15312975645065308
0.93528503179550171 0.26463904976844788 0.12932293117046356
0.21388290822505951 0.30887594819068909 0.21338328719139099
0.3221433162689209 0.36041355133056641 0.2437351793050766
0.42965781688690186 0.4133746325969696 0.25124222040176392
0.56872749328613281 0.45773249864578247 0.23875157535076141
0.73943024873733521 0.48384362459182739 0.22179454565048218
0.87565803527832031 0.48591500520706177 0.21437376737594604
0.98377597332000732 0.4791405200958252 0.20805090665817261
0.3136037290096283 0.46320024132728577 0.2703491747379303
0.45122173428535461 0.52192264795303345 0.29262629151344299
0.57431530952453613 0.57572126388549805 0.3083459734916687
0.68688708543777466 0.62352925539016724 0.30478408932685852
0.79810011386871338 0.66130936145782471 0.29349854588508606
0.9032929539680481 0.68129616975784302 0.27829185128211975
0.99080109596252441 0.67906326055526733 0.26464042067527771
0.46543920040130615 0.64345252513885498 0.32841971516609192
0.58476275205612183 0.67700648307800293 0.36111778020858765
0.68806600570678711 0.71634560823440552 0.38074401021003723
0.77332437038421631 0.75517922639846802 0.3882758617401123
0.85895746946334839 0.79079717397689819 0.38003265857696533
0.93284130096435547 0.81214964389801025 0.35697594285011292
0.99047279357910156 0.82476955652236938 0.32712650299072266
0.62160158157348633 0.7908245325088501 0.42835003137588501
0.70286256074905396 0.80842643976211548 0.47569137811660767
0.77680987119674683 0.83514922857284546 0.4937225878238678
0.84523087739944458 0.86153590679168701 0.5059356689453125
0.91152149438858032 0.88304638862609863 0.49686235189437866
0.97022861242294312 0.90410596132278442 0.46340829133987427
0.99803042411804199 0.919441819190979 0.45393833518028259
0.73844796419143677 0.89358580112457275 0.56683474779129028
0.79945367574691772 0.89417219161987305 0.60917890071868896
0.84786355495452881 0.90559172630310059 0.60394996404647827
0.89717227220535278 0.91549581289291382 0.58573317527770996
0.95011454820632935 0.92834514379501343 0.55195879936218262
0.99592244625091553 0.93713998794555664 0.49973201751708984
1 0.93725490570068359 0.49152019619941711
0.065649859607219696 0.087521962821483612 0.087004475295543671
0.085545681416988373 0.10668891668319702 0.10219979286193848
0.15746951103210449 0.11759214103221893 0.12984435260295868
0.28165781497955322 0.12630990147590637 0.14531713724136353
0.4397033154964447 0.12933751940727234 0.15165033936500549
0.62249565124511719 0.13693378865718842 0.15133026242256165
0.808818519115448 0.15464136004447937 0.14526589214801788
0.15171794593334198 0.17931258678436279 0.16059388220310211
0.1960875391960144 0.21948572993278503 0.18853060901165009
0.24346403777599335 0.25934141874313354 0.21788299083709717
0.40289232134819031 0.27155151963233948 0.23354759812355042
0.6082342267036438 0.26553183794021606 0.24210448563098907
0.76794779300689697 0.2796001136302948 0.23351456224918365
0.90217667818069458 0.31266430020332336 0.22305086255073547
0.24385955929756165 0.32159188389778137 0.25919541716575623
0.36724051833152771 0.37357190251350403 0.30005991458892822
0.43666839599609375 0.4243151843547821 0.33412393927574158
0.54161560535430908 0.47164255380630493 0.3366541862487793
0.7121279239654541 0.49900138378143311 0.3295188844203949
0.85385036468505859 0.49850377440452576 0.32905209064483643
0.97405529022216797 0.49642741680145264 0.32864281535148621
0.33974477648735046 0.47645014524459839 0.32685256004333496
0.48905330896377563 0.53087621927261353 0.36860308051109314
0.60299384593963623 0.58437007665634155 0.40943267941474915
0.68352049589157104 0.63024675846099854 0.42236405611038208
0.78266358375549316 0.66897714138031006 0.41787031292915344
0.88484328985214233 0.68856203556060791 0.41475251317024231
0.98170614242553711 0.6878243088722229 0.40112346410751343
0.47841551899909973 0.65382570028305054 0.3871416449546814
0.60531854629516602 0.68095844984054565 0.43962717056274414
0.70126157999038696 0.72028607130050659 0.48065298795700073
0.77358382940292358 0.75640726089477539 0.50606703758239746
0.84847253561019897 0.79396694898605347 0.51552289724349976
0.91774505376815796 0.81935328245162964 0.5099799633026123
0.97886860370635986 0.83169996738433838 0.49074718356132507
0.61819839477539062 0.7956392765045166 0.48587134480476379
0.70471727848052979 0.80922609567642212 0.54614776372909546
0.78181582689285278 0.83711117506027222 0.57647305727005005
0.84586131572723389 0.86153388023376465 0.59383666515350342
0.9060400128364563 0.88634335994720459 0.60324621200561523
0.96172404289245605 0.90784859657287598 0.58993351459503174
0.98983067274093628 0.91846781969070435 0.57759177684783936
0.73091858625411987 0.89525586366653442 0.60047101974487305
0.8011590838432312 0.89586734771728516 0.64988887310028076
0.85320228338241577 0.90646904706954956 0.65873938798904419
0.89828872680664062 0.91803902387619019 0.65338516235351562
0.94815385341644287 0.93070924282073975 0.63784134387969971
0.99090343713760376 0.94085580110549927 0.61510837078094482
0.99531632661819458 0.94116711616516113 0.61025774478912354
0.062230203300714493 0.095648743212223053 0.13011297583580017
0.10256229341030121 0.10949056595563889 0.1374564915895462
0.17317792773246765 0.12599894404411316 0.16307877004146576
0.27974501252174377 0.1306302398443222 0.18398000299930573
0.43147611618041992 0.12540169060230255 0.19605351984500885
0.60246044397354126 0.11875424534082413 0.2035989910364151
0.78096693754196167 0.15373988449573517 0.20846864581108093
0.13037538528442383 0.19243285059928894 0.20000723004341125
0.20719018578529358 0.23216903209686279 0.20081309974193573
0.25638774037361145 0.27090370655059814 0.2287774533033371
0.3826909065246582 0.29359579086303711 0.27627035975456238
0.56999427080154419 0.30418041348457336 0.30434632301330566
0.72146272659301758 0.3181731104850769 0.30452203750610352
0.86547434329986572 0.34821772575378418 0.29767239093780518
0.23529556393623352 0.33913886547088623 0.29851549863815308
0.38710775971412659 0.38921394944190979 0.31643477082252502
0.46058660745620728 0.44275107979774475 0.35256952047348022
0.51955580711364746 0.48981660604476929 0.38311842083930969
0.68046259880065918 0.51945203542709351 0.40606036782264709
0.82724767923355103 0.51661211252212524 0.42117244005203247
0.94245052337646484 0.52735495567321777 0.42249864339828491
0.34373408555984497 0.50084954500198364 0.37178164720535278
0.5228545069694519 0.54550302028656006 0.41889974474906921
0.63861435651779175 0.59700942039489746 0.46869122982025146
0.68399405479431152 0.63921767473220825 0.50820577144622803
0.7545316219329834 0.67923623323440552 0.52424192428588867
0.85877186059951782 0.70189052820205688 0.52960264682769775
0.96308618783950806 0.70156216621398926 0.53215581178665161
0.47781500220298767 0.66868042945861816 0.44321104884147644
0.61946898698806763 0.68405270576477051 0.51288044452667236
0.72077590227127075 0.72577947378158569 0.56787025928497314
0.78677135705947876 0.76303613185882568 0.60707706212997437
0.83760052919387817 0.79704546928405762 0.62183195352554321
0.899769127368927 0.82484489679336548 0.62390059232711792
0.9649651050567627 0.839255690574646 0.61652004718780518
0.61105334758758545 0.81025713682174683 0.54166722297668457
0.70999538898468018 0.81459337472915649 0.60698455572128296
0.79048889875411987 0.83763694763183594 0.64385819435119629
0.85305655002593994 0.86463648080825806 0.6721118688583374
0.90459692478179932 0.88851618766784668 0.68589299917221069
0.95461380481719971 0.90911018848419189 0.68244844675064087
0.97907185554504395 0.92245471477508545 0.67640024423599243
0.72122353315353394 0.90524160861968994 0.63704389333724976
0.80036771297454834 0.89939385652542114 0.68539029359817505
0.85635584592819214 0.9082980751991272 0.71059644222259521
0.89810067415237427 0.91981989145278931 0.71478360891342163
0.94907611608505249 0.93352335691452026 0.71367895603179932
0.98261362314224243 0.94117647409439087 0.70886361598968506
0.98535537719726562 0.94117647409439087 0.70932304859161377
0.045914176851511002 0.10714685916900635 0.20144091546535492
0.10891937464475632 0.12914282083511353 0.21102413535118103
0.18935410678386688 0.14099119603633881 0.23487000167369843
0.29974395036697388 0.1422378271818161 0.25755581259727478
0.45361846685409546 0.12612774968147278 0.27188709378242493
0.63203471899032593 0.083498336374759674 0.27426227927207947
0.81110215187072754 0.05463554710149765 0.26249250769615173
0.082503959536552429 0.20656993985176086 0.26567748188972473
0.20987153053283691 0.24324709177017212 0.27430668473243713
0.30147433280944824 0.2771809995174408 0.28469166159629822
0.40373998880386353 0.29916390776634216 0.31653457880020142
0.54496508836746216 0.30922353267669678 0.33755573630332947
0.69877439737319946 0.32169064879417419 0.34687376022338867
0.83925312757492065 0.34194311499595642 0.34418091177940369
0.14785018563270569 0.36694321036338806 0.34230631589889526
0.36761566996574402 0.40263134241104126 0.35864377021789551
0.47791433334350586 0.45879009366035461 0.3656897246837616
0.53915297985076904 0.50480532646179199 0.39633893966674805
0.66808849573135376 0.535552978515625 0.44947940111160278
0.80556309223175049 0.53505188226699829 0.4835858941078186
0.90637826919555664 0.55074745416641235 0.48702961206436157
0.27038076519966125 0.53116804361343384 0.40585488080978394
0.51392859220504761 0.55554091930389404 0.45820057392120361
0.6521906852722168 0.611042320728302 0.48471501469612122
0.69481557607650757 0.65172803401947021 0.52790826559066772
0.7369149923324585 0.69104719161987305 0.57037007808685303
0.8338923454284668 0.71644526720046997 0.60042423009872437
0.94095540046691895 0.7163274884223938 0.61630809307098389
0.43209052085876465 0.6900944709777832 0.4890824556350708
0.61811429262161255 0.69473063945770264 0.5612562894821167
0.7387387752532959 0.73574864864349365 0.61170536279678345
0.80674093961715698 0.77408081293106079 0.65439581871032715
0.83849221467971802 0.80567502975463867 0.68286490440368652
0.88365960121154785 0.8328244686126709 0.69028115272521973
0.95243555307388306 0.84875524044036865 0.69242507219314575
0.57786256074905396 0.82065194845199585 0.58138161897659302
0.70658183097839355 0.82364106178283691 0.64355254173278809
0.79780721664428711 0.84306854009628296 0.68880617618560791
0.86567848920822144 0.86705559492111206 0.72274899482727051
0.91010206937789917 0.89109969139099121 0.75169831514358521
0.94738292694091797 0.9144778847694397 0.76143521070480347
0.97135615348815918 0.92913210391998291 0.75496011972427368
0.68914484977722168 0.90908312797546387 0.66063928604125977
0.79305970668792725 0.90567195415496826 0.71437883377075195
0.85746651887893677 0.91082704067230225 0.75598573684692383
0.90482103824615479 0.92544287443161011 0.76956701278686523
0.95102661848068237 0.93823885917663574 0.78367525339126587
0.97344624996185303 0.9446638822555542 0.79251658916473389
0.97595125436782837 0.94497668743133545 0.79310363531112671
0.019476482644677162 0.12092302739620209 0.29479482769966125
0.10419529676437378 0.14392353594303131 0.30772861838340759
0.21987359225749969 0.17504897713661194 0.33197152614593506
0.32827392220497131 0.17736026644706726 0.35915142297744751
0.47075763344764709 0.16773112118244171 0.37719526886940002
0.64481037855148315 0.12914490699768066 0.39157333970069885
0.81946027278900146 0.076806023716926575 0.39313951134681702
0.048680771142244339 0.22197037935256958 0.34533339738845825
0.20145082473754883 0.26693958044052124 0.36613002419471741
0.32144641876220703 0.30139875411987305 0.37919777631759644
0.42939338088035583 0.31176027655601501 0.394643634557724
0.57546001672744751 0.31362199783325195 0.40944975614547729
0.72277426719665527 0.30273333191871643 0.41683939099311829
0.8633122444152832 0.28316548466682434 0.41212156414985657
0.067892454564571381 0.37836214900016785 0.41530880331993103
0.31179821491241455 0.41928562521934509 0.43272212147712708
0.4867607057094574 0.46773812174797058 0.44434070587158203
0.58623552322387695 0.50734764337539673 0.45638895034790039
0.69048833847045898 0.53568029403686523 0.50036114454269409
0.78291624784469604 0.54617249965667725 0.52659332752227783
0.87696784734725952 0.56095778942108154 0.53001362085342407
0.098469063639640808 0.54914724826812744 0.47202795743942261
0.45523807406425476 0.57781004905700684 0.51007115840911865
0.63471812009811401 0.62048071622848511 0.53535193204879761
0.70740783214569092 0.66554421186447144 0.54919534921646118
0.74789100885391235 0.70287954807281494 0.5888969898223877
0.82300710678100586 0.72940129041671753 0.63908529281616211
0.92430871725082397 0.72798061370849609 0.67163747549057007
0.2641148567199707 0.71125441789627075 0.53234338760375977
0.58966994285583496 0.71767818927764893 0.60312348604202271
0.73032867908477783 0.74045389890670776 0.64498710632324219
0.81576997041702271 0.78427541255950928 0.66706323623657227
0.84511905908584595 0.81448131799697876 0.69466394186019897
0.8748282790184021 0.84265750646591187 0.72410577535629272
0.93460822105407715 0.86079937219619751 0.74742645025253296
0.46538048982620239 0.84119337797164917 0.60860598087310791
0.68157684803009033 0.83604294061660767 0.67424237728118896
0.80186313390731812 0.84836196899414062 0.72553974390029907
0.87395352125167847 0.87181907892227173 0.75588613748550415
0.92153531312942505 0.89672213792800903 0.79022091627120972
0.94382250308990479 0.92041873931884766 0.81609141826629639
0.96655046939849854 0.93752884864807129 0.8208545446395874
0.62074166536331177 0.92319059371948242 0.68495059013366699
0.77067899703979492 0.91415423154830933 0.74149787425994873
0.85564172267913818 0.91206705570220947 0.79404175281524658
0.9090380072593689 0.9293513298034668 0.81190884113311768
0.96411198377609253 0.94359976053237915 0.83491724729537964
0.96846812963485718 0.94697636365890503 0.85482871532440186
0.9684632420539856 0.94662529230117798 0.8571820855140686
0.0089068245142698288 0.13807600736618042 0.39598733186721802
0.096375785768032074 0.16254785656929016 0.40682071447372437
0.25258249044418335 0.20219925045967102 0.43002679944038391
0.38456794619560242 0.23640055954456329 0.45839503407478333
0.52290040254592896 0.22182980179786682 0.48948025703430176
0.66523057222366333 0.19798776507377625 0.51147741079330444
0.82089352607727051 0.16497571766376495 0.53093111515045166
0.026259912177920341 0.24891889095306396 0.4348970353603363
0.18804675340652466 0.2781599760055542 0.45372113585472107
0.34802865982055664 0.32468557357788086 0.471363365650177
0.4779188334941864 0.36300346255302429 0.49819189310073853
0.60446262359619141 0.36135527491569519 0.52288711071014404
0.73036718368530273 0.35680195689201355 0.53687506914138794
0.86208677291870117 0.33656027913093567 0.54235541820526123
0.039963413029909134 0.3889637291431427 0.48847004771232605
0.26844817399978638 0.42233675718307495 0.50638258457183838
0.47649222612380981 0.47759544849395752 0.53893923759460449
0.59537184238433838 0.51350349187850952 0.55298519134521484
0.69237709045410156 0.52885913848876953 0.56230688095092773
0.78375822305679321 0.53479784727096558 0.57238173484802246
0.8797716498374939 0.54129564762115479 0.57892763614654541
0.05436006560921669 0.55266529321670532 0.56382125616073608
0.36739256978034973 0.5883859395980835 0.58203125
0.59533274173736572 0.62817656993865967 0.61296588182449341
0.70526975393295288 0.67055696249008179 0.62456655502319336
0.77432209253311157 0.70783835649490356 0.64378100633621216
0.84185945987701416 0.7295038104057312 0.67852973937988281
0.91846239566802979 0.73428285121917725 0.70403635501861572
0.064110338687896729 0.71636629104614258 0.61224162578582764
0.47193357348442078 0.73546069860458374 0.63865154981613159
0.70669347047805786 0.75132685899734497 0.68475633859634399
0.80115294456481934 0.79084199666976929 0.6972891092300415
0.85372632741928101 0.82543015480041504 0.70964425802230835
0.88119101524353027 0.85169559717178345 0.73735111951828003
0.9268869161605835 0.86909991502761841 0.77830451726913452
0.2754037082195282 0.85771840810775757 0.65627259016036987
0.59451425075531006 0.8566821813583374 0.69628798961639404
0.78842175006866455 0.85677248239517212 0.75607597827911377
0.87055689096450806 0.8782152533531189 0.78527820110321045
0.92998623847961426 0.90511906147003174 0.80360573530197144
0.95226788520812988 0.92883104085922241 0.82666110992431641
0.96384519338607788 0.94440799951553345 0.8449556827545166
0.42587298154830933 0.93863224983215332 0.70480251312255859
0.68441623449325562 0.92893928289413452 0.7573743462562561
0.84308838844299316 0.92009371519088745 0.81996184587478638
0.91075342893600464 0.92958706617355347 0.8450806736946106
0.96321648359298706 0.94684970378875732 0.86317342519760132
0.96470588445663452 0.94901961088180542 0.88635468482971191
0.96470588445663452 0.95130759477615356 0.90422707796096802
0.00084147736197337508 0.16002735495567322 0.51334083080291748
0.083633944392204285 0.18708726763725281 0.52760881185531616
0.28913220763206482 0.22452211380004883 0.5432247519493103
0.45189481973648071 0.2792600691318512 0.57984626293182373
0.59409940242767334 0.31757378578186035 0.61523252725601196
0.71603083610534668 0.29453814029693604 0.64761656522750854
0.82505142688751221 0.26604428887367249 0.65950304269790649
0.0083324955776333809 0.27818813920021057 0.54839754104614258
0.16610674560070038 0.29448845982551575 0.56802570819854736
0.3781532347202301 0.34947583079338074 0.58865940570831299
0.52961498498916626 0.4067651629447937 0.61322128772735596
0.64899343252182007 0.44236463308334351 0.64380896091461182
0.74880969524383545 0.43050825595855713 0.66314780712127686
0.85671186447143555 0.42427679896354675 0.67637753486633301
0.015119919553399086 0.41635271906852722 0.591461181640625
0.25246042013168335 0.43981099128723145 0.60733377933502197
0.46543654799461365 0.48308524489402771 0.63131111860275269
0.61236464977264404 0.54874658584594727 0.65295201539993286
0.70538777112960815 0.56915074586868286 0.66967833042144775
0.786490797996521 0.56882840394973755 0.67612820863723755
0.88955795764923096 0.56635904312133789 0.68217664957046509
0.031490236520767212 0.55852830410003662 0.64832240343093872
0.2949368953704834 0.5815427303314209 0.65693753957748413
0.54684168100357056 0.62390613555908203 0.67249757051467896
0.69345951080322266 0.67248636484146118 0.69907760620117188
0.78023076057434082 0.6982535719871521 0.70745795965194702
0.84923791885375977 0.71437585353851318 0.71378785371780396
0.9127156138420105 0.7234833836555481 0.72120767831802368
0.050147920846939087 0.72012466192245483 0.70057088136672974
0.38436314463615417 0.7355959415435791 0.70738691091537476
0.62663358449935913 0.7639121413230896 0.72175496816635132
0.78175628185272217 0.79136461019515991 0.7494388222694397
0.85389167070388794 0.83094221353530884 0.76292604207992554
0.89634579420089722 0.85663360357284546 0.78101199865341187
0.94194406270980835 0.87284249067306519 0.81365460157394409
0.071632623672485352 0.86350768804550171 0.73374283313751221
0.44751131534576416 0.87123191356658936 0.74365514516830444
0.72348970174789429 0.87776345014572144 0.7782738208770752
0.85514140129089355 0.88342201709747314 0.82288211584091187
0.9224734902381897 0.91168773174285889 0.83109587430953979
0.95693802833557129 0.93467837572097778 0.83515524864196777
0.96662312746047974 0.94650572538375854 0.8547370433807373
0.13930334150791168 0.94573807716369629 0.80186003446578979
0.53547370433807373 0.94198715686798096 0.80841082334518433
0.78164076805114746 0.93515175580978394 0.83593529462814331
0.90223032236099243 0.93141770362854004 0.8743433952331543
0.95697528123855591 0.94611203670501709 0.88626939058303833
0.96470588445663452 0.94899624586105347 0.89556640386581421
0.96218782663345337 0.95288729667663574 0.91167581081390381
