assets/lut/shamoonabbasi drop green tint 14.cube
# Created by: G'MIC (https://gmic.eu)
TITLE "drop_green_tint_14"
# LUT size
LUT_3D_SIZE 5
# Data domain
DOMAIN_MIN 0.0 0.0 0.0
DOMAIN_MAX 1.0 1.0 1.0
# LUT data points
0.00034089930704794824 0.0066459653899073601 0.00017269358795601875
0.14884869754314423 0.0076362760737538338 0.0039154053665697575
0.36534285545349121 0 0.00079490809002891183
0.55555140972137451 0.011103745549917221 0.0068637621589004993
0.58670783042907715 0.0093246456235647202 0.0094965463504195213
0.0025665282737463713 0.093842461705207825 0.0059355939738452435
0.073492564260959625 0.090267166495323181 0.0059234318323433399
0.37426373362541199 0.055669073015451431 0.0078189028427004814
0.55212283134460449 0.017108183354139328 0.010720646008849144
0.59397512674331665 0.0036595661658793688 0.0085500981658697128
0.0037499521858990192 0.28555521368980408 0.0095207663252949715
0.00038292081444524229 0.29226934909820557 0.0078431377187371254
0.27398279309272766 0.35760989785194397 0.01191819179803133
0.66253608465194702 0.3037477433681488 0.013882475905120373
0.68757873773574829 0.19783762097358704 0.01254571694880724
0.0078431377187371254 0.56985336542129517 0.020837850868701935
0.00085661647608503699 0.57339268922805786 0.027189562097191811
0.0087859062477946281 0.5847315788269043 0.028079867362976074
0.64883798360824585 0.69557315111160278 0.081262446939945221
0.8949512243270874 0.62629300355911255 0.084255591034889221
0.0078431377187371254 0.72552597522735596 0.047673363238573074
0.0076476600952446461 0.73529434204101562 0.050563439726829529
1.2925092050863896e-05 0.73518389463424683 0.048812102526426315
0.28552418947219849 0.79121589660644531 0.098886169493198395
0.91746819019317627 0.9004749059677124 0.17996804416179657
0.0095399292185902596 0.0098131662234663963 0.12729966640472412
0.13361172378063202 0.0088351527228951454 0.091159239411354065
0.3700357973575592 0.0017607745248824358 0.025508042424917221
0.54965478181838989 0.011509420350193977 0.00039838903467170894
0.58258461952209473 0.012188855558633804 0.0046094111166894436
0.0065800533629953861 0.079958654940128326 0.063628971576690674
0.079485498368740082 0.081931918859481812 0.067750565707683563
0.38303211331367493 0.050852052867412567 0.022687515243887901
0.55089426040649414 0.017038114368915558 0.0039393557235598564
0.58626121282577515 0.0027941835578531027 0.002694238442927599
0.0061541986651718616 0.2940794825553894 0.008678855374455452
0.0017557331593707204 0.29198932647705078 0.013755169697105885
0.27280536293983459 0.3584631085395813 0.014835626818239689
0.66449767351150513 0.30653220415115356 0.014503748156130314
0.68529379367828369 0.20001354813575745 0.012026662938296795
0.0078431377187371254 0.56441617012023926 0.012920663692057133
0.016252614557743073 0.57373672723770142 0.016338752582669258
0.011946136131882668 0.58737343549728394 0.02387053519487381
0.6506231427192688 0.69176769256591797 0.078364640474319458
0.90232855081558228 0.63581246137619019 0.084460057318210602
0.0069718901067972183 0.73648321628570557 0.040332704782485962
0.0099238073453307152 0.72555011510848999 0.052808694541454315
0.002554665319621563 0.7280457615852356 0.050696846097707748
0.29352670907974243 0.79273492097854614 0.10087563097476959
0.92366874217987061 0.90460377931594849 0.18815211951732635
0.030193164944648743 0.0082094380632042885 0.38405242562294006
0.094212658703327179 0.0069265775382518768 0.39195472002029419
0.37405139207839966 0.0076043372973799706 0.3163667619228363
0.56548380851745605 0.010610064491629601 0.1768263578414917
0.58458119630813599 0.0080556981265544891 0.11264057457447052
0.020077290013432503 0.10010262578725815 0.36769247055053711
0.061135057359933853 0.077535264194011688 0.38924247026443481
0.3698006272315979 0.037682060152292252 0.33546209335327148
0.56626647710800171 0.0073430826887488365 0.16942617297172546
0.58348625898361206 0.01248607225716114 0.11673631519079208
0.0078431377187371254 0.25907313823699951 0.28359580039978027
0.006872124969959259 0.2597196102142334 0.28342026472091675
0.28491577506065369 0.34781670570373535 0.3258635401725769
0.652476966381073 0.21354365348815918 0.15617316961288452
0.6501273512840271 0.08275005966424942 0.051047291606664658
0.0090408027172088623 0.58150565624237061 0.1842835396528244
0.01304970495402813 0.58819353580474854 0.19917809963226318
0.001918104593642056 0.57570034265518188 0.13740518689155579
0.62356913089752197 0.66645026206970215 0.1868092268705368
0.88127487897872925 0.56308132410049438 0.11320380121469498
0.0077160405926406384 0.72969067096710205 0.071021273732185364
0.0081847244873642921 0.72994852066040039 0.077229924499988556
0.0010425642831251025 0.73210448026657104 0.068590022623538971
0.27088415622711182 0.79079961776733398 0.10058064013719559
0.93570512533187866 0.90913540124893188 0.20223358273506165
0.065733969211578369 0.026964269578456879 0.56935828924179077
0.095072850584983826 0.010063620284199715 0.58475738763809204
0.29673263430595398 0.0078738341107964516 0.61187100410461426
0.57900905609130859 0.011764706112444401 0.49933531880378723
0.62091374397277832 0.011497692205011845 0.43898984789848328
0.066477350890636444 0.14058925211429596 0.58150851726531982
0.087833374738693237 0.1097991019487381 0.58575475215911865
0.28396576642990112 0.040094040334224701 0.61280667781829834
0.57662642002105713 0.020225659012794495 0.49995720386505127
0.61699283123016357 0.0071359970606863499 0.43973618745803833
0.020224282518029213 0.31646069884300232 0.55120790004730225
0.023235097527503967 0.32064709067344666 0.55768954753875732
0.23332977294921875 0.33935326337814331 0.63223361968994141
0.64619952440261841 0.29546874761581421 0.61035847663879395
0.72397315502166748 0.11460766941308975 0.45346114039421082
0.015311042778193951 0.51821911334991455 0.53411376476287842
0.016503531485795975 0.52698445320129395 0.53653156757354736
0.080951601266860962 0.54672700166702271 0.54541808366775513
0.58223176002502441 0.66732180118560791 0.61938643455505371
0.91160941123962402 0.43648052215576172 0.41406452655792236
0.048123825341463089 0.76849609613418579 0.5162428617477417
0.052742678672075272 0.77703911066055298 0.5313183069229126
0.038391668349504471 0.76953625679016113 0.5091402530670166
0.16535358130931854 0.82456248998641968 0.35624054074287415
0.95115751028060913 0.94279021024703979 0.40522152185440063
0.066727340221405029 0.029934423044323921 0.57632821798324585
0.095345743000507355 0.0049691591411828995 0.57921022176742554
0.27284276485443115 0.0042605381458997726 0.61556267738342285
0.5696672797203064 0.012203635647892952 0.53221017122268677
0.63349545001983643 0.012805324979126453 0.49814924597740173
0.066598407924175262 0.1286143958568573 0.58653992414474487
0.082481622695922852 0.093704432249069214 0.58780431747436523
0.25264793634414673 0.027725998312234879 0.61633944511413574
0.56646788120269775 0.018261823803186417 0.52953743934631348
0.63129067420959473 0.00092492194380611181 0.49820491671562195
0.025025594979524612 0.32150337100028992 0.58397597074508667
0.01851075142621994 0.32176095247268677 0.58688163757324219
0.20798754692077637 0.31908777356147766 0.66024500131607056
0.58444380760192871 0.28408357501029968 0.71448022127151489
0.75701594352722168 0.14627014100551605 0.59096002578735352
0.012291492894291878 0.49633082747459412 0.60014230012893677
0.012559479102492332 0.50203263759613037 0.60129326581954956
0.079327195882797241 0.52181482315063477 0.63277298212051392
0.48694613575935364 0.61848545074462891 0.8138810396194458
0.95387393236160278 0.52877116203308105 0.79299461841583252
0.068625040352344513 0.74346983432769775 0.72320848703384399
0.071159809827804565 0.7513088583946228 0.73464459180831909
0.072752945125102997 0.75051999092102051 0.73180532455444336
0.40028595924377441 0.8429686427116394 0.82806479930877686
0.9582856297492981 0.98273742198944092 0.92617231607437134
