assets/lut/shamoonabbasi directions 23.cube
# Created by: G'MIC (https://gmic.eu)
TITLE "directions_23"
# LUT size
LUT_3D_SIZE 13
# Data domain
DOMAIN_MIN 0.0 0.0 0.0
DOMAIN_MAX 1.0 1.0 1.0
# LUT data points
0.019607843831181526 0.034988958388566971 0.043330531567335129
0.019607843831181526 0.038030318915843964 0.047727577388286591
0.021263901144266129 0.042797058820724487 0.051858190447092056
0.032838471233844757 0.045600380748510361 0.054484155029058456
0.050621166825294495 0.047788657248020172 0.055849216878414154
0.079902872443199158 0.051805831491947174 0.057474054396152496
0.11251117289066315 0.055153686553239822 0.059135153889656067
0.1499505341053009 0.056723188608884811 0.060154680162668228
0.20041219890117645 0.056010570377111435 0.060002930462360382
0.26835429668426514 0.049366865307092667 0.057917263358831406
0.3474254310131073 0.038746688514947891 0.056517984718084335
0.44226619601249695 0.022643279284238815 0.051072917878627777
0.54197424650192261 0.0079722236841917038 0.045239482074975967
0.023391649127006531 0.049897078424692154 0.058502167463302612
0.026399919763207436 0.054738827049732208 0.062277417629957199
0.031585723161697388 0.05966370552778244 0.066754423081874847
0.042085938155651093 0.06406199187040329 0.069278478622436523
0.064566910266876221 0.066258721053600311 0.069498427212238312
0.096827350556850433 0.066483624279499054 0.068429283797740936
0.13591773808002472 0.0675797238945961 0.069429181516170502
0.18877452611923218 0.070281833410263062 0.071513429284095764
0.25216248631477356 0.069149360060691833 0.071397669613361359
0.32514286041259766 0.057358101010322571 0.066797353327274323
0.40765884518623352 0.04349091649055481 0.061225548386573792
0.50776761770248413 0.028337575495243073 0.057247176766395569
0.60487556457519531 0.011275317519903183 0.050633374601602554
0.037252269685268402 0.067464359104633331 0.076891101896762848
0.043751303106546402 0.07608158141374588 0.083134658634662628
0.049611963331699371 0.082304276525974274 0.087859854102134705
0.061799008399248123 0.091138310730457306 0.091811448335647583
0.087301947176456451 0.10025016963481903 0.089418746531009674
0.12357596307992935 0.10276246815919876 0.086768850684165955
0.17322090268135071 0.10183834284543991 0.085493065416812897
0.24663577973842621 0.097896501421928406 0.084685035049915314
0.32346189022064209 0.09070923924446106 0.085063859820365906
0.40454879403114319 0.079298235476016998 0.081826440989971161
0.4933219850063324 0.06382257491350174 0.075580820441246033
0.58961814641952515 0.059727538377046585 0.071146748960018158
0.68246948719024658 0.05148296058177948 0.061558037996292114
0.051198024302721024 0.096638128161430359 0.094708509743213654
0.063367642462253571 0.10623918473720551 0.10490444302558899
0.076698839664459229 0.11889437586069107 0.11246290057897568
0.094119325280189514 0.13279271125793457 0.1160300001502037
0.12009778618812561 0.14488211274147034 0.11203290522098541
0.16061539947986603 0.15613369643688202 0.10848960280418396
0.21804407238960266 0.16164451837539673 0.1033036932349205
0.3007882833480835 0.16230317950248718 0.099003612995147705
0.38811579346656799 0.15301738679409027 0.097792468965053558
0.48215281963348389 0.13160048425197601 0.095507062971591949
0.58016973733901978 0.11486433446407318 0.089656099677085876
0.67633706331253052 0.11469071358442307 0.082486592233181
0.76616877317428589 0.10810991376638412 0.069866135716438293
0.060911558568477631 0.13302472233772278 0.1100824847817421
0.078653626143932343 0.14522978663444519 0.1200525313615799
0.10194621235132217 0.1641174852848053 0.13130615651607513
0.12814931571483612 0.18529117107391357 0.13504809141159058
0.16067849099636078 0.20386514067649841 0.13265852630138397
0.20738606154918671 0.22294779121875763 0.12766274809837341
0.26658648252487183 0.23781487345695496 0.11914421617984772
0.35242155194282532 0.25015255808830261 0.11284018307924271
0.44479790329933167 0.24817073345184326 0.1071435809135437
0.54265624284744263 0.23770128190517426 0.10214129835367203
0.64274930953979492 0.224776491522789 0.096736714243888855
0.74419277906417847 0.20967859029769897 0.089731045067310333
0.83683961629867554 0.19105102121829987 0.080907665193080902
0.067988991737365723 0.1851353794336319 0.12609891593456268
0.095121540129184723 0.1979822963476181 0.13670782744884491
0.12597307562828064 0.22052668035030365 0.14580735564231873
0.16307923197746277 0.24560675024986267 0.1505773663520813
0.20772957801818848 0.27168291807174683 0.1518184095621109
0.26141351461410522 0.29620248079299927 0.14770171046257019
0.32394236326217651 0.31842958927154541 0.13934928178787231
0.40913456678390503 0.33884540200233459 0.12799122929573059
0.50244933366775513 0.34841826558113098 0.11655516922473907
0.59768068790435791 0.35643580555915833 0.1074519157409668
0.69251781702041626 0.35535836219787598 0.098226346075534821
0.78772419691085815 0.34440654516220093 0.090187788009643555
0.87141537666320801 0.32972705364227295 0.084088943898677826
0.075494833290576935 0.25533530116081238 0.14065007865428925
0.11594877392053604 0.26744455099105835 0.15745121240615845
0.15454472601413727 0.28806003928184509 0.16347472369670868
0.20473551750183105 0.31664058566093445 0.16951897740364075
0.26032558083534241 0.34604367613792419 0.17134182155132294
0.32694610953330994 0.37696349620819092 0.17222325503826141
0.39687511324882507 0.40482214093208313 0.16635602712631226
0.47500884532928467 0.42958056926727295 0.14938224852085114
0.55708581209182739 0.44739606976509094 0.13134042918682098
0.64592266082763672 0.46660023927688599 0.11665520817041397
0.73577487468719482 0.47560867667198181 0.10258112847805023
0.81660997867584229 0.47349542379379272 0.092630259692668915
0.8791128396987915 0.47180894017219543 0.087933547794818878
0.094045244157314301 0.34366896748542786 0.15645501017570496
0.14559262990951538 0.35272714495658875 0.17423678934574127
0.1995546817779541 0.37150147557258606 0.18496009707450867
0.25901597738265991 0.39896759390830994 0.19016525149345398
0.32072246074676514 0.42582756280899048 0.19304674863815308
0.39474678039550781 0.46041062474250793 0.19599601626396179
0.46710687875747681 0.49151253700256348 0.18971307575702667
0.54432505369186401 0.51802748441696167 0.17408333718776703
0.62272781133651733 0.54713672399520874 0.1565961092710495
0.69693630933761597 0.5670657753944397 0.13772155344486237
0.77061504125595093 0.58716118335723877 0.12013246119022369
0.84143781661987305 0.59470576047897339 0.10595200210809708
0.89955192804336548 0.59556567668914795 0.09398709237575531
0.12013915181159973 0.43681833148002625 0.16901133954524994
0.19283142685890198 0.44485700130462646 0.19041809439659119
0.26280906796455383 0.4633328914642334 0.20793896913528442
0.3307681679725647 0.4897821843624115 0.21824809908866882
0.39764523506164551 0.51714694499969482 0.22132760286331177
0.46490395069122314 0.54707717895507812 0.22039009630680084
0.53494918346405029 0.57515889406204224 0.21638871729373932
0.609619140625 0.6038629412651062 0.207844078540802
0.67749720811843872 0.62884318828582764 0.19306862354278564
0.73997199535369873 0.65116572380065918 0.17735236883163452
0.80044037103652954 0.66705214977264404 0.16186338663101196
0.8596528172492981 0.68094313144683838 0.13931526243686676
0.91613250970840454 0.6839752197265625 0.11978547275066376
0.19051903486251831 0.5358855128288269 0.18886294960975647
0.26277506351470947 0.54119139909744263 0.21259605884552002
0.33963072299957275 0.55591011047363281 0.23560574650764465
0.40845146775245667 0.57560068368911743 0.24906061589717865
0.47504410147666931 0.60054701566696167 0.25265747308731079
0.53940916061401367 0.62662464380264282 0.25373947620391846
0.60226470232009888 0.65060114860534668 0.25385412573814392
0.66753482818603516 0.6756516695022583 0.24893443286418915
0.72374182939529419 0.69728595018386841 0.24010615050792694
0.7777101993560791 0.71812891960144043 0.22788450121879578
0.83320534229278564 0.73891323804855347 0.21141272783279419
0.88404345512390137 0.75117528438568115 0.18674349784851074
0.93242084980010986 0.75955325365066528 0.15676172077655792
0.28865793347358704 0.63111203908920288 0.21632303297519684
0.35739025473594666 0.63460254669189453 0.24365727603435516
0.42843535542488098 0.64649206399917603 0.27036014199256897
0.48962089419364929 0.65816968679428101 0.28488004207611084
0.5524975061416626 0.67769181728363037 0.29200240969657898
0.61138594150543213 0.69982296228408813 0.29800161719322205
0.66388994455337524 0.72047048807144165 0.30101090669631958
0.71602028608322144 0.74151128530502319 0.29960042238235474
0.76506096124649048 0.76068967580795288 0.29435232281684875
0.81269174814224243 0.77868944406509399 0.28631305694580078
0.86057841777801514 0.79550498723983765 0.27027294039726257
0.9080042839050293 0.81182008981704712 0.24628241360187531
0.94840896129608154 0.818656325340271 0.21578626334667206
0.41222003102302551 0.72248804569244385 0.26555612683296204
0.46952405571937561 0.72767734527587891 0.29301142692565918
0.52647495269775391 0.73069703578948975 0.31840100884437561
0.58002990484237671 0.74146103858947754 0.34365659952163696
0.63399213552474976 0.75932377576828003 0.35971793532371521
0.68012964725494385 0.77534115314483643 0.36374738812446594
0.72087293863296509 0.790657639503479 0.36432605981826782
0.7666286826133728 0.80967265367507935 0.36462712287902832
0.80793648958206177 0.82332801818847656 0.36513841152191162
0.85128945112228394 0.83911031484603882 0.35696619749069214
0.89237231016159058 0.85325407981872559 0.34622335433959961
0.93433237075805664 0.86760509014129639 0.32213094830513
0.97079044580459595 0.87661373615264893 0.28542864322662354
0.53697919845581055 0.8028794527053833 0.33626681566238403
0.57544964551925659 0.81105965375900269 0.35615652799606323
0.6194298267364502 0.81368172168731689 0.38674977421760559
0.66030389070510864 0.81766104698181152 0.4228513240814209
0.69982296228408813 0.82703149318695068 0.43741747736930847
0.73994207382202148 0.84313654899597168 0.44776636362075806
0.77871179580688477 0.85354351997375488 0.45221149921417236
0.81971657276153564 0.86742496490478516 0.45602741837501526
0.8549463152885437 0.88013684749603271 0.46151715517044067
0.88983482122421265 0.89209449291229248 0.44934943318367004
0.92416507005691528 0.90361011028289795 0.43570861220359802
0.95953059196472168 0.91688424348831177 0.40720158815383911
0.98831182718276978 0.92375224828720093 0.35426428914070129
0.019607843831181526 0.03422953188419342 0.042898021638393402
0.019928082823753357 0.039094872772693634 0.048956792801618576
0.021092627197504044 0.045002896338701248 0.054146934300661087
0.029773084446787834 0.049987118691205978 0.059128765016794205
0.049808874726295471 0.051511310040950775 0.062512718141078949
0.072269558906555176 0.055676598101854324 0.064021393656730652
0.10399714112281799 0.058732170611619949 0.065822288393974304
0.14137792587280273 0.060259830206632614 0.066318497061729431
0.19368565082550049 0.059866167604923248 0.065834507346153259
0.25955995917320251 0.055713579058647156 0.066614367067813873
0.33585318922996521 0.045811671763658524 0.065213806927204132
0.42744338512420654 0.030740730464458466 0.061653390526771545
0.52699476480484009 0.018502358347177505 0.059371259063482285
0.02413259819149971 0.05095113068819046 0.05910906195640564
0.027649674564599991 0.056147407740354538 0.064006417989730835
0.032416850328445435 0.060229148715734482 0.06959088146686554
0.039730969816446304 0.06760743260383606 0.074264779686927795
0.05800984799861908 0.071270540356636047 0.077276550233364105
0.088204480707645416 0.072142355144023895 0.078919142484664917
0.12705543637275696 0.074130922555923462 0.08052419126033783
0.17615948617458344 0.075230032205581665 0.080837815999984741
0.23846031725406647 0.074096351861953735 0.08052903413772583
0.30981236696243286 0.0671958327293396 0.07907993346452713
0.39159765839576721 0.056087389588356018 0.076271876692771912
0.4883669912815094 0.041274469345808029 0.071878693997859955
0.58650553226470947 0.025145182386040688 0.06640295684337616
0.039609886705875397 0.069473966956138611 0.07919871062040329
0.043935470283031464 0.077315807342529297 0.083632752299308777
0.052412521094083786 0.085478015244007111 0.092764131724834442
0.060166586190462112 0.094707280397415161 0.099986493587493896
0.078112043440341949 0.10431068390607834 0.10271759331226349
0.11234452575445175 0.10902427136898041 0.10225928574800491
0.16158832609653473 0.10857216268777847 0.10238659381866455
0.23145310580730438 0.10715321451425552 0.10288067907094955
0.30797269940376282 0.10064658522605896 0.10161442309617996
0.3876243531703949 0.093080319464206696 0.099484659731388092
0.47431239485740662 0.083371438086032867 0.095452174544334412
0.57247024774551392 0.074172154068946838 0.089035689830780029
0.66832894086837769 0.065874390304088593 0.080941684544086456
0.057133618742227554 0.099513016641139984 0.10323860496282578
0.069511562585830688 0.10930477827787399 0.11278436332941055
0.081406913697719574 0.12187435477972031 0.12415514141321182
0.092885859310626984 0.13483116030693054 0.1339557021856308
0.11402004212141037 0.14888554811477661 0.13567142188549042
0.14946332573890686 0.16254641115665436 0.13145418465137482
0.20443165302276611 0.16974036395549774 0.12843063473701477
0.28682193160057068 0.16921894252300262 0.12588672339916229
0.37340471148490906 0.16388095915317535 0.12355861067771912
0.4665713906288147 0.14629048109054565 0.12060438841581345
0.5614122748374939 0.1357981413602829 0.11751683801412582
0.65971177816390991 0.13088084757328033 0.11052118986845016
0.7527269721031189 0.12780171632766724 0.098107099533081055
0.066982731223106384 0.13815148174762726 0.1231904998421669
0.088600531220436096 0.15015554428100586 0.1373017281293869
0.11069361120462418 0.16584713757038116 0.15205845236778259
0.13436615467071533 0.18721762299537659 0.16211326420307159
0.15910845994949341 0.20537771284580231 0.16432772576808929
0.19855083525180817 0.22609660029411316 0.1602376252412796
0.25528982281684875 0.24388614296913147 0.15470239520072937
0.33972653746604919 0.25562804937362671 0.148360475897789
0.43064329028129578 0.25459185242652893 0.14329907298088074
0.52838021516799927 0.24659231305122375 0.13833457231521606
0.62741613388061523 0.24077311158180237 0.13569881021976471
0.73025774955749512 0.22202816605567932 0.13112494349479675
0.82108098268508911 0.21379053592681885 0.12048155814409256
0.073160983622074127 0.19484412670135498 0.14145475625991821
0.10474853217601776 0.20391759276390076 0.15838021039962769
0.13987070322036743 0.22506245970726013 0.17300976812839508
0.17905840277671814 0.25196933746337891 0.18365484476089478
0.21624699234962463 0.27637887001037598 0.18937474489212036
0.25906434655189514 0.29849106073379517 0.18778906762599945
0.31850630044937134 0.32266727089881897 0.18272538483142853
0.39868038892745972 0.34467101097106934 0.17316929996013641
0.49100515246391296 0.35722029209136963 0.16472211480140686
0.58653098344802856 0.36268496513366699 0.15636879205703735
0.68364423513412476 0.36140397191047668 0.1503557413816452
0.77801221609115601 0.35058784484863281 0.14428126811981201
0.86252254247665405 0.33935517072677612 0.1396486759185791
0.078148797154426575 0.26355412602424622 0.1584315150976181
0.12432267516851425 0.27357983589172363 0.17819638550281525
0.1731947660446167 0.29690408706665039 0.19473320245742798
0.22210484743118286 0.32270467281341553 0.20552359521389008
0.27041351795196533 0.34763935208320618 0.21240715682506561
0.33017411828041077 0.3784489631652832 0.2157701849937439
0.39707139134407043 0.40901663899421692 0.21173214912414551
0.46966233849525452 0.43353721499443054 0.20076180994510651
0.55215966701507568 0.45409393310546875 0.18906182050704956
0.64172708988189697 0.47186455130577087 0.17833724617958069
0.72636383771896362 0.47914481163024902 0.16915407776832581
0.80691289901733398 0.48028141260147095 0.16090165078639984
0.87905186414718628 0.48003455996513367 0.15576659142971039
0.093645311892032623 0.35159879922866821 0.17718558013439178
0.15399356186389923 0.35931271314620972 0.20004817843437195
0.21499793231487274 0.37703850865364075 0.21860165894031525
0.27639985084533691 0.4029994010925293 0.22931499779224396
0.33803954720497131 0.43094182014465332 0.23736687004566193
0.4052274227142334 0.46380031108856201 0.24215534329414368
0.47122484445571899 0.49488380551338196 0.2397824227809906
0.5427478551864624 0.52442508935928345 0.23212595283985138
0.61952894926071167 0.55021589994430542 0.22062435746192932
0.69053220748901367 0.56870174407958984 0.20797942578792572
0.76137077808380127 0.58738070726394653 0.19696949422359467
0.83165174722671509 0.59700208902359009 0.18693713843822479
0.89614611864089966 0.60271555185317993 0.18028870224952698
0.12885868549346924 0.44425573945045471 0.19552567601203918
0.20600561797618866 0.45107939839363098 0.21971286833286285
0.28055295348167419 0.46717828512191772 0.24345237016677856
0.34853971004486084 0.49312588572502136 0.25578439235687256
0.41269093751907349 0.52072715759277344 0.26366552710533142
0.47693705558776855 0.54891765117645264 0.26757052540779114
0.54088050127029419 0.57773703336715698 0.26801896095275879
0.60857659578323364 0.60550379753112793 0.26586335897445679
0.67614257335662842 0.63031214475631714 0.25646451115608215
0.73535150289535522 0.65096521377563477 0.24528051912784576
0.79382705688476562 0.66935372352600098 0.2363918274641037
0.85372132062911987 0.68375617265701294 0.22311070561408997
0.91067218780517578 0.68810641765594482 0.2083866149187088
0.20136325061321259 0.54390019178390503 0.21765691041946411
0.27339458465576172 0.54838979244232178 0.24131499230861664
0.35184499621391296 0.56008952856063843 0.26674959063529968
0.42460468411445618 0.57746976613998413 0.28490936756134033
0.48788538575172424 0.6035454273223877 0.293142169713974
0.54929172992706299 0.62947976589202881 0.29934015870094299
0.60905981063842773 0.65332233905792236 0.30286309123039246
0.67035049200057983 0.67732334136962891 0.30363130569458008
0.72313272953033447 0.6984068751335144 0.30051177740097046
0.77397501468658447 0.71840006113052368 0.29291856288909912
0.82705438137054443 0.73891383409500122 0.28242984414100647
0.87689083814620972 0.7520219087600708 0.26647889614105225
0.92493742704391479 0.75802922248840332 0.24612309038639069
0.29401710629463196 0.63731092214584351 0.24328088760375977
0.36487990617752075 0.64042335748672485 0.27006679773330688
0.43850106000900269 0.64654093980789185 0.30004996061325073
0.50909996032714844 0.66076457500457764 0.32209944725036621
0.56425714492797852 0.67972469329833984 0.33231136202812195
0.61845064163208008 0.70022469758987427 0.34060099720954895
0.67003518342971802 0.72178882360458374 0.34708079695701599
0.71804916858673096 0.74235880374908447 0.35147225856781006
0.76429980993270874 0.76223564147949219 0.35116896033287048
0.81086182594299316 0.78031617403030396 0.34390738606452942
0.85818147659301758 0.79774284362792969 0.33222854137420654
0.90280807018280029 0.81350988149642944 0.31770482659339905
0.94332462549209595 0.82195430994033813 0.29537445306777954
0.41381847858428955 0.72601115703582764 0.28845483064651489
0.47119837999343872 0.72967255115509033 0.31937992572784424
0.53324621915817261 0.73260778188705444 0.34813079237937927
0.59398365020751953 0.74454307556152344 0.38271436095237732
0.64221084117889404 0.75962376594543457 0.39685332775115967
0.6825406551361084 0.77362096309661865 0.40041360259056091
0.72303527593612671 0.79175847768783569 0.4072837233543396
0.76702654361724854 0.81068766117095947 0.41212978959083557
0.80913692712783813 0.82645320892333984 0.41539284586906433
0.85076653957366943 0.84071093797683716 0.41218101978302002
0.89050090312957764 0.85538047552108765 0.40292808413505554
0.92925101518630981 0.86748778820037842 0.38737428188323975
0.96907061338424683 0.87897664308547974 0.36080986261367798
0.53167128562927246 0.80943441390991211 0.34927117824554443
0.57461923360824585 0.81264674663543701 0.37807807326316833
0.61934709548950195 0.8135908842086792 0.41209444403648376
0.66827023029327393 0.82153803110122681 0.45447459816932678
0.70813429355621338 0.83076804876327515 0.47493332624435425
0.74239492416381836 0.8407820463180542 0.47945693135261536
0.78082454204559326 0.85557776689529419 0.49086374044418335
0.81692296266555786 0.86691033840179443 0.4932524561882019
0.85429185628890991 0.88099223375320435 0.49793434143066406
0.88807171583175659 0.89147627353668213 0.49260637164115906
0.92191290855407715 0.90487802028656006 0.48329204320907593
0.95604652166366577 0.91788291931152344 0.46285364031791687
0.98507827520370483 0.9201507568359375 0.41825011372566223
0.019607843831181526 0.037571147084236145 0.047955293208360672
0.019993262365460396 0.041115615516901016 0.051370102912187576
0.021828295662999153 0.047250963747501373 0.056309178471565247
0.031404472887516022 0.051067456603050232 0.063193857669830322
0.046777613461017609 0.053281296044588089 0.068227358162403107
0.069672480225563049 0.055528439581394196 0.07185673713684082
0.10049009323120117 0.059206496924161911 0.074448995292186737
0.13656847178936005 0.061345282942056656 0.075145244598388672
0.18725547194480896 0.064829520881175995 0.076431810855865479
0.24808737635612488 0.063646756112575531 0.078116461634635925
0.32358449697494507 0.055783141404390335 0.079030178487300873
0.41516652703285217 0.042917333543300629 0.078914418816566467
0.50301873683929443 0.032952867448329926 0.078858636319637299
0.025066182017326355 0.053851287811994553 0.063510015606880188
0.029314842075109482 0.057465691119432449 0.06645076721906662
0.033862587064504623 0.062929309904575348 0.071884632110595703
0.040018927305936813 0.070213690400123596 0.077900826930999756
0.053304050117731094 0.07613334059715271 0.083973467350006104
0.079918131232261658 0.078812755644321442 0.088424086570739746
0.11545295268297195 0.080110080540180206 0.091698318719863892
0.16450266540050507 0.082225516438484192 0.093111552298069
0.22539301216602325 0.0827665776014328 0.09414411336183548
0.29496639966964722 0.0816916823387146 0.095691189169883728
0.37588244676589966 0.074985429644584656 0.095392905175685883
0.47006380558013916 0.06120758131146431 0.092470251023769379
0.56592452526092529 0.045970872044563293 0.086812861263751984
0.042759750038385391 0.075583651661872864 0.084311418235301971
0.047754131257534027 0.08063158392906189 0.087880499660968781
0.05448952317237854 0.087428852915763855 0.094765923917293549
0.061543334275484085 0.097970925271511078 0.10291585326194763
0.072611898183822632 0.10780012607574463 0.11128779500722885
0.099142201244831085 0.11570591479539871 0.11670810729265213
0.14754769206047058 0.11590193212032318 0.11931052058935165
0.21705994009971619 0.11535391956567764 0.12177351117134094
0.28961214423179626 0.11479689925909042 0.12356248497962952
0.36936312913894653 0.11409249156713486 0.12258673459291458
0.4540284276008606 0.10863824188709259 0.12108778208494186
0.54955410957336426 0.10133259743452072 0.11601804941892624
0.64336633682250977 0.090968146920204163 0.10624268651008606
0.059412203729152679 0.10384582728147507 0.10982511937618256
0.074543848633766174 0.11379871517419815 0.11829144507646561
0.085861071944236755 0.12620024383068085 0.12986153364181519
0.095818117260932922 0.13858689367771149 0.1405339390039444
0.10970867425203323 0.15305370092391968 0.15130420029163361
0.13380250334739685 0.16764385998249054 0.15487077832221985
0.18644838035106659 0.17852932214736938 0.15451517701148987
0.2668643593788147 0.17947433888912201 0.15463021397590637
0.35737106204032898 0.17357403039932251 0.15364627540111542
0.44952133297920227 0.16197532415390015 0.15045206248760223
0.53946763277053833 0.1609746515750885 0.15023317933082581
0.63471901416778564 0.16468773782253265 0.14677926898002625
0.72689712047576904 0.15996170043945312 0.13642053306102753
0.070432238280773163 0.14446531236171722 0.13548736274242401
0.098603598773479462 0.15656821429729462 0.14983858168125153
0.12164407223463058 0.17135441303253174 0.16531930863857269
0.14168605208396912 0.19116939604282379 0.18060518801212311
