assets/lut/shamoonabbasi coffee 44.cube
# Created by: G'MIC (https://gmic.eu)
TITLE "coffee_44"
# LUT size
LUT_3D_SIZE 7
# Data domain
DOMAIN_MIN 0.0 0.0 0.0
DOMAIN_MAX 1.0 1.0 1.0
# LUT data points
0.014843734912574291 0.016905376687645912 0.0057198167778551579
0.11104384809732437 0.018971476703882217 0.0073802722617983818
0.29758629202842712 0.017110038548707962 0.0011797886108979583
0.52082639932632446 0.0089711509644985199 0
0.72117018699645996 0.00056429096730425954 0
0.88738566637039185 0.00056089513236656785 0
0.96637022495269775 0.015169180929660797 0.0070366505533456802
0.020900007337331772 0.10484763979911804 0.0084842611104249954
0.13221164047718048 0.11387147754430771 0.017729306593537331
0.32267540693283081 0.12378315627574921 0.013732162304222584
0.54021930694580078 0.10944551974534988 0.0037872462999075651
0.72511434555053711 0.075634732842445374 5.6367760407738388e-05
0.88869237899780273 0.06422220915555954 0
0.95456570386886597 0.088001802563667297 0.0082815280184149742
0.021082110702991486 0.25493139028549194 0.0064286775887012482
0.16863702237606049 0.29084524512290955 0.023818820714950562
0.37964081764221191 0.32544693350791931 0.037064645439386368
0.59209597110748291 0.32584530115127563 0.025022799149155617
0.7582898736000061 0.28740605711936951 0.0040884129703044891
0.89794319868087769 0.24291729927062988 0
0.92822510004043579 0.24710144102573395 0.0021680046338587999
0.035721138119697571 0.44785526394844055 0.01045671384781599
0.21615369617938995 0.50177299976348877 0.018811259418725967
0.43266379833221436 0.54861855506896973 0.040857024490833282
0.63050693273544312 0.56516587734222412 0.052675671875476837
0.7933124303817749 0.56242817640304565 0.043218124657869339
0.90867596864700317 0.51653671264648438 0.021041391417384148
0.92101716995239258 0.49682289361953735 0.021859487518668175
0.067665517330169678 0.64753466844558716 0.014474965631961823
0.27139651775360107 0.70189619064331055 0.011149926111102104
0.46820363402366638 0.7335631251335144 0.028808249160647392
0.63935524225234985 0.74784982204437256 0.07420223206281662
0.79262292385101318 0.74392831325531006 0.10356926918029785
0.91608381271362305 0.73227608203887939 0.11797325313091278
0.92309606075286865 0.72933512926101685 0.13533692061901093
0.10470922291278839 0.84693139791488647 0.011274764314293861
0.31224995851516724 0.88812398910522461 0.011861075647175312
0.48705515265464783 0.89547485113143921 0.03084767609834671
0.63742178678512573 0.90715277194976807 0.092896588146686554
0.76758217811584473 0.89864784479141235 0.15240223705768585
0.89313805103302002 0.87142956256866455 0.21852682530879974
0.92194485664367676 0.86469352245330811 0.23476316034793854
0.1188712939620018 0.97570812702178955 0.010701064020395279
0.32534924149513245 0.99628716707229614 0.020069809630513191
0.49581018090248108 0.97934478521347046 0.04149588942527771
0.63263344764709473 0.94983142614364624 0.09839504212141037
0.75095075368881226 0.93458366394042969 0.17279508709907532
0.86837267875671387 0.92889928817749023 0.25296297669410706
0.92317402362823486 0.93689835071563721 0.31718012690544128
0.015119754709303379 0.0075582466088235378 0.076706334948539734
0.10847170650959015 0.01224167738109827 0.092338278889656067
0.29157111048698425 0.011360033415257931 0.078279279172420502
0.52744150161743164 0.0079771755263209343 0.053873099386692047
0.74323362112045288 0.00029491350869648159 0.030485460534691811
0.90352696180343628 0 0.010421154089272022
0.96260017156600952 0.001568468869663775 0.030676567927002907
0.015771394595503807 0.089802250266075134 0.061437271535396576
0.11566613614559174 0.099683351814746857 0.079104587435722351
0.30723932385444641 0.10444069653749466 0.075693435966968536
0.53351622819900513 0.088106714189052582 0.058266028761863708
0.73289632797241211 0.051226940006017685 0.028943544253706932
0.9013521671295166 0.033345270901918411 0.0051609710790216923
0.9453696608543396 0.042969107627868652 0.022708578035235405
0.021384969353675842 0.23879346251487732 0.06809476763010025
0.15310381352901459 0.26912015676498413 0.08583870530128479
0.35831382870674133 0.29684892296791077 0.095349632203578949
0.57398408651351929 0.2918146550655365 0.083952568471431732
0.73734092712402344 0.23810219764709473 0.055246151983737946
0.88785040378570557 0.19135262072086334 0.0086668273434042931
0.92412871122360229 0.18058870732784271 0.012921965681016445
0.04152240976691246 0.45050531625747681 0.08961525559425354
0.21162079274654388 0.49609369039535522 0.10529910773038864
0.42068633437156677 0.53200829029083252 0.1193668469786644
0.61906915903091431 0.53799641132354736 0.12353560328483582
0.77371382713317871 0.5078197717666626 0.097128681838512421
0.90147501230239868 0.42437547445297241 0.035911768674850464
0.921028733253479 0.39296266436576843 0.020202381536364555
0.071691356599330902 0.66267532110214233 0.096603691577911377
0.2707875669002533 0.70262235403060913 0.10701845586299896
0.47758558392524719 0.7252693772315979 0.11867089569568634
0.65208852291107178 0.74089169502258301 0.14856958389282227
0.7916303277015686 0.73152679204940796 0.14986330270767212
0.90438348054885864 0.69301998615264893 0.11311589926481247
0.92164868116378784 0.67475944757461548 0.10745435208082199
0.097504742443561554 0.8445170521736145 0.10275259613990784
0.3251076340675354 0.88615876436233521 0.11641983687877655
0.51243466138839722 0.88784021139144897 0.12631615996360779
0.66639977693557739 0.89954274892807007 0.16781060397624969
0.78473484516143799 0.89561504125595093 0.21760037541389465
0.88905793428421021 0.86624562740325928 0.27885094285011292
0.92051857709884644 0.86004769802093506 0.31516727805137634
0.1137891411781311 0.96947741508483887 0.11214207857847214
0.33867007493972778 0.99257701635360718 0.12698057293891907
0.5230790376663208 0.96457862854003906 0.13500212132930756
0.6674119234085083 0.92321205139160156 0.16610577702522278
0.77632063627243042 0.92081683874130249 0.24127766489982605
0.87319648265838623 0.92133092880249023 0.41820591688156128
0.92470449209213257 0.93231046199798584 0.5567355751991272
0.0098668569698929787 0.0073240543715655804 0.20264846086502075
0.09048568457365036 0.002919305581599474 0.27641728520393372
0.25168600678443909 0.0098655400797724724 0.29064324498176575
0.49287426471710205 0.0077322269789874554 0.23703663051128387
0.73218846321105957 0.00079058477422222495 0.18239553272724152
0.89451128244400024 0 0.12224366515874863
0.93893557786941528 0 0.11349070072174072
0.011664536781609058 0.073042728006839752 0.19058239459991455
0.089526154100894928 0.083587989211082458 0.23803210258483887
0.26007086038589478 0.099391400814056396 0.27912405133247375
0.49597272276878357 0.088907532393932343 0.25893789529800415
0.72447407245635986 0.05163910984992981 0.19269303977489471
0.89061069488525391 0.011704359203577042 0.10057061910629272
0.92239755392074585 0.011777167208492756 0.092757910490036011
0.011388188228011131 0.20688225328922272 0.18148374557495117
0.11658310145139694 0.23132717609405518 0.20137251913547516
0.30275177955627441 0.26295226812362671 0.22760221362113953
0.52650660276412964 0.2680632472038269 0.22609545290470123
0.71706628799438477 0.21586163341999054 0.20057801902294159
0.87723284959793091 0.12876841425895691 0.087948955595493317
0.92186599969863892 0.11882838606834412 0.06582910567522049
0.016564013436436653 0.41103523969650269 0.20053134858608246
0.16193079948425293 0.45073404908180237 0.21488085389137268
0.36987930536270142 0.48956412076950073 0.23646289110183716
0.57166588306427002 0.49702411890029907 0.24730700254440308
0.74137371778488159 0.46941632032394409 0.228300541639328
0.87376517057418823 0.34856078028678894 0.13642166554927826
0.92217952013015747 0.30226507782936096 0.090835973620414734
0.035389769822359085 0.62584173679351807 0.22380441427230835
0.2199198305606842 0.66730391979217529 0.2424946129322052
0.44312277436256409 0.69691449403762817 0.25541168451309204
0.63258755207061768 0.71724563837051392 0.28449910879135132
0.77634721994400024 0.70868492126464844 0.28632166981697083
0.88644266128540039 0.64142024517059326 0.20814211666584015
0.92080861330032349 0.59468793869018555 0.15265686810016632
0.068758659064769745 0.82115340232849121 0.24516955018043518
0.27570182085037231 0.85415637493133545 0.26509147882461548
0.48586124181747437 0.87660956382751465 0.27749890089035034
0.67348974943161011 0.88604259490966797 0.30094656348228455
0.79840677976608276 0.87938404083251953 0.34115773439407349
0.88148701190948486 0.85632377862930298 0.33820536732673645
0.92436593770980835 0.83552074432373047 0.3184485137462616
0.094098187983036041 0.95423364639282227 0.25766849517822266
0.3073444664478302 0.97600173950195312 0.27275094389915466
0.50794732570648193 0.96529561281204224 0.27999794483184814
0.67953342199325562 0.94103652238845825 0.29746738076210022
0.80008053779602051 0.92897039651870728 0.35797944664955139
0.87901777029037476 0.92437809705734253 0.44144245982170105
0.92462718486785889 0.92124730348587036 0.49305185675621033
0.0090159699320793152 0.0013394225388765335 0.385366290807724
0.077192448079586029 0.00050425808876752853 0.4657629132270813
0.20798720419406891 0.0024240680504590273 0.54710602760314941
0.43202143907546997 0.00054859835654497147 0.53561997413635254
0.68383938074111938 8.6167283370741643e-06 0.47702434659004211
0.88255614042282104 0 0.35811004042625427
0.92699021100997925 0.001117646461352706 0.29622974991798401
0.0074356379918754101 0.057147622108459473 0.39781337976455688
0.073358349502086639 0.060743622481822968 0.44120752811431885
0.2134476900100708 0.084397561848163605 0.54103738069534302
0.43249186873435974 0.083182945847511292 0.56031548976898193
0.67867225408554077 0.053844556212425232 0.49809366464614868
0.87889617681503296 0.010146720334887505 0.3427402675151825
0.92850863933563232 0.011282078921794891 0.26301833987236023
0.0019554137252271175 0.17394456267356873 0.37199890613555908
0.078752763569355011 0.18213103711605072 0.39019858837127686
0.24016928672790527 0.22815079987049103 0.45569753646850586
0.45230984687805176 0.2431132048368454 0.49150225520133972
0.67899435758590698 0.20249418914318085 0.47637718915939331
0.86913824081420898 0.11968135088682175 0.30720475316047668
0.92832440137863159 0.089365102350711823 0.21170096099376678
0.0065352944657206535 0.36084991693496704 0.36482629179954529
0.11450657248497009 0.38994684815406799 0.37296339869499207
0.30104875564575195 0.43485584855079651 0.41200351715087891
0.50685769319534302 0.45874279737472534 0.43465110659599304
0.70388364791870117 0.43051454424858093 0.42841225862503052
0.85036164522171021 0.29029223322868347 0.30845025181770325
0.92123961448669434 0.20733924210071564 0.19534569978713989
0.022520985454320908 0.59049981832504272 0.38903534412384033
0.17024853825569153 0.62771248817443848 0.40504986047744751
0.37438464164733887 0.66050904989242554 0.42567789554595947
0.57407152652740479 0.67799073457717896 0.44391924142837524
0.74430394172668457 0.67345684766769409 0.45337563753128052
0.86340939998626709 0.5861201286315918 0.37602296471595764
0.91787582635879517 0.48983535170555115 0.26710188388824463
0.037471473217010498 0.80327683687210083 0.41203776001930237
0.2061040848493576 0.8205755352973938 0.42703920602798462
0.41215825080871582 0.84016531705856323 0.44062721729278564
0.62374305725097656 0.86612129211425781 0.45881438255310059
0.79033321142196655 0.86685681343078613 0.48491483926773071
0.87595421075820923 0.8428882360458374 0.47393980622291565
0.92397689819335938 0.81631219387054443 0.41469752788543701
0.062854856252670288 0.93598109483718872 0.42264342308044434
0.2497306615114212 0.95070147514343262 0.4357684850692749
0.45329701900482178 0.95463162660598755 0.44856980443000793
0.64718043804168701 0.94479769468307495 0.4625057578086853
0.80855906009674072 0.92483711242675781 0.49051082134246826
0.88207352161407471 0.92520177364349365 0.5380558967590332
0.91272687911987305 0.92760658264160156 0.55032551288604736
0.012085738591849804 0 0.58297270536422729
0.080246001482009888 0 0.62863898277282715
0.20058274269104004 0.00093537871725857258 0.7285798192024231
0.39389556646347046 0.0053269779309630394 0.77001947164535522
0.62383931875228882 0.00056206196313723922 0.75278580188751221
0.84340435266494751 0 0.67569297552108765
0.92556160688400269 0.00012990913819521666 0.60754561424255371
0.0038796218577772379 0.03143533319234848 0.59859192371368408
0.064610756933689117 0.024245677515864372 0.60782498121261597
0.20073086023330688 0.067672744393348694 0.71515035629272461
0.3926900327205658 0.089983321726322174 0.76463896036148071
0.62011796236038208 0.062729686498641968 0.75407850742340088
0.84698927402496338 0.025134306401014328 0.67374736070632935
0.93508249521255493 0.020120538771152496 0.58421486616134644
0 0.15496726334095001 0.58374655246734619
0.046639341861009598 0.14933197200298309 0.59254175424575806
0.19718748331069946 0.19250468909740448 0.66074639558792114
0.39528265595436096 0.22416397929191589 0.71654105186462402
0.62999331951141357 0.19849592447280884 0.74265658855438232
0.84542137384414673 0.13975240290164948 0.64944684505462646
0.92287850379943848 0.10994680225849152 0.55043655633926392
0.001898597227409482 0.30779203772544861 0.55530303716659546
0.06343512237071991 0.3109077513217926 0.55639874935150146
0.22514651715755463 0.35344147682189941 0.59733927249908447
0.42538061738014221 0.3988679051399231 0.64253842830657959
0.64630776643753052 0.38557317852973938 0.67929095029830933
0.8416067361831665 0.28249257802963257 0.59476810693740845
0.92433673143386841 0.20643219351768494 0.46020048856735229
0.010933341458439827 0.51614570617675781 0.5530131459236145
0.11185085773468018 0.54171198606491089 0.56096345186233521
0.30108177661895752 0.58410906791687012 0.58261781930923462
0.50558501482009888 0.62804126739501953 0.6109127402305603
0.69956791400909424 0.6390688419342041 0.63583225011825562
0.84836256504058838 0.53246933221817017 0.56472843885421753
0.91136705875396729 0.40952080488204956 0.45351475477218628
0.02138202078640461 0.74794399738311768 0.57393473386764526
0.15922157466411591 0.76549422740936279 0.58427333831787109
0.36501732468605042 0.80939942598342896 0.60092920064926147
0.5768897533416748 0.84158498048782349 0.61913657188415527
0.75368446111679077 0.85223227739334106 0.63912832736968994
0.86774176359176636 0.81806802749633789 0.62574124336242676
0.91373980045318604 0.77659308910369873 0.57660174369812012
0.034731321036815643 0.88588160276412964 0.58680921792984009
0.20039123296737671 0.90139055252075195 0.5980762243270874
0.39980170130729675 0.93840146064758301 0.61802846193313599
0.59398776292800903 0.93607336282730103 0.62981986999511719
0.77024489641189575 0.92999672889709473 0.64116001129150391
0.88329571485519409 0.92920750379562378 0.66386514902114868
0.91498959064483643 0.93011599779129028 0.65929293632507324
0.012783139944076538 0 0.75447255373001099
0.080424211919307709 0 0.78412008285522461
0.20426264405250549 0 0.85116374492645264
0.38146689534187317 0.0036489150952547789 0.89537739753723145
0.58207875490188599 1.4361213288793806e-05 0.89189994335174561
0.81319379806518555 0 0.87864500284194946
0.92683166265487671 0 0.85006552934646606
0.0036641738843172789 0.015572043135762215 0.77527648210525513
0.049219738692045212 0.0069846357218921185 0.77966868877410889
0.18485049903392792 0.035921089351177216 0.84252309799194336
0.38768520951271057 0.082613743841648102 0.9011847972869873
0.5762593150138855 0.059778850525617599 0.90486502647399902
0.80757522583007812 0.029737420380115509 0.87734580039978027
0.92336112260818481 0.013811343349516392 0.84105360507965088
0 0.13648957014083862 0.77524000406265259
0.02312113530933857 0.11837146431207657 0.77446377277374268
0.15499073266983032 0.14061868190765381 0.8149070143699646
0.36976101994514465 0.20132169127464294 0.8628164529800415
0.58028495311737061 0.2032075971364975 0.89284151792526245
0.80530554056167603 0.15575700998306274 0.872600257396698
0.92081010341644287 0.13245858252048492 0.84602838754653931
0 0.27713331580162048 0.75820863246917725
0.01797931082546711 0.26046815514564514 0.75993198156356812
0.13910329341888428 0.26440054178237915 0.77849602699279785
0.34426972270011902 0.33153599500656128 0.81416434049606323
0.58730000257492065 0.34956613183021545 0.85830634832382202
0.81767433881759644 0.29288911819458008 0.8521113395690918
0.91761696338653564 0.25861650705337524 0.81324911117553711
7.180606644396903e-06 0.46170341968536377 0.73591399192810059
0.04430408775806427 0.46417137980461121 0.74264216423034668
0.19535388052463531 0.46960249543190002 0.75279515981674194
0.38251584768295288 0.51963084936141968 0.77802366018295288
0.61794734001159668 0.56344860792160034 0.815837562084198
0.82046103477478027 0.49754002690315247 0.80711179971694946
0.90912622213363647 0.41757020354270935 0.76589834690093994
0.0060017304494976997 0.68621152639389038 0.74841034412384033
0.10148929059505463 0.70131689310073853 0.75292229652404785
0.28262656927108765 0.72338390350341797 0.75835311412811279
0.48775696754455566 0.77381086349487305 0.77258670330047607
0.69108599424362183 0.81345421075820923 0.79490381479263306
0.84163063764572144 0.79332113265991211 0.79764926433563232
0.90379279851913452 0.73637986183166504 0.77555602788925171
0.010898230597376823 0.85008114576339722 0.75876140594482422
0.1478094756603241 0.85483133792877197 0.76277738809585571
0.31935644149780273 0.87349605560302734 0.77373850345611572
0.51998245716094971 0.91264015436172485 0.78537869453430176
0.72273916006088257 0.93229633569717407 0.79626977443695068
0.86368173360824585 0.91931968927383423 0.80752962827682495
0.90980792045593262 0.91525709629058838 0.80213773250579834
0.012880751863121986 0 0.88787299394607544
0.084777459502220154 0 0.90227699279785156
0.20802345871925354 0 0.93122053146362305
0.37721037864685059 0.00039565141196362674 0.95021599531173706
0.56157034635543823 0.0030868828762322664 0.93858116865158081
0.76009869575500488 0.001184306456707418 0.94112759828567505
0.88390016555786133 0 0.95006221532821655
0.0050781550817191601 0.01013711653649807 0.90821254253387451
0.049106776714324951 0.0031402737367898226 0.90361654758453369
0.17447923123836517 0.014605158939957619 0.92839622497558594
0.37491437792778015 0.062957584857940674 0.95456820726394653
0.57005077600479126 0.0715751051902771 0.94773811101913452
0.77546626329421997 0.045181978493928909 0.939503014087677
0.89223235845565796 0.017521623522043228 0.94136768579483032
0 0.12480160593986511 0.91239470243453979
0.01451721228659153 0.1091114729642868 0.90033000707626343
0.12536242604255676 0.10372716933488846 0.91875076293945312
0.34909069538116455 0.16847173869609833 0.93171066045761108
0.57738596200942993 0.20902265608310699 0.92634028196334839
0.78165304660797119 0.17029085755348206 0.92262250185012817
0.90994846820831299 0.14003287255764008 0.92633628845214844
0 0.26104065775871277 0.90989291667938232
0.0041951495222747326 0.24270603060722351 0.9071534276008606
0.093619421124458313 0.22631138563156128 0.90722793340682983
0.29355970025062561 0.28302460908889771 0.91513466835021973
0.56545144319534302 0.34124529361724854 0.92126297950744629
0.78690403699874878 0.31814384460449219 0.93021780252456665
0.89727979898452759 0.29240134358406067 0.92795240879058838
0 0.43229207396507263 0.88414639234542847
0.022467385977506638 0.41905882954597473 0.89292794466018677
0.11739376187324524 0.4050089418888092 0.89483922719955444
0.27050679922103882 0.42695093154907227 0.89874213933944702
0.54520249366760254 0.50724261999130249 0.90620052814483643
0.79299145936965942 0.4941609799861908 0.92752265930175781
0.89828616380691528 0.46130982041358948 0.93531018495559692
0 0.6604573130607605 0.88759374618530273
0.06838543713092804 0.66140270233154297 0.88754028081893921
0.20911751687526703 0.66639691591262817 0.89162564277648926
0.3775780200958252 0.68939685821533203 0.88915818929672241
0.59423953294754028 0.73807144165039062 0.89298915863037109
0.81207180023193359 0.75181972980499268 0.8999943733215332
0.89586931467056274 0.718067467212677 0.90885156393051147
0 0.80940145254135132 0.88750404119491577
0.103725865483284 0.81040275096893311 0.88730484247207642
0.25444617867469788 0.8201596736907959 0.88572728633880615
0.45121461153030396 0.86450016498565674 0.88259989023208618
0.66260749101638794 0.89513146877288818 0.89027255773544312
0.83643698692321777 0.90459412336349487 0.90153390169143677
0.89716410636901855 0.89877998828887939 0.89774459600448608
