assets/lut/shamoonabbasi date 39.cube
# Created by: G'MIC (https://gmic.eu)
TITLE "date_39"
# LUT size
LUT_3D_SIZE 13
# Data domain
DOMAIN_MIN 0.0 0.0 0.0
DOMAIN_MAX 1.0 1.0 1.0
# LUT data points
0.016686413437128067 0.018699018284678459 0.026626750826835632
0.039733212441205978 0.025400752201676369 0.030631929636001587
0.090482838451862335 0.038561876863241196 0.039704445749521255
0.17873848974704742 0.057820085436105728 0.055513929575681686
0.28135284781455994 0.081363409757614136 0.076489903032779694
0.38277959823608398 0.10622818768024445 0.099752210080623627
0.47609281539916992 0.12975245714187622 0.12168033421039581
0.55478107929229736 0.14993362128734589 0.13988293707370758
0.62231701612472534 0.16651745140552521 0.15467184782028198
0.68440109491348267 0.18086236715316772 0.16789343953132629
0.74340277910232544 0.1937461644411087 0.18050660192966461
0.79827862977981567 0.20617535710334778 0.19156764447689056
0.84602326154708862 0.21716172993183136 0.20144882798194885
0.024521771818399429 0.045932244509458542 0.031587965786457062
0.04683825746178627 0.052317183464765549 0.033797424286603928
0.10467741638422012 0.06316501647233963 0.041475333273410797
0.19529235363006592 0.079620137810707092 0.057897292077541351
0.29455387592315674 0.10204309225082397 0.079942770302295685
0.39347055554389954 0.12527719140052795 0.10276926308870316
0.48415899276733398 0.14677061140537262 0.12349729239940643
0.56133037805557251 0.16707101464271545 0.1409507542848587
0.62806200981140137 0.18483366072177887 0.15546652674674988
0.69086980819702148 0.19991773366928101 0.16814820468425751
0.75101834535598755 0.21336880326271057 0.18080264329910278
0.8068574070930481 0.22582162916660309 0.19319440424442291
0.85596776008605957 0.23747524619102478 0.20397579669952393
0.027779582887887955 0.08399345725774765 0.03326377272605896
0.049356900155544281 0.089595332741737366 0.032600700855255127
0.11562903970479965 0.093907393515110016 0.03741779550909996
0.21920868754386902 0.10433149337768555 0.057928390800952911
0.32057398557662964 0.12541294097900391 0.084764339029788971
0.4152834415435791 0.14856071770191193 0.10801456123590469
0.500396728515625 0.16995982825756073 0.12755754590034485
0.57380121946334839 0.18982329964637756 0.14414753019809723
0.63836491107940674 0.20615582168102264 0.15805676579475403
0.69966614246368408 0.220463827252388 0.17009952664375305
0.75843137502670288 0.23344625532627106 0.18219365179538727
0.81332272291183472 0.24603499472141266 0.19612102210521698
0.86315053701400757 0.258869469165802 0.20755702257156372
0.028983995318412781 0.12749379873275757 0.030896743759512901
0.049991965293884277 0.13398735225200653 0.028929855674505234
0.12349923700094223 0.13906499743461609 0.034581009298563004
0.2496897429227829 0.14230281114578247 0.05998452752828598
0.3660338819026947 0.15550146996974945 0.092647209763526917
0.45547404885292053 0.17843689024448395 0.11877261847257614
0.53251844644546509 0.2001519650220871 0.13876514136791229
0.60176759958267212 0.21825091540813446 0.15293502807617188
0.6632540225982666 0.23238439857959747 0.16459082067012787
0.72000938653945923 0.24456727504730225 0.1765478104352951
0.77333474159240723 0.25732171535491943 0.18805679678916931
0.82321500778198242 0.2709147036075592 0.20202629268169403
0.86985534429550171 0.2856290340423584 0.21175822615623474
0.028787575662136078 0.17818352580070496 0.029097449034452438
0.051386184990406036 0.18990965187549591 0.026194209232926369
0.14219407737255096 0.2034667581319809 0.032742101699113846
0.29233190417289734 0.20900580286979675 0.058923892676830292
0.42386987805366516 0.21112588047981262 0.09582335501909256
0.51368576288223267 0.21946272253990173 0.12862564623355865
0.5809403657913208 0.23478253185749054 0.15449391305446625
0.64494585990905762 0.2522890567779541 0.16685883700847626
0.70206654071807861 0.2645532488822937 0.17782248556613922
0.75427913665771484 0.2765592634677887 0.18912136554718018
0.8028290867805481 0.29057314991950989 0.19872619211673737
0.84351587295532227 0.30508306622505188 0.21108736097812653
0.883933424949646 0.32276073098182678 0.21256484091281891
0.033824771642684937 0.23792140185832977 0.031268414109945297
0.060487903654575348 0.25552046298980713 0.027500271797180176
0.16980369389057159 0.27852728962898254 0.032027781009674072
0.33828094601631165 0.2972491979598999 0.052015654742717743
0.47487214207649231 0.30147713422775269 0.081968419253826141
0.57138204574584961 0.29070842266082764 0.11375030875205994
0.64062744379043579 0.28567683696746826 0.14599701762199402
0.69703453779220581 0.29382595419883728 0.16851082444190979
0.74622941017150879 0.30588698387145996 0.18774040043354034
0.79828637838363647 0.32241109013557434 0.19658270478248596
0.84273731708526611 0.33729517459869385 0.20182546973228455
0.87091207504272461 0.34708994626998901 0.20934697985649109
0.90345752239227295 0.36654052138328552 0.19967027008533478
0.039831288158893585 0.29516446590423584 0.034946873784065247
0.069691449403762817 0.31899693608283997 0.031957797706127167
0.18899126350879669 0.34911340475082397 0.035767082124948502
0.36924999952316284 0.37797701358795166 0.052572540938854218
0.50766324996948242 0.39592483639717102 0.074270837008953094
0.60114693641662598 0.39359909296035767 0.09201379120349884
0.68594884872436523 0.37624529004096985 0.10822773724794388
0.74590092897415161 0.3684639036655426 0.13391585648059845
0.79273241758346558 0.37246638536453247 0.15895934402942657
0.8440822958946228 0.38404509425163269 0.16980040073394775
0.88364952802658081 0.3929440975189209 0.17497590184211731
0.906211256980896 0.39979225397109985 0.17285341024398804
0.92938512563705444 0.42047083377838135 0.1613927036523819
0.045652858912944794 0.34327128529548645 0.036300584673881531
0.087386108934879303 0.37410745024681091 0.03390878438949585
0.21736991405487061 0.41220176219940186 0.035988453775644302
0.39288482069969177 0.44512593746185303 0.050186667591333389
0.52755224704742432 0.46939823031425476 0.071264870464801788
0.61256700754165649 0.48818051815032959 0.085399419069290161
0.68963074684143066 0.48638921976089478 0.094451263546943665
0.75867182016372681 0.47300457954406738 0.10448282212018967
0.81671309471130371 0.46510776877403259 0.11625788360834122
0.87177115678787231 0.4606269896030426 0.12395637482404709
0.90666049718856812 0.45691132545471191 0.13467888534069061
0.92671346664428711 0.46339637041091919 0.13568294048309326
0.94409745931625366 0.48413336277008057 0.12969253957271576
0.048211924731731415 0.37806254625320435 0.037619676440954208
0.097470119595527649 0.41695553064346313 0.035372938960790634
0.24607442319393158 0.46305307745933533 0.033422134816646576
0.41895309090614319 0.50184345245361328 0.041843220591545105
0.54498386383056641 0.53199654817581177 0.060874026268720627
0.62995123863220215 0.55528473854064941 0.081014834344387054
0.69417417049407959 0.56786829233169556 0.093688786029815674
0.75035881996154785 0.56996482610702515 0.099724680185317993
0.81070411205291748 0.56753790378570557 0.10400920361280441
0.8736225962638855 0.55917418003082275 0.1079094409942627
0.91276973485946655 0.55193400382995605 0.11800706386566162
0.93220651149749756 0.55043143033981323 0.1226494163274765
0.94693785905838013 0.55862981081008911 0.12156283855438232
0.048213403671979904 0.42676979303359985 0.040805336087942123
0.095021985471248627 0.47450432181358337 0.039302077144384384
0.26496720314025879 0.52189904451370239 0.036511979997158051
0.44377383589744568 0.56157875061035156 0.038200676441192627
0.56207787990570068 0.59306365251541138 0.051285538822412491
0.64771866798400879 0.61444520950317383 0.073812074959278107
0.7059822678565979 0.62970453500747681 0.090796679258346558
0.74823606014251709 0.6442798376083374 0.098604597151279449
0.80248171091079712 0.65408819913864136 0.10567095875740051
0.86679184436798096 0.65625369548797607 0.11283166706562042
0.91141128540039062 0.65226489305496216 0.12163111567497253
0.93329703807830811 0.64155483245849609 0.12592892348766327
0.94747364521026611 0.6352999210357666 0.12552313506603241
0.041029643267393112 0.5317874550819397 0.042784254997968674
0.08287174254655838 0.58493238687515259 0.04282868281006813
0.25142791867256165 0.62458264827728271 0.039630156010389328
0.44880753755569458 0.64846521615982056 0.037392769008874893
0.57349640130996704 0.66786891222000122 0.043586552143096924
0.65638023614883423 0.68157213926315308 0.060724340379238129
0.71412986516952515 0.69218963384628296 0.078024588525295258
0.75624245405197144 0.70452213287353516 0.087203949689865112
0.80714422464370728 0.71874392032623291 0.097211591899394989
0.86584317684173584 0.73099100589752197 0.10957083851099014
0.91114401817321777 0.73300707340240479 0.12025927007198334
0.93620914220809937 0.71856695413589478 0.12734654545783997
0.95102876424789429 0.70300549268722534 0.12796966731548309
0.031629569828510284 0.6651347279548645 0.041113715618848801
0.078230671584606171 0.71020728349685669 0.043004594743251801
0.24688635766506195 0.73576605319976807 0.040992602705955505
0.45026242733001709 0.74352788925170898 0.037577848881483078
0.57753664255142212 0.74940639734268188 0.039442744106054306
0.66007155179977417 0.75528877973556519 0.049760915338993073
0.71932631731033325 0.75999617576599121 0.063052386045455933
0.76683926582336426 0.76632213592529297 0.073030285537242889
0.81625765562057495 0.77712225914001465 0.083121262490749359
0.86931812763214111 0.79398864507675171 0.095017015933990479
0.91479498147964478 0.80708330869674683 0.10607481002807617
0.94283992052078247 0.79371446371078491 0.11494746804237366
0.95853686332702637 0.77060562372207642 0.11716169118881226
0.026840688660740852 0.78016018867492676 0.037466537207365036
0.08096536248922348 0.81138139963150024 0.040762495249509811
0.22800743579864502 0.825794517993927 0.039874177426099777
0.42227709293365479 0.82904082536697388 0.036548104137182236
0.56109297275543213 0.83003002405166626 0.036523871123790741
0.65217858552932739 0.83171772956848145 0.041870251297950745
0.71788400411605835 0.83198648691177368 0.050195161253213882
0.77146798372268677 0.83357083797454834 0.057706393301486969
0.82159233093261719 0.83949637413024902 0.064949735999107361
0.87110710144042969 0.85573428869247437 0.072667457163333893
0.91639631986618042 0.87820535898208618 0.080289386212825775
0.94727647304534912 0.87523502111434937 0.087293140590190887
0.96463143825531006 0.85370594263076782 0.090569786727428436
0.021452376618981361 0.026952465996146202 0.046626191586256027
0.045868024230003357 0.030480628833174706 0.049668718129396439
0.10175688564777374 0.041616462171077728 0.056987553834915161
0.1925063282251358 0.060449667274951935 0.0706009641289711
0.29340705275535583 0.084815770387649536 0.090821206569671631
0.39201551675796509 0.11044612526893616 0.1139141321182251
0.48318368196487427 0.13399158418178558 0.1355661004781723
0.5616832971572876 0.15477153658866882 0.1537049263715744
0.62941807508468628 0.17189697921276093 0.16884435713291168
0.69093012809753418 0.18603594601154327 0.18197964131832123
0.74916708469390869 0.1990831047296524 0.19439937174320221
0.80339670181274414 0.2113683819770813 0.20660801231861115
0.84926050901412964 0.2214716374874115 0.21777252852916718
0.025534177199006081 0.050999868661165237 0.053995080292224884
0.043374858796596527 0.05476711317896843 0.055532433092594147
0.093085303902626038 0.065467759966850281 0.061717253178358078
0.18931005895137787 0.081747777760028839 0.073709301650524139
0.29424875974655151 0.10457161068916321 0.093855567276477814
0.39474111795425415 0.12720134854316711 0.11628782749176025
0.48544162511825562 0.1476084440946579 0.13670670986175537
0.56305450201034546 0.16950032114982605 0.15449219942092896
0.63132572174072266 0.18788081407546997 0.16924886405467987
0.69501006603240967 0.20356512069702148 0.18151479959487915
0.75488448143005371 0.21731707453727722 0.19419082999229431
0.80921655893325806 0.22907541692256927 0.20838248729705811
0.85563868284225464 0.23872379958629608 0.22033567726612091
0.029372883960604668 0.09228457510471344 0.057547625154256821
0.048829652369022369 0.095230504870414734 0.057613834738731384
0.10542478412389755 0.098851405084133148 0.060221325606107712
0.20878511667251587 0.10809165984392166 0.074157252907752991
0.31338721513748169 0.12908492982387543 0.09745006263256073
0.4104144275188446 0.14940169453620911 0.12102530896663666
0.49518886208534241 0.16881942749023438 0.14165356755256653
0.56942647695541382 0.18894514441490173 0.15887956321239471
0.63690078258514404 0.20556122064590454 0.17299878597259521
0.70083248615264893 0.22175924479961395 0.18451973795890808
0.75964832305908203 0.23532135784626007 0.19685101509094238
0.8114084005355835 0.2454797774553299 0.21278074383735657
0.8578307032585144 0.25510671734809875 0.22414803504943848
0.03081766702234745 0.14099152386188507 0.051234167069196701
0.052245583385229111 0.14362062513828278 0.049162458628416061
0.11848663538694382 0.15005290508270264 0.050711330026388168
0.24351142346858978 0.14932520687580109 0.068661525845527649
0.36191564798355103 0.15941163897514343 0.10022898763418198
0.45128124952316284 0.17924787104129791 0.13077308237552643
0.52394789457321167 0.19962817430496216 0.15432937443256378
0.59280401468276978 0.21615485846996307 0.16925324499607086
0.65734440088272095 0.23064367473125458 0.18087205290794373
0.71686738729476929 0.24451415240764618 0.19246302545070648
0.77161151170730591 0.25817358493804932 0.2037183940410614
0.82142168283462524 0.27050158381462097 0.21609042584896088
0.86735337972640991 0.28288677334785461 0.22307698428630829
0.031152941286563873 0.19005751609802246 0.045035239309072495
0.054551202803850174 0.20018860697746277 0.03971322625875473
0.13517732918262482 0.21875481307506561 0.042628269642591476
0.2826806902885437 0.22245331108570099 0.064016140997409821
0.42390578985214233 0.21654720604419708 0.10230247676372528
0.51710492372512817 0.22045202553272247 0.13899065554141998
0.57849180698394775 0.23661646246910095 0.16735894978046417
0.63898110389709473 0.25165945291519165 0.18173903226852417
0.69794309139251709 0.26542934775352478 0.19019213318824768
0.75237011909484863 0.28032487630844116 0.19929248094558716
0.80242800712585449 0.29546725749969482 0.2070862203836441
0.85204190015792847 0.31422573328018188 0.21036890149116516
0.89560157060623169 0.33318439126014709 0.20810173451900482
0.033531848341226578 0.24387545883655548 0.045747704803943634
0.059332244098186493 0.26396790146827698 0.03851255401968956
0.1576826274394989 0.29244133830070496 0.041551642119884491
0.32085493206977844 0.31215354800224304 0.060388259589672089
0.47205594182014465 0.31178927421569824 0.091792099177837372
0.5832822322845459 0.29634857177734375 0.12084045261144638
0.65493571758270264 0.2949317991733551 0.14874687790870667
0.70480972528457642 0.30240994691848755 0.1739232987165451
0.75326651334762573 0.31542667746543884 0.18877421319484711
0.80563187599182129 0.33340036869049072 0.19480974972248077
0.85179382562637329 0.35018569231033325 0.19734348356723785
0.89005142450332642 0.36628776788711548 0.19477416574954987
0.92212766408920288 0.38585975766181946 0.1858440637588501
0.036691315472126007 0.29673504829406738 0.049682527780532837
0.064661301672458649 0.32534623146057129 0.044097572565078735
0.17587451636791229 0.36164230108261108 0.047813370823860168
0.35193935036659241 0.39295163750648499 0.060985609889030457
0.49956825375556946 0.41364192962646484 0.084517687559127808
0.60565829277038574 0.41374972462654114 0.10324476659297943
0.69496786594390869 0.39868158102035522 0.1189672127366066
0.75565499067306519 0.38926216959953308 0.14086467027664185
0.80424678325653076 0.39084130525588989 0.15936838090419769
0.85437452793121338 0.40040281414985657 0.1695777028799057
0.89438247680664062 0.40991029143333435 0.17243635654449463
0.91833746433258057 0.41931822896003723 0.16727796196937561
0.93817144632339478 0.43885689973831177 0.15755032002925873
0.037834901362657547 0.34618064761161804 0.049294132739305496
0.069049671292304993 0.3827267587184906 0.048807647079229355
0.1913304328918457 0.4247327446937561 0.051532939076423645
0.37394654750823975 0.45874670147895813 0.059976421296596527
0.52156716585159302 0.48476323485374451 0.080369912087917328
0.6143728494644165 0.50868874788284302 0.09963969886302948
0.69034481048583984 0.51351267099380493 0.11111372709274292
0.76144707202911377 0.49837753176689148 0.11822409182786942
0.82324844598770142 0.48703810572624207 0.12762090563774109
0.87849056720733643 0.48089173436164856 0.1381942480802536
0.91408801078796387 0.47766223549842834 0.14334785938262939
0.93136006593704224 0.48461884260177612 0.14132934808731079
0.9447406530380249 0.50316524505615234 0.13459222018718719
0.039448052644729614 0.38456067442893982 0.050748307257890701
0.079312235116958618 0.43049991130828857 0.053035393357276917
0.21668347716331482 0.4775652289390564 0.05120931938290596
0.39788877964019775 0.51561063528060913 0.053278364241123199
0.53777539730072021 0.54693311452865601 0.068934224545955658
0.62838530540466309 0.57345372438430786 0.091861143708229065
0.69385373592376709 0.588936448097229 0.10805827379226685
0.75142943859100342 0.59164649248123169 0.11372115463018417
0.81790798902511597 0.58755636215209961 0.12009376287460327
0.88337212800979614 0.58005213737487793 0.12950929999351501
0.91900861263275146 0.57426780462265015 0.13561969995498657
0.93380272388458252 0.57249718904495239 0.13567404448986053
0.94636911153793335 0.577994704246521 0.13262829184532166
0.046266235411167145 0.43709424138069153 0.056019369512796402
0.09561755508184433 0.49068263173103333 0.058004729449748993
0.24567887187004089 0.53780215978622437 0.053444057703018188
0.42277538776397705 0.57688826322555542 0.049778733402490616
0.55349594354629517 0.60824191570281982 0.059080012142658234
0.64336389303207397 0.6297028660774231 0.080703765153884888
0.70609354972839355 0.64537888765335083 0.10126762837171555
0.75254350900650024 0.66325122117996216 0.11166350543498993
0.81464028358459473 0.67333829402923584 0.12144973129034042
0.8830525279045105 0.67620080709457397 0.13389016687870026
0.92043650150299072 0.67446339130401611 0.14230459928512573
0.93532514572143555 0.66187810897827148 0.14287915825843811
0.9474632740020752 0.65249937772750854 0.14078617095947266
0.052444905042648315 0.54738461971282959 0.059305019676685333
0.094987638294696808 0.60210335254669189 0.06181151419878006
0.23918616771697998 0.64098799228668213 0.056417740881443024
0.42654594779014587 0.66510868072509766 0.049851018935441971
0.56304949522018433 0.68442732095718384 0.051962293684482574
0.65110534429550171 0.69865512847900391 0.067379370331764221
0.71528607606887817 0.71023041009902954 0.087646529078483582
0.76460796594619751 0.72585099935531616 0.10095192492008209
0.82092463970184326 0.74021482467651367 0.11325592547655106
0.88025236129760742 0.75070291757583618 0.12766686081886292
0.91986584663391113 0.75128477811813354 0.1389583945274353
0.93913924694061279 0.7344403862953186 0.14432065188884735
0.951973557472229 0.71623444557189941 0.14392556250095367
0.04951070249080658 0.69248485565185547 0.060343258082866669
0.080578312277793884 0.73229873180389404 0.063550345599651337
0.21540424227714539 0.7521706223487854 0.060686148703098297
0.42257654666900635 0.75966900587081909 0.053733315318822861
0.57247060537338257 0.76670771837234497 0.051991630345582962
0.6609838604927063 0.77410781383514404 0.060996830463409424
0.72438055276870728 0.78057187795639038 0.075229346752166748
0.77675104141235352 0.78856754302978516 0.08643670380115509
0.82914352416992188 0.79926592111587524 0.096758760511875153
0.88076895475387573 0.8128962516784668 0.10845419019460678
0.92075943946838379 0.82127493619918823 0.1195046678185463
0.94432580471038818 0.8051188588142395 0.12837140262126923
0.95856505632400513 0.78131306171417236 0.13156245648860931
0.031943779438734055 0.80642974376678467 0.060726899653673172
0.059579078108072281 0.83349502086639404 0.065001256763935089
0.17682550847530365 0.84230583906173706 0.063433058559894562
0.39227929711341858 0.84417301416397095 0.05649026483297348
0.55692172050476074 0.84639436006546021 0.053425867110490799
0.65592467784881592 0.85036736726760864 0.057400304824113846
0.72506511211395264 0.85279667377471924 0.065453939139842987
0.78209012746810913 0.85522323846817017 0.071826726198196411
0.83367288112640381 0.86077320575714111 0.07659168541431427
0.8816598653793335 0.87591242790222168 0.082200236618518829
0.92152869701385498 0.89293330907821655 0.088419534265995026
0.94875913858413696 0.88556313514709473 0.09631907194852829
0.96487593650817871 0.86203527450561523 0.10258979350328445
0.024381181225180626 0.0390625 0.075393736362457275
0.052155736833810806 0.039627809077501297 0.076802484691143036
0.12001079320907593 0.04682464525103569 0.08020598441362381
0.21934637427330017 0.063143052160739899 0.089676924049854279
0.31468445062637329 0.088431671261787415 0.10917264223098755
0.40752339363098145 0.11602997034788132 0.13169032335281372
0.49606671929359436 0.14082904160022736 0.15246202051639557
0.57291328907012939 0.16099949181079865 0.16953057050704956
0.63900971412658691 0.17727203667163849 0.18487249314785004
0.69830882549285889 0.19046118855476379 0.19781458377838135
0.75411099195480347 0.20281699299812317 0.20968866348266602
0.80648767948150635 0.21547390520572662 0.22194339334964752
0.8489411473274231 0.22445116937160492 0.23372983932495117
0.027405234053730965 0.060425344854593277 0.084491759538650513
0.045376691967248917 0.061074785888195038 0.084957167506217957
0.098026841878890991 0.069637581706047058 0.087474614381790161
0.19955816864967346 0.083587497472763062 0.095408961176872253
0.30395495891571045 0.10565982758998871 0.11276141554117203
0.40340903401374817 0.12916122376918793 0.1340721994638443
0.4929186999797821 0.15199810266494751 0.15288324654102325
0.56957870721817017 0.17266812920570374 0.16986104846000671
0.63790988922119141 0.19090756773948669 0.18508514761924744
0.70107477903366089 0.20693075656890869 0.19721429049968719
0.75895792245864868 0.2207346111536026 0.2091437429189682
0.81025892496109009 0.23196457326412201 0.22320440411567688
0.85175919532775879 0.23925007879734039 0.23550885915756226
0.031364902853965759 0.098556637763977051 0.09413553774356842
0.050459470599889755 0.098206900060176849 0.09223397821187973
0.095760375261306763 0.10559586435556412 0.096685357391834259
0.19549955427646637 0.1158965602517128 0.10345727950334549
0.30940946936607361 0.13242347538471222 0.11695128679275513
0.41213309764862061 0.15162627398967743 0.13593514263629913
0.49599805474281311 0.17085473239421844 0.15531244874000549
0.56956356763839722 0.18868786096572876 0.17349463701248169
0.63857614994049072 0.20507153868675232 0.18980908393859863
0.70325499773025513 0.22221560776233673 0.20119249820709229
0.76069551706314087 0.23640820384025574 0.21181139349937439
0.80692207813262939 0.24443443119525909 0.22800366580486298
0.84882307052612305 0.25153940916061401 0.23765663802623749
0.03392443060874939 0.15610265731811523 0.087340846657752991
0.053398147225379944 0.15455155074596405 0.085609346628189087
0.10677708685398102 0.16317641735076904 0.088575966656208038
0.22636917233467102 0.16209663450717926 0.097328290343284607
0.35085868835449219 0.16857115924358368 0.1142040491104126
0.44885632395744324 0.18458442389965057 0.13796620070934296
0.52284145355224609 0.20161300897598267 0.1601782888174057
0.59111493825912476 0.21435850858688354 0.17831110954284668
0.65534365177154541 0.22800856828689575 0.19564059376716614
0.71543961763381958 0.24398864805698395 0.2090068906545639
0.7706943154335022 0.25976419448852539 0.21596093475818634
0.81607580184936523 0.26888763904571533 0.22584672272205353
0.86156231164932251 0.27912452816963196 0.22754843533039093
0.03641987219452858 0.21337834000587463 0.076682209968566895
0.054280135780572891 0.2204211950302124 0.069077163934707642
0.11503087729215622 0.2380358874797821 0.06763814389705658
0.26196128129959106 0.23718850314617157 0.078192509710788727
0.4171234667301178 0.22681275010108948 0.10518362373113632
