assets/lut/shamoonabbasi hlg 1 1.cube
# Created by: G'MIC (https://gmic.eu)
TITLE "hlg_1_1"
# LUT size
LUT_3D_SIZE 5
# Data domain
DOMAIN_MIN 0.0 0.0 0.0
DOMAIN_MAX 1.0 1.0 1.0
# LUT data points
0.017899172380566597 0.021094392985105515 0.023069284856319427
0.34188207983970642 0.095159135758876801 0.087289802730083466
0.68788564205169678 0.18529364466667175 0.16458158195018768
0.84978890419006348 0.2315441370010376 0.20639817416667938
0.8554840087890625 0.24114055931568146 0.21355715394020081
0.042612757533788681 0.21347710490226746 0.026579434052109718
0.58105695247650146 0.27207726240158081 0.12808707356452942
0.83326429128646851 0.34729966521263123 0.18956699967384338
0.92188155651092529 0.40202996134757996 0.16467231512069702
0.93671935796737671 0.43313118815422058 0.15004780888557434
0.088114477694034576 0.50255495309829712 0.045830611139535904
0.70533937215805054 0.62126797437667847 0.086860328912734985
0.89752554893493652 0.62807583808898926 0.11816118657588959
0.94509720802307129 0.62575292587280273 0.12634597718715668
0.94901961088180542 0.65154898166656494 0.13377448916435242
0.13243381679058075 0.83365654945373535 0.056721944361925125
0.75088584423065186 0.81872028112411499 0.055226538330316544
0.90958911180496216 0.85075050592422485 0.085180304944515228
0.95292544364929199 0.82604598999023438 0.10861439257860184
0.9529411792755127 0.83181136846542358 0.1113378182053566
0.29751491546630859 0.86112642288208008 0.074297048151493073
0.79487490653991699 0.87150841951370239 0.067342795431613922
0.92608249187469482 0.88784611225128174 0.084239527583122253
0.9529411792755127 0.85344243049621582 0.10580383241176605
0.9529411792755127 0.85375922918319702 0.10679967701435089
0.027593260630965233 0.053186513483524323 0.1241241917014122
0.39515620470046997 0.11124047636985779 0.14322027564048767
0.71190798282623291 0.1944022923707962 0.2138151228427887
0.84606552124023438 0.23352451622486115 0.2538725733757019
0.84767550230026245 0.25284853577613831 0.27131456136703491
0.042947206646203995 0.28334900736808777 0.11856941133737564
0.60924381017684937 0.33217892050743103 0.14988452196121216
0.85254579782485962 0.42666631937026978 0.17722465097904205
0.94271469116210938 0.4964921772480011 0.18817806243896484
0.94395393133163452 0.53335446119308472 0.20786641538143158
0.07943619042634964 0.52122122049331665 0.11456644535064697
0.69904041290283203 0.67807865142822266 0.1229601725935936
0.90512549877166748 0.67606508731842041 0.1688816100358963
0.94844049215316772 0.67751359939575195 0.18242476880550385
0.94901961088180542 0.69516438245773315 0.19000652432441711
0.12721565365791321 0.84876501560211182 0.11297076195478439
0.75141990184783936 0.87415885925292969 0.097896084189414978
0.90954697132110596 0.87254148721694946 0.12641684710979462
0.95276916027069092 0.84419262409210205 0.15292626619338989
0.9529411792755127 0.84702622890472412 0.1562577486038208
0.22302964329719543 0.86894965171813965 0.13601978123188019
0.78516453504562378 0.90901046991348267 0.11691614985466003
0.91660410165786743 0.89894556999206543 0.12644608318805695
0.9529411792755127 0.87735515832901001 0.14429070055484772
0.9529411792755127 0.87837231159210205 0.14632126688957214
0.048770755529403687 0.15460294485092163 0.35953414440155029
0.45972585678100586 0.15596958994865417 0.26468575000762939
0.78235930204391479 0.23916563391685486 0.28135442733764648
0.90003401041030884 0.31871277093887329 0.32743656635284424
0.89755851030349731 0.40521109104156494 0.45497635006904602
0.076257504522800446 0.36794888973236084 0.48791545629501343
0.54653102159500122 0.47761547565460205 0.49419477581977844
0.83588916063308716 0.56831717491149902 0.53242236375808716
0.92044055461883545 0.61516439914703369 0.56807827949523926
0.92150545120239258 0.63104510307312012 0.58814626932144165
0.15786838531494141 0.76411086320877075 0.66710597276687622
0.62414443492889404 0.72486835718154907 0.51940709352493286
0.87096351385116577 0.73558318614959717 0.43738815188407898
0.94837743043899536 0.72522628307342529 0.48354053497314453
0.9487004280090332 0.74002605676651001 0.51332718133926392
0.16732071340084076 0.9646340012550354 0.50573843717575073
0.67918968200683594 0.91288620233535767 0.39892119169235229
0.89063888788223267 0.88848757743835449 0.35224512219429016
0.95291006565093994 0.86805802583694458 0.38822761178016663
0.9529411792755127 0.87118387222290039 0.38316607475280762
0.20190456509590149 0.96239674091339111 0.54626786708831787
0.72981661558151245 0.95097637176513672 0.40520423650741577
0.90414977073669434 0.92704278230667114 0.34104865789413452
0.95269441604614258 0.91032415628433228 0.30962082743644714
0.9529411792755127 0.90986341238021851 0.31823980808258057
0.064081601798534393 0.24738621711730957 0.53864181041717529
0.44986668229103088 0.25531256198883057 0.42672508955001831
0.82794457674026489 0.36105215549468994 0.47482556104660034
0.89322590827941895 0.45562654733657837 0.60029548406600952
0.9007684588432312 0.47395029664039612 0.65386056900024414
0.095867365598678589 0.45395520329475403 0.65014714002609253
0.53746974468231201 0.53887903690338135 0.68463259935379028
0.84316009283065796 0.58498227596282959 0.6577303409576416
0.90955394506454468 0.64089077711105347 0.69155251979827881
0.9150739312171936 0.66030687093734741 0.70466059446334839
0.1599932461977005 0.74352115392684937 0.77767586708068848
0.53257864713668823 0.76255935430526733 0.72259598970413208
0.84772604703903198 0.7616618275642395 0.67121142148971558
0.93952041864395142 0.76889044046401978 0.68696701526641846
0.94282406568527222 0.78054744005203247 0.69620347023010254
0.20326593518257141 0.95719295740127563 0.81756371259689331
0.56660914421081543 0.94425779581069946 0.59011763334274292
0.87927615642547607 0.90236437320709229 0.59891682863235474
0.94902282953262329 0.88616341352462769 0.61168062686920166
0.95019912719726562 0.88851428031921387 0.61520522832870483
0.23014053702354431 0.97522443532943726 0.81253856420516968
0.64862430095672607 0.97590333223342896 0.55744403600692749
0.89591377973556519 0.94136887788772583 0.58191829919815063
0.95289915800094604 0.93183332681655884 0.5650065541267395
0.9529411792755127 0.93178105354309082 0.56403160095214844
0.086000286042690277 0.35820811986923218 0.68710589408874512
0.42370277643203735 0.34752312302589417 0.64637726545333862
0.84187573194503784 0.3947964608669281 0.62624317407608032
0.90281981229782104 0.46076586842536926 0.68592327833175659
0.90914332866668701 0.47638562321662903 0.70119726657867432
0.11853937059640884 0.53805935382843018 0.76587903499603271
0.52565783262252808 0.59507972002029419 0.80926227569580078
0.87081760168075562 0.58875995874404907 0.78129541873931885
0.92326098680496216 0.64109951257705688 0.7689480185508728
0.92542177438735962 0.64750373363494873 0.77803176641464233
0.16267311573028564 0.73972845077514648 0.85681706666946411
0.51899653673171997 0.77086830139160156 0.82612544298171997
0.84394675493240356 0.77150511741638184 0.78439223766326904
0.93096023797988892 0.79373985528945923 0.7971806526184082
0.93495142459869385 0.80239748954772949 0.80475103855133057
0.19453345239162445 0.88294887542724609 0.90102052688598633
0.45185679197311401 0.95075446367263794 0.82017463445663452
0.86915081739425659 0.91906684637069702 0.72836625576019287
0.94924366474151611 0.90450632572174072 0.74396604299545288
0.95282900333404541 0.90851461887359619 0.74485188722610474
0.21966032683849335 0.91385960578918457 0.9076998233795166
0.49952903389930725 0.98484057188034058 0.77242857217788696
0.88535982370376587 0.95355403423309326 0.70607197284698486
0.94901961088180542 0.94672185182571411 0.7124442458152771
0.94901961088180542 0.94822597503662109 0.71455901861190796
