assets/lut/shamoonabbasi rest 33.cube
# Created by: G'MIC (https://gmic.eu)
TITLE "rest_33"
# LUT size
LUT_3D_SIZE 5
# Data domain
DOMAIN_MIN 0.0 0.0 0.0
DOMAIN_MAX 1.0 1.0 1.0
# LUT data points
0.060490701347589493 0.0818801149725914 0.081011019647121429
0.11532346159219742 0.10480386763811111 0.10160673409700394
0.3058411180973053 0.099822074174880981 0.10678716748952866
0.57068920135498047 0.079312942922115326 0.10048162192106247
0.84725016355514526 0.09569917619228363 0.077292047441005707
0.17953969538211823 0.23624290525913239 0.1843755841255188
0.29410943388938904 0.30570301413536072 0.22059518098831177
0.50677567720413208 0.35953852534294128 0.20271532237529755
0.78198826313018799 0.36047849059104919 0.19144149124622345
0.97433066368103027 0.36383506655693054 0.17454768717288971
0.3136037290096283 0.46320024132728577 0.2703491747379303
0.51736044883728027 0.5517578125 0.30345427989959717
0.68688708543777466 0.62352925539016724 0.30478408932685852
0.85351032018661499 0.67478740215301514 0.28544849157333374
0.99080109596252441 0.67906326055526733 0.26464042067527771
0.54480063915252686 0.71919673681259155 0.3726898729801178
0.69240754842758179 0.76174813508987427 0.42281004786491394
0.80802381038665771 0.81143867969512939 0.43980523943901062
0.91974848508834839 0.85095453262329102 0.42244938015937805
0.99365192651748657 0.87375277280807495 0.38646861910820007
0.73844796419143677 0.89358580112457275 0.56683474779129028
0.82335346937179565 0.89932495355606079 0.60635983943939209
0.89717227220535278 0.91549581289291382 0.58573317527770996
0.97854876518249512 0.93422025442123413 0.52371019124984741
1 0.93725490570068359 0.49152019619941711
0.066133357584476471 0.090108506381511688 0.10254585742950439
0.12303937971591949 0.11740469932556152 0.12919154763221741
0.27112653851509094 0.13296754658222198 0.16378530859947205
0.51171422004699707 0.13580110669136047 0.17805436253547668
0.78307533264160156 0.17367455363273621 0.18186640739440918
0.1965484619140625 0.25742104649543762 0.2287430614233017
0.32247483730316162 0.33404886722564697 0.27240490913391113
0.44084125757217407 0.39132115244865417 0.3145601749420166
0.74043726921081543 0.39343279600143433 0.33364710211753845
0.92685788869857788 0.42584234476089478 0.32470381259918213
0.34769749641418457 0.48800903558731079 0.35287958383560181
0.58066141605377197 0.56575959920883179 0.424326092004776
0.68097859621047974 0.63286936283111572 0.4783937931060791
0.82040727138519287 0.68870431184768677 0.47902825474739075
0.97236353158950806 0.69608479738235474 0.47260162234306335
0.5500417947769165 0.73318731784820557 0.46122118830680847
0.70428967475891113 0.76263058185577393 0.5519595742225647
0.81380301713943481 0.81323343515396118 0.59824061393737793
0.90420258045196533 0.85815411806106567 0.61224782466888428
0.97186344861984253 0.87939548492431641 0.59957069158554077
0.732807457447052 0.90176665782928467 0.62315267324447632
0.83175301551818848 0.90096288919448853 0.68205296993255615
0.89811599254608154 0.91949683427810669 0.68688255548477173
0.97379428148269653 0.93805140256881714 0.6686476469039917
0.99001222848892212 0.94117647409439087 0.66067695617675781
0.045914176851511002 0.10714685916900635 0.20144091546535492
0.14865864813327789 0.13682825863361359 0.22488050162792206
0.29974395036697388 0.1422378271818161 0.25755581259727478
0.54086613655090332 0.10936614125967026 0.27395197749137878
0.81110215187072754 0.05463554710149765 0.26249250769615173
0.11074230819940567 0.28783178329467773 0.30681943893432617
0.34268286824226379 0.35258960723876953 0.31281119585037231
0.46503034234046936 0.41179463267326355 0.35471925139427185
0.69631361961364746 0.42780140042304993 0.40896180272102356
0.8748282790184021 0.45931282639503479 0.40984567999839783
0.27038076519966125 0.53116804361343384 0.40585488080978394
0.60011214017868042 0.58554351329803467 0.46902215480804443
0.69481557607650757 0.65172803401947021 0.52790826559066772
0.77769654989242554 0.70715993642807007 0.58740270137786865
0.94095540046691895 0.7163274884223938 0.61630809307098389
0.509407639503479 0.75540894269943237 0.53348594903945923
0.72010689973831177 0.77131813764572144 0.63375073671340942
0.8403853178024292 0.8235432505607605 0.69088530540466309
0.89443516731262207 0.86226856708526611 0.72801214456558228
0.96069943904876709 0.8905179500579834 0.7252621054649353
0.68914484977722168 0.90908312797546387 0.66063928604125977
0.83217871189117432 0.90500050783157349 0.74315100908279419
0.90482103824615479 0.92544287443161011 0.76956701278686523
0.96911066770553589 0.94314318895339966 0.78808152675628662
0.97595125436782837 0.94497668743133545 0.79310363531112671
0.009999353438615799 0.12849698960781097 0.34529459476470947
0.17062222957611084 0.17078648507595062 0.36652275919914246
0.35547411441802979 0.20573157072067261 0.40708726644515991
0.56663995981216431 0.17819762229919434 0.44027194380760193
0.8159949779510498 0.12849521636962891 0.46187934279441833
0.042882509529590607 0.30279707908630371 0.41428935527801514
0.33736643195152283 0.37097933888435364 0.44850033521652222
0.52211630344390869 0.41250106692314148 0.46681547164916992
0.70100080966949463 0.42295429110527039 0.48619732260704041
0.87438356876373291 0.42185530066490173 0.49351680278778076
0.059886813163757324 0.54990637302398682 0.51790589094161987
0.53697997331619263 0.60323655605316162 0.56294375658035278
0.70791172981262207 0.66958796977996826 0.58154582977294922
0.7898094654083252 0.72164309024810791 0.63373947143554688
0.92194211483001709 0.73261857032775879 0.69015252590179443
0.24997563660144806 0.78316026926040649 0.59628027677536011
0.69779396057128906 0.79148644208908081 0.68144595623016357
0.8469085693359375 0.83391726016998291 0.72436076402664185
0.90045040845870972 0.87295645475387573 0.7641790509223938
0.94739991426467896 0.90699595212936401 0.80241841077804565
0.52751874923706055 0.93088936805725098 0.68359553813934326
0.80730849504470825 0.91662311553955078 0.78293091058731079
0.91093778610229492 0.92921918630599976 0.82955062389373779
0.96811497211456299 0.94856595993041992 0.8650738000869751
0.96470588445663452 0.94901961088180542 0.88795524835586548
0.00084147736197337508 0.16002735495567322 0.51334083080291748
0.19535432755947113 0.20569679141044617 0.53753602504730225
0.45189481973648071 0.2792600691318512 0.57984626293182373
0.65171307325363159 0.30136671662330627 0.62713444232940674
0.82505142688751221 0.26604428887367249 0.65950304269790649
0.021201414987444878 0.35421448945999146 0.57422226667404175
0.32457113265991211 0.38683304190635681 0.60147833824157715
0.57124602794647217 0.47859588265419006 0.63451939821243286
0.7210923433303833 0.50456911325454712 0.66501367092132568
0.87103790044784546 0.50143086910247803 0.68100041151046753
0.031490236520767212 0.55852830410003662 0.64832240343093872
0.43886357545852661 0.59989887475967407 0.66293919086456299
0.69345951080322266 0.67248636484146118 0.69907760620117188
0.81632018089294434 0.70657092332839966 0.71071213483810425
0.9127156138420105 0.7234833836555481 0.72120767831802368
0.037803247570991516 0.79236316680908203 0.71764308214187622
0.55008339881896973 0.81464391946792603 0.73076951503753662
0.81954807043075562 0.83759021759033203 0.78130781650543213
0.90900141000747681 0.88454985618591309 0.79806733131408691
0.95469766855239868 0.91790217161178589 0.83215141296386719
0.13930334150791168 0.94573807716369629 0.80186003446578979
0.67428362369537354 0.93904793262481689 0.81859278678894043
0.90223032236099243 0.93141770362854004 0.8743433952331543
0.96468490362167358 0.94875824451446533 0.88971900939941406
0.96218782663345337 0.95288729667663574 0.91167581081390381
