assets/lut/shamoonabbasi spy 29.cube
# Created by: G'MIC (https://gmic.eu)
TITLE "spy_29"
# LUT size
LUT_3D_SIZE 7
# Data domain
DOMAIN_MIN 0.0 0.0 0.0
DOMAIN_MAX 1.0 1.0 1.0
# LUT data points
0.039021763950586319 0.059403408318758011 0.064132049679756165
0.048327665776014328 0.070147059857845306 0.073821678757667542
0.09442099928855896 0.073972813785076141 0.079932659864425659
0.16777737438678741 0.076027825474739075 0.081529296934604645
0.28195148706436157 0.073595337569713593 0.081758372485637665
0.42001360654830933 0.059787794947624207 0.080413594841957092
0.59395647048950195 0.033000990748405457 0.072428084909915924
0.070665784180164337 0.10583531856536865 0.11300185322761536
0.087165474891662598 0.12812665104866028 0.13659192621707916
0.13198505342006683 0.15154461562633514 0.13802693784236908
0.24007946252822876 0.15949702262878418 0.13035467267036438
0.39301615953445435 0.13973885774612427 0.12737332284450531
0.55317384004592896 0.13272246718406677 0.1236860379576683
0.71991801261901855 0.12220034003257751 0.1065719872713089
0.098525345325469971 0.19848589599132538 0.1677967756986618
0.1518426388502121 0.23184078931808472 0.20288129150867462
0.21624563634395599 0.27467077970504761 0.2087799608707428
0.32108122110366821 0.31411761045455933 0.19849927723407745
0.48445615172386169 0.33742532134056091 0.18218298256397247
0.65767282247543335 0.33868426084518433 0.17349553108215332
0.8240693211555481 0.31807810068130493 0.16535493731498718
0.11919634789228439 0.33381149172782898 0.20374421775341034
0.22259584069252014 0.36141678690910339 0.24585206806659698
0.31692191958427429 0.40894362330436707 0.26348975300788879
0.42930999398231506 0.46102583408355713 0.26496449112892151
0.57163256406784058 0.5142553448677063 0.24672555923461914
0.71598231792449951 0.54971301555633545 0.22856846451759338
0.84195172786712646 0.5601813793182373 0.21883420646190643
0.20183511078357697 0.51065522432327271 0.24214005470275879
0.33215421438217163 0.52794969081878662 0.28993278741836548
0.44634398818016052 0.5657724142074585 0.31995448470115662
0.55199801921844482 0.61195653676986694 0.32953846454620361
0.66121339797973633 0.65637195110321045 0.32644137740135193
0.76434755325317383 0.69459760189056396 0.31361523270606995
0.85774022340774536 0.72502446174621582 0.29723089933395386
0.3545568585395813 0.6765325665473938 0.2914351224899292
0.47807532548904419 0.68785649538040161 0.34695976972579956
0.57983726263046265 0.7078743577003479 0.3955078125
0.66216027736663818 0.74085044860839844 0.41510367393493652
0.73948049545288086 0.77515363693237305 0.42146459221839905
0.81862688064575195 0.8084716796875 0.41732662916183472
0.89776235818862915 0.83486765623092651 0.3979085385799408
0.54764455556869507 0.82745647430419922 0.38961371779441833
0.63336396217346191 0.83652442693710327 0.45819857716560364
0.70790779590606689 0.84846442937850952 0.52786791324615479
0.76973128318786621 0.86424416303634644 0.55926764011383057
0.82964396476745605 0.88555717468261719 0.57264643907546997
0.88472837209701538 0.9062386155128479 0.5708012580871582
0.9388878345489502 0.92124974727630615 0.53679907321929932
0.040617819875478745 0.0636725053191185 0.069894902408123016
0.05038890615105629 0.076113291084766388 0.08077055960893631
0.084335997700691223 0.08441656082868576 0.10029026120901108
0.15050637722015381 0.088175982236862183 0.10951898247003555
0.2536376416683197 0.091062925755977631 0.11584463715553284
0.38221770524978638 0.08965243399143219 0.11971502751111984
0.5496705174446106 0.078200638294219971 0.12058663368225098
0.075275599956512451 0.11358004063367844 0.12311603128910065
0.092472925782203674 0.1361963301897049 0.14756719768047333
0.11565870046615601 0.16209538280963898 0.17335778474807739
0.20806887745857239 0.17627105116844177 0.1876407265663147
0.35461631417274475 0.17929258942604065 0.19256205856800079
0.49780276417732239 0.18369629979133606 0.19304302334785461
0.66744959354400635 0.18440431356430054 0.18157145380973816
0.10295180976390839 0.21792738139629364 0.20331390202045441
0.17640574276447296 0.24669481813907623 0.25660532712936401
0.21700817346572876 0.28479543328285217 0.29122260212898254
0.29194676876068115 0.32729780673980713 0.29462656378746033
0.45080649852752686 0.35258135199546814 0.28830385208129883
0.62990272045135498 0.34871581196784973 0.28239226341247559
0.79385864734649658 0.34323322772979736 0.27639186382293701
0.10590687394142151 0.36256802082061768 0.26162409782409668
0.2474396824836731 0.37971532344818115 0.31833538413047791
0.34334275126457214 0.41788926720619202 0.36561542749404907
0.42877054214477539 0.468863844871521 0.37725433707237244
0.55040794610977173 0.52152270078659058 0.3685363233089447
0.69332599639892578 0.5572008490562439 0.35863843560218811
0.82479441165924072 0.56575703620910645 0.35480201244354248
0.17849944531917572 0.53033709526062012 0.3026939332485199
0.34721946716308594 0.54630810022354126 0.35849037766456604
0.4679739773273468 0.57195144891738892 0.4128328263759613
0.55999529361724854 0.61393743753433228 0.44475874304771423
0.65258920192718506 0.65823131799697876 0.45345443487167358
0.74961847066879272 0.70147943496704102 0.45345330238342285
0.84364610910415649 0.73050010204315186 0.44952571392059326
0.32356172800064087 0.68913775682449341 0.35347515344619751
0.47508949041366577 0.69891595840454102 0.41436070203781128
0.58486807346343994 0.71417832374572754 0.48012712597846985
0.66377121210098267 0.73744374513626099 0.52334368228912354
0.73300063610076904 0.77300864458084106 0.54340881109237671
0.80376070737838745 0.80674290657043457 0.55074799060821533
0.87967699766159058 0.83647334575653076 0.54821574687957764
0.52324491739273071 0.83811324834823608 0.45051878690719604
0.61465531587600708 0.84492689371109009 0.51680010557174683
0.69940245151519775 0.85175192356109619 0.58437788486480713
0.76903676986694336 0.86288797855377197 0.63220095634460449
0.82842528820037842 0.88599497079849243 0.64953559637069702
0.87707704305648804 0.90640413761138916 0.6590842604637146
0.9270927906036377 0.92049127817153931 0.64290064573287964
0.036044895648956299 0.070324555039405823 0.10153361409902573
0.056396171450614929 0.080496080219745636 0.10818909108638763
0.08923320472240448 0.091087579727172852 0.13162064552307129
0.14958669245243073 0.095258988440036774 0.15549343824386597
0.25863641500473022 0.088478028774261475 0.16837763786315918
0.39398342370986938 0.062355834990739822 0.16867992281913757
0.54974901676177979 0.041002102196216583 0.1676878035068512
0.055683616548776627 0.12606510519981384 0.15324307978153229
0.096546724438667297 0.14472204446792603 0.15947479009628296
0.12272341549396515 0.17471221089363098 0.19007766246795654
0.19156546890735626 0.19580207765102386 0.22803013026714325
0.31702077388763428 0.20268571376800537 0.24655228853225708
0.45219403505325317 0.2056669294834137 0.25220614671707153
0.61149543523788452 0.21458651125431061 0.25062155723571777
0.057775802910327911 0.23699605464935303 0.23724769055843353
0.18632283806800842 0.26100373268127441 0.27185758948326111
0.23147648572921753 0.30220097303390503 0.30901089310646057
0.27605733275413513 0.3423958420753479 0.34396564960479736
0.41429546475410461 0.37162107229232788 0.36320632696151733
0.58429586887359619 0.37344905734062195 0.36815449595451355
0.73186814785003662 0.38317888975143433 0.36164429783821106
0.046425208449363708 0.38565957546234131 0.30351495742797852
0.24953018128871918 0.40407666563987732 0.36176878213882446
0.37868815660476685 0.4412289559841156 0.42263314127922058
0.42918425798416138 0.48488405346870422 0.45748811960220337
0.52205020189285278 0.52829587459564209 0.47472414374351501
0.66127556562423706 0.56837522983551025 0.47457447648048401
0.79947566986083984 0.57513952255249023 0.48002815246582031
0.063422664999961853 0.55534988641738892 0.35202661156654358
0.31406441330909729 0.5724373459815979 0.41677767038345337
0.48978444933891296 0.59440165758132935 0.49528887867927551
0.57589781284332275 0.62283170223236084 0.55651021003723145
0.64637356996536255 0.66191411018371582 0.58509296178817749
0.72506868839263916 0.70483660697937012 0.5868837833404541
0.8223530650138855 0.73953324556350708 0.58805525302886963
0.19055803120136261 0.70553648471832275 0.40968456864356995
0.43970954418182373 0.7133747935295105 0.4809575080871582
0.58147263526916504 0.72684544324874878 0.55517005920410156
0.6668936014175415 0.74303144216537476 0.61639642715454102
0.73009860515594482 0.77241116762161255 0.64977043867111206
0.7920992374420166 0.80949467420578003 0.66262215375900269
0.86119711399078369 0.84151363372802734 0.66592615842819214
0.46063628792762756 0.8495715856552124 0.51108956336975098
0.5819629430770874 0.85258930921554565 0.57450783252716064
0.68437457084655762 0.86043334007263184 0.63240534067153931
0.76314860582351685 0.86616796255111694 0.68362319469451904
0.82646363973617554 0.88344436883926392 0.72632652521133423
0.87018609046936035 0.90532606840133667 0.74069398641586304
0.91338199377059937 0.92424523830413818 0.73651373386383057
0.025632238015532494 0.079843409359455109 0.16131129860877991
0.052825465798377991 0.088462039828300476 0.16586707532405853
0.095327295362949371 0.10623981058597565 0.18662010133266449
0.1588355153799057 0.11412882804870605 0.22476905584335327
0.25677904486656189 0.11173408478498459 0.25470161437988281
0.39115133881568909 0.091006211936473846 0.26965788006782532
0.56202232837677002 0.038424845784902573 0.26729795336723328
0.028682917356491089 0.13561961054801941 0.21215184032917023
0.084771536290645599 0.15733954310417175 0.21978536248207092
0.1393575519323349 0.18388383090496063 0.236689493060112
0.20139101147651672 0.20988835394382477 0.27646449208259583
0.3145374059677124 0.22857910394668579 0.3197777271270752
0.45951694250106812 0.21980427205562592 0.33503013849258423
0.62860721349716187 0.17642615735530853 0.32646724581718445
0.015920108184218407 0.24515582621097565 0.29569023847579956
0.14106155931949615 0.27810853719711304 0.30526477098464966
0.24570675194263458 0.31902220845222473 0.32600066065788269
0.28817328810691833 0.35613918304443359 0.35669246315956116
0.39414763450622559 0.39285695552825928 0.40568250417709351
0.54209357500076294 0.39502426981925964 0.42196476459503174
0.68833750486373901 0.39008185267448425 0.41624855995178223
0.013074672780930996 0.38765442371368408 0.36493486166000366
0.17915648221969604 0.42282995581626892 0.39472690224647522
0.39142066240310669 0.4565836489200592 0.4371437132358551
0.44490280747413635 0.50257724523544312 0.47549974918365479
0.49808022379875183 0.54672104120254517 0.51728278398513794
0.62684720754623413 0.58044171333312988 0.55359804630279541
0.76146167516708374 0.5882905125617981 0.56591200828552246
0.009670511819422245 0.56702119112014771 0.41850098967552185
0.1952025443315506 0.58955389261245728 0.46261897683143616
0.48258870840072632 0.61479943990707397 0.54249948263168335
0.59061461687088013 0.64316213130950928 0.61156362295150757
0.63095283508300781 0.67877358198165894 0.64875942468643188
0.70207637548446655 0.70807808637619019 0.66763293743133545
0.79907727241516113 0.75040018558502197 0.67638814449310303
0.031729932874441147 0.72575682401657104 0.46038508415222168
0.31156307458877563 0.7326655387878418 0.52307862043380737
0.55202770233154297 0.7402452826499939 0.60616141557693481
0.66732287406921387 0.75779575109481812 0.6711883544921875
0.73156654834747314 0.78341567516326904 0.71633619070053101
0.78539609909057617 0.81041872501373291 0.74013274908065796
0.84646320343017578 0.84479224681854248 0.74871432781219482
0.24274252355098724 0.86676633358001709 0.53499817848205566
0.49004268646240234 0.86860853433609009 0.60894775390625
0.64834564924240112 0.87010782957077026 0.67067629098892212
0.74969053268432617 0.87652134895324707 0.72506535053253174
0.81504994630813599 0.88072317838668823 0.77161437273025513
0.86483108997344971 0.90422183275222778 0.81131207942962646
0.90366524457931519 0.92353063821792603 0.81740474700927734
0.010778389871120453 0.090754896402359009 0.25469353795051575
0.037183050066232681 0.10356172919273376 0.2627716064453125
0.099337756633758545 0.12247254699468613 0.28334948420524597
0.18003909289836884 0.14366698265075684 0.31297996640205383
0.28351303935050964 0.14945642650127411 0.35158291459083557
0.40701231360435486 0.13307814300060272 0.38170531392097473
0.56596231460571289 0.093227624893188477 0.4027288556098938
0.0089109977707266808 0.15953095257282257 0.30520042777061462
0.060222070664167404 0.17274793982505798 0.31338781118392944
0.15210117399692535 0.20547573268413544 0.33050179481506348
0.24019268155097961 0.24343743920326233 0.3583754301071167
0.34461447596549988 0.27036663889884949 0.39900293946266174
0.4648166298866272 0.26652839779853821 0.43404000997543335
0.62525373697280884 0.2457587867975235 0.45713794231414795
0.0071129142306745052 0.26397860050201416 0.36832788586616516
0.10228893905878067 0.29141390323638916 0.37640571594238281
0.22991131246089935 0.32925117015838623 0.38745841383934021
0.31650182604789734 0.37080276012420654 0.41070502996444702
0.421722412109375 0.41233068704605103 0.45955303311347961
0.54249447584152222 0.42643833160400391 0.50381898880004883
0.68367522954940796 0.41713997721672058 0.5251045823097229
0.0032271291129291058 0.40255653858184814 0.44199320673942566
0.12351460009813309 0.43316459655761719 0.45854729413986206
0.33296450972557068 0.47442936897277832 0.47315764427185059
0.4577043354511261 0.51760095357894897 0.49379020929336548
0.51192229986190796 0.56252473592758179 0.53651392459869385
0.6065298318862915 0.59654909372329712 0.59937918186187744
0.72399312257766724 0.59946155548095703 0.62347155809402466
0.0047648861072957516 0.57064849138259888 0.51453614234924316
0.11775130033493042 0.59470754861831665 0.53922957181930542
0.41609755158424377 0.62254953384399414 0.58038938045501709
0.5998307466506958 0.65691709518432617 0.62844747304916382
0.63675475120544434 0.68864911794662476 0.65974652767181396
0.67018449306488037 0.72291713953018188 0.69010525941848755
0.76882094144821167 0.7553478479385376 0.72801679372787476
0.014846397563815117 0.72750812768936157 0.56615293025970459
0.16977980732917786 0.73774516582489014 0.59816789627075195
0.46370682120323181 0.75249636173248291 0.64460539817810059
0.64666354656219482 0.76894783973693848 0.70007055997848511
0.72494411468505859 0.79433906078338623 0.75144535303115845
0.754863440990448 0.82338261604309082 0.78034079074859619
0.82327908277511597 0.84746313095092773 0.81063705682754517
0.014222432859241962 0.88308703899383545 0.61950641870498657
0.27659600973129272 0.8830263614654541 0.65134960412979126
0.53435760736465454 0.88621097803115845 0.69745081663131714
0.69835621118545532 0.88956320285797119 0.75609302520751953
0.80441814661026001 0.89793062210083008 0.82167059183120728
0.85313916206359863 0.91906529664993286 0.8612176775932312
0.8970000147819519 0.92867881059646606 0.88222974538803101
4.4878790504299104e-05 0.10477932542562485 0.36391821503639221
0.016023283824324608 0.11833729594945908 0.3730112612247467
0.092468991875648499 0.13670378923416138 0.38817128539085388
0.20387047529220581 0.16289357841014862 0.41537657380104065
0.33271816372871399 0.19870184361934662 0.45258310437202454
0.46449765563011169 0.2069087028503418 0.49471580982208252
0.60460919141769409 0.17379222810268402 0.53283840417861938
0.00018295587506145239 0.17656370997428894 0.40627539157867432
0.028056515380740166 0.18638427555561066 0.41349062323570251
0.1486566960811615 0.22059410810470581 0.42987668514251709
0.27016273140907288 0.26214709877967834 0.45380666851997375
0.39458507299423218 0.30645009875297546 0.49266901612281799
0.51736712455749512 0.32958927750587463 0.53816699981689453
0.64750558137893677 0.31208425760269165 0.58164721727371216
0.00085812737233936787 0.28400379419326782 0.45224297046661377
0.063228502869606018 0.31158608198165894 0.46354889869689941
0.21857944130897522 0.33925145864486694 0.47909796237945557
0.34290122985839844 0.37867984175682068 0.50166624784469604
0.46263951063156128 0.4297511875629425 0.54132860898971558
0.57802867889404297 0.4757310152053833 0.59426414966583252
0.68521642684936523 0.48039704561233521 0.63554900884628296
0.0022008558735251427 0.41603532433509827 0.52699321508407593
0.056133732199668884 0.44103449583053589 0.53476440906524658
0.27224093675613403 0.47275975346565247 0.54786837100982666
0.42937937378883362 0.51747304201126099 0.56475412845611572
0.5346415638923645 0.56786876916885376 0.59428149461746216
0.6257702112197876 0.60831010341644287 0.64827173948287964
0.71742528676986694 0.62981325387954712 0.68849992752075195
0.00065554451430216432 0.57703232765197754 0.61111795902252197
0.044586990028619766 0.59954673051834106 0.62435317039489746
0.34571769833564758 0.62498646974563599 0.64090311527252197
0.54406630992889404 0.66214698553085327 0.65440386533737183
0.64507275819778442 0.70180916786193848 0.67408794164657593
0.67719453573226929 0.73375904560089111 0.70077675580978394
0.75285178422927856 0.76355153322219849 0.75263130664825439
0.0045129512436687946 0.72976148128509521 0.66886979341506958
0.057823345065116882 0.74234414100646973 0.6843026876449585
0.38266226649284363 0.7564578652381897 0.70246016979217529
0.59467196464538574 0.77773475646972656 0.72680318355560303
0.73183560371398926 0.80606567859649658 0.76384854316711426
0.76063227653503418 0.83276641368865967 0.79132562875747681
0.7890356183052063 0.86189788579940796 0.82442635297775269
0.00055987789528444409 0.89018064737319946 0.72256213426589966
0.055021833628416061 0.89366012811660767 0.74041938781738281
0.40265294909477234 0.89406555891036987 0.76320713758468628
0.62110817432403564 0.89649903774261475 0.80105006694793701
0.77916502952575684 0.90902221202850342 0.84656047821044922
0.84276807308197021 0.92645275592803955 0.88715720176696777
0.87434500455856323 0.94694650173187256 0.92598205804824829
0 0.12636452913284302 0.49770945310592651
0.0021647585090249777 0.14036168158054352 0.50583744049072266
0.084534525871276855 0.16032783687114716 0.52255022525787354
0.23867978155612946 0.1870635449886322 0.54862445592880249
0.39124158024787903 0.23043301701545715 0.58199787139892578
0.53699988126754761 0.28577181696891785 0.62604659795761108
0.66327941417694092 0.30166789889335632 0.66574478149414062
0 0.20857866108417511 0.54567801952362061
0.014806111343204975 0.21671821177005768 0.54917490482330322
0.14081598818302155 0.24826046824455261 0.5638313889503479
0.29975029826164246 0.28438380360603333 0.58402466773986816
0.44954195618629456 0.3350767195224762 0.61978983879089355
0.5796588659286499 0.38920888304710388 0.65599042177200317
0.69189691543579102 0.42934355139732361 0.6929430365562439
0 0.3349224328994751 0.59094274044036865
0.032241266220808029 0.34436652064323425 0.59503179788589478
0.20602108538150787 0.36502441763877869 0.60690486431121826
0.35613062977790833 0.394508957862854 0.62113702297210693
0.50010675191879272 0.44748595356941223 0.65107327699661255
0.61933732032775879 0.50939923524856567 0.68355023860931396
0.71613579988479614 0.56209886074066162 0.71914970874786377
5.6008731917245314e-05 0.45006012916564941 0.63808953762054443
0.018832411617040634 0.46160697937011719 0.63932961225509644
0.23544758558273315 0.48548716306686401 0.64562040567398071
0.42053619027137756 0.52001935243606567 0.66051048040390015
0.55244749784469604 0.56364625692367554 0.67902219295501709
0.65245717763900757 0.61736452579498291 0.70952290296554565
0.73831063508987427 0.66678959131240845 0.74851769208908081
0 0.60167127847671509 0.70413744449615479
0.0166956577450037 0.61284369230270386 0.70544350147247314
0.26863312721252441 0.62738543748855591 0.70770919322967529
0.48020914196968079 0.65393882989883423 0.71148937940597534
0.6171378493309021 0.69322186708450317 0.72095590829849243
0.6921883225440979 0.73352164030075073 0.74412631988525391
0.76256674528121948 0.7664678692817688 0.7890658974647522
0 0.7512773871421814 0.76590615510940552
0.060446090996265411 0.75948101282119751 0.77017438411712646
0.32053402066230774 0.76647210121154785 0.77721846103668213
0.53780591487884521 0.78190904855728149 0.78520768880844116
0.68926858901977539 0.81170928478240967 0.79362159967422485
0.76865625381469727 0.84276437759399414 0.80363065004348755
0.79792189598083496 0.86840146780014038 0.83510279655456543
0 0.88947069644927979 0.81911516189575195
0.026961099356412888 0.89905208349227905 0.83706367015838623
0.33115798234939575 0.90531766414642334 0.84846913814544678
0.56293404102325439 0.90992003679275513 0.85756117105484009
0.74620085954666138 0.92213505506515503 0.88031160831451416
0.85291963815689087 0.93897342681884766 0.90706813335418701
0.88725084066390991 0.94577914476394653 0.93392986059188843
