assets/lut/shamoonabbasi coffee 44.cube
# Created by: G'MIC (https://gmic.eu)
TITLE "coffee_44"
# LUT size
LUT_3D_SIZE 5
# Data domain
DOMAIN_MIN 0.0 0.0 0.0
DOMAIN_MAX 1.0 1.0 1.0
# LUT data points
0.014843734912574291 0.016905376687645912 0.0057198167778551579
0.1939099133014679 0.018847595900297165 0.0041394401341676712
0.52082639932632446 0.0089711509644985199 0
0.8103337287902832 0.00014935662329662591 0
0.96637022495269775 0.015169180929660797 0.0070366505533456802
0.020122138783335686 0.17123912274837494 0.0069915321655571461
0.24118310213088989 0.20728883147239685 0.027303822338581085
0.56358593702316284 0.20400795340538025 0.013242324814200401
0.82217574119567871 0.14383359253406525 1.4540728443535045e-05
0.94264692068099976 0.15469948947429657 0.0059803384356200695
0.035721138119697571 0.44785526394844055 0.01045671384781599
0.32286286354064941 0.52758681774139404 0.029191603884100914
0.63050693273544312 0.56516587734222412 0.052675671875476837
0.86391246318817139 0.54270702600479126 0.032113663852214813
0.92101716995239258 0.49682289361953735 0.021859487518668175
0.087481491267681122 0.75160461664199829 0.012354682199656963
0.3881831169128418 0.80818122625350952 0.011053945869207382
0.63950604200363159 0.83702409267425537 0.083320364356040955
0.85537111759185791 0.81892997026443481 0.14823807775974274
0.92257165908813477 0.80168801546096802 0.19080245494842529
0.1188712939620018 0.97570812702178955 0.010701064020395279
0.41500505805015564 0.99148714542388916 0.027196832001209259
0.63263344764709473 0.94983142614364624 0.09839504212141037
0.81212764978408813 0.93347573280334473 0.21127644181251526
0.92317402362823486 0.93689835071563721 0.31718012690544128
0.012220554985105991 0.006016450934112072 0.13120074570178986
0.17681361734867096 0.0084452461451292038 0.17938262224197388
0.51577812433242798 0.0085825901478528976 0.12488898634910583
0.83416748046875 0 0.06617514044046402
0.95129609107971191 3.7339155824156478e-05 0.062761925160884857
0.014849195256829262 0.13989447057247162 0.1061798557639122
0.19899913668632507 0.16987915337085724 0.14026585221290588
0.53184837102890015 0.16921457648277283 0.13255149126052856
0.8187139630317688 0.093963280320167542 0.063312888145446777
0.92718946933746338 0.075181387364864349 0.038980104029178619
0.028414841741323471 0.43206289410591125 0.13772974908351898
0.28853720426559448 0.49340415000915527 0.16113854944705963
0.59799462556838989 0.51916360855102539 0.1761917769908905
0.82947152853012085 0.44070357084274292 0.11852074414491653
0.92286437749862671 0.35476061701774597 0.050003845244646072
0.06986033171415329 0.74280726909637451 0.16143441200256348
0.38760733604431152 0.79538941383361816 0.18216313421726227
0.66678047180175781 0.82222777605056763 0.21855030953884125
0.85108721256256104 0.80071330070495605 0.21860314905643463
0.92221254110336304 0.76561790704727173 0.18931597471237183
0.10636619478464127 0.96253806352615356 0.1806471049785614
0.43109935522079468 0.97983336448669434 0.19990327954292297
0.67932009696960449 0.92881470918655396 0.22174665331840515
0.83546793460845947 0.9245603084564209 0.34553313255310059
0.92686265707015991 0.92705172300338745 0.54074627161026001
0.0090159699320793152 0.0013394225388765335 0.385366290807724
0.13155002892017365 0.0016262877034023404 0.51644182205200195
0.43202143907546997 0.00054859835654497147 0.53561997413635254
0.79351764917373657 0 0.42522609233856201
0.92699021100997925 0.001117646461352706 0.29622974991798401
0.0038305094931274652 0.1078069657087326 0.38651910424232483
0.13949219882488251 0.13248585164546967 0.45896896719932556
0.44021448493003845 0.15754589438438416 0.53772354125976562
0.78737348318099976 0.087395414710044861 0.42500239610671997
0.93113952875137329 0.043507728725671768 0.23776976764202118
0.0065352944657206535 0.36084991693496704 0.36482629179954529
0.20286425948143005 0.41173619031906128 0.39008399844169617
0.50685769319534302 0.45874279737472534 0.43465110659599304
0.78206789493560791 0.37185114622116089 0.39506310224533081
0.92123961448669434 0.20733924210071564 0.19534569978713989
0.028649378567934036 0.69988054037094116 0.40133005380630493
0.28398209810256958 0.73776626586914062 0.42706504464149475
0.60198205709457397 0.77677947282791138 0.45084923505783081
0.82615655660629272 0.7666817307472229 0.46434792876243591
0.92050480842590332 0.67783886194229126 0.33209910988807678
0.062854856252670288 0.93598109483718872 0.42264342308044434
0.35055679082870483 0.95230919122695923 0.44217655062675476
0.64718043804168701 0.94479769468307495 0.4625057578086853
0.85849738121032715 0.9225042462348938 0.51604604721069336
0.91272687911987305 0.92760658264160156 0.55032551288604736
0.01276499405503273 0 0.67268925905227661
0.13367071747779846 0 0.74985980987548828
0.38552358746528625 0.0073046516627073288 0.84463649988174438
0.71861720085144043 0 0.82248389720916748
0.92829912900924683 0 0.74744266271591187
3.4466913348296657e-05 0.084040924906730652 0.69345808029174805
0.10274107754230499 0.081921674311161041 0.72553718090057373
0.38672974705696106 0.15212607383728027 0.82452857494354248
0.71551918983459473 0.10546538233757019 0.82886040210723877
0.92978578805923462 0.063102200627326965 0.72842890024185181
0.00015029907808639109 0.29247274994850159 0.65743130445480347
0.099259331822395325 0.28812679648399353 0.67076170444488525
0.38461241126060486 0.36581331491470337 0.73510277271270752
0.72900456190109253 0.33298191428184509 0.78963935375213623
0.92375260591506958 0.23221293091773987 0.65516287088394165
0.0069416118785738945 0.5928838849067688 0.64686030149459839
0.1943674236536026 0.63114750385284424 0.66055184602737427
0.50258725881576538 0.69946420192718506 0.69319409132003784
0.78078776597976685 0.71841824054718018 0.72655928134918213
0.91259515285491943 0.56539738178253174 0.62444901466369629
0.022749463096261024 0.86747032403945923 0.67208659648895264
0.26756063103675842 0.8943595290184021 0.68788260221481323
0.56229746341705322 0.93257850408554077 0.71050536632537842
0.82271188497543335 0.93516069650650024 0.73091971874237061
0.91582250595092773 0.9242737889289856 0.73320585489273071
0.012880751863121986 0 0.88787299394607544
0.13868601620197296 0 0.91525578498840332
0.37721037864685059 0.00039565141196362674 0.95021599531173706
0.6621086597442627 0.0040225009433925152 0.93437737226486206
0.88390016555786133 0 0.95006221532821655
0.00096604588907212019 0.061628006398677826 0.91273117065429688
0.075863979756832123 0.042775515466928482 0.90824848413467407
0.36663159728050232 0.11383524537086487 0.94531452655792236
0.67644745111465454 0.12363622337579727 0.93623149394989014
0.9062848687171936 0.070031367242336273 0.93291747570037842
0 0.26104065775871277 0.90989291667938232
0.035716593265533447 0.23034760355949402 0.90508246421813965
0.29355970025062561 0.28302460908889771 0.91513466835021973
0.68606072664260864 0.33474880456924438 0.92540556192398071
0.89727979898452759 0.29240134358406067 0.92795240879058838
0 0.54063546657562256 0.88064706325531006
0.096478722989559174 0.53475487232208252 0.89144754409790039
0.30967217683792114 0.54511791467666626 0.8918958306312561
0.68635368347167969 0.62793278694152832 0.90518325567245483
0.8958774209022522 0.57430088520050049 0.92388075590133667
0 0.80940145254135132 0.88750404119491577
0.17807477712631226 0.81791150569915771 0.885489821434021
0.45121461153030396 0.86450016498565674 0.88259989023208618
0.76084941625595093 0.90439146757125854 0.89541733264923096
0.89716410636901855 0.89877998828887939 0.89774459600448608
