assets/lut/toddblankenship darkandsomber.cube
# Created by: G'MIC (https://gmic.eu)
TITLE "darkandsomber"
# LUT size
LUT_3D_SIZE 5
# Data domain
DOMAIN_MIN 0.0 0.0 0.0
DOMAIN_MAX 1.0 1.0 1.0
# LUT data points
0.0038923975080251694 0.0043797511607408524 0.0047889109700918198
0.10056301951408386 0.0028476191218942404 0.0017603705637156963
0.20492313802242279 0.0012286616256460547 0
0.35129210352897644 0.018452243879437447 0
0.5474972128868103 0.084995642304420471 0.001275171060115099
0.022782763466238976 0.063878029584884644 0.028831915929913521
0.099062807857990265 0.061406917870044708 0.020116319879889488
0.22636491060256958 0.081128217279911041 0.017888491973280907
0.38827666640281677 0.11278186738491058 0.017336063086986542
0.59276670217514038 0.18328961730003357 0.031137324869632721
0.1589055061340332 0.23012471199035645 0.14717938005924225
0.21909937262535095 0.23306645452976227 0.14760048687458038
0.34607955813407898 0.26023542881011963 0.14976491034030914
0.51285874843597412 0.30011573433876038 0.14778171479701996
0.70194458961486816 0.36209070682525635 0.16996854543685913
0.42133033275604248 0.50117146968841553 0.37584826350212097
0.46012207865715027 0.50087457895278931 0.38175204396247864
0.57654309272766113 0.52535825967788696 0.39334699511528015
0.73504519462585449 0.56190747022628784 0.39979013800621033
0.86094391345977783 0.61068141460418701 0.41498604416847229
0.73409897089004517 0.83025234937667847 0.66347199678421021
0.7642480731010437 0.82834041118621826 0.67066723108291626
0.85801517963409424 0.84674865007400513 0.68525415658950806
0.95860922336578369 0.87059938907623291 0.69296514987945557
0.98123037815093994 0.89502972364425659 0.69357848167419434
0.00070924946339800954 0.0045131458900868893 0.065794743597507477
0.04799136146903038 0.006040236447006464 0.029655605554580688
0.15204964578151703 0.02271188423037529 0.014119734987616539
0.31662160158157349 0.067223399877548218 0.019912749528884888
0.51820379495620728 0.14959283173084259 0.047066498547792435
0.0055237263441085815 0.072226114571094513 0.084088839590549469
0.058324027806520462 0.082352176308631897 0.072504602372646332
0.18835441768169403 0.10899972170591354 0.065081670880317688
0.3644346296787262 0.15217909216880798 0.066060595214366913
0.56710106134414673 0.22482366859912872 0.087873883545398712
0.1074671745300293 0.24496626853942871 0.20670422911643982
0.16369238495826721 0.25466728210449219 0.20682041347026825
0.30872315168380737 0.28268110752105713 0.20889957249164581
0.48496261239051819 0.3230438232421875 0.20543782413005829
0.68190592527389526 0.38816952705383301 0.22508694231510162
0.35424938797950745 0.51205408573150635 0.42391705513000488
0.39932271838188171 0.52009475231170654 0.42881122231483459
0.52790826559066772 0.54389917850494385 0.43780061602592468
0.68994545936584473 0.57853281497955322 0.44421327114105225
0.85113561153411865 0.63356208801269531 0.46009433269500732
0.68975448608398438 0.83809667825698853 0.69886791706085205
0.72040438652038574 0.84432440996170044 0.70108884572982788
0.81605446338653564 0.8632550835609436 0.71338611841201782
0.93025684356689453 0.88741856813430786 0.72523927688598633
0.98844349384307861 0.92352628707885742 0.73378288745880127
0 0.016888292506337166 0.11976741999387741
0.017675930634140968 0.023795424029231071 0.090182334184646606
0.11232711374759674 0.062791548669338226 0.086181238293647766
0.28740227222442627 0.12363140285015106 0.10617981106042862
0.48859000205993652 0.20901496708393097 0.14515481889247894
2.0195455363136716e-05 0.096786335110664368 0.1610722690820694
0.026025883853435516 0.10688017308712006 0.15005017817020416
0.14910934865474701 0.14295245707035065 0.15416282415390015
0.33721226453781128 0.19585943222045898 0.16861352324485779
0.53766733407974243 0.27429273724555969 0.20706002414226532
0.046998236328363419 0.27433928847312927 0.29536208510398865
0.099821470677852631 0.28457781672477722 0.29389339685440063
0.25338456034660339 0.31053251028060913 0.29473158717155457
0.44843873381614685 0.35517272353172302 0.30377021431922913
0.656818687915802 0.42905831336975098 0.3357921838760376
0.24819153547286987 0.53897190093994141 0.512440025806427
0.3094499409198761 0.54879426956176758 0.51451629400253296
0.46051275730133057 0.57108187675476074 0.51715564727783203
0.6386953592300415 0.60688585042953491 0.5276799201965332
0.83352875709533691 0.66881424188613892 0.54990303516387939
0.60544008016586304 0.86022275686264038 0.78067755699157715
0.64745008945465088 0.86943739652633667 0.78047770261764526
0.75690633058547974 0.88898611068725586 0.78793251514434814
0.89758098125457764 0.91652590036392212 0.79956358671188354
0.97911685705184937 0.95103281736373901 0.81141799688339233
0 0.056327491998672485 0.17502535879611969
0.0017849791329354048 0.07251574844121933 0.16832906007766724
0.089774444699287415 0.12169197201728821 0.1855747401714325
0.26953220367431641 0.18280710279941559 0.21450252830982208
0.46961161494255066 0.26785150170326233 0.26193663477897644
0 0.13779522478580475 0.24218869209289551
0.0075831841677427292 0.15029051899909973 0.23935560882091522
0.1187545508146286 0.18874028325080872 0.25427946448326111
0.31171122193336487 0.24400004744529724 0.2783471941947937
0.51784318685531616 0.32821699976921082 0.32392403483390808
0.0018306657439097762 0.30342394113540649 0.38508120179176331
0.042365804314613342 0.31561076641082764 0.38650718331336975
0.1933293491601944 0.34677758812904358 0.39514529705047607
0.40974783897399902 0.39567157626152039 0.41274970769882202
0.62705081701278687 0.47497162222862244 0.45277506113052368
0.13385258615016937 0.56418770551681519 0.6102672815322876
0.21091188490390778 0.57586264610290527 0.61590445041656494
0.37789607048034668 0.60378611087799072 0.62159991264343262
0.58538579940795898 0.64396834373474121 0.63080900907516479
0.79644417762756348 0.70894497632980347 0.65687298774719238
0.51401990652084351 0.88903862237930298 0.88543790578842163
0.55607163906097412 0.89810985326766968 0.88451570272445679
0.67742812633514404 0.9196164608001709 0.88814282417297363
0.83798527717590332 0.94179385900497437 0.89033699035644531
0.97235983610153198 0.96738094091415405 0.89216679334640503
0 0.12084830552339554 0.25489053130149841
0 0.13507296144962311 0.26109936833381653
0.065835945308208466 0.18027178943157196 0.28932282328605652
0.253795325756073 0.24592716991901398 0.32714831829071045
0.4615941047668457 0.34083756804466248 0.3869926929473877
0 0.18991453945636749 0.33176952600479126
0.00030158547451719642 0.20507732033729553 0.33734777569770813
0.093477658927440643 0.24388967454433441 0.35931581258773804
0.28554531931877136 0.29804030060768127 0.38789403438568115
0.49804112315177917 0.38714462518692017 0.44114324450492859
0 0.34028366208076477 0.48020786046981812
0.014691176824271679 0.35728326439857483 0.48649600148200989
0.15398135781288147 0.39395475387573242 0.50270247459411621
0.37590265274047852 0.44511544704437256 0.52648270130157471
0.59817671775817871 0.52559250593185425 0.5708041787147522
0.073661625385284424 0.59830129146575928 0.71238309144973755
0.15037909150123596 0.60887080430984497 0.7149156928062439
0.31929531693458557 0.63983356952667236 0.72293710708618164
0.5430985689163208 0.68397742509841919 0.73477745056152344
0.76429051160812378 0.75393187999725342 0.77141904830932617
0.42607444524765015 0.92090749740600586 0.95970338582992554
0.4763387143611908 0.92758184671401978 0.96433126926422119
0.603546142578125 0.94963699579238892 0.96156495809555054
0.76975983381271362 0.95628476142883301 0.95976912975311279
0.92822867631912231 0.96984171867370605 0.96491080522537231
