assets/lut/toddblankenship coldchrome.cube
# Created by: G'MIC (https://gmic.eu)
TITLE "coldchrome"
# LUT size
LUT_3D_SIZE 7
# Data domain
DOMAIN_MIN 0.0 0.0 0.0
DOMAIN_MAX 1.0 1.0 1.0
# LUT data points
0.035133033990859985 0.025782341137528419 0.022122357040643692
0.29155677556991577 0.0045039905235171318 0.0042474782094359398
0.60240596532821655 0.0012823665747419 0.00060053804190829396
0.88662362098693848 0.0013358471915125847 0.00030007454915903509
0.99922364950180054 9.3347889560391195e-06 0
1 0.0043410654179751873 0
1 0.0064289020374417305 0
0.025664864107966423 0.22123792767524719 0.010502190329134464
0.16637760400772095 0.16621722280979156 2.4055032554315403e-05
0.35406529903411865 0.13857166469097137 0.00028043260681442916
0.548534095287323 0.11540720611810684 0.00044672348303720355
0.81589072942733765 0.096811644732952118 0
0.99665254354476929 0.11285319924354553 0.00090391869889572263
1 0.10357725620269775 0
0.032449189573526382 0.42409664392471313 0.0036431555636227131
0.16780087351799011 0.36163163185119629 0
0.32962238788604736 0.31203562021255493 0
0.49774345755577087 0.30279368162155151 2.7286305339657702e-05
0.69552898406982422 0.3056509792804718 4.8828125727595761e-05
0.90824741125106812 0.31146061420440674 0
1 0.30232411623001099 0
0.0295588169246912 0.6513831615447998 0
0.17089156806468964 0.59070491790771484 0
0.33506187796592712 0.52468043565750122 0
0.50941115617752075 0.48960033059120178 0.0042629917152225971
0.69821125268936157 0.49712851643562317 0.0088632022961974144
0.89507830142974854 0.50903773307800293 0.0030862996354699135
1 0.50284868478775024 0.0069535649381577969
0.024105729535222054 0.92200762033462524 7.3960247391369194e-05
0.16355541348457336 0.85288584232330322 1.4361213516167481e-06
0.33903530240058899 0.79463356733322144 1.1488970812933985e-05
0.5270804762840271 0.72882509231567383 0.0046679629012942314
0.71253079175949097 0.69827115535736084 0.0074916617013514042
0.90413028001785278 0.69674193859100342 0.0060095693916082382
1 0.6891208291053772 0.013337423093616962
0.065830603241920471 1 0.024313518777489662
0.20320354402065277 1 0.017501756548881531
0.3573639988899231 0.99859780073165894 1.077091019396903e-05
0.53881651163101196 0.9725300669670105 0
0.72153943777084351 0.91749852895736694 1.4361213516167481e-06
0.90146815776824951 0.89380991458892822 0.0094644883647561073
0.99990701675415039 0.87960630655288696 0.012913333252072334
0.11861974745988846 1 0.062358811497688293
0.24493575096130371 1 0.03788776695728302
0.37332317233085632 1 0.00086020672461017966
0.53129690885543823 1 0
0.71058923006057739 1 0.00029027601704001427
0.8862149715423584 0.99995404481887817 0.00088517431868240237
0.99415642023086548 0.99805200099945068 0.0031642690300941467
0.0091103501617908478 0.011476329527795315 0.17004017531871796
0.19134068489074707 0.002186883706599474 0.11629784107208252
0.61708825826644897 0 0.035385102033615112
0.99213534593582153 0 3.5005457903025672e-05
1 0 0
1 0.0020173017401248217 0
1 0 0
0.00013966279220767319 0.1591183990240097 0.14524577558040619
0.059512779116630554 0.070676974952220917 0.060922868549823761
0.31765201687812805 0.043751031160354614 0.0049846125766634941
0.64709746837615967 0.056330393999814987 5.4452932090498507e-05
0.9381335973739624 0.062120296061038971 0.002540528541430831
1 0.10656686127185822 0.0024970408994704485
1 0.03571542352437973 0
0.00021538828150369227 0.33596208691596985 0.10569191724061966
0.062497008591890335 0.23116309940814972 0.042362138628959656
0.2022038996219635 0.199546217918396 0.042873218655586243
0.43062704801559448 0.24954916536808014 0.061201807111501694
0.68510299921035767 0.31338399648666382 0.10955148190259933
0.94070416688919067 0.33265355229377747 0.096651442348957062
0.99947112798690796 0.28572693467140198 0.023401731625199318
0.014587567187845707 0.58111655712127686 0.090551801025867462
0.12989035248756409 0.49614965915679932 0.061389189213514328
0.2880251407623291 0.44663318991661072 0.080296382308006287
0.47359830141067505 0.4598410427570343 0.11968838423490524
0.68563163280487061 0.51469987630844116 0.16626030206680298
0.90315645933151245 0.5322878360748291 0.16184532642364502
1 0.50516939163208008 0.10527237504720688
0.027231613174080849 0.88189613819122314 0.119515061378479
0.19621334969997406 0.78128880262374878 0.11449512839317322
0.37781995534896851 0.72705519199371338 0.13009876012802124
0.5475231409072876 0.7175527811050415 0.14312011003494263
0.72783654928207397 0.72521799802780151 0.15849319100379944
0.90579962730407715 0.72033286094665527 0.1697898805141449
1 0.68957912921905518 0.1343587189912796
0.063158459961414337 1 0.18172545731067657
0.26674169301986694 0.97806525230407715 0.20374283194541931
0.40548762679100037 0.97021293640136719 0.13683575391769409
0.55854505300521851 0.96160036325454712 0.11560311168432236
0.73642098903656006 0.92994445562362671 0.12370138615369797
0.90726631879806519 0.90377616882324219 0.15512694418430328
0.99922627210617065 0.86940485239028931 0.1324562132358551
0.096392206847667694 1 0.21504180133342743
0.25751093029975891 1 0.19747938215732574
0.38187813758850098 1 0.11718545109033585
0.52693432569503784 1 0.082219801843166351
0.71050620079040527 1 0.10226127505302429
0.88750815391540527 0.99998992681503296 0.11304496228694916
0.99578744173049927 0.99843049049377441 0.10614009201526642
0.013701704330742359 0.0039962916634976864 0.31625652313232422
0.098736032843589783 0.0019692813511937857 0.23496320843696594
0.30106055736541748 0.013101405464112759 0.21740242838859558
0.76248997449874878 0.00078157911775633693 0.18118803203105927
0.99973589181900024 0.0007915272144600749 0.077620804309844971
0.99993389844894409 0.00028866037609986961 0.060923077166080475
0.9964519739151001 0.00090261723380535841 0.042898725718259811
0.00147247314453125 0.1318993866443634 0.29449307918548584
0.048426326364278793 0.065255410969257355 0.17729517817497253
0.21105724573135376 0.073091305792331696 0.12041681259870529
0.68530493974685669 0.037916909903287888 0.065682686865329742
0.99968498945236206 0.033338762819766998 0.083604566752910614
1 0.063948012888431549 0.11638566851615906
1 0.0096789645031094551 0.048847917467355728
0.00067195517476648092 0.30469802021980286 0.28840762376785278
0.049890030175447464 0.20982043445110321 0.19905075430870056
0.17312823235988617 0.20662300288677216 0.20944145321846008
0.51852035522460938 0.26936519145965576 0.21307723224163055
0.8314204216003418 0.33894875645637512 0.27701666951179504
0.99892866611480713 0.30375665426254272 0.24067404866218567
0.99964392185211182 0.1894085556268692 0.13781769573688507
0.014365806244313717 0.52116584777832031 0.29952773451805115
0.13205492496490479 0.46375027298927307 0.2598775327205658
0.30757549405097961 0.46306195855140686 0.30975517630577087
0.51457232236862183 0.51527571678161621 0.36820238828659058
0.73547852039337158 0.57246017456054688 0.40941923856735229
0.93812179565429688 0.54779797792434692 0.35464799404144287
1 0.48253253102302551 0.25305682420730591
0.022737031802535057 0.81430578231811523 0.35175275802612305
0.22444933652877808 0.75840777158737183 0.37264677882194519
0.44920498132705688 0.73539245128631592 0.41401875019073486
0.59966349601745605 0.76554191112518311 0.42043253779411316
0.76170533895492554 0.77451974153518677 0.43241798877716064
0.92308282852172852 0.74861186742782593 0.41238391399383545
1 0.68675190210342407 0.31576859951019287
0.023996705189347267 1 0.40134301781654358
0.28375303745269775 0.97228538990020752 0.44519004225730896
0.44171628355979919 0.98200792074203491 0.41619232296943665
0.58886337280273438 0.97977107763290405 0.38790720701217651
0.75704890489578247 0.95134854316711426 0.38679397106170654
0.92094963788986206 0.91805309057235718 0.38338363170623779
1 0.86457318067550659 0.32108968496322632
0.056734032928943634 1 0.40594792366027832
0.25147435069084167 1 0.4038141667842865
0.39706972241401672 1 0.34941747784614563
0.54184103012084961 1 0.31365638971328735
0.71218448877334595 1 0.31381979584693909
0.88059794902801514 1 0.31588670611381531
0.99271011352539062 0.99910694360733032 0.29381492733955383
0.020083962008357048 0.0010864257346838713 0.48239681124687195
0.10222169756889343 0.0037742315325886011 0.38605475425720215
0.20838479697704315 0.070580713450908661 0.32434883713722229
0.42709657549858093 0.11966294050216675 0.32842081785202026
0.84404921531677246 0.066119849681854248 0.3556138277053833
1 0.0037924672942608595 0.3559548556804657
0.99996966123580933 0.00039719225605949759 0.34561669826507568
0.012416181154549122 0.11827277392148972 0.46754571795463562
0.09143434464931488 0.083014465868473053 0.35687962174415588
0.19329364597797394 0.1425391286611557 0.3064456582069397
0.4360785186290741 0.24555334448814392 0.3031516969203949
0.86270296573638916 0.21532899141311646 0.37530839443206787
0.99990129470825195 0.11929463595151901 0.38933739066123962
1 0.0039342842064797878 0.32383939623832703
0.007848791778087616 0.29272311925888062 0.4657256007194519
0.10755141079425812 0.24266013503074646 0.38246014714241028
0.28053826093673706 0.30267134308815002 0.40495395660400391
0.52758562564849854 0.42585018277168274 0.44383037090301514
0.86467331647872925 0.42442965507507324 0.47857850790023804
1 0.28405621647834778 0.43987464904785156
0.99945449829101562 0.11410443484783173 0.35205045342445374
0.018186306580901146 0.49574729800224304 0.4881649911403656
0.15937188267707825 0.47208115458488464 0.46425279974937439
0.38373598456382751 0.53505033254623413 0.53312504291534424
0.61496341228485107 0.62464570999145508 0.60545521974563599
0.85482394695281982 0.63059103488922119 0.6034165620803833
0.99328261613845825 0.52756035327911377 0.51003944873809814
0.99952900409698486 0.42157188057899475 0.41509822010993958
0.028439674526453018 0.75708186626434326 0.5465705394744873
0.22702644765377045 0.76069390773773193 0.57802653312683105
0.47500517964363098 0.80010426044464111 0.62644022703170776
0.66208845376968384 0.84891390800476074 0.66260606050491333
0.82601583003997803 0.83093708753585815 0.66022515296936035
0.9549749493598938 0.76825970411300659 0.58946138620376587
0.99979561567306519 0.67221969366073608 0.47546669840812683
0.017537673935294151 0.99656718969345093 0.59361976385116577
0.27325907349586487 0.97721964120864868 0.61638635396957397
0.4695759117603302 0.99384361505508423 0.62034279108047485
0.62405061721801758 0.99868100881576538 0.61646461486816406
0.78593170642852783 0.97641336917877197 0.61188417673110962
0.9304351806640625 0.93061870336532593 0.57257580757141113
1 0.85371881723403931 0.4910677969455719
0.033820644021034241 1 0.58651399612426758
0.23777778446674347 1 0.58732914924621582
0.41047298908233643 1 0.56257110834121704
0.56058663129806519 1 0.53780192136764526
0.71658164262771606 1 0.52162498235702515
0.86778253316879272 1 0.49549508094787598
0.9951363205909729 0.99511039257049561 0.4730360209941864
0.022841749712824821 0 0.6675877571105957
0.12768150866031647 0.014902855269610882 0.57977622747421265
0.24868050217628479 0.1160118579864502 0.49540218710899353
0.39261969923973083 0.27080610394477844 0.43743583559989929
0.58374452590942383 0.35919621586799622 0.45144158601760864
0.83548247814178467 0.28064700961112976 0.51467275619506836
0.99748694896697998 0.14104413986206055 0.55594450235366821
0.013066684827208519 0.11252227425575256 0.66410887241363525
0.13857562839984894 0.1293901801109314 0.58425414562225342
0.29532206058502197 0.22037278115749359 0.53140759468078613
0.45587164163589478 0.39560744166374207 0.50718861818313599
0.64565068483352661 0.51784366369247437 0.53337067365646362
0.86378419399261475 0.421823650598526 0.57295668125152588
0.99984937906265259 0.17732974886894226 0.58884453773498535
0.012835678644478321 0.30141079425811768 0.66711795330047607
0.16869741678237915 0.30985134840011597 0.61325162649154663
0.37697592377662659 0.38064485788345337 0.62145477533340454
0.57027143239974976 0.53220921754837036 0.64766716957092285
0.74420356750488281 0.64467906951904297 0.65386509895324707
0.94641101360321045 0.49819096922874451 0.64462810754776001
1 0.23116594552993774 0.6150704026222229
0.024371352046728134 0.50256121158599854 0.68629884719848633
0.19883009791374207 0.52141004800796509 0.67336374521255493
0.42944195866584778 0.57347661256790161 0.71673816442489624
0.6438409686088562 0.66187089681625366 0.77881503105163574
0.83872973918914795 0.73716670274734497 0.76780796051025391
0.988883376121521 0.59955775737762451 0.69658905267715454
1 0.39572146534919739 0.61329537630081177
0.027671724557876587 0.72898870706558228 0.71364849805831909
0.22685076296329498 0.75905627012252808 0.7474977970123291
0.47161471843719482 0.79496443271636963 0.78862166404724121
0.66833561658859253 0.83901679515838623 0.83383733034133911
0.84556210041046143 0.8508945107460022 0.83085852861404419
0.98306548595428467 0.76502305269241333 0.75380086898803711
1 0.62255370616912842 0.62967991828918457
0.027958231046795845 0.97031503915786743 0.75852769613265991
0.24651187658309937 0.96902358531951904 0.77779525518417358
0.46767854690551758 0.98115712404251099 0.79478901624679565
0.63828408718109131 0.99215388298034668 0.80668395757675171
0.79851800203323364 0.98091787099838257 0.80253773927688599
0.93683373928070068 0.93078380823135376 0.7559891939163208
0.99999856948852539 0.83524340391159058 0.65391963720321655
0.030813239514827728 1 0.75637024641036987
0.21885946393013 1 0.76031202077865601
0.40350797772407532 1 0.74910199642181396
0.56213438510894775 1 0.73161792755126953
0.71557670831680298 1 0.71248209476470947
0.85637187957763672 0.99928808212280273 0.67732822895050049
0.98340433835983276 0.98896801471710205 0.64210045337677002
0.026065856218338013 0 0.84814149141311646
0.1505601704120636 0.022797243669629097 0.78656816482543945
0.29651618003845215 0.14121140539646149 0.68763989210128784
0.43776828050613403 0.31543248891830444 0.58239978551864624
0.55977612733840942 0.46925544738769531 0.54763996601104736
0.67095780372619629 0.52425134181976318 0.56606459617614746
0.84050112962722778 0.44259089231491089 0.61723423004150391
0.0093906773254275322 0.11012597382068634 0.85281556844711304
0.15498438477516174 0.14946746826171875 0.8121262788772583
0.34862408041954041 0.24570332467556 0.75408703088760376
0.51746118068695068 0.40770545601844788 0.67379403114318848
0.64764690399169922 0.57691425085067749 0.64125758409500122
0.7401660680770874 0.62526637315750122 0.64233434200286865
0.90461462736129761 0.49574139714241028 0.6796882152557373
0.0073214960284531116 0.31595501303672791 0.86582362651824951
0.17122519016265869 0.33943367004394531 0.83538913726806641
0.39272430539131165 0.38817581534385681 0.83209669589996338
0.58246713876724243 0.49438893795013428 0.80926787853240967
0.72837704420089722 0.66637492179870605 0.76549768447875977
0.82547688484191895 0.70976489782333374 0.73999309539794922
0.94506102800369263 0.53549325466156006 0.74632948637008667
0.023202544078230858 0.50578898191452026 0.89216333627700806
0.1895277351140976 0.52869719266891479 0.86835962533950806
0.40190792083740234 0.55206078290939331 0.88446521759033203
0.60093915462493896 0.60132277011871338 0.90824908018112183
0.78714078664779663 0.7354053258895874 0.87941765785217285
0.89523231983184814 0.78336817026138306 0.82586276531219482
0.99031955003738403 0.59237384796142578 0.79622900485992432
0.027642402797937393 0.70360827445983887 0.89506924152374268
0.20066611468791962 0.72750449180603027 0.90226268768310547
0.41332733631134033 0.74845826625823975 0.92148315906524658
0.6055108904838562 0.77028989791870117 0.94768416881561279
0.7913823127746582 0.81362318992614746 0.94379228353500366
0.934711754322052 0.83761852979660034 0.88764071464538574
0.99555009603500366 0.66335183382034302 0.80709958076477051
0.025535119697451591 0.93938779830932617 0.92840671539306641
0.20680795609951019 0.932198166847229 0.92525553703308105
0.41331973671913147 0.94032078981399536 0.93642842769622803
0.59279328584671021 0.94786053895950317 0.94643956422805786
0.76615804433822632 0.94213533401489258 0.94283086061477661
0.91952884197235107 0.92238384485244751 0.90575665235519409
0.99836826324462891 0.81538844108581543 0.81635862588882446
0.023143798112869263 0.99938571453094482 0.92797589302062988
0.18518845736980438 1 0.92338293790817261
0.36554411053657532 1 0.90998715162277222
0.5280526876449585 1 0.89100641012191772
0.69735389947891235 1 0.87694448232650757
0.84806126356124878 0.99814885854721069 0.84803563356399536
0.98233294486999512 0.9752078652381897 0.80861192941665649
0.025426797568798065 0.00023570340999867767 0.97932106256484985
0.16297087073326111 0.023125547915697098 0.96272057294845581
0.31909030675888062 0.13231155276298523 0.86861121654510498
0.47283837199211121 0.30656313896179199 0.72332799434661865
0.59561330080032349 0.47202017903327942 0.64968907833099365
0.67709445953369141 0.58416807651519775 0.64362633228302002
0.74701356887817383 0.60628849267959595 0.65004342794418335
0.020681103691458702 0.11102873831987381 0.98296898603439331
0.16271060705184937 0.12944361567497253 0.98856395483016968
0.34214386343955994 0.20538079738616943 0.94757968187332153
0.51668417453765869 0.34947097301483154 0.83006221055984497
0.65934133529663086 0.52336579561233521 0.74453198909759521
0.74644863605499268 0.65541297197341919 0.72183281183242798
0.80748623609542847 0.67038047313690186 0.72294408082962036
0.018612775951623917 0.3178553581237793 0.98930221796035767
0.15495876967906952 0.31429868936538696 0.99283409118652344
0.34145328402519226 0.33142918348312378 0.99349623918533325
0.52898699045181274 0.40660008788108826 0.95056575536727905
0.70062655210494995 0.56533342599868774 0.85784059762954712
0.81005662679672241 0.72062581777572632 0.81446164846420288
0.8594893217086792 0.73921698331832886 0.79909896850585938
0.014468981884419918 0.50314140319824219 0.9985470175743103
0.13602504134178162 0.50453013181686401 0.99486559629440308
0.32347759604454041 0.4968830943107605 0.99716532230377197
0.51190280914306641 0.51403069496154785 0.99638986587524414
0.70618259906768799 0.60991907119750977 0.95536881685256958
0.84906798601150513 0.77154505252838135 0.89298319816589355
0.90905821323394775 0.80148071050643921 0.86763906478881836
0.0046743652783334255 0.68539279699325562 0.99924206733703613
0.12541739642620087 0.6853061318397522 0.99660283327102661
0.31474065780639648 0.6809685230255127 0.99567490816116333
0.4999271035194397 0.6792718768119812 0.99683588743209839
0.68574917316436768 0.69826191663742065 0.99668627977371216
0.85904866456985474 0.80368244647979736 0.9589531421661377
0.94531959295272827 0.85998690128326416 0.91986954212188721
0.004773502703756094 0.88257759809494019 1
0.1333688348531723 0.87244147062301636 0.99970853328704834
0.31750285625457764 0.86192679405212402 0.99998456239700317
0.4922444224357605 0.85334104299545288 1
0.66560417413711548 0.83895266056060791 0.99979245662689209
0.83953332901000977 0.855640709400177 0.9907795786857605
0.96889340877532959 0.90272247791290283 0.95439362525939941
0.021003708243370056 0.99993681907653809 0.99996966123580933
0.14342355728149414 1 0.99997848272323608
0.31170997023582458 0.99861091375350952 0.99918842315673828
0.47941434383392334 0.99349850416183472 0.99685549736022949
0.65105372667312622 0.99227821826934814 0.99167478084564209
0.81467670202255249 0.98516684770584106 0.98689836263656616
0.97002112865447998 0.98093307018280029 0.96832084655761719
