assets/lut/toddblankenship softblackandwhite.cube
# Created by: G'MIC (https://gmic.eu)
TITLE "softblackandwhite"
# LUT size
LUT_3D_SIZE 5
# Data domain
DOMAIN_MIN 0.0 0.0 0.0
DOMAIN_MAX 1.0 1.0 1.0
# LUT data points
0.0011485680006444454 0.0022173863835632801 0.010212603025138378
0.011776015162467957 0.020450321957468987 0.023529486730694771
0.059645351022481918 0.076997973024845123 0.069574214518070221
0.21918480098247528 0.24120709300041199 0.2253173440694809
0.44745990633964539 0.47294127941131592 0.44502162933349609
0.076950311660766602 0.082353182137012482 0.096117608249187469
0.10598711669445038 0.1159181147813797 0.12516964972019196
0.17670540511608124 0.18918772041797638 0.19295123219490051
0.32815125584602356 0.33829110860824585 0.33736830949783325
0.52385640144348145 0.53092557191848755 0.52055823802947998
0.37192174792289734 0.37259453535079956 0.39268642663955688
0.3902549147605896 0.39784738421440125 0.41414430737495422
0.45033073425292969 0.45924240350723267 0.47273224592208862
0.54907143115997314 0.55214577913284302 0.56313169002532959
0.68420141935348511 0.67698627710342407 0.68246859312057495
0.74474030733108521 0.7359926700592041 0.76448178291320801
0.72473442554473877 0.72516041994094849 0.75049453973770142
0.74270415306091309 0.7438463568687439 0.76967579126358032
0.78328263759613037 0.77421241998672485 0.80383187532424927
0.8675653338432312 0.84081512689590454 0.87469083070755005
0.94864273071289062 0.94323039054870605 0.9722633957862854
0.94148635864257812 0.93628674745559692 0.96988117694854736
0.93853336572647095 0.92897158861160278 0.96786850690841675
0.94243526458740234 0.92781120538711548 0.96757429838180542
0.96934878826141357 0.94909083843231201 0.98250341415405273
0.00083345896564424038 0.0090728756040334702 0.014694527722895145
0.012836231850087643 0.029451273381710052 0.028756460174918175
0.07426084578037262 0.097443267703056335 0.088150247931480408
0.22104328870773315 0.25038665533065796 0.23023265600204468
0.43464681506156921 0.47120323777198792 0.43203753232955933
0.086231276392936707 0.098994940519332886 0.10644525289535522
0.10324908792972565 0.12058383971452713 0.12323407828807831
0.17967316508293152 0.19855581223964691 0.19647978246212006
0.31685209274291992 0.33392837643623352 0.32485592365264893
0.50459682941436768 0.51931977272033691 0.494270920753479
0.37312591075897217 0.38026025891304016 0.39305752515792847
0.37634292244911194 0.39068958163261414 0.39965760707855225
0.4331156313419342 0.44805750250816345 0.45398518443107605
0.53346258401870728 0.54027384519577026 0.54052960872650146
0.66847097873687744 0.66073489189147949 0.65034443140029907
0.73190206289291382 0.72776859998703003 0.74922078847885132
0.7007673978805542 0.70458358526229858 0.72532457113265991
0.71759992837905884 0.71929723024368286 0.74160689115524292
0.77334845066070557 0.76080048084259033 0.78370726108551025
0.86017578840255737 0.82220005989074707 0.84250801801681519
0.94891685247421265 0.94209277629852295 0.9710877537727356
0.93539732694625854 0.92417269945144653 0.96216142177581787
0.93918055295944214 0.91497087478637695 0.96336299180984497
0.95459228754043579 0.92092972993850708 0.97005021572113037
0.98434662818908691 0.94955182075500488 0.98610615730285645
0.022494999691843987 0.041361596435308456 0.039287537336349487
0.033547569066286087 0.060860354453325272 0.051582995802164078
0.10245273262262344 0.13343079388141632 0.11851399391889572
0.24650600552558899 0.28335702419281006 0.25813311338424683
0.44818198680877686 0.49279409646987915 0.4461510181427002
0.096713870763778687 0.11768759787082672 0.11639153212308884
0.11786378175020218 0.1430562287569046 0.13792191445827484
0.19903178513050079 0.22529512643814087 0.21658852696418762
0.33015185594558716 0.35717612504959106 0.33745080232620239
0.50324970483779907 0.5324326753616333 0.48695182800292969
0.38446685671806335 0.39798802137374878 0.40494820475578308
0.38341072201728821 0.40382397174835205 0.4084266722202301
0.43458351492881775 0.45698821544647217 0.45822206139564514
0.52575582265853882 0.54269826412200928 0.53156548738479614
0.65124619007110596 0.65752393007278442 0.62192577123641968
0.7246970534324646 0.72404402494430542 0.74370878934860229
0.69650924205780029 0.70244079828262329 0.72501391172409058
0.70670634508132935 0.71294039487838745 0.73556983470916748
0.75147956609725952 0.74995571374893188 0.76438117027282715
0.83399105072021484 0.80627965927124023 0.80749022960662842
0.94734817743301392 0.93586981296539307 0.96909111738204956
0.93278825283050537 0.91551965475082397 0.96214228868484497
0.93888139724731445 0.90625 0.96624130010604858
0.95676195621490479 0.9169461727142334 0.97176945209503174
0.98623359203338623 0.94784039258956909 0.97946417331695557
0.036327242851257324 0.061441998928785324 0.04525509849190712
0.063531287014484406 0.098213523626327515 0.077321581542491913
0.1403379887342453 0.18116104602813721 0.15325231850147247
0.28640627861022949 0.33797088265419006 0.29479628801345825
0.47276851534843445 0.53473740816116333 0.46744725108146667
0.13221655786037445 0.15309318900108337 0.14431570470333099
0.15565778315067291 0.18602557480335236 0.17304573953151703
0.23186814785003662 0.26901257038116455 0.24837350845336914
0.36414739489555359 0.40881773829460144 0.36997807025909424
0.52055579423904419 0.57533657550811768 0.50024664402008057
0.41148018836975098 0.4262508749961853 0.42907923460006714
0.40384149551391602 0.43032446503639221 0.42991971969604492
0.44584596157073975 0.4812920093536377 0.47418847680091858
0.53404313325881958 0.5704835057258606 0.54582113027572632
0.64398038387298584 0.68046623468399048 0.61765658855438232
0.71838867664337158 0.71925508975982666 0.7384527325630188
0.69276028871536255 0.70469385385513306 0.72525674104690552
0.69438248872756958 0.71782118082046509 0.73430854082107544
0.73591238260269165 0.75751572847366333 0.75999546051025391
0.8110039234161377 0.8159865140914917 0.79593473672866821
0.94824564456939697 0.93127310276031494 0.96853011846542358
0.92890208959579468 0.91314494609832764 0.96197456121444702
0.92332428693771362 0.90889495611190796 0.96470355987548828
0.93478810787200928 0.92345583438873291 0.967276930809021
0.97016024589538574 0.95639073848724365 0.97440385818481445
0.083652809262275696 0.11090328544378281 0.078912504017353058
0.10941316187381744 0.14935769140720367 0.1127275824546814
0.19510082900524139 0.25154867768287659 0.20101943612098694
0.33282801508903503 0.41278806328773499 0.33546346426010132
0.50075632333755493 0.60262459516525269 0.49065741896629333
0.20438963174819946 0.22589629888534546 0.20589712262153625
0.21570280194282532 0.25341323018074036 0.22654716670513153
0.28847214579582214 0.34539741277694702 0.30307957530021667
0.40242117643356323 0.4805198609828949 0.40742623805999756
0.53755611181259155 0.63332575559616089 0.51761353015899658
0.46376731991767883 0.47802525758743286 0.47238597273826599
0.44464609026908875 0.47943335771560669 0.46703824400901794
0.47347453236579895 0.53175687789916992 0.50369751453399658
0.54540687799453735 0.62029290199279785 0.5645638108253479
0.64639866352081299 0.72409278154373169 0.6333010196685791
0.73370975255966187 0.73444223403930664 0.74704897403717041
0.70244860649108887 0.72270417213439941 0.73315870761871338
0.69602054357528687 0.74242645502090454 0.74054735898971558
0.72791308164596558 0.78808057308197021 0.76594501733779907
0.79551929235458374 0.84517639875411987 0.79996192455291748
0.95309704542160034 0.93570679426193237 0.96751457452774048
0.92769730091094971 0.92113196849822998 0.95970743894577026
0.91172510385513306 0.92670899629592896 0.96074342727661133
0.91823065280914307 0.94817483425140381 0.9679337739944458
0.95181077718734741 0.97255808115005493 0.973582923412323
