assets/lut/toddblankenship darkandsomber.cube
# Created by: G'MIC (https://gmic.eu)
TITLE "darkandsomber"
# LUT size
LUT_3D_SIZE 7
# Data domain
DOMAIN_MIN 0.0 0.0 0.0
DOMAIN_MAX 1.0 1.0 1.0
# LUT data points
0.0038923975080251694 0.0043797511607408524 0.0047889109700918198
0.061982084065675735 0.0010518990457057953 0.001820298726670444
0.1355622261762619 0.0028165481053292751 3.6621095205191523e-05
0.20492313802242279 0.0012286616256460547 0
0.29536595940589905 0.0065202899277210236 0
0.41356033086776733 0.036215316504240036 0
0.5474972128868103 0.084995642304420471 0.001275171060115099
0.0068465736694633961 0.034269027411937714 0.014286130666732788
0.052106279879808426 0.026558505371212959 0.0068677566014230251
0.12755773961544037 0.034852329641580582 0.0040212892927229404
0.21004432439804077 0.043032027781009674 0.0021769355516880751
0.30696403980255127 0.055818371474742889 0.0022416207939386368
0.43294018507003784 0.090196527540683746 0.002024482237175107
0.57135432958602905 0.1425643265247345 0.013676288537681103
0.051576051861047745 0.10578607022762299 0.05377502366900444
0.09080958366394043 0.10263730585575104 0.04890403151512146
0.16301718354225159 0.11253675818443298 0.048127416521310806
0.25392761826515198 0.13051848113536835 0.047207236289978027
0.3584601879119873 0.15176501870155334 0.044859282672405243
0.48533797264099121 0.1842113733291626 0.047562047839164734
0.62167966365814209 0.23321136832237244 0.061507970094680786
0.1589055061340332 0.23012471199035645 0.14717938005924225
0.19037908315658569 0.22827501595020294 0.14528992772102356
0.25543171167373657 0.24009472131729126 0.14983342587947845
0.34607955813407898 0.26023542881011963 0.14976491034030914
0.45140135288238525 0.28532201051712036 0.14591549336910248
0.5772017240524292 0.31728211045265198 0.152125284075737
0.70194458961486816 0.36209070682525635 0.16996854543685913
0.32484304904937744 0.40209716558456421 0.2907155454158783
0.34611907601356506 0.39903587102890015 0.2908940315246582
0.40051150321960449 0.40883591771125793 0.29887491464614868
0.4895169734954834 0.42848595976829529 0.30347701907157898
0.59751874208450317 0.453398197889328 0.3053031861782074
0.709747314453125 0.48335602879524231 0.31120258569717407
0.80674165487289429 0.52197420597076416 0.32609519362449646
0.522724449634552 0.60671699047088623 0.46773993968963623
0.53944826126098633 0.60335767269134521 0.46999672055244446
0.586162269115448 0.61170375347137451 0.48013481497764587
0.66941660642623901 0.62876266241073608 0.48852634429931641
0.76847732067108154 0.6503676176071167 0.49415454268455505
0.85646766424179077 0.67396259307861328 0.49944832921028137
0.90909737348556519 0.70307660102844238 0.50710821151733398
0.73409897089004517 0.83025234937667847 0.66347199678421021
0.74892145395278931 0.82628804445266724 0.66568642854690552
0.78744912147521973 0.83275562524795532 0.67642056941986084
0.85801517963409424 0.84674865007400513 0.68525415658950806
0.9336426854133606 0.86379754543304443 0.6925055980682373
0.9729461669921875 0.87725019454956055 0.69236558675765991
0.98123037815093994 0.89502972364425659 0.69357848167419434
0.00041773178963921964 0.0032396952155977488 0.042211778461933136
0.035069454461336136 0.0022971658036112785 0.023814810439944267
0.093497633934020996 0.0066411634907126427 0.0087246615439653397
0.16936786472797394 0.013371352106332779 0.0017921896651387215
0.26845157146453857 0.032518051564693451 0.001550831482745707
0.39135763049125671 0.07056928426027298 0.0063251419924199581
0.52710860967636108 0.1249808669090271 0.024490132927894592
0.00012344658898655325 0.037030868232250214 0.048449452966451645
0.029840387403964996 0.037190202623605728 0.03627236932516098
0.094569861888885498 0.047164559364318848 0.027592917904257774
0.18200752139091492 0.061146605759859085 0.021662753075361252
0.28903630375862122 0.082870379090309143 0.019754761829972267
0.41513758897781372 0.11927777528762817 0.02415415458381176
0.55318230390548706 0.1724812388420105 0.040121428668498993
0.031077051535248756 0.11208303272724152 0.089136816561222076
0.062316879630088806 0.11562258005142212 0.083787433803081512
0.13260354101657867 0.12778119742870331 0.081524595618247986
0.23068264126777649 0.14761878550052643 0.076678961515426636
0.34306082129478455 0.17208242416381836 0.072506293654441833
0.46943584084510803 0.2049395889043808 0.075117491185665131
0.60571783781051636 0.25331988930702209 0.08793969452381134
0.12495787441730499 0.23733086884021759 0.18152156472206116
0.15294235944747925 0.23956145346164703 0.17996115982532501
0.22251006960868835 0.25363269448280334 0.18410198390483856
0.32291343808174133 0.27423298358917236 0.18479132652282715
0.43419739603996277 0.29910814762115479 0.17977224290370941
0.55967175960540771 0.33135572075843811 0.18173772096633911
0.68863624334335327 0.37659314274787903 0.19728007912635803
0.28409159183502197 0.40682551264762878 0.31923356652259827
0.30485263466835022 0.40843766927719116 0.32102513313293457
0.36588895320892334 0.42110744118690491 0.32875227928161621
0.4606705904006958 0.44021621346473694 0.33335492014884949
0.56992077827453613 0.46362993121147156 0.33396792411804199
0.68685364723205566 0.49413779377937317 0.33789253234863281
0.79643607139587402 0.53483033180236816 0.35198372602462769
0.48597925901412964 0.61034828424453735 0.49095094203948975
0.50285089015960693 0.61166614294052124 0.49335590004920959
0.55333960056304932 0.6225128173828125 0.50172525644302368
0.63922649621963501 0.63927626609802246 0.51004648208618164
0.74014008045196533 0.65914511680603027 0.51585847139358521
0.83353757858276367 0.68397969007492065 0.5205884575843811
0.90336894989013672 0.71728932857513428 0.5298609733581543
0.70656508207321167 0.833243727684021 0.68265640735626221
0.72157794237136841 0.83369165658950806 0.68350887298583984
0.76139265298843384 0.84269577264785767 0.6904914379119873
0.83151137828826904 0.8563610315322876 0.70039987564086914
0.90879446268081665 0.87177395820617676 0.70862209796905518
0.96013212203979492 0.88917475938796997 0.71163147687911987
0.98509824275970459 0.91284263134002686 0.71599620580673218
0.0010692222276702523 0.0071447035297751427 0.087804712355136871
0.018899131566286087 0.005524100735783577 0.059489171952009201
0.060874685645103455 0.015030760318040848 0.039477553218603134
0.13590888679027557 0.033172339200973511 0.032874476164579391
0.24393954873085022 0.065030403435230255 0.038214292377233505
0.37146720290184021 0.11199455708265305 0.05228608101606369
0.50914126634597778 0.17290122807025909 0.075557813048362732
0 0.044046290218830109 0.092034526169300079
0.016434283927083015 0.046670593321323395 0.077316597104072571
0.066684231162071228 0.060776654630899429 0.067832842469215393
0.1544487476348877 0.082003451883792877 0.064377233386039734
0.26893395185470581 0.11211501806974411 0.067736230790615082
0.39768955111503601 0.15466941893100739 0.079101920127868652
0.53460121154785156 0.21085499227046967 0.10204189270734787
0.018553819507360458 0.12457603216171265 0.13744813203811646
0.041264507919549942 0.12954851984977722 0.13202241063117981
0.10379835963249207 0.14480720460414886 0.13064877688884735
0.20414170622825623 0.16605453193187714 0.12883336842060089
0.32328394055366516 0.1940263956785202 0.12908394634723663
0.45248383283615112 0.23209096491336823 0.13672906160354614
0.58855998516082764 0.28405103087425232 0.15745410323143005
0.087831147015094757 0.25414705276489258 0.23500022292137146
0.11233575642108917 0.25840479135513306 0.23327778279781342
0.1847996711730957 0.27195286750793457 0.23523460328578949
0.29183629155158997 0.29118162393569946 0.23519283533096313
0.41018679738044739 0.31665888428688049 0.23416778445243835
0.53951126337051392 0.35228976607322693 0.24003617465496063
0.67425066232681274 0.4011155366897583 0.25913563370704651
0.226602703332901 0.42365327477455139 0.37158095836639404
0.2501208484172821 0.42748305201530457 0.3722902238368988
0.32090118527412415 0.43950486183166504 0.37567624449729919
0.42384865880012512 0.45643281936645508 0.37804737687110901
0.53583604097366333 0.47901442646980286 0.3801257312297821
0.660381019115448 0.51159477233886719 0.38746732473373413
0.78737896680831909 0.55603253841400146 0.40342983603477478
0.43038684129714966 0.62434476613998413 0.53672844171524048
0.45163121819496155 0.62803906202316284 0.53725790977478027
0.50983625650405884 0.63950836658477783 0.54177272319793701
0.60101640224456787 0.65471380949020386 0.54801040887832642
0.70563399791717529 0.67428362369537354 0.55475223064422607
0.8111146092414856 0.70178461074829102 0.56229770183563232
0.90759932994842529 0.73826128244400024 0.57398092746734619
0.6675906777381897 0.8445742130279541 0.72138196229934692
0.68239778280258179 0.84779256582260132 0.72043216228485107
0.72518569231033325 0.85801249742507935 0.72307491302490234
0.79850441217422485 0.87100458145141602 0.73234397172927856
0.88364666700363159 0.88665235042572021 0.74211341142654419
0.95103907585144043 0.90749305486679077 0.74893605709075928
0.99053114652633667 0.9331507682800293 0.75641202926635742
0 0.016888292506337166 0.11976741999387741
0.0055770725011825562 0.01721973717212677 0.097959555685520172
0.038208425045013428 0.034341130405664444 0.08586438000202179
0.11232711374759674 0.062791548669338226 0.086181238293647766
0.2244260162115097 0.1006915345788002 0.097406603395938873
0.35301417112350464 0.14980113506317139 0.11712303757667542
0.48859000205993652 0.20901496708393097 0.14515481889247894
0 0.060287162661552429 0.13914164900779724
0.0047928453423082829 0.060684848576784134 0.12458311766386032
0.042212735861539841 0.080490514636039734 0.12095765024423599
0.13048240542411804 0.10813339799642563 0.12445388734340668
0.25060984492301941 0.14274695515632629 0.1337449848651886
0.37990310788154602 0.18807953596115112 0.15203055739402771
0.51412951946258545 0.24450306594371796 0.18118833005428314
0.0046625323593616486 0.14492586255073547 0.19458417594432831
0.02082723006606102 0.14865879714488983 0.18839180469512939
0.073094174265861511 0.16536234319210052 0.18895523250102997
0.17539514601230621 0.18783771991729736 0.19192144274711609
0.30133053660392761 0.21853919327259064 0.19771170616149902
0.43325832486152649 0.26054570078849792 0.21282751858234406
0.57002705335617065 0.31525680422782898 0.23994338512420654
0.046998236328363419 0.27433928847312927 0.29536208510398865
0.069792620837688446 0.27863618731498718 0.29370087385177612
0.14171348512172699 0.29188895225524902 0.29426699876785278
0.25338456034660339 0.31053251028060913 0.29473158717155457
0.38189086318016052 0.33735734224319458 0.29848983883857727
0.51676768064498901 0.37651029229164124 0.31177213788032532
0.656818687915802 0.42905831336975098 0.3357921838760376
0.15875630080699921 0.44274055957794189 0.4327857494354248
0.18638163805007935 0.44728776812553406 0.43374013900756836
0.26578828692436218 0.45888528227806091 0.43495452404022217
0.37840777635574341 0.47511744499206543 0.43500837683677673
0.50240224599838257 0.49782830476760864 0.4384593665599823
0.63125061988830566 0.53306704759597778 0.45177701115608215
0.77048212289810181 0.58130562305450439 0.47084075212478638
0.35667625069618225 0.64148813486099243 0.59788912534713745
0.38471615314483643 0.64658236503601074 0.59844249486923218
0.45303434133529663 0.65801477432250977 0.60133081674575806
0.5537116527557373 0.67368537187576294 0.60488450527191162
0.66693472862243652 0.6938326358795166 0.61124074459075928
0.78119486570358276 0.7230217456817627 0.62137293815612793
0.89306938648223877 0.76129639148712158 0.63431054353713989
0.60544008016586304 0.86022275686264038 0.78067755699157715
0.62644761800765991 0.86464399099349976 0.77961820363998413
0.67654120922088623 0.87525653839111328 0.78208750486373901
0.75690633058547974 0.88898611068725586 0.78793251514434814
0.85223507881164551 0.90552031993865967 0.79551583528518677
0.93345904350280762 0.92755544185638428 0.80351465940475464
0.97911685705184937 0.95103281736373901 0.81141799688339233
0 0.040093008428812027 0.15409615635871887
0 0.044254675507545471 0.1422540694475174
0.023587604984641075 0.067706868052482605 0.1421847939491272
0.096902079880237579 0.1022273376584053 0.15210460126399994
0.21113899350166321 0.13994558155536652 0.16734965145587921
0.33985438942909241 0.18821622431278229 0.19041216373443604
0.47409248352050781 0.24652710556983948 0.22194959223270416
0 0.086672961711883545 0.18738289177417755
0.00016754749231040478 0.089185126125812531 0.1779649406671524
0.028050756081938744 0.11057495325803757 0.18117628991603851
0.11465416848659515 0.14079169929027557 0.19167016446590424
0.23616409301757812 0.17638388276100159 0.20551870763301849
0.3662225604057312 0.22297272086143494 0.22738873958587646
0.50152826309204102 0.28162813186645508 0.25913575291633606
0 0.17003302276134491 0.2521178126335144
0.0079566957429051399 0.17417614161968231 0.24757906794548035
0.049623407423496246 0.19092088937759399 0.25095328688621521
0.1485368013381958 0.21511408686637878 0.25820127129554749
0.27953442931175232 0.24709151685237885 0.26882052421569824
0.41556841135025024 0.29094335436820984 0.2887738049030304
0.55430030822753906 0.34860709309577942 0.31918478012084961
0.01267553586512804 0.2939816415309906 0.35524758696556091
0.034269161522388458 0.29851678013801575 0.35391977429389954
0.099885381758213043 0.31322348117828369 0.35708779096603394
0.21311186254024506 0.33393681049346924 0.36083337664604187
0.35197114944458008 0.36250904202461243 0.36859807372093201
0.4936504065990448 0.40379670262336731 0.38623034954071045
0.63717514276504517 0.4592437744140625 0.41385337710380554
0.090400144457817078 0.45950809121131897 0.49491992592811584
0.12519766390323639 0.46441924571990967 0.49675902724266052
0.20684894919395447 0.47813931107521057 0.50047898292541504
0.32653141021728516 0.49692180752754211 0.5028378963470459
0.46275115013122559 0.52208787202835083 0.50843542814254761
0.60204935073852539 0.55872869491577148 0.52188879251480103
0.74712347984313965 0.60904079675674438 0.54414492845535278
0.27699214220046997 0.65878170728683472 0.6654466986656189
0.31192037463188171 0.66421025991439819 0.6673399806022644
0.38863974809646606 0.67743772268295288 0.67127144336700439
0.49795261025428772 0.69489026069641113 0.67419886589050293
0.6222538948059082 0.71625006198883057 0.67837971448898315
0.74679124355316162 0.7453237771987915 0.68682670593261719
0.87413245439529419 0.78433692455291748 0.7000165581703186
0.54206240177154541 0.87881273031234741 0.8505406379699707
0.56394249200820923 0.88314396142959595 0.84947746992111206
0.61890870332717896 0.89479756355285645 0.85219359397888184
0.7049904465675354 0.90912365913391113 0.85503911972045898
0.80767291784286499 0.92487376928329468 0.85812503099441528
0.90512973070144653 0.94475036859512329 0.86503148078918457
0.97752606868743896 0.96425652503967285 0.86703383922576904
0 0.075450822710990906 0.19847789406776428
0 0.082374647259712219 0.19455349445343018
0.012244070880115032 0.10585859417915344 0.2030981034040451
0.082143120467662811 0.14022895693778992 0.21924270689487457
0.20005220174789429 0.18002964556217194 0.23916018009185791
0.33093783259391785 0.22974787652492523 0.26657861471176147
0.46624177694320679 0.2908688485622406 0.30252847075462341
0 0.11978821456432343 0.23903962969779968
0 0.12510789930820465 0.23604190349578857
0.017139658331871033 0.14602865278720856 0.2444545179605484
0.096720315515995026 0.17597727477550507 0.25874239206314087
0.21882054209709167 0.21197760105133057 0.27594277262687683
0.3531242311000824 0.25956499576568604 0.30117508769035339
0.49090200662612915 0.32118645310401917 0.33769688010215759
0 0.19502395391464233 0.30857303738594055
1.1967677892243955e-05 0.20115382969379425 0.30721423029899597
0.03032023087143898 0.21980983018875122 0.31463178992271423
0.12368539720773697 0.2455945611000061 0.32557192444801331
0.2560596764087677 0.27816975116729736 0.3396318256855011
0.39664316177368164 0.32297202944755554 0.36225098371505737
0.53805840015411377 0.38263076543807983 0.39517128467559814
0 0.31309586763381958 0.41544845700263977
0.0058622024953365326 0.31915023922920227 0.41553431749343872
0.061206534504890442 0.33697435259819031 0.42173376679420471
0.17474761605262756 0.36055994033813477 0.42984598875045776
0.32195347547531128 0.39106422662734985 0.4411957859992981
0.47064679861068726 0.43403983116149902 0.46136033535003662
0.61674243211746216 0.49102407693862915 0.49158531427383423
0.041962314397096634 0.47685101628303528 0.56054627895355225
0.073563747107982635 0.48218169808387756 0.56246441602706909
0.15112572908401489 0.49869409203529358 0.56792294979095459
0.27622100710868835 0.52078235149383545 0.57356750965118408
0.42630237340927124 0.54897236824035645 0.58113080263137817
0.57657963037490845 0.58846879005432129 0.59672045707702637
0.72426587343215942 0.64065754413604736 0.62238013744354248
0.20814907550811768 0.67710155248641968 0.73384350538253784
0.24588461220264435 0.68196731805801392 0.73545807600021362
0.32693138718605042 0.69687932729721069 0.7407422661781311
0.44299918413162231 0.7165907621383667 0.74328356981277466
0.57829767465591431 0.73915368318557739 0.74521458148956299
0.71563029289245605 0.76945078372955322 0.75492280721664429
0.84845811128616333 0.81046950817108154 0.7721373438835144
0.48566943407058716 0.89921492338180542 0.91601157188415527
0.50259685516357422 0.90239858627319336 0.91366696357727051
0.56001335382461548 0.91522151231765747 0.917613685131073
0.65046846866607666 0.93006974458694458 0.91782420873641968
0.75887465476989746 0.94106262922286987 0.91442698240280151
0.8700067400932312 0.95460349321365356 0.91806638240814209
0.95950841903686523 0.96815234422683716 0.91476410627365112
0 0.12084830552339554 0.25489053130149841
0 0.12639015913009644 0.25566759705543518
0.0041746851056814194 0.14748533070087433 0.26892304420471191
0.065835945308208466 0.18027178943157196 0.28932282328605652
0.18670356273651123 0.22138452529907227 0.31265673041343689
0.32194766402244568 0.27437612414360046 0.34437346458435059
0.4615941047668457 0.34083756804466248 0.3869926929473877
0 0.16070361435413361 0.30003142356872559
0 0.16618047654628754 0.30030488967895508
0.0095045501366257668 0.18640564382076263 0.31231209635734558
0.08189990371465683 0.21532997488975525 0.32945629954338074
0.20233392715454102 0.25083029270172119 0.34871119260787964
0.34002223610877991 0.2995336651802063 0.37683671712875366
0.48128566145896912 0.36520835757255554 0.4175492525100708
0 0.227778360247612 0.37102073431015015
0 0.23545260727405548 0.37273481488227844
0.020788948982954025 0.25604203343391418 0.38377025723457336
0.10777177661657333 0.2826632559299469 0.3977724015712738
0.23682442307472229 0.31498044729232788 0.41397261619567871
0.37922859191894531 0.35992330312728882 0.43829828500747681
0.52223235368728638 0.41982254385948181 0.47279784083366394
0 0.34028366208076477 0.48020786046981812
0.0010680853156372905 0.34810495376586914 0.48248463869094849
0.045930165797472 0.36847612261772156 0.49133452773094177
0.15398135781288147 0.39395475387573242 0.50270247459411621
0.29994925856590271 0.42538785934448242 0.5167999267578125
0.45120659470558167 0.46851047873497009 0.53837603330612183
0.59817671775817871 0.52559250593185425 0.5708041787147522
0.025264650583267212 0.50325804948806763 0.6291382908821106
0.052306514233350754 0.50775283575057983 0.62957608699798584
0.12471888214349747 0.52503418922424316 0.63615661859512329
0.24805322289466858 0.54869824647903442 0.64331173896789551
0.40072667598724365 0.57831263542175293 0.6527172327041626
0.55570733547210693 0.61935365200042725 0.67127364873886108
0.70412755012512207 0.67243450880050659 0.6998106837272644
0.15405374765396118 0.70048481225967407 0.79736888408660889
0.20296682417392731 0.70404952764511108 0.79654538631439209
0.2872370183467865 0.7182004451751709 0.80262994766235352
0.40457254648208618 0.73879939317703247 0.8038141131401062
0.54305481910705566 0.76098263263702393 0.80540579557418823
0.6865118145942688 0.79100954532623291 0.81845551729202271
0.82541102170944214 0.83505207300186157 0.84335792064666748
0.42607444524765015 0.92090749740600586 0.95970338582992554
0.4502929151058197 0.92242896556854248 0.96239745616912842
0.51137083768844604 0.93469744920730591 0.96525287628173828
0.603546142578125 0.94963699579238892 0.96156495809555054
0.71347439289093018 0.95476478338241577 0.95883774757385254
0.82576531171798706 0.95891290903091431 0.96103495359420776
0.92822867631912231 0.96984171867370605 0.96491080522537231
