assets/lut/toddblankenship magichour.cube
# Created by: G'MIC (https://gmic.eu)
TITLE "magichour"
# LUT size
LUT_3D_SIZE 13
# Data domain
DOMAIN_MIN 0.0 0.0 0.0
DOMAIN_MAX 1.0 1.0 1.0
# LUT data points
0.014852575957775116 0.010335315950214863 0.014424522407352924
0.079275183379650116 0.0021361557301133871 0.0034398995339870453
0.15825071930885315 1.8669577912078239e-05 2.297794162586797e-05
0.23663881421089172 0 0
0.31922367215156555 0 0
0.40792685747146606 0 0
0.50347054004669189 0 0
0.60803979635238647 0 0
0.72361040115356445 0 0.00049980013864114881
0.85537600517272949 0.00020750457770191133 0.0014848147984594107
0.97080248594284058 0.0016876818845048547 0.00023259181762114167
1 0.0021792692132294178 0
1 0.0031582552473992109 0
0.0025054633151739836 0.076216742396354675 0.0054336250759661198
0.057422325015068054 0.052220378071069717 0.00021725823171436787
0.14545603096485138 0.033053543418645859 3.5903033790418704e-07
0.23006875813007355 0.015905702486634254 8.3429673395585269e-05
0.31944891810417175 0.0094473892822861671 0
0.41605570912361145 0.0054027484729886055 0
0.52090024948120117 0.00097292731516063213 0
0.63581365346908569 0 0
0.76034098863601685 0.00060777849284932017 0.00012465832696761936
0.88510948419570923 0.0083414260298013687 0.00022170122247189283
0.98062723875045776 0.018491184338927269 0
1 0.02272440679371357 0
1 0.025811826810240746 0
0.00014002183161210269 0.1534712016582489 0.007909407839179039
0.032585471868515015 0.13418696820735931 0.00057046930305659771
0.12296838313341141 0.11531587690114975 0
0.22099801898002625 0.094977498054504395 0.00017950020264834166
0.31985378265380859 0.078276224434375763 0
0.42532780766487122 0.063342630863189697 0
0.54097133874893188 0.045158505439758301 0
0.6682090163230896 0.030794406309723854 0
0.79979979991912842 0.036980513483285904 0
0.91710668802261353 0.054221045225858688 0
0.99082696437835693 0.0674704909324646 0
1 0.072579957544803619 0
1 0.073733538389205933 0
0 0.22836862504482269 0.0058242049999535084
0.018421696498990059 0.21412676572799683 0.00067144655622541904
0.1033867746591568 0.20454758405685425 0
0.20822636783123016 0.19358867406845093 0
0.31663307547569275 0.17793747782707214 0
0.43130600452423096 0.16208915412425995 0
0.55778509378433228 0.14744478464126587 0
0.69836944341659546 0.13602641224861145 0
0.83942192792892456 0.13598617911338806 0
0.95251065492630005 0.14580351114273071 0
0.99902820587158203 0.15571044385433197 0
1 0.15991239249706268 0
0.99987024068832397 0.15990452468395233 9.8598706244956702e-05
0 0.30774977803230286 0.00070308608701452613
0.020109407603740692 0.29930117726325989 1.2386546586640179e-05
0.095385544002056122 0.2945883572101593 0
0.19596108794212341 0.28921371698379517 0
0.30953127145767212 0.2809874415397644 0
0.4329645037651062 0.27322772145271301 0
0.56909644603729248 0.2692202627658844 0
0.72244983911514282 0.26445433497428894 0
0.87456345558166504 0.26185238361358643 0
0.98231393098831177 0.26588195562362671 0
1 0.27142608165740967 0
1 0.27570256590843201 0
0.99928998947143555 0.27833807468414307 0
0.00027878704713657498 0.39125144481658936 0
0.026021262630820274 0.38793185353279114 0
0.092212289571762085 0.3875274658203125 0
0.18616995215415955 0.38716951012611389 0
0.30054402351379395 0.38559839129447937 0
0.43030187487602234 0.38528379797935486 0
0.57553833723068237 0.38777962327003479 0
0.73715835809707642 0.38978731632232666 0
0.89668470621109009 0.39075228571891785 0
0.99423563480377197 0.39281049370765686 0
1 0.39359396696090698 0
1 0.39340969920158386 0
0.99898815155029297 0.390179842710495 1.6335879990947433e-05
0.0012450125068426132 0.48059284687042236 0
0.027432700619101524 0.48125013709068298 0
0.086213253438472748 0.48585629463195801 0
0.17457787692546844 0.49117085337638855 0
0.28788959980010986 0.49514096975326538 0
0.41975170373916626 0.49804285168647766 0
0.56832641363143921 0.50197255611419678 0
0.73423528671264648 0.50710409879684448 0.00013982735981699079
0.89819282293319702 0.51201564073562622 0.00041131413308903575
0.99551451206207275 0.51337844133377075 0
1 0.50926798582077026 0
1 0.50033390522003174 0
0.99920803308486938 0.48671957850456238 0.0013193167978897691
0.0010913026053458452 0.57671511173248291 0
0.022113695740699768 0.58192265033721924 0
0.074335910379886627 0.59191358089447021 0
0.15921258926391602 0.60282605886459351 0
0.27163293957710266 0.61067384481430054 0
0.40336251258850098 0.61441868543624878 0
0.55111092329025269 0.61667400598526001 0
0.71502351760864258 0.62043559551239014 0.00038583792047575116
0.88217467069625854 0.62486326694488525 0.00074308807961642742
0.99248498678207397 0.62397241592407227 3.1504911021329463e-05
1 0.61356717348098755 0
1 0.59504777193069458 0
0.99848544597625732 0.5725940465927124 0.0038212346844375134
0.00046985101653262973 0.6831173300743103 0
0.012478982098400593 0.69253885746002197 6.5149048168677837e-05
0.058381412178277969 0.70673346519470215 0.00025359509163536131
0.14195775985717773 0.7221832275390625 2.003090048674494e-05
0.25423169136047363 0.73188716173171997 0
0.38554257154464722 0.7344396710395813 0
0.53105193376541138 0.73373496532440186 0
0.68846112489700317 0.73275893926620483 0.00026701384922489524
0.85097783803939819 0.73100626468658447 0.0011682099429890513
0.98100954294204712 0.72443622350692749 0.00022072884894441813
1 0.70709908008575439 0
1 0.68061679601669312 0
0.99731159210205078 0.65022015571594238 0.0031629374716430902
0.00031115961610339582 0.80621474981307983 0.00016374775441363454
0.0064196567982435226 0.81529819965362549 0.0013058980694040656
0.046484705060720444 0.82904696464538574 0.0021925084292888641
0.12981957197189331 0.84587651491165161 0.00037027994403615594
0.23990397155284882 0.85328876972198486 0
0.36749619245529175 0.85249680280685425 0
0.50815528631210327 0.84766072034835815 0
0.65987157821655273 0.84198677539825439 2.1392223061411642e-05
0.81909245252609253 0.83383816480636597 0.00071352790109813213
0.95993447303771973 0.81946486234664917 0.00038000367931090295
0.99997752904891968 0.7944759726524353 0
1 0.76116347312927246 0
0.99943894147872925 0.72505444288253784 0.0016565360128879547
0.00065849156817421317 0.93460327386856079 5.3675033996114507e-05
0.010181935504078865 0.93880701065063477 0.00079306808765977621
0.051126815378665924 0.94831454753875732 0.001262724632397294
0.12912328541278839 0.96132123470306396 0.00022403492766898125
0.23135688900947571 0.96280586719512939 0
0.35056224465370178 0.95704567432403564 0
0.48232343792915344 0.94865769147872925 0
0.62434661388397217 0.9401322603225708 0
0.77362984418869019 0.92890101671218872 0.00032282809843309224
0.91449397802352905 0.90900588035583496 0.00061629054835066199
0.99444121122360229 0.87989979982376099 3.8894954741408583e-06
1 0.84338158369064331 0
1 0.80613386631011963 0.0012222739169374108
0.0026968114543706179 0.99890470504760742 0
0.021405193954706192 0.99935609102249146 0
0.06429329514503479 0.99996364116668701 0
0.13502705097198486 1 0
0.22730553150177002 1 0
0.33602222800254822 1 0
0.45697563886642456 0.99962973594665527 0
0.58664947748184204 0.99809491634368896 0
0.72244060039520264 0.99446111917495728 8.556889952160418e-06
0.8570975661277771 0.98372989892959595 0.00084985472494736314
0.96554678678512573 0.96028023958206177 0.00038797713932581246
0.99960654973983765 0.9256250262260437 0
1 0.89038199186325073 0.0010602764086797833
0.0056360433809459209 1 0
0.031886622309684753 1 0
0.076434038579463959 1 0
0.14180251955986023 1 0
0.22610124945640564 1 0
0.32524561882019043 1 0
0.43540972471237183 1 0
0.55377542972564697 1 0
0.67717176675796509 1 0
0.80014079809188843 1 0
0.90952539443969727 0.99952536821365356 0
0.97867900133132935 0.99083608388900757 0
0.99848443269729614 0.96918004751205444 0.00031115961610339582
0.0021340164821594954 0.0010772405657917261 0.081163935363292694
0.052114974707365036 0.00010788861254695803 0.054422236979007721
0.13951194286346436 0 0.029117988422513008
0.22287711501121521 0 0.014264095574617386
0.30859559774398804 0 0.0049874549731612206
0.39999237656593323 0 0.00018660601926967502
0.4989144504070282 0 0
0.60794621706008911 0 0
0.73016458749771118 0 0
0.86313849687576294 0 0
0.97225713729858398 3.5903033790418704e-07 0
1 1.1488970812933985e-05 0
1 0.00022871728288009763 0
5.4004144658392761e-06 0.047113530337810516 0.062157381325960159
0.031832288950681686 0.026956012472510338 0.035063978284597397
0.12244056165218353 0.013578572310507298 0.015908394008874893
0.21356651186943054 0.0043757571838796139 0.008684106171131134
0.30665910243988037 0.0017063664272427559 0.0029724270571023226
0.40725007653236389 0.0010917364852502942 0.0001497455668868497
0.51625579595565796 0.00011321422789478675 0
0.6352044939994812 0 0
0.76405394077301025 1.201255690830294e-05 0
0.89118301868438721 0.0014799080090597272 0
0.98428207635879517 0.0061294403858482838 0
1 0.0096568241715431213 0
1 0.012807255610823631 0
0 0.13356031477451324 0.052575502544641495
0.014952505938708782 0.10981937497854233 0.025432871654629707
0.10100051015615463 0.088036224246025085 0.0055393893271684647
0.2016291618347168 0.06730448454618454 0.00083496992010623217
0.30513474345207214 0.053508445620536804 0.00017149682389572263
0.41625449061393738 0.045379325747489929 1.6455556988148601e-06
0.53695893287658691 0.034387387335300446 0
0.66822940111160278 0.024610960856080055 0
0.80322885513305664 0.025367481634020805 0
0.92304843664169312 0.036001332104206085 0
0.99403375387191772 0.046833381056785583 0
1 0.051005464047193527 0
1 0.052310958504676819 0.00026137407985515893
0 0.21636906266212463 0.041138142347335815
0.010053462348878384 0.1979246586561203 0.020134825259447098
0.08579622209072113 0.18217889964580536 0.0046278559602797031
0.1901155561208725 0.16691294312477112 0.00014299878966994584
0.30291357636451721 0.15264259278774261 0
0.42424729466438293 0.14181861281394958 0
0.55611884593963623 0.13059693574905396 0
0.69905048608779907 0.12044639140367508 0
0.84195876121520996 0.11767198145389557 0
0.95789104700088501 0.12435805052518845 0
0.99967557191848755 0.1315062940120697 0
1 0.13272431492805481 0
0.99986171722412109 0.13016222417354584 0.001305314595811069
0 0.29960143566131592 0.022278729826211929
0.01330247800797224 0.28734797239303589 0.010344456881284714
0.081535667181015015 0.27763044834136963 0.0036161683965474367
0.18199075758457184 0.26838234066963196 0.00095333025092259049
0.29978212714195251 0.25924450159072876 0.00040612314478494227
0.42921048402786255 0.2528139054775238 6.2202001572586596e-05
0.56984865665435791 0.2506583034992218 0
0.72275263071060181 0.24651552736759186 0
0.87347453832626343 0.24303260445594788 0
0.98239636421203613 0.24525424838066101 0
1 0.2472509890794754 0
1 0.24614153802394867 0
0.99846416711807251 0.24340979754924774 0.0014857872156426311
7.3421702836640179e-05 0.38646706938743591 0.0053931144066154957
0.019592270255088806 0.37958747148513794 0.0029077418148517609
0.080879196524620056 0.37534576654434204 0.0026238833088427782
0.17506405711174011 0.37168243527412415 0.0025249556638300419
0.29369491338729858 0.36767220497131348 0.0020471459720283747
0.4281274676322937 0.3671259880065918 0.00040224861004389822
0.57573634386062622 0.37174007296562195 0
0.73465055227279663 0.37423467636108398 0
0.88864213228225708 0.37442943453788757 0
0.99040085077285767 0.37415245175361633 0.00012884700845461339
1 0.37137612700462341 0.00028435201966203749
1 0.36629796028137207 0.00051710841944441199
0.99674057960510254 0.3591553270816803 0.004169209860265255
0.00069328758399933577 0.47984960675239563 0.00090525008272379637
0.021063352003693581 0.47740858793258667 0.00085618259618058801
0.075780786573886871 0.47824326157569885 0.0016593483742326498
0.16462057828903198 0.4800378680229187 0.002270612632855773
0.28160113096237183 0.48136284947395325 0.0013124652905389667
0.41786965727806091 0.48377686738967896 0.00012325211719144136
0.56819695234298706 0.48869636654853821 0
0.72925424575805664 0.49404793977737427 0
0.8844902515411377 0.49741941690444946 0.00017903646221384406
0.9888303279876709 0.49639153480529785 0.0014794742455706
1 0.48916175961494446 0.0023669074289500713
1 0.47721916437149048 0.0043750987388193607
0.99758791923522949 0.46181187033653259 0.017133047804236412
6.6420609073247761e-05 0.5835416316986084 0.0011749417753890157
0.013576283119618893 0.58373111486434937 0.0010814293054863811
0.062483604997396469 0.58881938457489014 0.0019092933507636189
0.14879657328128815 0.59585809707641602 0.001249216147698462
0.26487994194030762 0.60091763734817505 0.00016323912132065743
0.40093100070953369 0.60313707590103149 0
0.55086296796798706 0.60464906692504883 0
0.70950931310653687 0.60739564895629883 0
0.86575543880462646 0.60942995548248291 0.00030771890305913985
0.98080050945281982 0.60591429471969604 0.0018160801846534014
1 0.59458392858505249 0.0022309396881610155
1 0.57619214057922363 0.0055454326793551445
0.99720364809036255 0.55322772264480591 0.028573548421263695
0 0.69884705543518066 0.0017183939926326275
0.0031731848139315844 0.70009112358093262 0.0019434461137279868
0.043110057711601257 0.70748317241668701 0.0019929474219679832
0.12907640635967255 0.7191428542137146 0.00035156548256054521
0.24490460753440857 0.72578912973403931 0
0.38005226850509644 0.72549676895141602 0
0.52689594030380249 0.72179853916168213 0
0.68162351846694946 0.71826308965682983 0
0.83801388740539551 0.71348863840103149 6.7303226387593895e-05
0.96734851598739624 0.70403909683227539 0.00053102080710232258
1 0.68740230798721313 0.0004637175879906863
0.99991399049758911 0.6642574667930603 0.00210545863956213
0.99603736400604248 0.63606804609298706 0.026012660935521126
0 0.82660198211669922 0.00027875712839886546
2.6987112505594268e-05 0.82597976922988892 0.00066863413667306304
0.027059009298682213 0.83227956295013428 0.00080174463801085949
0.11262059211730957 0.84617507457733154 1.0860667316592298e-05
0.22616079449653625 0.85142379999160767 0
0.35670849680900574 0.84664344787597656 0
0.49842524528503418 0.83742821216583252 0
0.64874303340911865 0.82727628946304321 0
0.8047792911529541 0.81509757041931152 0
0.94531494379043579 0.79749584197998047 0
0.99965488910675049 0.77335214614868164 0
1 0.74499642848968506 0.0011285070795565844
0.99982279539108276 0.71448898315429688 0.018402593210339546
0 0.94989860057830811 0
0.00096863391809165478 0.94953972101211548 0
0.031284689903259277 0.9537232518196106 0
0.10851731896400452 0.96285486221313477 0
0.2132488340139389 0.96315968036651611 0
0.33444640040397644 0.95402038097381592 0
0.46710515022277832 0.94100230932235718 0
0.60850793123245239 0.92770034074783325 0
0.75659775733947754 0.9118078351020813 0
0.89710533618927002 0.88964200019836426 0
0.98808413743972778 0.86011862754821777 0
1 0.8271409273147583 0.00052401970606297255
1 0.79550015926361084 0.011774953454732895
0.00020380955538712442 0.99996793270111084 0
0.0093573778867721558 1 0
0.046117611229419708 1 0
0.11406806856393814 1 0
0.20686168968677521 1 0
0.31616136431694031 0.99997234344482422 0
0.43732717633247375 0.99846732616424561 0
0.56565386056900024 0.99475526809692383 0
0.69871586561203003 0.98780310153961182 0
0.82893884181976318 0.97262191772460938 0
0.94231283664703369 0.94442462921142578 0
0.99762499332427979 0.91082984209060669 3.9493338590546045e-06
1 0.88015878200531006 0.0049215131439268589
0.0023601457942277193 1 0.0013710471102967858
0.021184241399168968 1 3.2088337320601568e-05
0.059940040111541748 1 0
0.12182366102933884 1 0
0.20492632687091827 1 0
0.30341324210166931 1 0
0.41279906034469604 1 0
0.52923262119293213 1 0
0.64864200353622437 1 0
0.7673957347869873 0.99999409914016724 0
0.88223981857299805 0.99758279323577881 0
0.97019582986831665 0.98426347970962524 0
0.99919819831848145 0.96224820613861084 0.0007850946276448667
0.00034071979462169111 9.5681585662532598e-05 0.16232088208198547
0.032207727432250977 0 0.13860665261745453
0.11448442190885544 0 0.11365172266960144
0.2068026065826416 0 0.088443800806999207
0.29835471510887146 0 0.064335301518440247
0.39507922530174255 0 0.039141681045293808
0.4991031289100647 0 0.022674351930618286
0.61241990327835083 0 0.014011113904416561
0.73818790912628174 0 0.01108850259333849
0.87174129486083984 0 0.015084569342434406
0.97684985399246216 0 0.015467789955437183
1 0 0.011657685041427612
1 0.00011435116175562143 0.007770119234919548
0.00028043260681442916 0.030226403847336769 0.15101039409637451
0.016535963863134384 0.010898949578404427 0.11839128285646439
0.096551306545734406 0.0022266912274062634 0.087957106530666351
0.19578260183334351 0.00034997976035811007 0.065423794090747833
0.29542428255081177 9.8733344202628359e-06 0.04864463210105896
0.40143758058547974 0 0.033008694648742676
0.51427406072616577 0 0.02130495011806488
0.63692468404769897 0 0.015082146041095257
0.7674562931060791 0 0.012729809619486332
0.89540678262710571 1.2670779142354149e-05 0.012862426228821278
0.9862179160118103 0.00085283169755712152 0.011696236208081245
1 0.0038464863318949938 0.01052328385412693
1 0.0092771640047430992 0.0117224445566535
0.00052780448459088802 0.11318754404783249 0.13373048603534698
0.0046063144691288471 0.084800064563751221 0.098073087632656097
0.078219994902610779 0.059418324381113052 0.065171755850315094
0.18395929038524628 0.041805535554885864 0.040754564106464386
0.29307651519775391 0.029526654630899429 0.031050963327288628
0.40986168384552002 0.025842823088169098 0.025851022452116013
0.53391331434249878 0.023100549355149269 0.020216533914208412
0.66603946685791016 0.016563130542635918 0.016470994800329208
0.80137670040130615 0.012296848930418491 0.013285199180245399
0.92285013198852539 0.016974281519651413 0.010820710100233555
0.99459677934646606 0.028869358822703362 0.010222865268588066
1 0.037854451686143875 0.011995218694210052
1 0.044424843043088913 0.019148807972669601
5.834242983837612e-06 0.20323589444160461 0.11179936677217484
0.0044959723018109798 0.18056383728981018 0.081795983016490936
0.06922314316034317 0.15888941287994385 0.054097883403301239
0.17403386533260345 0.140395388007164 0.03216196596622467
0.29149055480957031 0.12616293132305145 0.02413247711956501
0.4181424081325531 0.11907800287008286 0.020632306113839149
0.55254888534545898 0.11304418742656708 0.015811620280146599
0.69495511054992676 0.10336563736200333 0.01332906074821949
0.8367113471031189 0.095327608287334442 0.011463254690170288
0.95569652318954468 0.098981939256191254 0.0083641950041055679
0.99969536066055298 0.10745638608932495 0.0090488661080598831
1 0.11163511127233505 0.013756501488387585
1 0.1144617572426796 0.024922868236899376
0 0.29241359233856201 0.084483109414577484
0.009702630341053009 0.27629867196083069 0.064181067049503326
0.070114493370056152 0.26147720217704773 0.04820583388209343
0.16966485977172852 0.24880994856357574 0.035973969846963882
0.29102024435997009 0.23884092271327972 0.028852500021457672
0.42431157827377319 0.23390881717205048 0.020538059994578362
0.56672006845474243 0.23298336565494537 0.011176060885190964
0.71737968921661377 0.22752046585083008 0.0098569085821509361
0.86508095264434814 0.2208152711391449 0.01183745451271534
0.97830915451049805 0.22044509649276733 0.01163793820887804
1 0.22038102149963379 0.013902402482926846
1 0.21775521337985992 0.018752796575427055
0.99984407424926758 0.21495248377323151 0.03017762117087841
0.00034510294790379703 0.38377416133880615 0.055436752736568451
0.016985051333904266 0.37361529469490051 0.047023475170135498
0.072513699531555176 0.36525267362594604 0.042492721229791641
0.16616818308830261 0.35846513509750366 0.038031112402677536
0.28732264041900635 0.35318067669868469 0.032527893781661987
0.42471563816070557 0.35215866565704346 0.022365525364875793
0.57202577590942383 0.35612890124320984 0.011234387755393982
0.7271190881729126 0.35665103793144226 0.010950918309390545
0.87584656476974487 0.35377013683319092 0.018442833796143532
0.98384112119674683 0.35032665729522705 0.026130452752113342
1 0.34398928284645081 0.029267704114317894
1 0.33542725443840027 0.031978413462638855
0.99933117628097534 0.3260694146156311 0.042261220514774323
0.0011919208336621523 0.482796311378479 0.038875699043273926
0.018665911629796028 0.47689178586006165 0.036726515740156174
0.069590114057064056 0.47357359528541565 0.03759225457906723
0.15846085548400879 0.4718184769153595 0.035282284021377563
0.27789318561553955 0.47049754858016968 0.028992731124162674
0.41661691665649414 0.47118085622787476 0.018657056614756584
0.56631803512573242 0.47450941801071167 0.011233161203563213
0.72081571817398071 0.47815385460853577 0.013598961755633354
0.86795341968536377 0.47860923409461975 0.024596495553851128
0.97932815551757812 0.47442948818206787 0.037229679524898529
1 0.46338462829589844 0.043168790638446808
1 0.44875794649124146 0.048085425049066544
0.9995836615562439 0.43202993273735046 0.06381601095199585
0.00016443588538095355 0.59315729141235352 0.037988953292369843
0.012679215520620346 0.58947098255157471 0.034742645919322968
0.059746745973825455 0.58966505527496338 0.034109707921743393
0.14578559994697571 0.59160697460174561 0.029652673751115799
0.26384228467941284 0.5925171971321106 0.019865522161126137
0.40166866779327393 0.59159946441650391 0.0095137199386954308
0.55044293403625488 0.59052425622940063 0.0056674731895327568
0.70212656259536743 0.59085345268249512 0.010423353873193264
0.84832727909088135 0.59031456708908081 0.023673592135310173
0.96702635288238525 0.5839768648147583 0.036901824176311493
1 0.57043951749801636 0.043981797993183136
1 0.55128055810928345 0.054116867482662201
0.99989169836044312 0.52914309501647949 0.080615594983100891
0 0.71508282423019409 0.035536836832761765
0.0041192448697984219 0.71266442537307739 0.03226114809513092
0.044425081461668015 0.71498626470565796 0.029083311557769775
0.12869830429553986 0.71946507692337036 0.020791895687580109
0.24452753365039825 0.72042214870452881 0.0096679991111159325
0.38013109564781189 0.71532136201858521 0.0024557823780924082
0.52599620819091797 0.707183837890625 0.00070331047754734755
0.67399150133132935 0.69970333576202393 0.0044488348066806793
0.82143723964691162 0.69167155027389526 0.016617823392152786
0.94963520765304565 0.67983263731002808 0.028383905068039894
0.99977982044219971 0.6632426381111145 0.034136153757572174
1 0.64217936992645264 0.04580383375287056
0.99998676776885986 0.61762231588363647 0.079018779098987579
0 0.84444934129714966 0.023445667698979378
0.00069490319583564997 0.84282839298248291 0.022224185988306999
0.031490564346313477 0.84574276208877563 0.019074607640504837
0.11147300899028778 0.85191935300827026 0.0094602396711707115
0.223125159740448 0.85070228576660156 0.0024528054054826498
0.35252830386161804 0.83978927135467529 0.00020494648197200149
0.49199572205543518 0.8246387243270874 0
0.63639193773269653 0.80881416797637939 0.00095382391009479761
0.78505462408065796 0.79149132966995239 0.0073006721213459969
0.92456018924713135 0.7715265154838562 0.015735013410449028
0.99740850925445557 0.74898874759674072 0.021564513444900513
1 0.72512674331665039 0.034357286989688873
1 0.70086032152175903 0.063649378716945648
0 0.96256762742996216 0.0092672165483236313
0.0011834088945761323 0.96211689710617065 0.0099955238401889801
0.030301321297883987 0.96456992626190186 0.0079800030216574669
0.10214409977197647 0.9689563512802124 0.002183128846809268
0.20439863204956055 0.96516197919845581 0.00011114980588899925
0.32457521557807922 0.9501836895942688 0
0.45505011081695557 0.93135613203048706 0
0.59216439723968506 0.91266298294067383 7.4797985689656343e-06
0.73475497961044312 0.89255720376968384 0.0012951121898368001
0.87485349178314209 0.86793828010559082 0.0063837240450084209
0.97955822944641113 0.83861303329467773 0.010822340846061707
1 0.80930900573730469 0.019485369324684143
1 0.78467142581939697 0.043088532984256744
0.0001608455932000652 1 0.0097010442987084389
0.0071872933767735958 1 0.0075938357040286064
0.038820423185825348 1 0.0045522055588662624
0.1024492159485817 1 0.00061747233849018812
0.19319385290145874 1 0
0.30206361413002014 0.99975353479385376 0
0.42174625396728516 0.99612849950790405 0
