assets/lut/toddblankenship crispautumn.cube
# Created by: G'MIC (https://gmic.eu)
TITLE "crispautumn"
# LUT size
LUT_3D_SIZE 7
# Data domain
DOMAIN_MIN 0.0 0.0 0.0
DOMAIN_MAX 1.0 1.0 1.0
# LUT data points
0.0032475041225552559 0.010240936651825905 0.01815420389175415
0.041330136358737946 0.0026085199788212776 0.01467316597700119
0.14405187964439392 0 0.00013625201245304197
0.44368690252304077 0.0051075504161417484 0.0058108908124268055
0.68760031461715698 0.014964533969759941 0.0067464942112565041
0.88929289579391479 0.018806068226695061 0.023711994290351868
0.99407786130905151 0.074302420020103455 0.082990445196628571
0.002428585896268487 0.065124332904815674 0.010443175211548805
0.052445743232965469 0.04484226182103157 0.0016940247733145952
0.19032828509807587 0.04266044870018959 1.4361213516167481e-06
0.63445460796356201 0.08309638500213623 0.00085275690071284771
0.93974077701568604 0.1106586679816246 0.0057259355671703815
0.9903033971786499 0.17491051554679871 0.0087774088606238365
0.99949204921722412 0.26334264874458313 0.012367592193186283
0.0010584363481029868 0.16900518536567688 0.0039759166538715363
0.092298321425914764 0.14716953039169312 5.8372348576085642e-05
0.38754874467849731 0.19879478216171265 0
0.84038758277893066 0.26471516489982605 0.00044874302693642676
0.97563570737838745 0.31140619516372681 0.0044751036912202835
0.99478882551193237 0.37054088711738586 0.0087856817990541458
1 0.44286233186721802 0.011173831298947334
0.012649700976908207 0.48132726550102234 0.012358811683952808
0.24494607746601105 0.4505886435508728 0.002435347530990839
0.63110637664794922 0.46830728650093079 0.0004079033387824893
0.96835142374038696 0.47698768973350525 0
0.99438172578811646 0.52160888910293579 0.0019655714277178049
1 0.56165206432342529 0.0043093813583254814
1 0.61994463205337524 0.0053101186640560627
0.062660247087478638 0.70252364873886108 0.036889392882585526
0.30764827132225037 0.7065092921257019 0.014307389035820961
0.71984851360321045 0.72574925422668457 0.0054727140814065933
0.99514341354370117 0.74167466163635254 0
1 0.74617612361907959 0.0062546674162149429
1 0.77514916658401489 0.0031385833863168955
1 0.77609068155288696 0.014138659462332726
0.11233046650886536 0.89623063802719116 0.056593980640172958
0.33042988181114197 0.93290501832962036 0.029747787863016129
0.74959921836853027 0.96046960353851318 0.0066063376143574715
0.99092161655426025 0.97878921031951904 0.0016321667935699224
0.99957418441772461 0.96078121662139893 0.0072576934471726418
1 0.94888472557067871 0.021568283438682556
1 0.89807718992233276 0.060022138059139252
0.070858195424079895 0.99165451526641846 0.13114102184772491
0.34806236624717712 0.99508345127105713 0.062821827828884125
0.76201534271240234 0.99937397241592407 0.047609202563762665
0.99204921722412109 0.99965804815292358 0.0070122363977134228
0.99473470449447632 0.9964107871055603 0.017863254994153976
0.99982297420501709 0.99795681238174438 0.025959702208638191
1 0.96024495363235474 0.4098549485206604
4.3083641685370822e-06 0.0018864800222218037 0.089851364493370056
0.043716758489608765 0.001248782267794013 0.12093445658683777
0.14757440984249115 0.0004400215984787792 0.083570234477519989
0.41936421394348145 0.011635724455118179 0.13439451158046722
0.6854977011680603 0.013902252539992332 0.15627183020114899
0.89707714319229126 0.028345802798867226 0.2152235209941864
0.98630023002624512 0.09981885552406311 0.30201429128646851
0.00029874316533096135 0.051444213837385178 0.069350898265838623
0.086911112070083618 0.098824217915534973 0.13815954327583313
0.32148215174674988 0.082879774272441864 0.072330981492996216
0.60194414854049683 0.098034754395484924 0.047636143863201141
0.88978791236877441 0.13822227716445923 0.047454491257667542
0.99152266979217529 0.19858688116073608 0.10066463798284531
0.99774003028869629 0.27695527672767639 0.18742160499095917
0.0010094137396663427 0.18986451625823975 0.10117287933826447
0.12978306412696838 0.28750360012054443 0.097125604748725891
0.43166336417198181 0.28436571359634399 0.03786906972527504
0.75785791873931885 0.31451895833015442 0.022186458110809326
0.98417669534683228 0.36155396699905396 0.020389378070831299
0.99552398920059204 0.41259738802909851 0.039332415908575058
1 0.46311798691749573 0.090125471353530884
0.025909034535288811 0.49318301677703857 0.16933420300483704
0.18316325545310974 0.51470530033111572 0.087027527391910553
0.54256045818328857 0.53083842992782593 0.038386866450309753
0.89620494842529297 0.55097800493240356 0.026932420209050179
0.99705046415328979 0.5806809663772583 0.011957834474742413
1 0.61792922019958496 0.044237714260816574
1 0.64660274982452393 0.03822123259305954
0.049226291477680206 0.72857010364532471 0.20540265738964081
0.24160048365592957 0.75774943828582764 0.12370730936527252
0.61696392297744751 0.78471320867538452 0.057655859738588333
0.96657812595367432 0.80202746391296387 0.011270605027675629
0.99691486358642578 0.79744166135787964 0.043377012014389038
1 0.80102002620697021 0.058443870395421982
1 0.79915392398834229 0.11605174094438553
0.039731808006763458 0.94599908590316772 0.25492408871650696
0.2756410539150238 0.96912676095962524 0.18171334266662598
0.64867281913757324 0.9880441427230835 0.12389176338911057
0.97310757637023926 0.9904370903968811 0.038194857537746429
0.99854773283004761 0.96731811761856079 0.051478546112775803
1 0.95777815580368042 0.063052937388420105
1 0.90982562303543091 0.3469071090221405
0.12315202504396439 0.99817246198654175 0.31517314910888672
0.32608243823051453 0.99802958965301514 0.2776435911655426
0.65730303525924683 0.99820154905319214 0.20235329866409302
0.95881038904190063 1 0.081336110830307007
0.99581396579742432 0.99815058708190918 0.10503999143838882
1 0.99847006797790527 0.12661172449588776
1 0.96668523550033569 0.6043170690536499
3.7339155824156478e-05 0.00084408029215410352 0.21763895452022552
0.043148159980773926 0.0043224259279668331 0.36420294642448425
0.20673063397407532 0.0082201343029737473 0.34473374485969543
0.43705272674560547 0.020815994590520859 0.37614122033119202
0.6950758695602417 0.024936256930232048 0.41234704852104187
0.92317146062850952 0.042335152626037598 0.4692959189414978
0.99267405271530151 0.12103798240423203 0.53467398881912231
0.00029615513631142676 0.072943262755870819 0.21760945022106171
0.058297190815210342 0.093187414109706879 0.35251864790916443
0.27518007159233093 0.09905899316072464 0.33054053783416748
0.55090117454528809 0.14988072216510773 0.34133711457252502
0.83451753854751587 0.18328876793384552 0.3644331693649292
0.98543387651443481 0.23091778159141541 0.40284353494644165
0.9956703782081604 0.29451510310173035 0.46183428168296814
0.0088155558332800865 0.2869105339050293 0.3366914689540863
0.12561722099781036 0.31679776310920715 0.35290628671646118
0.35869002342224121 0.3250395655632019 0.31962054967880249
0.67157506942749023 0.35985192656517029 0.30391281843185425
0.96062010526657104 0.41267621517181396 0.30898916721343994
0.99421828985214233 0.4431147575378418 0.32815426588058472
0.99963432550430298 0.48168885707855225 0.3855862021446228
0.049530524760484695 0.5198398232460022 0.38765552639961243
0.20537789165973663 0.55524390935897827 0.37238508462905884
0.45664650201797485 0.59881973266601562 0.32319769263267517
0.78508985042572021 0.61075043678283691 0.29390054941177368
0.98911899328231812 0.64133709669113159 0.28100472688674927
0.99584090709686279 0.65517985820770264 0.28806403279304504
1 0.66837221384048462 0.35718029737472534
0.07823587954044342 0.7650763988494873 0.43629378080368042
0.23497599363327026 0.80144345760345459 0.4073483943939209
0.52267789840698242 0.84298944473266602 0.35526829957962036
0.86752349138259888 0.8626716136932373 0.29755955934524536
0.99205321073532104 0.85064846277236938 0.28284913301467896
0.99881255626678467 0.82830071449279785 0.29185381531715393
1 0.84968411922454834 0.52584576606750488
0.063715450465679169 0.97101986408233643 0.4855978786945343
0.26040670275688171 0.98357498645782471 0.44795531034469604
0.55613851547241211 0.98700416088104248 0.3847026526927948
0.8808324933052063 0.99170029163360596 0.31152704358100891
0.99435877799987793 0.98441600799560547 0.27861753106117249
1 0.96926438808441162 0.28899875283241272
1 0.94869899749755859 0.70301824808120728
0.12884700298309326 0.99878531694412231 0.5168452262878418
0.29713410139083862 0.99868786334991455 0.49357515573501587
0.55515038967132568 0.99938374757766724 0.44897270202636719
0.8559831976890564 1 0.38883331418037415
0.99950695037841797 0.99916762113571167 0.29853412508964539
1 0.99937719106674194 0.30206674337387085
1 0.98556941747665405 0.75629669427871704
0.006751340813934803 0.00091226614313200116 0.53776699304580688
0.068988412618637085 0.0041975583881139755 0.57945841550827026
0.23764786124229431 0.015469315461814404 0.60047805309295654
0.47854161262512207 0.027187047526240349 0.63547927141189575
0.73110437393188477 0.044622339308261871 0.67464554309844971
0.93060886859893799 0.086155295372009277 0.71441191434860229
0.99091172218322754 0.1558142751455307 0.76199674606323242
0.0049559948965907097 0.12403244525194168 0.56142401695251465
0.071410387754440308 0.11910536885261536 0.58598119020462036
0.26150685548782349 0.13800977170467377 0.61980485916137695
0.54958724975585938 0.18751807510852814 0.64631134271621704
0.82411152124404907 0.2206941694021225 0.67797595262527466
0.98210352659225464 0.27193999290466309 0.69048851728439331
0.99402815103530884 0.31329354643821716 0.72319924831390381
0.011759649962186813 0.33076372742652893 0.59190148115158081
0.13000151515007019 0.3536028265953064 0.60508501529693604
0.34095752239227295 0.38129657506942749 0.63124185800552368
0.62903136014938354 0.42043006420135498 0.64841151237487793
0.89905577898025513 0.44718599319458008 0.67750769853591919
0.9925922155380249 0.46616116166114807 0.65809839963912964
0.99964797496795654 0.53123170137405396 0.69294726848602295
0.030424723401665688 0.55878865718841553 0.62734299898147583
0.16077996790409088 0.59508430957794189 0.64220017194747925
0.40855488181114197 0.640586256980896 0.65709382295608521
0.70649832487106323 0.65951555967330933 0.63946628570556641
0.95461320877075195 0.67342507839202881 0.63551324605941772
0.99479621648788452 0.67280107736587524 0.62486749887466431
1 0.83589822053909302 0.80734407901763916
0.054254494607448578 0.81912118196487427 0.68986767530441284
0.20016352832317352 0.85799163579940796 0.69377297163009644
0.45962318778038025 0.8951144814491272 0.69130802154541016
0.74030107259750366 0.89205324649810791 0.63972824811935425
0.96529567241668701 0.87599992752075195 0.59268534183502197
0.99820834398269653 0.8531983494758606 0.60755521059036255
1 0.95890945196151733 0.90816813707351685
0.071580417454242706 0.99186140298843384 0.73150646686553955
0.24106922745704651 0.99007630348205566 0.7117609977722168
0.49049249291419983 0.98330414295196533 0.68398618698120117
0.75216710567474365 0.99138826131820679 0.63241481781005859
0.96683961153030396 0.99453479051589966 0.56981492042541504
0.99902874231338501 0.97572618722915649 0.55093914270401001
1 0.98485839366912842 0.90020656585693359
0.11711003631353378 0.99811792373657227 0.74441921710968018
0.30995091795921326 0.99798661470413208 0.71201193332672119
0.52473205327987671 0.99911504983901978 0.71565526723861694
0.88057225942611694 1 0.83561867475509644
0.98646765947341919 1 0.73736590147018433
1 1 0.5215303897857666
1 0.9996485710144043 0.82346081733703613
0.0054838294163346291 0.020614383742213249 0.77353233098983765
0.057798184454441071 0.007910754531621933 0.80136203765869141
0.26673224568367004 0.030133685097098351 0.83033591508865356
0.51069086790084839 0.041510757058858871 0.87246817350387573
0.78631585836410522 0.082627855241298676 0.92144179344177246
0.98927062749862671 0.10439831763505936 0.95619684457778931
0.99712735414505005 0.18718092143535614 0.97248262166976929
0.0073055042885243893 0.15583918988704681 0.7970656156539917
0.090246208012104034 0.1694684773683548 0.82726341485977173
0.29462552070617676 0.19058783352375031 0.87117987871170044
0.57417786121368408 0.22345203161239624 0.89732855558395386
0.82693696022033691 0.26158106327056885 0.92833787202835083
0.98475682735443115 0.29714912176132202 0.94016826152801514
0.99628782272338867 0.33929413557052612 0.92606216669082642
0.016809679567813873 0.37603724002838135 0.83077585697174072
0.13250431418418884 0.40230581164360046 0.86256611347198486
0.35318759083747864 0.43179967999458313 0.89526593685150146
0.60800999402999878 0.4564749002456665 0.90311968326568604
0.85752618312835693 0.47371256351470947 0.92432969808578491
0.99088317155838013 0.48606505990028381 0.92942571640014648
0.99981069564819336 0.59332799911499023 0.913990318775177
0.02777392789721489 0.62925487756729126 0.88948261737823486
0.17390972375869751 0.65770679712295532 0.91317826509475708
0.39438620209693909 0.68170636892318726 0.91641759872436523
0.63987451791763306 0.68042665719985962 0.90854108333587646
0.87599557638168335 0.67466813325881958 0.91076338291168213
0.99496132135391235 0.67981326580047607 0.89167326688766479
1 0.89131838083267212 0.96071350574493408
0.03467247262597084 0.88750797510147095 0.94739663600921631
0.19051063060760498 0.90359771251678467 0.95607542991638184
0.42245393991470337 0.90813988447189331 0.95380806922912598
0.65379112958908081 0.90112698078155518 0.92507100105285645
0.87589943408966064 0.86870956420898438 0.86780041456222534
0.9963536262512207 0.84160792827606201 0.83755666017532349
1 0.97516483068466187 0.97932112216949463
0.053849268704652786 0.99794000387191772 0.97110557556152344
0.24291616678237915 0.9973490834236145 0.96208739280700684
0.45548376441001892 0.9975513219833374 0.94612705707550049
0.66858875751495361 0.9974205493927002 0.89974737167358398
0.87173271179199219 0.99030095338821411 0.83597260713577271
0.98904448747634888 0.96448880434036255 0.77465271949768066
1 0.98426812887191772 0.94057732820510864
0.11129412055015564 1 0.9758257269859314
0.33776718378067017 1 0.93370521068572998
0.60337221622467041 1 0.92473489046096802
0.90562635660171509 1 0.97163468599319458
0.97955292463302612 1 0.96458876132965088
0.99432837963104248 1 0.7831498384475708
1 0.99993538856506348 0.86217570304870605
0.0039685419760644436 0.020833408460021019 0.96623015403747559
0.10084065794944763 0.028899248689413071 0.96948301792144775
0.32622867822647095 0.058269500732421875 0.9854123592376709
0.57737177610397339 0.095175035297870636 0.9854775071144104
0.80636972188949585 0.13841606676578522 0.99552232027053833
0.96981155872344971 0.18557913601398468 0.9960792064666748
0.99986928701400757 0.25004848837852478 0.99746227264404297
0.017360538244247437 0.2148260772228241 0.96851831674575806
0.12311622500419617 0.22662743926048279 0.9889865517616272
0.36326608061790466 0.2597309947013855 0.98991912603378296
0.59486407041549683 0.27039578557014465 0.99560624361038208
0.81197243928909302 0.30702605843544006 0.98999273777008057
0.97879326343536377 0.33270326256752014 0.99046587944030762
0.99894767999649048 0.36532354354858398 0.99464577436447144
0.033269725739955902 0.42821010947227478 0.98700797557830811
0.16735634207725525 0.45615226030349731 0.99139177799224854
0.39127564430236816 0.47541508078575134 0.99612075090408325
0.60859888792037964 0.47891372442245483 0.99220502376556396
0.82643228769302368 0.49260085821151733 0.98621779680252075
0.96659380197525024 0.49858024716377258 0.98697179555892944
1 0.50607436895370483 0.99523580074310303
0.050358939915895462 0.66952002048492432 0.99540144205093384
0.19598126411437988 0.6791454553604126 0.9929206371307373
0.42074593901634216 0.69858837127685547 0.99084019660949707
0.63125336170196533 0.68701624870300293 0.99082857370376587
0.82766628265380859 0.67816567420959473 0.99283480644226074
0.96362298727035522 0.65070873498916626 0.98966801166534424
1 0.69301301240921021 0.99098682403564453
0.04249948263168335 0.9132506251335144 0.99665766954421997
0.22151736915111542 0.90556633472442627 0.99591231346130371
0.43475204706192017 0.8969530463218689 0.99676662683486938
0.64039534330368042 0.87805020809173584 0.99696654081344604
0.82101625204086304 0.84797388315200806 0.99322998523712158
0.94588452577590942 0.79689329862594604 0.97971755266189575
1 0.87418258190155029 0.98139733076095581
0.11821997910737991 0.9961555004119873 0.99489063024520874
0.27558887004852295 0.99608695507049561 0.9943881630897522
0.45614650845527649 0.99638712406158447 0.99700921773910522
0.60820680856704712 0.99477022886276245 0.99945402145385742
0.77811014652252197 0.97152435779571533 0.98677682876586914
0.92568677663803101 0.92564564943313599 0.93612182140350342
0.99976003170013428 0.95845514535903931 0.96631079912185669
0.18768821656703949 0.9999159574508667 0.99629837274551392
0.36923733353614807 1 0.9965701699256897
0.58306747674942017 1 0.99592649936676025
0.78382617235183716 1 0.99811017513275146
0.9133417010307312 1 0.99030226469039917
0.96580600738525391 0.99969208240509033 0.95130568742752075
0.9992561936378479 0.99736905097961426 0.94024956226348877
0.035032056272029877 0.09984404593706131 0.99894887208938599
0.18134085834026337 0.12024214863777161 0.99950975179672241
0.39211323857307434 0.13417693972587585 1
0.6144644021987915 0.13904821872711182 1
0.8082243800163269 0.19032049179077148 1
0.96877270936965942 0.25906264781951904 1
1 0.4348052442073822 1
0.072402715682983398 0.29674592614173889 0.99570506811141968
0.21039131283760071 0.31163999438285828 0.99888402223587036
0.41506299376487732 0.32354798913002014 0.99998921155929565
0.61844313144683838 0.32990410923957825 1
0.80874758958816528 0.36678043007850647 1
0.96663737297058105 0.47387117147445679 1
1 0.56911188364028931 1
0.067852333188056946 0.49369460344314575 0.99859392642974854
0.23460382223129272 0.5073503851890564 1
0.42669999599456787 0.51088696718215942 1
0.63213402032852173 0.51766252517700195 1
0.84164124727249146 0.63160699605941772 1
0.96870404481887817 0.7308807373046875 1
1 0.67860966920852661 1
0.125138059258461 0.69375914335250854 1
0.26027736067771912 0.70007032155990601 1
0.46553429961204529 0.70969957113265991 1
0.72821950912475586 0.77297627925872803 1
0.94538247585296631 0.9080926775932312 1
0.98340564966201782 0.88320797681808472 1
1 0.78099030256271362 1
0.11027736216783524 0.91587668657302856 1
0.29229769110679626 0.88866770267486572 1
0.58393293619155884 0.89085644483566284 1
0.86482769250869751 0.94451481103897095 1
0.96520876884460449 0.97492319345474243 1
0.97768884897232056 0.9355894923210144 1
0.99956798553466797 0.86959290504455566 1
0.23196081817150116 1 1
0.42561483383178711 0.99577623605728149 1
0.67020845413208008 0.99162542819976807 1
0.83694988489151001 0.9928581714630127 1
0.91491258144378662 0.98408979177474976 1
0.95815235376358032 0.96586060523986816 0.99978536367416382
0.99490213394165039 0.94865787029266357 0.99906075000762939
0.42144539952278137 1 1
0.54324799776077271 1 1
0.6680833101272583 1 1
0.78010106086730957 1 1
0.88185316324234009 1 1
0.96143943071365356 0.99850285053253174 0.99908959865570068
0.99399900436401367 0.99304682016372681 0.99290657043457031
