assets/lut/toddblankenship magichour.cube
# Created by: G'MIC (https://gmic.eu)
TITLE "magichour"
# LUT size
LUT_3D_SIZE 5
# Data domain
DOMAIN_MIN 0.0 0.0 0.0
DOMAIN_MAX 1.0 1.0 1.0
# LUT data points
0.014852575957775116 0.010335315950214863 0.014424522407352924
0.23663881421089172 0 0
0.50347054004669189 0 0
0.85537600517272949 0.00020750457770191133 0.0014848147984594107
1 0.0031582552473992109 0
0 0.22836862504482269 0.0058242049999535084
0.20822636783123016 0.19358867406845093 0
0.55778509378433228 0.14744478464126587 0
0.95251065492630005 0.14580351114273071 0
0.99987024068832397 0.15990452468395233 9.8598706244956702e-05
0.0012450125068426132 0.48059284687042236 0
0.17457787692546844 0.49117085337638855 0
0.56832641363143921 0.50197255611419678 0
0.99551451206207275 0.51337844133377075 0
0.99920803308486938 0.48671957850456238 0.0013193167978897691
0.00031115961610339582 0.80621474981307983 0.00016374775441363454
0.12981957197189331 0.84587651491165161 0.00037027994403615594
0.50815528631210327 0.84766072034835815 0
0.95993447303771973 0.81946486234664917 0.00038000367931090295
0.99943894147872925 0.72505444288253784 0.0016565360128879547
0.0056360433809459209 1 0
0.14180251955986023 1 0
0.43540972471237183 1 0
0.80014079809188843 1 0
0.99848443269729614 0.96918004751205444 0.00031115961610339582
7.0010914896556642e-06 0 0.24466156959533691
0.18232521414756775 0 0.18097677826881409
0.50215017795562744 0 0.11870512366294861
0.8739699125289917 0 0.10228454321622849
0.9998888373374939 0.00024037080584093928 0.080515950918197632
3.2088337320601568e-05 0.18973146378993988 0.21411807835102081
0.15674518048763275 0.12069280445575714 0.12259186059236526
0.54506534337997437 0.097993873059749603 0.092152446508407593
0.94156336784362793 0.071696564555168152 0.079404987394809723
1 0.10086988657712936 0.085594713687896729
0.0011079675750806928 0.48785340785980225 0.13501268625259399
0.14988900721073151 0.46606883406639099 0.10778311640024185
0.55795890092849731 0.45915263891220093 0.076792456209659576
0.97081601619720459 0.44617339968681335 0.11571529507637024
1 0.40017169713973999 0.12994745373725891
0 0.85158777236938477 0.099497057497501373
0.11557817459106445 0.85732859373092651 0.062479924410581589
0.4805482029914856 0.81155610084533691 0.029478888958692551
0.89304763078689575 0.74490416049957275 0.071641020476818085
1 0.68640297651290894 0.12927629053592682
0.0010859919711947441 1 0.091311648488044739
0.097584277391433716 1 0.034880440682172775
0.38159823417663574 1 0.0002523085568100214
0.72881472110748291 0.99944216012954712 0.0017549103358760476
0.99985063076019287 0.95543920993804932 0.029464632272720337
0.0043322993442416191 0 0.5236855149269104
0.1608504056930542 0 0.4956221878528595
0.51797854900360107 0 0.47984269261360168
0.88670593500137329 0.0039392807520925999 0.4594474732875824
1 0.00010501637007109821 0.42485368251800537
0 0.1439167857170105 0.61742508411407471
0.11061099171638489 0.096247352659702301 0.49344921112060547
0.50803989171981812 0.088626891374588013 0.43941608071327209
0.88466686010360718 0.055231746286153793 0.39489284157752991
1 0.057373210787773132 0.35996079444885254
0 0.5088774561882019 0.57056117057800293
0.084693595767021179 0.45547047257423401 0.47982630133628845
0.49246245622634888 0.41139289736747742 0.41082164645195007
0.87387579679489136 0.34683683514595032 0.37315472960472107
1 0.30728974938392639 0.35759809613227844
0 0.86412745714187622 0.47951444983482361
0.07723478227853775 0.82846754789352417 0.40188455581665039
0.41790595650672913 0.7524949312210083 0.33674821257591248
0.80150073766708374 0.68222415447235107 0.32019570469856262
0.99985337257385254 0.64829844236373901 0.38736826181411743
0 1 0.42360848188400269
0.062236275523900986 1 0.32321685552597046
0.3339170515537262 0.99999356269836426 0.24680425226688385
0.67282247543334961 0.98766934871673584 0.21995428204536438
0.9987291693687439 0.94863039255142212 0.26486453413963318
0.01296056155115366 0 0.86567533016204834
0.16744711995124817 0 0.85311579704284668
0.50450974702835083 0.00027693205629475415 0.86062717437744141
0.84075552225112915 0 0.79009300470352173
1 0 0.69043183326721191
1.6156365063579869e-06 0.12306301295757294 0.99761122465133667
0.086465142667293549 0.064810581505298615 0.89858794212341309
0.44935432076454163 0.055055100470781326 0.83659785985946655
0.78970134258270264 0.0075412224978208542 0.71419280767440796
1 0.012497352436184883 0.63453274965286255
0 0.5125768780708313 0.99927210807800293
0.040893375873565674 0.42155954241752625 0.92952054738998413
0.37654632329940796 0.34992054104804993 0.79265725612640381
0.75754308700561523 0.25892668962478638 0.66614824533462524
0.99972337484359741 0.2382037341594696 0.62347936630249023
0 0.82847493886947632 0.89476639032363892
0.03430398553609848 0.74314159154891968 0.78170293569564819
0.32520291209220886 0.66355711221694946 0.67763823270797729
0.67452889680862427 0.59898298978805542 0.60681033134460449
0.99071812629699707 0.59760510921478271 0.63306868076324463
0 0.99988675117492676 0.69513314962387085
0.023002535104751587 0.99665850400924683 0.62420129776000977
0.25981509685516357 0.98710775375366211 0.61421412229537964
0.60210973024368286 0.95276850461959839 0.57901990413665771
0.97728151082992554 0.93815869092941284 0.60547119379043579
0.010686896741390228 0 0.99716436862945557
0.1584029346704483 0 1
0.4371914267539978 0 1
0.72576850652694702 0 0.99424850940704346
0.93454432487487793 0 0.88551974296569824
0.0013374927220866084 0.087534919381141663 0.99992161989212036
0.064308091998100281 0.031433973461389542 1
0.34834942221641541 0.0067726881243288517 1
0.68590843677520752 0 0.98989272117614746
0.93264627456665039 0.0046210493892431259 0.88642245531082153
0 0.49285596609115601 0.99998480081558228
0.012436900287866592 0.36279326677322388 1
0.26943609118461609 0.27648511528968811 0.99993103742599487
0.65214031934738159 0.20805858075618744 0.97623485326766968
0.96178531646728516 0.18592008948326111 0.92816853523254395
0 0.76740086078643799 1
0.002213706262409687 0.6932486891746521 1
0.20535172522068024 0.63124936819076538 0.99931728839874268
0.5949140191078186 0.59297394752502441 0.96146625280380249
0.95634490251541138 0.55229789018630981 0.93766427040100098
0 0.9303697943687439 0.93908119201660156
0.00037747551687061787 0.92048472166061401 0.93211847543716431
0.15718458592891693 0.95950698852539062 0.96041274070739746
0.55715775489807129 0.94228667020797729 0.9410092830657959
0.95363056659698486 0.94705641269683838 0.95102769136428833
