assets/lut/toddblankenship bluehour.cube
# Created by: G'MIC (https://gmic.eu)
TITLE "bluehour"
# LUT size
LUT_3D_SIZE 7
# Data domain
DOMAIN_MIN 0.0 0.0 0.0
DOMAIN_MAX 1.0 1.0 1.0
# LUT data points
0.015896143391728401 0.033956475555896759 0.046346761286258698
0.24422931671142578 0.0057535208761692047 0.0088421246036887169
0.47236436605453491 0 0
0.70716816186904907 0 0
0.9498516321182251 0 0
1 0.00070597330341115594 0
0.99869465827941895 0.0084557179361581802 0.0015838025137782097
0.0045970096252858639 0.34254440665245056 0.01020183227956295
0.18369771540164948 0.2519078254699707 0.0025968663394451141
0.43933668732643127 0.16050863265991211 2.6059618903673254e-05
0.68644541501998901 0.087062373757362366 0
0.95396566390991211 0.066033832728862762 0.0040104584768414497
1 0.066463381052017212 0.00086871878011152148
0.99480271339416504 0.099213063716888428 3.9672850107308477e-05
0.0001983642578125 0.65854752063751221 0
0.10498782992362976 0.54496711492538452 0.0092889079824090004
0.39408904314041138 0.45219874382019043 0.00048307530232705176
0.67892760038375854 0.37056073546409607 0
0.96161824464797974 0.30942583084106445 0.00037339155096560717
1 0.28384840488433838 0
0.99825847148895264 0.29643812775611877 0
0.0030633516144007444 0.96864736080169678 0
0.086532101035118103 0.87673693895339966 0
0.33788439631462097 0.78396505117416382 0.002263297326862812
0.67314702272415161 0.70066893100738525 0.002047624671831727
0.9750322699546814 0.63557833433151245 0
1 0.58174943923950195 0
0.99851113557815552 0.54880982637405396 3.0338062060764059e-05
0.010517988353967667 1 0
0.094999872148036957 1 0
0.30642017722129822 1 0
0.64124506711959839 0.99396347999572754 0.0011662651086226106
0.96536350250244141 0.95860481262207031 0.00052274815971031785
0.9974251389503479 0.89982467889785767 0.0004836587468162179
0.99804574251174927 0.79966390132904053 0
0.011834881268441677 1 0
0.10978630185127258 1 0
0.31236812472343445 1 0
0.6277586817741394 1 0
0.95120900869369507 0.9999852180480957 6.6315893491264433e-05
1 1 0
1 0.99631655216217041 0
0.013045472092926502 0.99968397617340088 0
0.12495012581348419 1 0
0.31400281190872192 1 0
0.58220714330673218 1 0.0002996856055688113
0.88602817058563232 0.99922788143157959 0.0011446784483268857
1 1 0
1 1 0.00037416943814605474
0.00013068703992757946 0.00011363309749867767 0.40124359726905823
0.16635605692863464 0 0.28209960460662842
0.43484011292457581 0 0.16261883080005646
0.67677813768386841 0.0024422141723334789 0.086000658571720123
0.93426519632339478 7.7789909482817166e-06 0.054782599210739136
0.99949485063552856 0.00043906416976824403 0.046853337436914444
0.98629295825958252 0.0012433369411155581 0.086351864039897919
0 0.24222800135612488 0.27815994620323181
0.085894778370857239 0.14485535025596619 0.17138171195983887
0.37296247482299805 0.077548190951347351 0.092002615332603455
0.64128142595291138 0.038786899298429489 0.044884998351335526
0.91305029392242432 0.039721619337797165 0.045113105326890945
1 0.039749279618263245 0.067088544368743896
0.99559259414672852 0.076336011290550232 0.092959381639957428
0 0.58641678094863892 0.13631440699100494
0.040074966847896576 0.45762306451797485 0.082365386188030243
0.31523317098617554 0.37658452987670898 0.031723666936159134
0.61891525983810425 0.31975987553596497 0.010882060043513775
0.90508365631103516 0.28757882118225098 0.014788295142352581
1 0.27328377962112427 0.039060182869434357
0.99908751249313354 0.28138801455497742 0.070506677031517029
8.7513646576553583e-05 0.92274850606918335 0.022516900673508644
0.03289482370018959 0.80374300479888916 0.0068596038036048412
0.26193651556968689 0.71558332443237305 0.0019641800317913294
0.60971415042877197 0.64679807424545288 0.00042604931513778865
0.9120449423789978 0.59490454196929932 0.003633835818618536
0.99996268749237061 0.54978412389755249 0.018914122134447098
0.99251049757003784 0.52098923921585083 0.071282558143138885
0.0011615080293267965 1 8.7513646576553583e-05
0.037136465311050415 1 0
0.22540411353111267 0.99309104681015015 0
0.57416212558746338 0.96063739061355591 0
0.91272354125976562 0.90856730937957764 0.00022262871789280325
1 0.83858412504196167 0.027335850521922112
0.99917489290237427 0.75115311145782471 0.061606835573911667
0.0010968376882374287 1 0
0.04913928359746933 1 0
0.22153641283512115 1 0
0.53769725561141968 1 0
0.88497763872146606 1 0.00027651319396682084
1 0.99986940622329712 0.0057479860261082649
0.99968552589416504 0.97140514850616455 0.040970131754875183
0.0042514125816524029 0.9954524040222168 0.0011009216541424394
0.07341437041759491 1 0
0.23176978528499603 1 0
0.49410009384155273 1 0
0.81268548965454102 0.99942845106124878 0.00086538278264924884
0.99967527389526367 0.99998056888580322 0.00030987308127805591
1 1 0.05759512260556221
0.0029624339658766985 0 0.7888978123664856
0.11454234272241592 0 0.64201474189758301
0.38712289929389954 0 0.47536763548851013
0.66800099611282349 0.0016800675075501204 0.37945032119750977
0.92829924821853638 0.0054874047636985779 0.31696358323097229
1 0.00049435487017035484 0.29808816313743591
0.99744880199432373 0 0.30572894215583801
0 0.10774499922990799 0.65644556283950806
0.024097951129078865 0.041677065193653107 0.51589226722717285
0.29559177160263062 0.022184409201145172 0.3941987156867981
0.61260014772415161 0.014783851802349091 0.33507898449897766
0.88533550500869751 0.021938083693385124 0.30583047866821289
1 0.01490313932299614 0.30650615692138672
0.99787557125091553 0.043872848153114319 0.31805780529975891
7.3122508183587343e-05 0.48359838128089905 0.51177299022674561
0.0011289708781987429 0.35847145318984985 0.38670840859413147
0.2288384735584259 0.29295805096626282 0.31724512577056885
0.56567531824111938 0.26225179433822632 0.28301361203193665
0.85178309679031372 0.25493010878562927 0.28096893429756165
1 0.25413620471954346 0.3089900016784668
0.99915051460266113 0.26116520166397095 0.32619428634643555
0.0022234299685806036 0.84299683570861816 0.37165269255638123
1.4959597137931269e-05 0.71920680999755859 0.28045013546943665
0.16375398635864258 0.64049160480499268 0.23196275532245636
0.53795349597930908 0.58263051509857178 0.21710655093193054
0.8444981575012207 0.5494459867477417 0.22758089005947113
0.99922436475753784 0.51981902122497559 0.29134839773178101
0.99922150373458862 0.50481605529785156 0.33108657598495483
0 1 0.22652851045131683
0 0.99552327394485474 0.1803901344537735
0.11714980006217957 0.96181797981262207 0.16925524175167084
0.49276608228683472 0.89387553930282593 0.14943912625312805
0.83565795421600342 0.84237927198410034 0.165953129529953
0.99883460998535156 0.76451694965362549 0.25295442342758179
1 0.71119093894958496 0.32617875933647156
0 1 0.14792391657829285
0.001798726967535913 1 0.12798053026199341
0.13119848072528839 1 0.12658685445785522
0.45356619358062744 1 0.12029953300952911
0.7928464412689209 0.99996232986450195 0.1437852680683136
0.99355900287628174 0.98321354389190674 0.20994523167610168
0.99976229667663574 0.92625033855438232 0.30233573913574219
0.0012992859119549394 0.99958008527755737 0.1308290958404541
0.034477263689041138 0.99940139055252075 0.12029975652694702
0.16727717220783234 0.99966549873352051 0.10604306310415268
0.42589071393013 0.99973535537719727 0.096443161368370056
0.74235457181930542 1 0.13562077283859253
0.98374044895172119 0.99996697902679443 0.1706530749797821
1 1 0.26598688960075378
0.0015118467854335904 0 1
0.070891842246055603 0 0.96522879600524902
0.29859155416488647 0.00076720293145626783 0.83733087778091431
0.62528330087661743 0.0067253261804580688 0.71825528144836426
0.91895836591720581 0.0087533090263605118 0.62710893154144287
1 0 0.57668012380599976
1 0 0.55879068374633789
0 0.0067406147718429565 0.98514807224273682
0.003528654808178544 4.607555820257403e-05 0.86419284343719482
0.1933039128780365 0 0.73882865905761719
0.55824309587478638 0.0008629293879494071 0.66646713018417358
0.86151719093322754 0.00093919341452419758 0.59411716461181641
0.99993151426315308 0.0092206019908189774 0.55477076768875122
0.99960404634475708 0.015526715666055679 0.54215759038925171
2.956016396638006e-05 0.33445703983306885 0.8997267484664917
0 0.22294780611991882 0.7508435845375061
0.10909688472747803 0.1755717545747757 0.651958167552948
0.50037181377410889 0.17877219617366791 0.60408741235733032
0.81437259912490845 0.18332946300506592 0.55777692794799805
0.99678629636764526 0.22867611050605774 0.54126822948455811
0.99983936548233032 0.25291192531585693 0.54654735326766968
0.00050757912686094642 0.72522741556167603 0.7543339729309082
0 0.6164059042930603 0.64280480146408081
0.082981795072555542 0.54577392339706421 0.57341313362121582
0.46378907561302185 0.51180309057235718 0.53043526411056519
0.77123188972473145 0.49560672044754028 0.51729500293731689
0.97147589921951294 0.49799907207489014 0.53442555665969849
0.99983936548233032 0.49959316849708557 0.55668056011199951
0 0.99874639511108398 0.6113131046295166
0 0.95538961887359619 0.53015989065170288
0.055413819849491119 0.89034676551818848 0.4939170777797699
0.41821298003196716 0.82107889652252197 0.473215252161026
0.75467449426651001 0.77110773324966431 0.47531178593635559
0.96830296516418457 0.72475802898406982 0.51190453767776489
1 0.69202697277069092 0.55254554748535156
0 1 0.49979880452156067
0 1 0.44981887936592102
0.082937724888324738 1 0.42847973108291626
0.40236780047416687 0.99970149993896484 0.42447629570960999
0.71565014123916626 0.98647558689117432 0.4414425790309906
0.96134418249130249 0.9412352442741394 0.48041367530822754
1 0.8885917067527771 0.52703088521957397
0 0.99868959188461304 0.42366641759872437
0.012160521931946278 0.9913516640663147 0.41175016760826111
0.12871162593364716 0.99519026279449463 0.39584895968437195
0.38270372152328491 0.99853211641311646 0.39147263765335083
0.67857152223587036 1 0.41166049242019653
0.94477134943008423 0.99967992305755615 0.44726532697677612
1 0.99989497661590576 0.49067071080207825
0 0 1
0.034664947539567947 0 1
0.22085477411746979 0.00017911125905811787 1
0.55144727230072021 0.0076389685273170471 0.98823970556259155
0.88147640228271484 0.0065849153324961662 0.93688303232192993
1 0 0.8677259087562561
1 0 0.81684517860412598
0 0 1
0.0001242843281943351 0 1
0.13409218192100525 0 0.99453186988830566
0.49038994312286377 0 0.97160631418228149
0.8205411434173584 0 0.89594477415084839
0.99713027477264404 0.004142372403293848 0.8267817497253418
1 0.019604895263910294 0.78093242645263672
0 0.17692692577838898 0.99992221593856812
0 0.10068872570991516 0.99457430839538574
0.044801615178585052 0.066766686737537384 0.95344424247741699
0.4180695116519928 0.094844788312911987 0.91308534145355225
0.76480585336685181 0.13257472217082977 0.83152294158935547
0.98281490802764893 0.19663408398628235 0.77882891893386841
1 0.23620225489139557 0.75586330890655518
0.0017414466710761189 0.58869439363479614 0.99970477819442749
0.007519950158894062 0.49298825860023499 0.97300142049789429
0.014600671827793121 0.42776477336883545 0.90369963645935059
0.35873731970787048 0.41562005877494812 0.8330458402633667
0.70777100324630737 0.43840920925140381 0.76713782548904419
0.94018232822418213 0.46536722779273987 0.74705219268798828
1 0.48536717891693115 0.74419242143630981
0 0.95363664627075195 0.96569597721099854
0 0.8605157732963562 0.87890493869781494
0.019443288445472717 0.77866119146347046 0.7922511100769043
0.32888790965080261 0.7389824390411377 0.76044601202011108
0.67438650131225586 0.70386463403701782 0.72173261642456055
0.91606402397155762 0.68897759914398193 0.71915543079376221
1 0.6797100305557251 0.73141050338745117
0 0.9999852180480957 0.85467445850372314
0 1 0.7655102014541626
0.050878517329692841 0.99765545129776001 0.709197998046875
0.33326253294944763 0.97528505325317383 0.68903625011444092
0.65020591020584106 0.93154442310333252 0.67415165901184082
0.90518009662628174 0.89775711297988892 0.68715149164199829
1 0.85992681980133057 0.70731127262115479
0 0.99647605419158936 0.72832471132278442
0.0021395813673734665 0.99305975437164307 0.69818991422653198
0.088870912790298462 0.99946153163909912 0.6620711088180542
0.34306243062019348 1 0.63695740699768066
0.63308769464492798 1 0.63631564378738403
0.88298934698104858 1 0.65224170684814453
0.99976575374603271 0.99924296140670776 0.67234987020492554
0 0 1
0.0087767504155635834 0 1
0.15731193125247955 0 1
0.48283496499061584 0.0022240134421736002 1
0.82558220624923706 0.0021201637573540211 1
0.99697601795196533 0 0.99999254941940308
0.9997977614402771 0.0015669130953028798 0.99038463830947876
0 0 1
0 0 1
0.088634774088859558 0 1
0.42463761568069458 0 1
0.77483302354812622 0 1
0.98172116279602051 0.0039885728619992733 0.99678909778594971
1 0.048403870314359665 0.95900434255599976
0 0.068086393177509308 0.98907524347305298
0 0.026544354856014252 1
0.023785639554262161 0.015353932045400143 1
0.34968209266662598 0.046994827687740326 1
0.70959842205047607 0.099669754505157471 0.99658042192459106
0.94266939163208008 0.15079271793365479 0.97599685192108154
1 0.22099477052688599 0.92581343650817871
0 0.46040162444114685 0.99886476993560791
0 0.37765190005302429 0.99875897169113159
0.023416496813297272 0.34036141633987427 1
0.31034943461418152 0.34633257985115051 0.99891716241836548
0.65472185611724854 0.37871214747428894 0.96197259426116943
0.90614253282546997 0.42081084847450256 0.93031036853790283
1 0.46215572953224182 0.89969271421432495
0 0.82785958051681519 0.99887925386428833
0 0.72959733009338379 1
0.032434966415166855 0.67512470483779907 0.99793386459350586
0.29796281456947327 0.65212368965148926 0.97712886333465576
0.61797362565994263 0.64120113849639893 0.92769473791122437
0.86258107423782349 0.65106725692749023 0.90434044599533081
0.99826949834823608 0.66213774681091309 0.88468247652053833
0 0.99992728233337402 0.99999642372131348
1.6754748912717332e-06 0.98430103063583374 0.99263197183609009
0.011695741675794125 0.95246732234954834 0.96392005681991577
0.29599842429161072 0.90921443700790405 0.92044550180435181
0.59820592403411865 0.86957228183746338 0.87839585542678833
0.83900952339172363 0.85312581062316895 0.86314129829406738
0.99493241310119629 0.83787631988525391 0.85862636566162109
0.00022134219761937857 0.99906212091445923 0.96596068143844604
0 0.99826997518539429 0.93836838006973267
0.047523662447929382 1 0.90986913442611694
0.31627532839775085 1 0.85783165693283081
0.590534508228302 0.99985331296920776 0.82974451780319214
0.82272779941558838 0.99888867139816284 0.82511347532272339
0.99186700582504272 0.99195164442062378 0.82527726888656616
0 0 0.99987614154815674
2.3336971935350448e-05 0 1
0.086578324437141418 0 1
0.41373440623283386 0.00026312435511499643 0.99744600057601929
0.76213330030441284 0 0.99846172332763672
0.9705016016960144 0 1
1 0.00529454555362463 1
0 0 0.99895310401916504
0 0 0.9999961256980896
0.049734257161617279 0 1
0.36690393090248108 0 0.99874699115753174
0.71955084800720215 0 0.99923765659332275
0.95381361246109009 0.002735332353040576 1
1 0.060326296836137772 0.99954819679260254
0 0.013206047937273979 0.99862009286880493
0 0.0031401091255247593 0.99852156639099121
0.008127833716571331 0.0011767817195504904 0.99967294931411743
0.30680054426193237 0.0248221755027771 0.99786412715911865
0.65831643342971802 0.072847671806812286 0.99878299236297607
0.89968806505203247 0.11468932032585144 1
1 0.20999440550804138 0.99204754829406738
0.00046187755651772022 0.35169216990470886 0.99829387664794922
0 0.29290083050727844 0.98776429891586304
0.020259976387023926 0.28350615501403809 0.99375498294830322
0.28218463063240051 0.30901414155960083 1
0.6141963005065918 0.33900019526481628 0.99997544288635254
0.86555451154708862 0.37523114681243896 0.9999769926071167
0.99989962577819824 0.42955094575881958 0.9896577000617981
0 0.6927868127822876 0.99663227796554565
0 0.64663338661193848 0.99564248323440552
0.040613643825054169 0.61181753873825073 0.99988782405853271
0.27774083614349365 0.5879284143447876 1
0.57565903663635254 0.58785605430603027 1
0.81482362747192383 0.60670566558837891 0.99978029727935791
0.98764204978942871 0.63010305166244507 0.99105805158615112
0 0.95200896263122559 0.99952739477157593
0.00056844973005354404 0.92189157009124756 0.99960827827453613
0.0088135367259383202 0.88750755786895752 0.99956083297729492
0.27061256766319275 0.82944267988204956 1
0.55618953704833984 0.80149054527282715 0.9983142614364624
0.78727799654006958 0.79993253946304321 0.99397331476211548
0.97305184602737427 0.80725407600402832 0.98639130592346191
0.0013471117708832026 1 1
0.0037802304141223431 1 1
0.04425334557890892 1 1
0.28427550196647644 0.99994397163391113 0.99968475103378296
0.54789453744888306 0.99172377586364746 0.9914734959602356
0.77079391479492188 0.98256969451904297 0.98414438962936401
0.96911990642547607 0.97557294368743896 0.97736531496047974
