assets/lut/toddblankenship naturalboost.cube
# Created by: G'MIC (https://gmic.eu)
TITLE "naturalboost"
# LUT size
LUT_3D_SIZE 13
# Data domain
DOMAIN_MIN 0.0 0.0 0.0
DOMAIN_MAX 1.0 1.0 1.0
# LUT data points
0.0089926328510046005 0.02132110670208931 0.026988834142684937
0.060105957090854645 0.0072821225039660931 0.024438580498099327
0.12851165235042572 0.0034339157864451408 0.018626119941473007
0.21089890599250793 3.4466913348296657e-05 0.017096994444727898
0.30498963594436646 6.7677217884920537e-05 0.011190586723387241
0.40243804454803467 0.00027109781512990594 0.0054292716085910797
0.49847027659416199 0 0.0041635851375758648
0.60102277994155884 0 0.0023452758323401213
0.71154385805130005 0 0.00037339155096560717
0.82468515634536743 0.00056708842748776078 0.00013535443576984107
0.92258173227310181 0.0033634710125625134 0.0005250818794593215
0.98123288154602051 0.0025676204822957516 0.0017629137728363276
0.99791288375854492 0.00015674665337428451 0.0090720532462000847
0.012976777739822865 0.096626356244087219 0.010711505077779293
0.062446519732475281 0.062990643084049225 0.0072856680490076542
0.12657709419727325 0.03558017686009407 0.0047953436151146889
0.20051589608192444 0.010202893987298012 0.0060231825336813927
0.28682515025138855 0.00099210557527840137 0.0044413846917450428
0.38169518113136292 0 0.00079056981485337019
0.48763909935951233 0 9.4245464424602687e-05
0.61142206192016602 0 3.5903033221984515e-06
0.74811995029449463 0 0
0.88260954618453979 0 0
0.97995889186859131 3.4197637432953343e-05 0
0.99997895956039429 1.3059728189546149e-05 0
1 0 0.00030610326211899519
0.019073545932769775 0.17814469337463379 0.0039295721799135208
0.065971493721008301 0.14001335203647614 0.0022486967500299215
0.12617652118206024 0.10192030668258667 0.00088112027151510119
0.19516509771347046 0.065622217953205109 0.00033614214044064283
0.27456957101821899 0.035926233977079391 0.00021441590797621757
0.36462521553039551 0.01150964479893446 1.7951516610992257e-06
0.47642198204994202 0.00083253148477524519 0
0.61784821748733521 0 0
0.77708011865615845 0 0
0.92676132917404175 2.8722426577587612e-05 0.00014157762052491307
0.99868154525756836 0.00095677096396684647 0
1 0.00089721678523346782 0
1 0.0016460344195365906 0
0.025611637160181999 0.25900310277938843 0.0017997442046180367
0.072793833911418915 0.22461333870887756 0.0011086856247857213
0.13187892735004425 0.18928875029087067 0.000640869140625
0.20050197839736938 0.15533801913261414 8.6167283370741643e-06
0.27858179807662964 0.12000419944524765 0
0.36865279078483582 0.081945933401584625 0
0.48337206244468689 0.046042066067457199 0
0.63017040491104126 0.021073166280984879 0
0.80053126811981201 0.0099992789328098297 0
0.9540330171585083 0.013391741551458836 0.00018708471907302737
1 0.024506349116563797 0
1 0.03154175728559494 0
0.9995502233505249 0.041988298296928406 2.1003274014219642e-05
0.032657831907272339 0.34084132313728333 0.00052436377154663205
0.083317779004573822 0.31263211369514465 0.00034466912620700896
0.14526233077049255 0.28360188007354736 0.0001904655946418643
0.21745751798152924 0.25458940863609314 0.00030541513115167618
0.29970255494117737 0.2247481644153595 0.00075544469291344285
0.39460510015487671 0.1921360045671463 4.0645223634783179e-05
0.51270502805709839 0.15270231664180756 0
0.66075128316879272 0.11206648498773575 0.00012660307402256876
0.83596348762512207 0.083398886024951935 0.00054452935000881553
0.97865003347396851 0.079883590340614319 3.6755729524884373e-05
1 0.097580403089523315 0
1 0.11681535094976425 0
0.9965025782585144 0.13937057554721832 0.0010725283063948154
0.037107057869434357 0.42269802093505859 0
0.093409836292266846 0.40067514777183533 0
0.16126236319541931 0.37840983271598816 2.3336971935350448e-05
0.23837985098361969 0.3555392324924469 0.0027875413652509451
0.32552042603492737 0.33129775524139404 0.004035022109746933
0.4262511134147644 0.3072536289691925 0.00099221023265272379
0.54912334680557251 0.2786162793636322 0.00038603239227086306
0.70081377029418945 0.24410301446914673 0.0015149584505707026
0.87448102235794067 0.21639001369476318 0.0015013451920822263
0.99273306131362915 0.2091687023639679 3.1504911021329463e-05
1 0.2270687073469162 0
1 0.2539975643157959 0
0.99771666526794434 0.28510111570358276 0.0010402455227449536
0.036063101142644882 0.50312727689743042 0
0.097789868712425232 0.48676154017448425 0
0.1720796525478363 0.47156301140785217 0
0.25420036911964417 0.4539247453212738 0.0014840069925412536
0.34482952952384949 0.43548497557640076 0.0034070333931595087
0.45116600394248962 0.41893273591995239 0.0023488660808652639
0.57837176322937012 0.4027920663356781 0.0021683936938643456
0.73209226131439209 0.38666209578514099 0.0032457837369292974
0.902293860912323 0.37536579370498657 0.0016497294418513775
0.99792689085006714 0.37538978457450867 0
1 0.39108783006668091 0
1 0.41911011934280396 0
0.99985963106155396 0.45206555724143982 0.00013418759044725448
0.02945149689912796 0.58378249406814575 0
0.09495062381029129 0.57183033227920532 0
0.17283159494400024 0.56126576662063599 0
0.25990608334541321 0.54907166957855225 5.2702660468639806e-05
0.35651105642318726 0.53665471076965332 0.00093581253895536065
0.46736589074134827 0.52736890316009521 0.0022965525276958942
0.59711247682571411 0.52258783578872681 0.0032615361269563437
0.75083959102630615 0.52272129058837891 0.0035194098018109798
0.91824221611022949 0.52795356512069702 0.00086580164497718215
0.9994468092918396 0.53935420513153076 0
1 0.55786526203155518 0
1 0.58190691471099854 0
1 0.60545462369918823 0.0012049656361341476
0.022946106269955635 0.66693407297134399 7.0010915806051344e-05
0.090436287224292755 0.65982389450073242 0
0.1714603453874588 0.6533055305480957 0
0.26273038983345032 0.64561015367507935 0
0.36406651139259338 0.63778173923492432 7.3122508183587343e-05
0.4780917763710022 0.63407570123672485 0.0014566159807145596
0.60951578617095947 0.63877451419830322 0.0024175157304853201
0.76151406764984131 0.65088039636611938 0.0022562961094081402
0.92367458343505859 0.66727620363235474 0.00047840792103670537
0.99962395429611206 0.68936848640441895 0
1 0.71372491121292114 0
1 0.73314887285232544 0
1 0.74456733465194702 0.00062776455888524652
0.022602126002311707 0.75693941116333008 2.1003274014219642e-05
0.092093542218208313 0.75332677364349365 0
0.1753578782081604 0.75060909986495972 0
0.2691386342048645 0.746837317943573 0
0.37230715155601501 0.74207037687301636 0
0.48666509985923767 0.7415395975112915 0.00029793533030897379
0.61801385879516602 0.75411844253540039 0.00058225746033713222
0.76828634738922119 0.77581828832626343 0.00043562345672398806
0.92157286405563354 0.79938989877700806 0.00011007271677954122
0.99832832813262939 0.8287397027015686 0
1 0.85670852661132812 0
1 0.87060463428497314 0
1 0.871956467628479 0
0.028766227886080742 0.8477935791015625 0
0.10056015849113464 0.84712755680084229 0
0.18554310500621796 0.84790432453155518 0
0.28069230914115906 0.84868192672729492 0
0.38347232341766357 0.8484606146812439 0
0.49451515078544617 0.85217618942260742 0
0.62005031108856201 0.87031304836273193 0
0.76136159896850586 0.89635390043258667 0
0.90353626012802124 0.92014461755752563 0.00023764815705362707
0.99098086357116699 0.94778090715408325 4.5507094910135493e-05
1 0.97043776512145996 0
1 0.97533822059631348 0
1 0.9732588529586792 5.4452932090498507e-05
0.038567472249269485 0.92812490463256836 4.6673944780195598e-06
0.11306221038103104 0.93022811412811279 0
0.19946295022964478 0.93453162908554077 0
0.29524430632591248 0.93995499610900879 0
0.39679327607154846 0.9450719952583313 0
0.50354564189910889 0.95288586616516113 0
0.62035191059112549 0.97019410133361816 0
0.75271338224411011 0.9858209490776062 0.00023057227372191846
0.89475369453430176 0.9925958514213562 0.00078925339039415121
0.99080801010131836 0.99808943271636963 0
1 1 0
1 1 1.7951516895209352e-07
1 1 0.0022259731777012348
0.050111208111047745 0.98797762393951416 0.0019350239308550954
0.1269209235906601 0.99034470319747925 0.00013088151172269136
0.21429377794265747 0.99324142932891846 0
0.30948644876480103 0.99598753452301025 0
0.40935912728309631 0.99800485372543335 0
0.51402097940444946 0.9994819164276123 6.3009822042658925e-05
0.62739503383636475 1 0.0011841568630188704
0.75428521633148193 1 0.0044113458134233952
0.88950067758560181 1 0.0044829575344920158
0.98614543676376343 1 0.00064273906173184514
1 1 0
1 1 0.00023357915051747113
1 1 0.0041526048444211483
0.0075850840657949448 0.020521426573395729 0.10836714506149292
0.05055917426943779 0.0059387506917119026 0.099863044917583466
0.1208074688911438 0.001456526224501431 0.08974120020866394
0.20647376775741577 1.4540728443535045e-05 0.083645887672901154
0.30171975493431091 0.0010151582537218928 0.077059201896190643
0.39846748113632202 0.0025443132035434246 0.067620567977428436
0.4936310350894928 0.00024542715982533991 0.064126200973987579
0.59073740243911743 0 0.05818093940615654
0.69455957412719727 3.8894952012924477e-05 0.050560731440782547
0.80383282899856567 0.0014888987643644214 0.045868352055549622
0.90316653251647949 0.0028169369325041771 0.047536347061395645
0.97032725811004639 0.00056420121109113097 0.057919833809137344
0.99671685695648193 0 0.083614259958267212
0.0047911847941577435 0.09564334899187088 0.080831475555896759
0.04627411812543869 0.061268959194421768 0.070963002741336823
0.11522094160318375 0.03396625816822052 0.057836182415485382
0.19630873203277588 0.012288935482501984 0.049306966364383698
0.28749358654022217 0.002334654564037919 0.04302654042840004
0.38385453820228577 0.00013526467955671251 0.03187020868062973
0.48743599653244019 0 0.023511100560426712
0.60353177785873413 0 0.018634257838129997
0.73092728853225708 0 0.01949780061841011
0.8601830005645752 0 0.019274916499853134
0.96457606554031372 5.6696871979511343e-06 0.015635427087545395
0.99928247928619385 1.6455557272365695e-07 0.021591441705822945
1 0 0.047715608030557632
0.0068862615153193474 0.18084850907325745 0.058980438858270645
0.047001872211694717 0.14086771011352539 0.048379037529230118
0.11085321754217148 0.10186780989170074 0.033683851361274719
0.18837767839431763 0.06635449081659317 0.020383363589644432
0.27569040656089783 0.038183636963367462 0.013654805719852448
0.37101763486862183 0.017840022221207619 0.0073612285777926445
0.48238208889961243 0.0053786034695804119 0.0018774892669171095
0.61573195457458496 0.0011916965013369918 0.00059061986394226551
0.76429635286331177 0.00033509498462080956 0.0027585946954786777
0.90718483924865723 0.00063005334232002497 0.0042081945575773716
0.99333304166793823 0.0014165242901071906 0.0031713149510324001
1 0.00083627138519659638 0.010827277787029743
0.99997472763061523 5.0862628995673731e-05 0.030861020088195801
0.01349201612174511 0.26636633276939392 0.044347949326038361
0.054599087685346603 0.22826296091079712 0.034594740718603134
0.11411122232675552 0.18932797014713287 0.022686244919896126
0.18992143869400024 0.15325775742530823 0.0080151278525590897
0.27686923742294312 0.11877229064702988 0.0012763527920469642
0.37371820211410522 0.086404629051685333 0.00018476598779670894
0.48995539546012878 0.059478264302015305 0
0.6328081488609314 0.039036858826875687 0
0.79393559694290161 0.028071638196706772 5.3151448810240254e-05
0.93940609693527222 0.029865892603993416 0.00035198437399230897
0.99931323528289795 0.037421762943267822 0.00097137154079973698
1 0.041986428201198578 0.0064394185319542885
0.99820011854171753 0.046994887292385101 0.028411610051989555
0.021514818072319031 0.35156580805778503 0.030263429507613182
0.06546127051115036 0.31827303767204285 0.023604299873113632
0.12548516690731049 0.28454446792602539 0.016859196126461029
0.20220278203487396 0.25133877992630005 0.0088439043611288071
0.29246550798416138 0.218883216381073 0.0026095670182257891
0.39328935742378235 0.1890980452299118 1.7278334780712612e-05
0.51320368051528931 0.16007387638092041 0
0.66078203916549683 0.13194297254085541 0
0.82755810022354126 0.11381936073303223 0
0.96643412113189697 0.1134745255112648 0
1 0.12724892795085907 0.00014299878966994584
1 0.14660759270191193 0.0028493395075201988
0.99527090787887573 0.16997192800045013 0.029644027352333069
0.025958910584449768 0.43610212206840515 0.016743918880820274
0.074387885630130768 0.4083215594291687 0.013190430589020252
0.13794189691543579 0.38006407022476196 0.011965299025177956
0.21731168031692505 0.35251301527023315 0.010969513095915318
0.31059062480926514 0.32593029737472534 0.0070040985010564327
0.41671758890151978 0.30322396755218506 0.00039233040297403932
0.54129040241241455 0.28192192316055298 0
0.69167840480804443 0.26011353731155396 0
0.85863739252090454 0.24547266960144043 0
0.9844173789024353 0.24545086920261383 0
1 0.26200374960899353 2.583522473287303e-05
1 0.28846579790115356 0.0022837768774479628
0.99817705154418945 0.32015112042427063 0.024199437350034714
0.023842440918087959 0.52078402042388916 0.0083951316773891449
0.076619438827037811 0.4974244236946106 0.0057625863701105118
0.14471866190433502 0.474630206823349 0.0054039899259805679
0.22740226984024048 0.45323595404624939 0.006689797155559063
0.32353606820106506 0.43378761410713196 0.0059196921065449715
0.43407145142555237 0.41893437504768372 0.0012208976550027728
0.56315040588378906 0.40758475661277771 0
0.71484524011611938 0.40013277530670166 0
0.88053113222122192 0.39833882451057434 0
0.99239277839660645 0.40346086025238037 0
1 0.41927900910377502 0.00036712345900014043
1 0.44506776332855225 0.0048103034496307373
0.99999880790710449 0.47405910491943359 0.024119418114423752
0.01723061315715313 0.60720676183700562 0.0062690135091543198
0.072821661829948425 0.58715367317199707 0.002047310583293438
0.1447439044713974 0.56893527507781982 0.00085286161629483104
0.2316734790802002 0.5525326132774353 0.0018009559717029333
0.33203375339508057 0.53972649574279785 0.0038911707233637571
0.4459349513053894 0.53149521350860596 0.0027007756289094687
0.57663244009017944 0.52994769811630249 0.00025121652288362384
0.7292855978012085 0.5354151725769043 0
0.89600062370300293 0.5462566614151001 0
0.99647963047027588 0.55988097190856934 0
1 0.57686936855316162 0.00089851830853149295
1 0.59781283140182495 0.0077625797130167484
1 0.61890184879302979 0.032520487904548645
0.012719457037746906 0.69760763645172119 0.0055191786959767342
0.069709628820419312 0.68170207738876343 0.00082195503637194633
0.14504373073577881 0.66748112440109253 2.6328891635785112e-06
0.23597000539302826 0.65569394826889038 0.00049761601258069277
0.33995732665061951 0.6468806266784668 0.0027502470184117556
0.45598599314689636 0.6432487964630127 0.003180141095072031
0.58609426021575928 0.6480063796043396 0.00073158415034413338
0.7354617714881897 0.66174733638763428 0
0.89863544702529907 0.68055516481399536 0
0.99676167964935303 0.70120704174041748 0.00014085957081988454
1 0.72197055816650391 0.0012508915970101953
1 0.73983824253082275 0.0068525574170053005
0.9994620680809021 0.75165092945098877 0.027700267732143402
0.014203867875039577 0.79216974973678589 0.0034399144351482391
0.074376709759235382 0.78097683191299438 0.00036926270695403218
0.15284627676010132 0.77150362730026245 0
0.24631042778491974 0.76421225070953369 0.00042043946450576186
0.35132116079330444 0.75810009241104126 0.0020064858254045248
0.46659791469573975 0.75648260116577148 0.00238037109375
0.5946839451789856 0.76458126306533813 0.00039918188122101128
0.73806285858154297 0.78353726863861084 0
0.89253008365631104 0.80658835172653198 6.1872895457781851e-05
0.99474823474884033 0.83015954494476318 0.0011158513370901346
1 0.85516488552093506 0.0016524670645594597
1 0.86969846487045288 0.00451634731143713
0.99946713447570801 0.87175506353378296 0.014395350590348244
0.022197214886546135 0.88403010368347168 0.0020861607044935226
0.087254978716373444 0.87735331058502197 0.00038028790731914341
0.16845937073230743 0.87353318929672241 9.215112186211627e-06
0.26337552070617676 0.87193065881729126 0.00014316334272734821
0.36686867475509644 0.86998444795608521 0.0010072446893900633
0.47752803564071655 0.86994427442550659 0.0013065711827948689
0.59958457946777344 0.87935471534729004 0.00036662979982793331
0.7344355583190918 0.9007832407951355 0.00012256398622412235
0.87841701507568359 0.92540478706359863 0.00062878179596737027
0.98759204149246216 0.94399487972259521 0.00051110959611833096
1 0.96323084831237793 0.0012548408703878522
1 0.97227627038955688 0.0052279154770076275
0.9999508261680603 0.96887552738189697 0.015352137386798859
0.035177700221538544 0.96172952651977539 0.0054894690401852131
0.10430824756622314 0.95946568250656128 0.0020829145796597004
0.18789288401603699 0.96047544479370117 0.0010380614548921585
0.28325298428535461 0.96489763259887695 0.00042645324720069766
0.38401702046394348 0.96719813346862793 0.0010650934418663383
0.48800289630889893 0.96842926740646362 0.0032113317865878344
0.60074299573898315 0.97575777769088745 0.0047170901671051979
0.72586935758590698 0.98769962787628174 0.0064768772572278976
0.8617100715637207 0.99626225233078003 0.0061812456697225571
0.9791872501373291 0.99858158826828003 0.00053829117678105831
1 0.99993693828582764 0.0013548159040510654
1 1 0.0088316230103373528
1 1 0.025012312456965446
0.049735095351934433 0.99917322397232056 0.017805764451622963
0.12167021632194519 0.999367356300354 0.011241329833865166
0.20592762529850006 0.99965614080429077 0.0071941749192774296
0.29958370327949524 0.99994993209838867 0.0050308974459767342
0.39763489365577698 1 0.006645621731877327
0.49823355674743652 1 0.012151471339166164
0.60657292604446411 1 0.018698165193200111
0.72671687602996826 1 0.022843260318040848
0.85694682598114014 1 0.019525326788425446
0.96803957223892212 1 0.0098897898569703102
0.99997860193252563 1 0.008265162818133831
1 1 0.016141913831233978
1 1 0.030297717079520226
0.0051221209578216076 0.022673243656754494 0.19529971480369568
0.040282920002937317 0.0062505085952579975 0.18669681251049042
0.1074458435177803 0.00052244897233322263 0.17739556729793549
0.19426295161247253 0 0.1715521365404129
0.28936263918876648 4.4729196815751493e-05 0.16750393807888031
0.38571998476982117 0.00032457837369292974 0.16104085743427277
0.48064395785331726 2.2559072021977045e-05 0.15904377400875092
0.57424598932266235 0 0.15683969855308533
0.67224043607711792 2.1781173927593045e-05 0.15700453519821167
0.77576196193695068 0.0012987024383619428 0.15654084086418152
0.87641757726669312 0.0020900203380733728 0.16251823306083679
0.9578363299369812 0 0.17814937233924866
0.99711304903030396 0 0.20108456909656525
0.00026708864606916904 0.096248865127563477 0.16938664019107819
0.02453511580824852 0.060444042086601257 0.15672776103019714
0.094276130199432373 0.029094800353050232 0.14269787073135376
0.18264350295066833 0.0066705592907965183 0.13006313145160675
0.27875378727912903 0.00029802508652210236 0.12149010598659515
0.37655448913574219 1.6455556988148601e-06 0.11138144135475159
0.47876197099685669 0 0.10391257703304291
0.58732980489730835 0 0.10103647410869598
0.70258468389511108 0 0.10699307173490524
0.819652259349823 0 0.11419177800416946
0.92513459920883179 8.8860004325397313e-05 0.1213754266500473
0.99003666639328003 1.8101112800650299e-05 0.14358198642730713
1 0 0.17762784659862518
0.00048623178736306727 0.18295179307460785 0.14455719292163849
0.023505296558141708 0.14062249660491943 0.12811501324176788
0.086426757276058197 0.097955323755741119 0.10848724097013474
0.17192685604095459 0.058808870613574982 0.089390173554420471
0.26832178235054016 0.030897311866283417 0.076839402318000793
0.36896747350692749 0.017004484310746193 0.065870530903339386
0.47951853275299072 0.0083546955138444901 0.054816272109746933
0.60335934162139893 0.0043100691400468349 0.050142563879489899
0.73598164319992065 0.0035035077016800642 0.063376441597938538
0.86715161800384521 0.0055198818445205688 0.074385702610015869
0.96747869253158569 0.0090534435585141182 0.083881407976150513
0.99870270490646362 0.0077010658569633961 0.11924758553504944
1 0.0038527245633304119 0.16537496447563171
0.0040231142193078995 0.27285891771316528 0.12121447175741196
0.033298090100288391 0.23066207766532898 0.10395839810371399
0.08919418603181839 0.18756949901580811 0.083344839513301849
0.17006397247314453 0.14738954603672028 0.061339464038610458
0.26606857776641846 0.11393923312425613 0.044424604624509811
0.37080883979797363 0.088452957570552826 0.031828112900257111
0.48871102929115295 0.069413222372531891 0.023493522778153419
0.62463831901550293 0.056157670915126801 0.025498064234852791
0.77224844694137573 0.050945296883583069 0.037785131484270096
0.90939849615097046 0.054553117603063583 0.05120888352394104
0.99132710695266724 0.063166208565235138 0.065411649644374847
1 0.068082936108112335 0.09924761950969696
0.99983781576156616 0.07001902163028717 0.15302392840385437
0.010619144886732101 0.36195525527000427 0.09579072892665863
0.044698752462863922 0.32342830300331116 0.081944830715656281
0.099881537258625031 0.28479048609733582 0.067533113062381744
0.17877677083015442 0.24769656360149384 0.051641218364238739
0.27546912431716919 0.21585372090339661 0.036121129989624023
0.38424223661422729 0.19137844443321228 0.018399706110358238
0.50806909799575806 0.17107266187667847 0.010567773133516312
0.65225541591644287 0.15428014099597931 0.014824586920440197
0.80941593647003174 0.14774174988269806 0.025358492508530617
0.94725412130355835 0.15313208103179932 0.038431655615568161
0.99944049119949341 0.16674153506755829 0.054537501186132431
1 0.18313203752040863 0.084224134683609009
0.99987590312957764 0.20284754037857056 0.14327040314674377
0.013918783515691757 0.45001012086868286 0.069931149482727051
0.052090708166360855 0.41604161262512207 0.061700887978076935
0.1096673384308815 0.38200259208679199 0.054856020957231522
0.18964524567127228 0.35075721144676208 0.047954410314559937
0.2885652482509613 0.32448166608810425 0.038447510451078415
0.40152186155319214 0.30476886034011841 0.022297728806734085
0.53085571527481079 0.28972098231315613 0.011005700565874577
0.67953228950500488 0.27920478582382202 0.010306729003787041
0.83976805210113525 0.27808037400245667 0.017656438052654266
0.97330945730209351 0.28607386350631714 0.031157055869698524
1 0.3018038272857666 0.050182957202196121
1 0.32446059584617615 0.079409793019294739
0.99998289346694946 0.35045170783996582 0.13683846592903137
0.010909345932304859 0.53930068016052246 0.051348172128200531
0.051864370703697205 0.50880962610244751 0.045365277677774429
0.11336439847946167 0.47935521602630615 0.042298275977373123
0.19658148288726807 0.4538218080997467 0.041793465614318848
0.29843094944953918 0.43421664834022522 0.039845172315835953
0.41540834307670593 0.42101848125457764 0.030720969662070274
0.54821443557739258 0.41399621963500977 0.017586981877684593
0.6978834867477417 0.41467630863189697 0.010316886007785797
0.85741859674453735 0.42284166812896729 0.013161917217075825
0.9835619330406189 0.43351152539253235 0.029918596148490906
1 0.44923964142799377 0.053337156772613525
1 0.47073069214820862 0.08467431366443634
1 0.49361702799797058 0.13468417525291443
0.0056907203979790211 0.63162416219711304 0.042824074625968933
0.046768728643655777 0.60401755571365356 0.034612469375133514
0.11213374137878418 0.57762473821640015 0.030588457360863686
0.1999327540397644 0.5572211742401123 0.034196577966213226
0.30600348114967346 0.54357814788818359 0.040326286107301712
0.42557305097579956 0.53632676601409912 0.03876495361328125
0.55864179134368896 0.53739827871322632 0.028166960924863815
0.70801687240600586 0.5474122166633606 0.017299233004450798
0.87026429176330566 0.56360363960266113 0.017216566950082779
0.98916900157928467 0.57916015386581421 0.032599594444036484
1 0.59427523612976074 0.055830426514148712
1 0.6126822829246521 0.087878160178661346
1 0.63094240427017212 0.13623356819152832
0.003554116003215313 0.72852641344070435 0.036875274032354355
0.044793073087930679 0.70423680543899536 0.028995513916015625
0.11396709084510803 0.68156582117080688 0.025900552049279213
0.20613183081150055 0.66544723510742188 0.031357739120721817
