assets/lut/toddblankenship softblackandwhite.cube
# Created by: G'MIC (https://gmic.eu)
TITLE "softblackandwhite"
# LUT size
LUT_3D_SIZE 13
# Data domain
DOMAIN_MIN 0.0 0.0 0.0
DOMAIN_MAX 1.0 1.0 1.0
# LUT data points
0.0011485680006444454 0.0022173863835632801 0.010212603025138378
0.00071738747647032142 0.0034168767742812634 0.01045780535787344
0.0034466164652258158 0.0099758077412843704 0.01515624113380909
0.011776015162467957 0.020450321957468987 0.023529486730694771
0.021976904943585396 0.033365301787853241 0.03345884382724762
0.035962872207164764 0.050483584403991699 0.046759676188230515
0.059645351022481918 0.076997973024845123 0.069574214518070221
0.098438069224357605 0.11798951029777527 0.10714446753263474
0.15324890613555908 0.17425133287906647 0.16102060675621033
0.21918480098247528 0.24120709300041199 0.2253173440694809
0.29243576526641846 0.31550288200378418 0.29644283652305603
0.36974260210990906 0.39384222030639648 0.3708956241607666
0.44745990633964539 0.47294127941131592 0.44502162933349609
0.011412437073886395 0.014520712196826935 0.024781530722975731
0.011235435493290424 0.016517879441380501 0.025416266173124313
0.016455601900815964 0.023633904755115509 0.030978558585047722
0.025562958791851997 0.034553393721580505 0.039775054901838303
0.036916501820087433 0.048030927777290344 0.050722967833280563
0.053819019347429276 0.066647566854953766 0.06653837114572525
0.081229507923126221 0.096426196396350861 0.092921271920204163
0.12280065566301346 0.1395314633846283 0.13328707218170166
0.17771126329898834 0.19534599781036377 0.18681161105632782
0.24251522123813629 0.26037666201591492 0.24972233176231384
0.31376704573631287 0.33177891373634338 0.3183128833770752
0.38919839262962341 0.40745449066162109 0.39040723443031311
0.46520212292671204 0.48433154821395874 0.46250748634338379
0.034347325563430786 0.039014074951410294 0.050989590585231781
0.035831913352012634 0.042233157902956009 0.052988763898611069
0.043641619384288788 0.051623564213514328 0.060770459473133087
0.054672989994287491 0.064243331551551819 0.071462459862232208
0.068056754767894745 0.079103030264377594 0.084184877574443817
0.08718562126159668 0.099604770541191101 0.10231083631515503
0.11873041838407516 0.13219039142131805 0.13240787386894226
0.16251276433467865 0.17697489261627197 0.17503689229488373
0.21653074026107788 0.23083412647247314 0.22726894915103912
0.27836638689041138 0.29208984971046448 0.28644859790802002
0.34564328193664551 0.35863927006721497 0.35068380832672119
0.41678011417388916 0.42933964729309082 0.41811177134513855
0.4894736111164093 0.50246554613113403 0.48660734295845032
0.076950311660766602 0.082353182137012482 0.096117608249187469
0.081403709948062897 0.08861956000328064 0.10090523213148117
0.092220976948738098 0.10103090852499008 0.11187607795000076
0.10598711669445038 0.1159181147813797 0.12516964972019196
0.12219928205013275 0.13308165967464447 0.14058227837085724
0.14401239156723022 0.15588736534118652 0.16147124767303467
0.17670540511608124 0.18918772041797638 0.19295123219490051
0.2200799435377121 0.23238584399223328 0.23441037535667419
0.27113473415374756 0.28277790546417236 0.2832942008972168
0.32815125584602356 0.33829110860824585 0.33736830949783325
0.38982614874839783 0.39855322241783142 0.39541453123092651
0.45550528168678284 0.46301382780075073 0.45694848895072937
0.52385640144348145 0.53092557191848755 0.52055823802947998
0.1489885002374649 0.1542375385761261 0.16951970756053925
0.15444707870483398 0.16157883405685425 0.17571152746677399
0.16661034524440765 0.17517416179180145 0.18788807094097137
0.18176589906215668 0.19164177775382996 0.20289203524589539
0.20021302998065948 0.21095740795135498 0.22057133913040161
0.22366032004356384 0.23511737585067749 0.24335509538650513
0.25514736771583557 0.26651951670646667 0.27335506677627563
0.29464346170425415 0.30548173189163208 0.31100696325302124
0.34068915247917175 0.35024762153625488 0.35466697812080383
0.39197641611099243 0.39955121278762817 0.40252405405044556
0.44736945629119873 0.45293515920639038 0.45393857359886169
0.50687038898468018 0.51005333662033081 0.50884193181991577
0.56907957792282104 0.57105457782745361 0.56583333015441895
0.25138932466506958 0.25481739640235901 0.27260410785675049
0.25445824861526489 0.26027119159698486 0.27659928798675537
0.26444551348686218 0.27210351824760437 0.28706049919128418
0.27878797054290771 0.28795292973518372 0.30155631899833679
0.29699894785881042 0.30718240141868591 0.31943193078041077
0.31991156935691833 0.33050063252449036 0.3415781557559967
0.34824481606483459 0.35879060626029968 0.36878734827041626
0.38268420100212097 0.39211079478263855 0.40116715431213379
0.42247685790061951 0.43024024367332458 0.43821436166763306
0.4671330451965332 0.47242826223373413 0.47942069172859192
0.51607990264892578 0.51850795745849609 0.52377265691757202
0.56839936971664429 0.56819754838943481 0.57129329442977905
0.62366688251495361 0.62097054719924927 0.62082070112228394
0.37192174792289734 0.37259453535079956 0.39268642663955688
0.37267589569091797 0.37592679262161255 0.39475014805793762
0.37901017069816589 0.38466659188270569 0.40218853950500488
0.3902549147605896 0.39784738421440125 0.41414430737495422
0.40621781349182129 0.41508007049560547 0.43018209934234619
0.42631417512893677 0.43573284149169922 0.44991055130958557
0.45033073425292969 0.45924240350723267 0.47273224592208862
0.47853249311447144 0.4861263632774353 0.49897670745849609
0.51135706901550293 0.51698470115661621 0.5292859673500061
0.54907143115997314 0.55214577913284302 0.56313169002532959
0.59113109111785889 0.59075522422790527 0.6006963849067688
0.63638931512832642 0.63262927532196045 0.64054560661315918
0.68420141935348511 0.67698627710342407 0.68246859312057495
0.49999135732650757 0.49760717153549194 0.52029675245285034
0.49842044711112976 0.49882268905639648 0.52059316635131836
0.50040912628173828 0.50363647937774658 0.52408969402313232
0.50756043195724487 0.51306194067001343 0.53229391574859619
0.51983362436294556 0.52706646919250488 0.5452684760093689
0.53629344701766968 0.54413819313049316 0.56153804063796997
0.55473899841308594 0.56186872720718384 0.57893800735473633
0.57587581872940063 0.5813823938369751 0.59845644235610962
0.60155034065246582 0.60465717315673828 0.62140244245529175
0.63250678777694702 0.63215017318725586 0.64871406555175781
0.66763454675674438 0.66357076168060303 0.67936581373214722
0.70614582300186157 0.69797629117965698 0.71235048770904541
0.74721366167068481 0.73481076955795288 0.74736088514328003
0.62717932462692261 0.62151128053665161 0.64690583944320679
0.62270456552505493 0.61976110935211182 0.64458775520324707
0.61932969093322754 0.6200987696647644 0.64332681894302368
0.6215364933013916 0.62469387054443359 0.64694565534591675
0.62975591421127319 0.63467252254486084 0.65617096424102783
0.64223760366439819 0.64760130643844604 0.66877937316894531
0.65459388494491577 0.65899491310119629 0.68055242300033569
0.66850382089614868 0.67112404108047485 0.69292891025543213
0.68754768371582031 0.68697643280029297 0.70915889739990234
0.71186292171478271 0.70743238925933838 0.73022407293319702
0.74122661352157593 0.73219966888427734 0.75523090362548828
0.77390778064727783 0.76004564762115479 0.78299576044082642
0.80920112133026123 0.79042625427246094 0.81243646144866943
0.74474030733108521 0.7359926700592041 0.76448178291320801
0.73656880855560303 0.73108714818954468 0.75850671529769897
0.72789454460144043 0.72590154409408569 0.75216686725616455
0.72473442554473877 0.72516041994094849 0.75049453973770142
0.72780507802963257 0.72990584373474121 0.75501865148544312
0.73523586988449097 0.73741024732589722 0.76270765066146851
0.74270415306091309 0.7438463568687439 0.76967579126358032
0.75148433446884155 0.75030785799026489 0.77715045213699341
0.7648855447769165 0.76006126403808594 0.78817898035049438
0.78328263759613037 0.77421241998672485 0.80383187532424927
0.80756187438964844 0.79259544610977173 0.8241611123085022
0.83593857288360596 0.81541723012924194 0.84837424755096436
0.8675653338432312 0.84081512689590454 0.87469083070755005
0.84262478351593018 0.8323359489440918 0.86242932081222534
0.83080989122390747 0.82398319244384766 0.85334336757659912
0.81873494386672974 0.81503140926361084 0.84372252225875854
0.81204098463058472 0.81018340587615967 0.83869940042495728
0.81088829040527344 0.81002217531204224 0.83880186080932617
0.81350702047348022 0.81227558851242065 0.84177225828170776
0.81738138198852539 0.81476283073425293 0.84530067443847656
0.8228108286857605 0.81768810749053955 0.84967285394668579
0.83174663782119751 0.82315397262573242 0.85651993751525879
0.84513181447982788 0.83208990097045898 0.86725759506225586
0.86339086294174194 0.84519201517105103 0.88242894411087036
0.8872368335723877 0.86268407106399536 0.90216594934463501
0.91512066125869751 0.8838733434677124 0.92555707693099976
0.90785247087478638 0.89904248714447021 0.92936950922012329
0.89899647235870361 0.89247030019760132 0.92256301641464233
0.88958859443664551 0.88493657112121582 0.91544193029403687
0.88323384523391724 0.879566490650177 0.91077923774719238
0.88075345754623413 0.87684845924377441 0.9090728759765625
0.88040250539779663 0.87567317485809326 0.90953689813613892
0.88227230310440063 0.8754311203956604 0.91042989492416382
0.88436776399612427 0.87566369771957397 0.91164296865463257
0.88914930820465088 0.8777502179145813 0.91535025835037231
0.89684051275253296 0.8822137713432312 0.92072188854217529
0.90848886966705322 0.89008110761642456 0.92945265769958496
0.92503219842910767 0.90169519186019897 0.94184249639511108
0.94644689559936523 0.91782468557357788 0.95790296792984009
0.94864273071289062 0.94323039054870605 0.9722633957862854
0.94760745763778687 0.9428144097328186 0.97267454862594604
0.94441032409667969 0.93970620632171631 0.97150284051895142
0.94148635864257812 0.93628674745559692 0.96988117694854736
0.93973636627197266 0.93344038724899292 0.96899509429931641
0.93840199708938599 0.9311482310295105 0.96862232685089111
0.93853336572647095 0.92897158861160278 0.96786850690841675
0.93886518478393555 0.92732435464859009 0.96740198135375977
0.93980133533477783 0.92672616243362427 0.96736019849777222
0.94243526458740234 0.92781120538711548 0.96757429838180542
0.94721889495849609 0.93126058578491211 0.96954643726348877
0.9555475115776062 0.937705397605896 0.97454017400741577
0.96934878826141357 0.94909083843231201 0.98250341415405273
2.3336972390097799e-06 0.0012689328286796808 0.0080445976927876472
1.9746669295273023e-06 0.0029452755115926266 0.0093734143301844597
0.0021931666415184736 0.010391594842076302 0.014934150502085686
0.011264546774327755 0.022024985402822495 0.024318350479006767
0.022706814110279083 0.035851124674081802 0.035373419523239136
0.036945715546607971 0.053215146064758301 0.048940487205982208
0.061132274568080902 0.079992853105068207 0.072132304310798645
0.099308505654335022 0.12033232301473618 0.10921325534582138
0.15180109441280365 0.17461866140365601 0.16083978116512299
0.21573862433433533 0.23982241749763489 0.22261209785938263
0.28745019435882568 0.3125133216381073 0.29180464148521423
0.36356437206268311 0.3901711106300354 0.36474767327308655
0.44044041633605957 0.46892991662025452 0.43761801719665527
0.0080843903124332428 0.013271346688270569 0.023126939311623573
0.0081639606505632401 0.015639690682291985 0.023485520854592323
0.01384627353399992 0.022930504754185677 0.029400590807199478
0.023529531434178352 0.034794136881828308 0.038900621235370636
0.036080110818147659 0.049237687140703201 0.050863109529018402
0.053812962025403976 0.068684853613376617 0.067354552447795868
0.08109842985868454 0.098019696772098541 0.093788042664527893
0.12144189327955246 0.1399478018283844 0.13277952373027802
0.17448210716247559 0.19375512003898621 0.18399649858474731
0.23710566759109497 0.25697165727615356 0.24468481540679932
0.30714744329452515 0.32724606990814209 0.3116723895072937
0.38127636909484863 0.40214014053344727 0.38226285576820374
0.45726117491722107 0.47909966111183167 0.4537106454372406
0.032214716076850891 0.03920307382941246 0.049668330699205399
0.032693944871425629 0.041589085012674332 0.050896603614091873
0.040138080716133118 0.050387855619192123 0.058085154742002487
0.051308739930391312 0.063052192330360413 0.068810209631919861
0.065951898694038391 0.079293660819530487 0.082756891846656799
0.08651299774646759 0.10110530257225037 0.10226370394229889
0.11734850704669952 0.1328715980052948 0.13169534504413605
0.15936265885829926 0.17562241852283478 0.17233097553253174
0.21174965798854828 0.22727923095226288 0.22224515676498413
0.27147063612937927 0.28682497143745422 0.27922925353050232
0.33735212683677673 0.35196802020072937 0.34173145890235901
0.40774542093276978 0.42225921154022217 0.40793392062187195
0.48095080256462097 0.49582755565643311 0.47608906030654907
0.07738698273897171 0.084946349263191223 0.096805542707443237
0.079104796051979065 0.088599488139152527 0.099265158176422119
0.08825790137052536 0.099314868450164795 0.10833041369915009
0.10157366096973419 0.11385299265384674 0.12108296155929565
0.11880537867546082 0.13154399394989014 0.13771888613700867
0.14145486056804657 0.15557168424129486 0.15925683081150055
0.17359854280948639 0.18788555264472961 0.18992455303668976
0.21534089744091034 0.22945581376552582 0.22976332902908325
0.26479864120483398 0.27801284193992615 0.27652707695960999
0.3201259970664978 0.33201956748962402 0.32879438996315002
0.38053828477859497 0.39048519730567932 0.3849787712097168
0.44567367434501648 0.45436117053031921 0.44516056776046753
0.51488828659057617 0.52330034971237183 0.50906884670257568
0.1503758579492569 0.15759310126304626 0.17107017338275909
0.15247373282909393 0.16163785755634308 0.17374712228775024
0.16212452948093414 0.17300887405872345 0.18354208767414093
0.17632414400577545 0.18821823596954346 0.19758166372776031
0.19491186738014221 0.20763808488845825 0.21535198390483856
0.21868737041950226 0.23233588039875031 0.23826706409454346
0.24995367228984833 0.26333320140838623 0.26810178160667419
0.28878363966941833 0.30121129751205444 0.30477875471115112
0.33382907509803772 0.34507638216018677 0.34681242704391479
0.38410499691963196 0.39290523529052734 0.39322724938392639
0.43868348002433777 0.44493624567985535 0.44324052333831787
0.49773871898651123 0.50173664093017578 0.49671050906181335
0.56069910526275635 0.56318598985671997 0.55379045009613037
0.25074654817581177 0.25621971487998962 0.27159574627876282
0.25151863694190979 0.25951841473579407 0.27364882826805115
0.25941357016563416 0.26922371983528137 0.28195029497146606
0.27258867025375366 0.28374853730201721 0.29508635401725769
0.29033005237579346 0.30241894721984863 0.31240075826644897
0.31314271688461304 0.32575061917304993 0.33458137512207031
0.34168720245361328 0.35395997762680054 0.3615453839302063
0.37594807147979736 0.38711294531822205 0.39367330074310303
0.41566562652587891 0.42486986517906189 0.43009817600250244
0.46013423800468445 0.46648380160331726 0.47030282020568848
0.50874000787734985 0.51204311847686768 0.51364260911941528
0.56107413768768311 0.56122088432312012 0.55999195575714111
0.6168021559715271 0.61399024724960327 0.6093255877494812
0.37000194191932678 0.3726344108581543 0.39054062962532043
0.36885061860084534 0.37427768111228943 0.39076641201972961
0.37322536110877991 0.3812611997127533 0.39626625180244446
0.38313436508178711 0.3931504487991333 0.40677031874656677
0.39851921796798706 0.40948569774627686 0.42209586501121521
0.41844481229782104 0.42985892295837402 0.44148361682891846
0.44275394082069397 0.4535515308380127 0.4644773006439209
0.47158238291740417 0.48080053925514221 0.49083957076072693
0.50518673658370972 0.51197892427444458 0.52101582288742065
0.54340851306915283 0.54721373319625854 0.5549389123916626
0.58574837446212769 0.58572244644165039 0.59151959419250488
0.63109910488128662 0.62711125612258911 0.63053983449935913
0.6789734959602356 0.67095082998275757 0.67199975252151489
0.49759933352470398 0.49657845497131348 0.51733183860778809
0.49415501952171326 0.49638786911964417 0.5157235860824585
0.49429655075073242 0.49965432286262512 0.51746690273284912
0.4997880756855011 0.5074303150177002 0.52411997318267822
0.51132619380950928 0.52031874656677246 0.53608489036560059
0.52727651596069336 0.53674685955047607 0.55184823274612427
0.54641026258468628 0.55505359172821045 0.56971019506454468
0.56893867254257202 0.5757749080657959 0.59001892805099487
0.59615623950958252 0.60015398263931274 0.61384385824203491
0.62837845087051392 0.62866830825805664 0.64140552282333374
0.66455638408660889 0.66026949882507324 0.67193830013275146
0.70330214500427246 0.69411700963973999 0.70393610000610352
0.74413704872131348 0.72956973314285278 0.73777002096176147
0.62400615215301514 0.61951702833175659 0.64309287071228027
0.61788207292556763 0.61693078279495239 0.63905125856399536
0.61301666498184204 0.61525470018386841 0.6362987756729126
0.61359876394271851 0.61846107244491577 0.6383015513420105
0.62077552080154419 0.62702858448028564 0.64634442329406738
0.63222265243530273 0.63864076137542725 0.65787410736083984
0.64583754539489746 0.65124547481536865 0.6704857349395752
0.66220742464065552 0.66521143913269043 0.68463993072509766
0.68305820226669312 0.68280577659606934 0.70239651203155518
0.70932567119598389 0.70458430051803589 0.72423648834228516
0.74007332324981689 0.7297789454460144 0.74910110235214233
0.7732120156288147 0.75690895318984985 0.77576488256454468
0.80838286876678467 0.78613048791885376 0.80391675233840942
0.73993313312530518 0.73265624046325684 0.75874537229537964
0.7309035062789917 0.72706705331802368 0.75227934122085571
0.7215503454208374 0.72095298767089844 0.74505615234375
0.71739029884338379 0.71892786026000977 0.74254494905471802
0.7195509672164917 0.72232002019882202 0.74593156576156616
0.72638905048370361 0.72906744480133057 0.75280678272247314
0.73522210121154785 0.73617231845855713 0.76081979274749756
0.74632793664932251 0.74454307556152344 0.77002555131912231
0.76164793968200684 0.75610750913619995 0.78251814842224121
0.78221237659454346 0.77149081230163574 0.79893434047698975
0.8078535795211792 0.79067343473434448 0.81904226541519165
0.83709412813186646 0.81247448921203613 0.84218376874923706
0.86819583177566528 0.83696579933166504 0.86676782369613647
0.83554810285568237 0.82663834095001221 0.85464084148406982
0.82520896196365356 0.81933140754699707 0.84699207544326782
0.8135915994644165 0.81052863597869873 0.83766394853591919
0.80645710229873657 0.80491960048675537 0.83234506845474243
0.80498528480529785 0.80386489629745483 0.83185946941375732
0.80770152807235718 0.8056340217590332 0.83476406335830688
0.81250274181365967 0.80860781669616699 0.83892250061035156
0.81977814435958862 0.81276649236679077 0.84440088272094727
0.8304716944694519 0.81938844919204712 0.85237300395965576
0.84581512212753296 0.82930779457092285 0.86375433206558228
0.86506211757659912 0.84289020299911499 0.87908256053924561
0.88997465372085571 0.86007809638977051 0.89813131093978882
0.91847056150436401 0.88081145286560059 0.91965949535369873
0.90362745523452759 0.8956565260887146 0.924308180809021
0.89568275213241577 0.88950037956237793 0.91870969533920288
0.88643628358840942 0.88162654638290405 0.91166692972183228
0.87986814975738525 0.8754315972328186 0.90660881996154785
0.87730872631072998 0.87215757369995117 0.90485298633575439
0.87753832340240479 0.87059646844863892 0.90516781806945801
0.87964749336242676 0.8704192042350769 0.90656495094299316
0.88383215665817261 0.87154281139373779 0.90915358066558838
0.8900492787361145 0.87437331676483154 0.91307002305984497
0.8988189697265625 0.87972915172576904 0.91933596134185791
0.91164994239807129 0.8882070779800415 0.92849653959274292
0.92941850423812866 0.90061855316162109 0.94110107421875
0.95241791009902954 0.91724801063537598 0.95746958255767822
0.95116555690765381 0.94508236646652222 0.97398298978805542
0.9477267861366272 0.94228684902191162 0.97262370586395264
0.94365352392196655 0.93782168626785278 0.97027844190597534
0.94021236896514893 0.93335980176925659 0.96826273202896118
0.93805301189422607 0.92989295721054077 0.96674132347106934
0.9376225471496582 0.92714053392410278 0.96599322557449341
0.93834489583969116 0.92514902353286743 0.96588373184204102
0.94025957584381104 0.92372506856918335 0.96618860960006714
0.94238156080245972 0.92384046316146851 0.96706974506378174
0.94548815488815308 0.92560195922851562 0.96829241514205933
0.95087957382202148 0.92992144823074341 0.97119754552841187
0.9597964882850647 0.93729215860366821 0.97603815793991089
0.97491288185119629 0.95013153553009033 0.98540514707565308
0 0.0029390372801572084 0.0096656950190663338
1.9746668840525672e-05 0.0057591907680034637 0.010976813733577728
0.0022294586524367332 0.013113897293806076 0.016512596979737282
0.011191618628799915 0.024684382602572441 0.025775805115699768
0.023702599108219147 0.03951658308506012 0.037823591381311417
0.040840595960617065 0.059091515839099884 0.054174087941646576
0.066838793456554413 0.08766695111989975 0.079343937337398529
0.10508041083812714 0.12801595032215118 0.11637759953737259
0.15551286935806274 0.18046198785305023 0.16556750237941742
0.21684226393699646 0.24342921376228333 0.22477374970912933
0.28594538569450378 0.31440088152885437 0.29111909866333008
0.36016875505447388 0.3903900682926178 0.36166638135910034
0.43590003252029419 0.4681834876537323 0.43296307325363159
0.0085186529904603958 0.016714312136173248 0.02455628290772438
0.0082900552079081535 0.018595527857542038 0.025154637172818184
0.013857867568731308 0.025858666747808456 0.030621996149420738
0.02391478605568409 0.037668924778699875 0.040297310799360275
0.037905074656009674 0.053583092987537384 0.053761828690767288
0.057596467435359955 0.074885152280330658 0.072435058653354645
0.086030192673206329 0.10516578704118729 0.099844522774219513
0.12582692503929138 0.14616100490093231 0.13817471265792847
0.17655952274799347 0.1980808824300766 0.18717984855175018
0.23669035732746124 0.25900870561599731 0.24490800499916077
0.30406725406646729 0.32709640264511108 0.30906060338020325
0.37690755724906921 0.4008011519908905 0.37767428159713745
0.45176494121551514 0.47688418626785278 0.44745177030563354
0.034784562885761261 0.044055383652448654 0.052818194031715393
0.034322582185268402 0.045557282865047455 0.05297628790140152
0.040576845407485962 0.053396634757518768 0.059218626469373703
0.05178973451256752 0.066201366484165192 0.070023946464061737
0.067988194525241852 0.083542875945568085 0.085324965417385101
0.090365469455718994 0.10712545365095139 0.10666141659021378
0.12120449542999268 0.13895894587039948 0.13631957769393921
0.16195973753929138 0.18009465932846069 0.17532336711883545
0.21190787851810455 0.22997669875621796 0.22281181812286377
0.26935631036758423 0.28735968470573425 0.27691277861595154
0.3333008885383606 0.35055112838745117 0.337323397397995
0.40240833163261414 0.41969582438468933 0.40179324150085449
0.47487014532089233 0.49307942390441895 0.4686826765537262
0.082098938524723053 0.091970629990100861 0.10172402113676071
0.081707596778869629 0.093697533011436462 0.10201431065797806
0.088839061558246613 0.10243120044469833 0.10913021862506866
0.10151540488004684 0.11617949604988098 0.12128711491823196
0.11928411573171616 0.135144904255867 0.13856904208660126
0.14367569983005524 0.15998414158821106 0.16152861714363098
0.17563022673130035 0.19217908382415771 0.19212372601032257
0.21583667397499084 0.23204153776168823 0.23020270466804504
0.26322361826896667 0.27878579497337341 0.27488121390342712
0.3171309232711792 0.33104774355888367 0.32486113905906677
0.37588921189308167 0.38811019062995911 0.37927791476249695
0.44009298086166382 0.45150801539421082 0.43794313073158264
0.50860756635665894 0.51948773860931396 0.50023370981216431
0.15561360120773315 0.16506411135196686 0.17606514692306519
0.15505298972129822 0.16667185723781586 0.17625457048416138
0.1620817631483078 0.17549030482769012 0.18362103402614594
0.17531390488147736 0.18970397114753723 0.19644838571548462
0.19354534149169922 0.208929643034935 0.21449777483940125
