assets/lut/toddblankenship hardboost.cube
# Created by: G'MIC (https://gmic.eu)
TITLE "hardboost"
# LUT size
LUT_3D_SIZE 5
# Data domain
DOMAIN_MIN 0.0 0.0 0.0
DOMAIN_MAX 1.0 1.0 1.0
# LUT data points
0.018588166683912277 0.013052472844719887 0.041301965713500977
0.22387754917144775 0.013402527198195457 0.013892214745283127
0.51489078998565674 0.017616691067814827 0.013143681921064854
0.96476662158966064 0.12644694745540619 0.029120964929461479
0.98553812503814697 0.18115702271461487 0.088661298155784607
0.013721855357289314 0.11485844105482101 0.013309568166732788
0.18337340652942657 0.11170466989278793 0.019810844212770462
0.48060274124145508 0.11411077529191971 0.018304996192455292
0.93138754367828369 0.16492980718612671 0.031654868274927139
0.9822239875793457 0.20161743462085724 0.07955893874168396
0.058019481599330902 0.48627790808677673 0.037677615880966187
0.30184632539749146 0.48346948623657227 0.043911684304475784
0.64730292558670044 0.49490061402320862 0.10339171439409256
0.95141708850860596 0.45543798804283142 0.095972217619419098
0.96479290723800659 0.28541389107704163 0.11005904525518417
0.29374158382415771 0.89545953273773193 0.21057632565498352
0.45583951473236084 0.88874155282974243 0.21451291441917419
0.75508970022201538 0.88775360584259033 0.17660172283649445
0.95183718204498291 0.85362088680267334 0.16717672348022461
0.98499363660812378 0.73500043153762817 0.22037091851234436
0.31940057873725891 0.96154707670211792 0.24036401510238647
0.42188385128974915 0.97099196910858154 0.21902419626712799
0.67723298072814941 0.96823805570602417 0.19675485789775848
0.89236229658126831 0.98058128356933594 0.16119144856929779
0.98803925514221191 0.96691310405731201 0.17494937777519226
0.017133122310042381 0.014165002852678299 0.3054049015045166
0.16673354804515839 0.017829086631536484 0.17873911559581757
0.42494380474090576 0.018903754651546478 0.11425236612558365
0.95272159576416016 0.062611885368824005 0.054836615920066833
0.9667963981628418 0.17496150732040405 0.1334185004234314
0.025381753221154213 0.12852999567985535 0.21234637498855591
0.10384003818035126 0.10552950203418732 0.12194999307394028
0.42950093746185303 0.098440177738666534 0.096393987536430359
0.90440380573272705 0.14961966872215271 0.096873924136161804
0.97415298223495483 0.21472139656543732 0.14220348000526428
0.077119983732700348 0.51379621028900146 0.301920086145401
0.20490865409374237 0.50003552436828613 0.22443687915802002
0.62184220552444458 0.51300913095474243 0.14598409831523895
0.91184443235397339 0.49171364307403564 0.17806932330131531
0.96253490447998047 0.31982633471488953 0.16552001237869263
0.28987449407577515 0.90093874931335449 0.32951781153678894
0.38478609919548035 0.86868810653686523 0.29485774040222168
0.70746141672134399 0.8633994460105896 0.26678350567817688
0.91807585954666138 0.83989930152893066 0.24745674431324005
0.98685771226882935 0.75584638118743896 0.25207781791687012
0.30141624808311462 0.96852117776870728 0.25447329878807068
0.33942580223083496 0.98250472545623779 0.24932286143302917
0.61768823862075806 0.97208058834075928 0.23286895453929901
0.88275247812271118 0.98136574029922485 0.20639298856258392
0.98190879821777344 0.97379839420318604 0.20124618709087372
0.01411361712962389 0.022207118570804596 0.56550782918930054
0.099583402276039124 0.030601171776652336 0.51610380411148071
0.35037383437156677 0.027795888483524323 0.36824086308479309
0.91564798355102539 0.05324014276266098 0.35256892442703247
0.96395814418792725 0.18581116199493408 0.24110715091228485
0.02261708490550518 0.22583866119384766 0.64418059587478638
0.084699831902980804 0.16478115320205688 0.54520201683044434
0.37581977248191833 0.1217159628868103 0.39960354566574097
0.86618447303771973 0.1415010541677475 0.36312228441238403
0.95384567975997925 0.23386545479297638 0.27264142036437988
0.14023721218109131 0.60236471891403198 0.78902310132980347
0.18917964398860931 0.57229232788085938 0.70258635282516479
0.52560925483703613 0.55042731761932373 0.57079720497131348
0.89544987678527832 0.54037034511566162 0.42204532027244568
0.94707083702087402 0.40782630443572998 0.2719329297542572
0.25667575001716614 0.90290743112564087 0.75444889068603516
0.33066269755363464 0.88196617364883423 0.72907966375350952
0.57195365428924561 0.88344764709472656 0.5994684100151062
0.91150504350662231 0.8614189624786377 0.42864593863487244
0.97713196277618408 0.78145343065261841 0.31616309285163879
0.2728830873966217 0.96315234899520874 0.61451810598373413
0.3030816912651062 0.97250998020172119 0.57981669902801514
0.5009685754776001 0.97938448190689087 0.4908243715763092
0.85010665655136108 0.97623902559280396 0.31606516242027283
0.97053104639053345 0.96457540988922119 0.24752478301525116
0.014020762406289577 0.12361940741539001 0.82972115278244019
0.045605320483446121 0.049901384860277176 0.85331958532333374
0.23817016184329987 0.045236386358737946 0.73489683866500854
0.8523937463760376 0.06754506379365921 0.81679290533065796
0.98075944185256958 0.22763554751873016 0.66838198900222778
0.034364856779575348 0.35242065787315369 0.90561848878860474
0.11105264723300934 0.32914459705352783 0.89369106292724609
0.19164034724235535 0.21021035313606262 0.86323630809783936
0.81007093191146851 0.19889681041240692 0.79971206188201904
0.98155635595321655 0.25426104664802551 0.67711120843887329
0.25521636009216309 0.68817591667175293 0.91627985239028931
0.30901417136192322 0.66100633144378662 0.89835262298583984
0.35271930694580078 0.61782664060592651 0.89366227388381958
0.86289197206497192 0.60172581672668457 0.87866443395614624
0.98378473520278931 0.50626927614212036 0.71960639953613281
0.26388230919837952 0.92847228050231934 0.93159478902816772
0.34184840321540833 0.89760035276412964 0.89899122714996338
0.41113987565040588 0.89668375253677368 0.90285849571228027
0.84786975383758545 0.8788420557975769 0.88587749004364014
0.98246800899505615 0.81690609455108643 0.71441620588302612
0.24326114356517792 0.96306174993515015 0.88576054573059082
0.27989771962165833 0.97554343938827515 0.88325673341751099
0.34187430143356323 0.97398710250854492 0.87340867519378662
0.73965835571289062 0.98555082082748413 0.78679114580154419
0.97972792387008667 0.97612053155899048 0.60029047727584839
0.016996031627058983 0.28092944622039795 0.94181042909622192
0.047099947929382324 0.20029552280902863 0.96826136112213135
0.13455955684185028 0.06709849089384079 0.92790472507476807
0.54246526956558228 0.05110594630241394 0.91034948825836182
0.9761384129524231 0.27979364991188049 0.97583234310150146
0.16609889268875122 0.46320495009422302 0.96574950218200684
0.18643909692764282 0.42468076944351196 0.96957695484161377
0.22406505048274994 0.34860822558403015 0.94531291723251343
0.56651860475540161 0.28087541460990906 0.94757920503616333
0.9819759726524353 0.30952227115631104 0.97800570726394653
0.29677104949951172 0.70975399017333984 0.95332181453704834
0.33236700296401978 0.69506454467773438 0.96682441234588623
0.37744253873825073 0.66996169090270996 0.96626776456832886
0.59555912017822266 0.6239694356918335 0.96686118841171265
0.98135209083557129 0.59078812599182129 0.98331165313720703
0.31032606959342957 0.88320481777191162 0.96874374151229858
0.34756684303283691 0.88412380218505859 0.97806155681610107
0.4007524847984314 0.88104289770126343 0.97728240489959717
0.56096833944320679 0.87884443998336792 0.97158730030059814
0.98454052209854126 0.84088432788848877 0.98617434501647949
0.24616925418376923 0.97584915161132812 0.97831505537033081
0.27040550112724304 0.97727388143539429 0.98234272003173828
0.31858271360397339 0.97507935762405396 0.97818458080291748
0.43620702624320984 0.97363913059234619 0.9732898473739624
0.95930862426757812 0.98632681369781494 0.9818497896194458
