assets/lut/toddblankenship coldchrome.cube
# Created by: G'MIC (https://gmic.eu)
TITLE "coldchrome"
# LUT size
LUT_3D_SIZE 5
# Data domain
DOMAIN_MIN 0.0 0.0 0.0
DOMAIN_MAX 1.0 1.0 1.0
# LUT data points
0.035133033990859985 0.025782341137528419 0.022122357040643692
0.44677945971488953 0.0014019685331732035 0
0.88662362098693848 0.0013358471915125847 0.00030007454915903509
1 0.0008373035816475749 0
1 0.0064289020374417305 0
0.029579088091850281 0.32015794515609741 0.008807104080915451
0.24733720719814301 0.23652911186218262 0
0.50364404916763306 0.21665112674236298 6.6704844357445836e-05
0.86133795976638794 0.20536907017230988 0
1 0.19611217081546783 0
0.0295588169246912 0.6513831615447998 0
0.25197815895080566 0.55700641870498657 0
0.50941115617752075 0.48960033059120178 0.0042629917152225971
0.79497319459915161 0.50375545024871826 0.0042096604593098164
1 0.50284868478775024 0.0069535649381577969
0.039090055972337723 0.99823296070098877 0.0045850416645407677
0.25530466437339783 0.95973187685012817 0.00010927985567832366
0.5340467095375061 0.86334174871444702 0.00046431596274487674
0.81310504674911499 0.79939240217208862 0.0029342651832848787
1 0.78247374296188354 0.014572263695299625
0.11861974745988846 1 0.062358811497688293
0.30698183178901672 1 0.014278247021138668
0.53129690885543823 1 0
0.80027323961257935 1 0.0013265273300930858
0.99415642023086548 0.99805200099945068 0.0031642690300941467
0.011313075199723244 0.0057059344835579395 0.2413097470998764
0.25679993629455566 0.001773205935023725 0.15987537801265717
0.94378829002380371 1.0501637007109821e-05 0.048686321824789047
0.99973046779632568 0.0010085910325869918 0
0.99971050024032593 8.9398548880126327e-05 0
0 0.22505442798137665 0.20778602361679077
0.081917107105255127 0.11316961795091629 0.1130167618393898
0.56298041343688965 0.1354115754365921 0.050837066024541855
0.97147059440612793 0.20742045342922211 0.1095011830329895
0.99961280822753906 0.10405511409044266 0.031915940344333649
0.01416594535112381 0.54722028970718384 0.19728989899158478
0.20756427943706512 0.45415875315666199 0.16749702394008636
0.48159694671630859 0.47611033916473389 0.23884280025959015
0.80744314193725586 0.5513121485710144 0.29215368628501892
1 0.49644073843955994 0.17818312346935272
0.028187844902276993 0.97771203517913818 0.26291123032569885
0.36455586552619934 0.83662605285644531 0.31180864572525024
0.58183377981185913 0.85465490818023682 0.27279895544052124
0.83283799886703491 0.8398977518081665 0.28962013125419617
1 0.77492254972457886 0.22852911055088043
0.076985977590084076 1 0.31046727299690247
0.32802832126617432 1 0.27168303728103638
0.532562255859375 1 0.19310525059700012
0.79765105247497559 1 0.2126077264547348
0.9911646842956543 0.99991363286972046 0.19931444525718689
0.020083962008357048 0.0010864257346838713 0.48239681124687195
0.14838489890098572 0.030271971598267555 0.347850501537323
0.42709657549858093 0.11966294050216675 0.32842081785202026
0.98489367961883545 0.022517574951052666 0.35598289966583252
0.99996966123580933 0.00039719225605949759 0.34561669826507568
0.0096713947132229805 0.20366278290748596 0.46584948897361755
0.16342227160930634 0.16694910824298859 0.34595373272895813
0.47878104448318481 0.33077117800712585 0.35707122087478638
0.98618441820144653 0.26833298802375793 0.43479150533676147
1 0.023820854723453522 0.33060789108276367
0.018186306580901146 0.49574729800224304 0.4881649911403656
0.2696107029914856 0.49538221955299377 0.49105903506278992
0.61496341228485107 0.62464570999145508 0.60545521974563599
0.9499887228012085 0.58146744966506958 0.56284421682357788
0.99952900409698486 0.42157188057899475 0.41509822010993958
0.019883129745721817 0.90610051155090332 0.57570916414260864
0.38424268364906311 0.88923066854476929 0.62435060739517212
0.64984750747680664 0.94530057907104492 0.64753204584121704
0.88237506151199341 0.88650375604629517 0.62722647190093994
0.99994397163391113 0.76591533422470093 0.48889890313148499
0.033820644021034241 1 0.58651399612426758
0.33047115802764893 1 0.57717597484588623
0.56058663129806519 1 0.53780192136764526
0.7930719256401062 1 0.51034390926361084
0.9951363205909729 0.99511039257049561 0.4730360209941864
0.02441832609474659 0 0.76156318187713623
0.20656001567840576 0.068660303950309753 0.63883125782012939
0.41321393847465515 0.30359005928039551 0.50900560617446899
0.63079619407653809 0.45883211493492126 0.51599311828613281
0.94962304830551147 0.2972463071346283 0.60069531202316284
0.0063754809089004993 0.21021036803722382 0.76344913244247437
0.26880553364753723 0.27181419730186462 0.69851219654083252
0.54408115148544312 0.47435736656188965 0.6605108380317688
0.74965846538543701 0.64351135492324829 0.64937674999237061
0.98994463682174683 0.35712215304374695 0.67936313152313232
0.025088576599955559 0.50522387027740479 0.79071426391601562
0.31648024916648865 0.54898190498352051 0.78188973665237427
0.63206809759140015 0.64201730489730835 0.84635210037231445
0.87866127490997314 0.76967900991439819 0.80411320924758911
0.9994882345199585 0.47244518995285034 0.71237516403198242
0.029325926676392555 0.8336988091468811 0.8189464807510376
0.3517729640007019 0.86358237266540527 0.8584476113319397
0.64085632562637329 0.90060746669769287 0.89850777387619019
0.89147794246673584 0.89373886585235596 0.87799954414367676
1 0.71694040298461914 0.71971249580383301
0.027572063729166985 1 0.84101784229278564
0.3014644980430603 1 0.83974993228912354
0.54962253570556641 1 0.81556683778762817
0.78433710336685181 1 0.78450942039489746
0.98222464323043823 0.97988975048065186 0.72572612762451172
0.025426797568798065 0.00023570340999867767 0.97932106256484985
0.24009478092193604 0.065234176814556122 0.92906320095062256
0.47283837199211121 0.30656313896179199 0.72332799434661865
0.64095497131347656 0.53728771209716797 0.64483505487442017
0.74701356887817383 0.60628849267959595 0.65004342794418335
0.018405390903353691 0.21808198094367981 0.98449093103408813
0.25051054358482361 0.2341315895318985 0.98951399326324463
0.52732318639755249 0.37361690402030945 0.89579373598098755
0.74013680219650269 0.62839394807815552 0.77879607677459717
0.83369165658950806 0.70441907644271851 0.76204103231430054
0.014468981884419918 0.50314140319824219 0.9985470175743103
0.22735150158405304 0.49941220879554749 0.99548953771591187
0.51190280914306641 0.51403069496154785 0.99638986587524414
0.78853029012680054 0.69265878200531006 0.92390280961990356
0.90905821323394775 0.80148071050643921 0.86763906478881836
0.0040572220459580421 0.77930891513824463 1
0.22125644981861115 0.77269774675369263 0.99853873252868652
0.49552503228187561 0.76532679796218872 0.9985387921333313
0.76407843828201294 0.7775072455406189 0.99640399217605591
0.96081483364105225 0.88057106733322144 0.9417303204536438
0.021003708243370056 0.99993681907653809 0.99996966123580933
0.2265114039182663 0.99977362155914307 0.99922412633895874
0.47941434383392334 0.99349850416183472 0.99685549736022949
0.73337513208389282 0.98741281032562256 0.99198311567306519
0.97002112865447998 0.98093307018280029 0.96832084655761719
