assets/lut/toddblankenship hardboost.cube
# Created by: G'MIC (https://gmic.eu)
TITLE "hardboost"
# LUT size
LUT_3D_SIZE 13
# Data domain
DOMAIN_MIN 0.0 0.0 0.0
DOMAIN_MAX 1.0 1.0 1.0
# LUT data points
0.018588166683912277 0.013052472844719887 0.041301965713500977
0.10745318233966827 0.013083199970424175 0.016443828120827675
0.17869797348976135 0.014347675256431103 0.013392997905611992
0.22387754917144775 0.013402527198195457 0.013892214745283127
0.26962712407112122 0.013355853967368603 0.0134735107421875
0.35833817720413208 0.013339517638087273 0.013141153380274773
0.51489078998565674 0.017616691067814827 0.013143681921064854
0.70748156309127808 0.036965135484933853 0.014454830437898636
0.88281363248825073 0.072034679353237152 0.017294222488999367
0.96476662158966064 0.12644694745540619 0.029120964929461479
0.97417104244232178 0.1463925838470459 0.049280069768428802
0.98057055473327637 0.16379310190677643 0.069007053971290588
0.98553812503814697 0.18115702271461487 0.088661298155784607
0.015575813129544258 0.048984527587890625 0.017469653859734535
0.073346473276615143 0.041981998831033707 0.013501440174877644
0.16259410977363586 0.042119342833757401 0.013834455981850624
0.21876657009124756 0.042804732918739319 0.014988663606345654
0.26761168241500854 0.043106753379106522 0.013760166242718697
0.36035475134849548 0.042745418846607208 0.013375690206885338
0.51614600419998169 0.042876001447439194 0.014502850361168385
0.69519466161727905 0.055851791054010391 0.019476678222417831
0.86221879720687866 0.093626134097576141 0.024622360244393349
0.95462530851364136 0.13748161494731903 0.033412095159292221
0.97144263982772827 0.15605661273002625 0.051453098654747009
0.98293840885162354 0.17003265023231506 0.067404262721538544
0.98802798986434937 0.17951643466949463 0.078601181507110596
0.014658250845968723 0.083457633852958679 0.014527788385748863
0.05023752897977829 0.073908589780330658 0.01314812432974577
0.13011081516742706 0.073920518159866333 0.015615515410900116
0.19913206994533539 0.074489682912826538 0.01818695105612278
0.25880563259124756 0.075647942721843719 0.016046755015850067
0.34583684802055359 0.07541261613368988 0.015308918431401253
0.48958671092987061 0.077139250934123993 0.016987640410661697
0.66918039321899414 0.084645338356494904 0.024078279733657837
0.84115666151046753 0.11091736704111099 0.027654446661472321
0.9481012225151062 0.14869329333305359 0.032384566962718964
0.96628081798553467 0.16718427836894989 0.050914809107780457
0.98313945531845093 0.17984610795974731 0.065844245254993439
0.98979860544204712 0.18438711762428284 0.073277205228805542
0.013721855357289314 0.11485844105482101 0.013309568166732788
0.044936161488294601 0.11045675724744797 0.013429365120828152
0.099401570856571198 0.10966327041387558 0.015305612236261368
0.18337340652942657 0.11170466989278793 0.019810844212770462
0.25830376148223877 0.11365636438131332 0.018894374370574951
0.35088548064231873 0.11274382472038269 0.01853383332490921
0.48060274124145508 0.11411077529191971 0.018304996192455292
0.65608847141265869 0.11985735595226288 0.02575187012553215
0.82634520530700684 0.13688544929027557 0.027788963168859482
0.93138754367828369 0.16492980718612671 0.031654868274927139
0.96517503261566162 0.18190091848373413 0.044950671494007111
0.98002505302429199 0.19350293278694153 0.062514223158359528
0.9822239875793457 0.20161743462085724 0.07955893874168396
0.014837676659226418 0.18255840241909027 0.014149040915071964
0.048112306743860245 0.18475222587585449 0.01487287599593401
0.10184619575738907 0.18571338057518005 0.014701140113174915
0.18982116878032684 0.18586514890193939 0.018953884020447731
0.27919945120811462 0.1848672479391098 0.019834989681839943
0.38303491473197937 0.1804300844669342 0.020787123590707779
0.51836687326431274 0.17808997631072998 0.021227354183793068
0.67163538932800293 0.1703418493270874 0.026696657761931419
0.81966483592987061 0.17222480475902557 0.027741855010390282
0.91982120275497437 0.18614396452903748 0.028911052271723747
0.96946889162063599 0.19582444429397583 0.035846620798110962
0.97742605209350586 0.20797832310199738 0.059253275394439697
0.97343248128890991 0.22003263235092163 0.084215991199016571
0.020175321027636528 0.30357006192207336 0.016350660473108292
0.063383124768733978 0.30709493160247803 0.018993407487869263
0.1224600076675415 0.3116491436958313 0.017803745344281197
0.23212864995002747 0.32343500852584839 0.025462804362177849
0.33842408657073975 0.32503277063369751 0.024895986542105675
0.44883352518081665 0.3258768618106842 0.027844253927469254
0.58401918411254883 0.32773593068122864 0.033640004694461823
0.73026007413864136 0.32275271415710449 0.045136649161577225
0.85981261730194092 0.29442694783210754 0.039308510720729828
0.93627482652664185 0.26104214787483215 0.038254279643297195
0.96811455488204956 0.23808351159095764 0.046392865478992462
0.9681016206741333 0.23697003722190857 0.074004650115966797
0.96504712104797363 0.24642233550548553 0.096472479403018951
0.058019481599330902 0.48627790808677673 0.037677615880966187
0.12145243585109711 0.47720164060592651 0.051626630127429962
0.19527977705001831 0.47261369228363037 0.040548525750637054
0.30184632539749146 0.48346948623657227 0.043911684304475784
0.41648039221763611 0.49005201458930969 0.055347546935081482
0.5305439829826355 0.49733725190162659 0.081903137266635895
0.64730292558670044 0.49490061402320862 0.10339171439409256
0.80994880199432373 0.49780634045600891 0.080862872302532196
0.92408114671707153 0.47724771499633789 0.066146478056907654
0.95141708850860596 0.45543798804283142 0.095972217619419098
0.96680730581283569 0.38203197717666626 0.09638628363609314
0.9649779200553894 0.30921006202697754 0.10023073852062225
0.96479290723800659 0.28541389107704163 0.11005904525518417
0.15486286580562592 0.66124570369720459 0.1092180609703064
0.20047137141227722 0.64818662405014038 0.12016543000936508
0.27565917372703552 0.64353072643280029 0.11793868243694305
0.37351614236831665 0.64415687322616577 0.12388169765472412
0.47576391696929932 0.64041519165039062 0.14548380672931671
0.57065218687057495 0.63191789388656616 0.176472008228302
0.70200353860855103 0.64585036039352417 0.15746773779392242
0.88065469264984131 0.67266613245010376 0.10186465084552765
0.93224024772644043 0.64995622634887695 0.11455069482326508
0.95002263784408569 0.62669241428375244 0.14687515795230865
0.96257197856903076 0.57784497737884521 0.16147604584693909
0.9713287353515625 0.50006675720214844 0.15830850601196289
0.97650974988937378 0.41946262121200562 0.1455523818731308
0.22431980073451996 0.84297740459442139 0.14890779554843903
0.24966335296630859 0.83423793315887451 0.14957423508167267
0.32943105697631836 0.82667875289916992 0.15869162976741791
0.42799556255340576 0.81340062618255615 0.16941003501415253
0.52311241626739502 0.79328453540802002 0.18272493779659271
0.61188673973083496 0.77479392290115356 0.1851123720407486
0.75169605016708374 0.79258131980895996 0.15192186832427979
0.90632116794586182 0.82246112823486328 0.11258485168218613
0.9322274923324585 0.78621107339859009 0.14063431322574615
0.94818121194839478 0.74990677833557129 0.16730128228664398
0.95944488048553467 0.7097785472869873 0.18797808885574341
0.97405260801315308 0.66459864377975464 0.19816011190414429
0.98375749588012695 0.60578376054763794 0.19885450601577759
0.29374158382415771 0.89545953273773193 0.21057632565498352
0.31955596804618835 0.89481586217880249 0.21075813472270966
0.37844449281692505 0.89969998598098755 0.22158166766166687
0.45583951473236084 0.88874155282974243 0.21451291441917419
0.54177278280258179 0.88167673349380493 0.20632302761077881
0.63632547855377197 0.88179653882980347 0.19916130602359772
0.75508970022201538 0.88775360584259033 0.17660172283649445
0.88963800668716431 0.91471505165100098 0.14230722188949585
0.93642377853393555 0.89622014760971069 0.14611825346946716
0.95183718204498291 0.85362088680267334 0.16717672348022461
0.95972704887390137 0.81048750877380371 0.19135026633739471
0.97228544950485229 0.77336466312408447 0.20998969674110413
0.98499363660812378 0.73500043153762817 0.22037091851234436
0.35075697302818298 0.91772949695587158 0.26695460081100464
0.36248436570167542 0.91957312822341919 0.25833550095558167
0.39530986547470093 0.9254910945892334 0.24710704386234283
0.46159860491752625 0.92353719472885132 0.23573467135429382
0.54262799024581909 0.92117458581924438 0.22998778522014618
0.63171684741973877 0.92512452602386475 0.22635196149349213
0.73801827430725098 0.93073415756225586 0.2100999653339386
0.83830827474594116 0.93743199110031128 0.18639145791530609
0.9123075008392334 0.94476586580276489 0.16566863656044006
0.95019060373306274 0.93739372491836548 0.16583807766437531
0.96283411979675293 0.89789432287216187 0.18293432891368866
0.97299855947494507 0.85977786779403687 0.20675750076770782
0.98509591817855835 0.83475595712661743 0.2231965959072113
0.34372511506080627 0.939369797706604 0.26228892803192139
0.35035461187362671 0.93924885988235474 0.25987029075622559
0.38006100058555603 0.9455905556678772 0.24095135927200317
0.44771456718444824 0.94615066051483154 0.23229248821735382
0.52652078866958618 0.94367456436157227 0.23327413201332092
0.61070948839187622 0.94409912824630737 0.22867639362812042
0.70971739292144775 0.94859683513641357 0.21078690886497498
0.79975581169128418 0.94813132286071777 0.20459340512752533
0.86765128374099731 0.95297932624816895 0.19548317790031433
0.92000997066497803 0.96627193689346313 0.1734100729227066
0.9604833722114563 0.96303385496139526 0.16853184998035431
0.97940164804458618 0.93876558542251587 0.18362577259540558
0.98620623350143433 0.90862381458282471 0.20146049559116364
0.31940057873725891 0.96154707670211792 0.24036401510238647
0.3181489109992981 0.96791696548461914 0.23299328982830048
0.34580418467521667 0.97288411855697632 0.22195173799991608
0.42188385128974915 0.97099196910858154 0.21902419626712799
0.49832916259765625 0.97056907415390015 0.21499553322792053
0.58131891489028931 0.9699745774269104 0.20848190784454346
0.67723298072814941 0.96823805570602417 0.19675485789775848
0.76585698127746582 0.96848869323730469 0.18860551714897156
0.83637422323226929 0.97299903631210327 0.18002445995807648
0.89236229658126831 0.98058128356933594 0.16119144856929779
0.93958532810211182 0.9861762523651123 0.15222170948982239
0.97453373670578003 0.98149335384368896 0.16129912436008453
0.98803925514221191 0.96691310405731201 0.17494937777519226
0.013533633202314377 0.012789932079613209 0.14098891615867615
0.075879640877246857 0.012766789644956589 0.098877027630805969
0.16574303805828094 0.01360555924475193 0.051629833877086639
0.21602793037891388 0.015387531369924545 0.044627245515584946
0.26708480715751648 0.014974272809922695 0.043119393289089203
0.34051942825317383 0.013587278313934803 0.042309015989303589
0.47137811779975891 0.014034271240234375 0.042577974498271942
0.66825324296951294 0.021929109469056129 0.042577348649501801
0.86310040950775146 0.049036361277103424 0.029377851635217667
0.96007978916168213 0.10969115793704987 0.033335771411657333
0.96825617551803589 0.14281474053859711 0.060920640826225281
0.96968859434127808 0.1674143373966217 0.08608931303024292
0.97419220209121704 0.18170911073684692 0.10303302854299545
0.014035453088581562 0.043497286736965179 0.098876670002937317
0.050800308585166931 0.040747024118900299 0.068115189671516418
0.13787683844566345 0.040001694113016129 0.043315738439559937
0.20481602847576141 0.040793146938085556 0.041275698691606522
0.25802233815193176 0.041443858295679092 0.042214114218950272
0.33543473482131958 0.040692795068025589 0.041117634624242783
0.47742417454719543 0.041836980730295181 0.04175383597612381
0.66567772626876831 0.04946073517203331 0.04423249140381813
0.84378653764724731 0.078849703073501587 0.041772700846195221
0.94494563341140747 0.13010285794734955 0.046434871852397919
0.95561617612838745 0.1647108793258667 0.074140124022960663
0.96422386169433594 0.18222802877426147 0.092239722609519958
0.97515356540679932 0.18563291430473328 0.09780140221118927
0.013991651125252247 0.07730846107006073 0.054151169955730438
0.042372055351734161 0.072119094431400299 0.045358918607234955
0.10042573511600494 0.069153651595115662 0.040689699351787567
0.18277543783187866 0.070159152150154114 0.041052635759115219
0.24761812388896942 0.070519544184207916 0.041313052177429199
0.32743465900421143 0.070107661187648773 0.040348291397094727
0.47136721014976501 0.071706525981426239 0.041471458971500397
0.65715783834457397 0.07827962189912796 0.043889649212360382
0.83584392070770264 0.097147338092327118 0.044687427580356598
0.93352925777435303 0.1494017094373703 0.054279506206512451
0.94920516014099121 0.18041825294494629 0.077723227441310883
0.96676546335220337 0.19214455783367157 0.090802960097789764
0.98370397090911865 0.19167330861091614 0.093770258128643036
0.013336795382201672 0.11597201973199844 0.043762102723121643
0.041360009461641312 0.11000378429889679 0.041339065879583359
0.079697325825691223 0.10576514154672623 0.040437661111354828
0.16642268002033234 0.10598928481340408 0.043009079992771149
0.2450297474861145 0.1063963919878006 0.043255362659692764
0.33871579170227051 0.10665495693683624 0.042453527450561523
0.46830719709396362 0.10540452599525452 0.042536746710538864
0.63844239711761475 0.10915214568376541 0.043416161090135574
0.81524991989135742 0.12439247220754623 0.047176480293273926
0.9173157811164856 0.16401563584804535 0.05573686957359314
0.95031517744064331 0.19029632210731506 0.071638084948062897
0.96951586008071899 0.20212709903717041 0.085238121449947357
0.98440873622894287 0.20509839057922363 0.095243729650974274
0.01587442122399807 0.19014012813568115 0.04511960968375206
0.043124046176671982 0.18491868674755096 0.042055677622556686
0.084947831928730011 0.18321393430233002 0.041344199329614639
0.17141799628734589 0.18324385583400726 0.043485093861818314
0.26377964019775391 0.18489478528499603 0.043731391429901123
0.37067657709121704 0.17986561357975006 0.044273599982261658
0.50115507841110229 0.17360338568687439 0.044232238084077835
0.66055011749267578 0.1679927259683609 0.045780722051858902
0.81484615802764893 0.16631859540939331 0.047831352800130844
0.91096317768096924 0.18801999092102051 0.054432634264230728
0.94795483350753784 0.20700633525848389 0.070948041975498199
0.96653211116790771 0.21794481575489044 0.086906105279922485
0.97497928142547607 0.22402657568454742 0.10036588460206985
0.020325036719441414 0.31331118941307068 0.049571782350540161
0.051846522837877274 0.3140832781791687 0.045729544013738632
0.096874833106994629 0.31116572022438049 0.043312806636095047
0.21105843782424927 0.32271823287010193 0.047830678522586823
0.32050511240959167 0.32845532894134521 0.051053546369075775
0.43829554319381714 0.33054682612419128 0.05213439092040062
0.57799875736236572 0.32961204648017883 0.052899349480867386
0.72505456209182739 0.32509028911590576 0.059005454182624817
0.85974913835525513 0.30245485901832581 0.056361164897680283
0.9286312460899353 0.2752440869808197 0.064371846616268158
0.94552081823348999 0.24544747173786163 0.082301706075668335
0.95828068256378174 0.23977531492710114 0.096679389476776123
0.96530306339263916 0.24680285155773163 0.10732831805944443
0.051005300134420395 0.49442413449287415 0.062310807406902313
0.089589767158031464 0.49127215147018433 0.063411474227905273
0.16543897986412048 0.48036164045333862 0.065116897225379944
0.28769171237945557 0.48909562826156616 0.06371162086725235
0.40184646844863892 0.49436455965042114 0.077482797205448151
0.51574975252151489 0.49567043781280518 0.093102730810642242
0.64206492900848389 0.49991819262504578 0.1183215007185936
0.79769736528396606 0.50082147121429443 0.10189400613307953
0.91302907466888428 0.48500180244445801 0.089721336960792542
0.93901509046554565 0.46541866660118103 0.12252478301525116
0.9496346116065979 0.40110072493553162 0.13110871613025665
0.95479941368103027 0.31914225220680237 0.12262535840272903
0.96538859605789185 0.28857088088989258 0.1204250231385231
0.14254525303840637 0.67052024602890015 0.11359258741140366
0.18065634369850159 0.65615999698638916 0.13081240653991699
0.25701391696929932 0.64680618047714233 0.13692052662372589
0.36341142654418945 0.64684528112411499 0.14200590550899506
0.46444976329803467 0.64172375202178955 0.15785712003707886
0.56202918291091919 0.63609319925308228 0.18399164080619812
0.68838387727737427 0.64682859182357788 0.17556200921535492
0.86977630853652954 0.67382872104644775 0.12337341159582138
0.92049235105514526 0.65511834621429443 0.14019785821437836
0.93644601106643677 0.62848472595214844 0.17275625467300415
0.94906121492385864 0.58231288194656372 0.1870126873254776
0.960765540599823 0.51246458292007446 0.18076454102993011
0.97419923543930054 0.4325975775718689 0.15945194661617279
0.21557934582233429 0.8461463451385498 0.15104208886623383
0.24480423331260681 0.83053761720657349 0.16671933233737946
0.31480610370635986 0.82375955581665039 0.17625334858894348
0.41538888216018677 0.81093162298202515 0.18496963381767273
0.51389187574386597 0.79470634460449219 0.19498008489608765
0.60771709680557251 0.77873176336288452 0.20267075300216675
0.75125396251678467 0.79948931932449341 0.16875937581062317
0.89383268356323242 0.81950181722640991 0.13747099041938782
0.9211699366569519 0.78090584278106689 0.16279812157154083
0.93443542718887329 0.74349451065063477 0.19015847146511078
0.94579750299453735 0.70702630281448364 0.21376185119152069
0.96401935815811157 0.66620808839797974 0.21675986051559448
0.98342627286911011 0.61632037162780762 0.20661516487598419
0.28236332535743713 0.89834237098693848 0.21138745546340942
0.30445310473442078 0.88982206583023071 0.21831375360488892
0.36553066968917847 0.89258766174316406 0.2364601194858551
0.44279348850250244 0.88189113140106201 0.22858668863773346
0.5328107476234436 0.87441927194595337 0.22682137787342072
0.62925666570663452 0.87411212921142578 0.22392910718917847
0.74471628665924072 0.87810671329498291 0.19984012842178345
0.87426316738128662 0.90007424354553223 0.16603849828243256
0.92077094316482544 0.88213735818862915 0.17354701459407806
0.93734800815582275 0.84313678741455078 0.19646936655044556
0.94688320159912109 0.80597132444381714 0.21937902271747589
0.96288275718688965 0.77046817541122437 0.22821851074695587
0.98434972763061523 0.74005061388015747 0.22557362914085388
0.33808273077011108 0.91993480920791626 0.26525795459747314
0.34803071618080139 0.91322833299636841 0.26316329836845398
0.39214789867401123 0.91724205017089844 0.26464402675628662
0.45572549104690552 0.9169011116027832 0.25523203611373901
0.53642207384109497 0.9144245982170105 0.25261819362640381
0.62576752901077271 0.9151911735534668 0.24974271655082703
0.72577214241027832 0.91657441854476929 0.22740872204303741
0.82666832208633423 0.92223042249679565 0.20252536237239838
0.89575421810150146 0.93186086416244507 0.19316636025905609
0.93600916862487793 0.92560857534408569 0.19907496869564056
0.94809603691101074 0.88601118326187134 0.21401263773441315
0.96192151308059692 0.84979844093322754 0.22634737193584442
0.98115122318267822 0.8328019380569458 0.22721213102340698
0.34386584162712097 0.93665987253189087 0.26825234293937683
0.35337990522384644 0.93427163362503052 0.27220594882965088
0.38833409547805786 0.93815535306930542 0.26120772957801819
0.4492584764957428 0.94038718938827515 0.25156095623970032
0.52168452739715576 0.93958365917205811 0.24917641282081604
0.60541903972625732 0.93755161762237549 0.24664770066738129
0.69825863838195801 0.94086569547653198 0.23014645278453827
0.79022997617721558 0.94225186109542847 0.2183392345905304
0.86032980680465698 0.94890439510345459 0.20872513949871063
0.90418636798858643 0.95194429159164429 0.20360441505908966
0.93624782562255859 0.93890905380249023 0.20513758063316345
0.96230340003967285 0.92289227247238159 0.21226340532302856
0.98127263784408569 0.91076749563217163 0.21417349576950073
0.31738349795341492 0.96235138177871704 0.24468284845352173
0.31520205736160278 0.96812772750854492 0.23854561150074005
0.33995464444160461 0.97263312339782715 0.23026068508625031
0.41175040602684021 0.97155123949050903 0.22558033466339111
0.48845967650413513 0.97157859802246094 0.21961265802383423
0.57020950317382812 0.97164273262023926 0.21279196441173553
0.66624683141708374 0.97031128406524658 0.20403106510639191
0.7581019401550293 0.97218692302703857 0.19475795328617096
0.83590376377105713 0.9754149317741394 0.18508046865463257
0.89037239551544189 0.97934174537658691 0.17543148994445801
0.9296833872795105 0.98084157705307007 0.17174869775772095
0.96205157041549683 0.9765545129776001 0.17366915941238403
0.98418468236923218 0.9661450982093811 0.18476887047290802
0.01460005808621645 0.013042554259300232 0.22748191654682159
0.051107414066791534 0.013470982201397419 0.20401239395141602
0.12995333969593048 0.013308790512382984 0.14464883506298065
0.20230874419212341 0.01568450964987278 0.084409333765506744
0.25620037317276001 0.017511539161205292 0.076377600431442261
0.32887378334999084 0.016960203647613525 0.07722492516040802
0.44853690266609192 0.016789276152849197 0.07701294869184494
0.63973689079284668 0.017195278778672218 0.077127151191234589
0.83561110496520996 0.033962443470954895 0.055025901645421982
0.95847856998443604 0.089095219969749451 0.040237665176391602
0.96664226055145264 0.13757526874542236 0.074163220822811127
0.96235287189483643 0.16712911427021027 0.10322318226099014
0.96688717603683472 0.17963743209838867 0.11780031770467758
0.017242640256881714 0.042747363448143005 0.1893143355846405
0.042721811681985855 0.040851876139640808 0.16387486457824707
0.10016507655382156 0.039976514875888824 0.11831871420145035
0.18368171155452728 0.040455687791109085 0.07767486572265625
0.2468908429145813 0.040543261915445328 0.072639882564544678
0.32219064235687256 0.040584295988082886 0.072883203625679016
0.45061436295509338 0.041481766849756241 0.073369331657886505
0.63978886604309082 0.045862354338169098 0.073591150343418121
0.82360965013504028 0.063657961785793304 0.064477019011974335
0.9384576678276062 0.10978799313306808 0.057244632393121719
0.94986176490783691 0.15982086956501007 0.089538782835006714
0.95368713140487671 0.18593405187129974 0.11343391239643097
0.96595102548599243 0.18847343325614929 0.11694113165140152
0.018720140680670738 0.075105838477611542 0.13982868194580078
0.04088279977440834 0.070020429790019989 0.11941199004650116
0.074520111083984375 0.066768676042556763 0.087182216346263885
0.15149009227752686 0.067509748041629791 0.069586090743541718
0.22922955453395844 0.068120591342449188 0.06927897036075592
0.31009289622306824 0.067246787250041962 0.068484120070934296
0.44782215356826782 0.069089777767658234 0.069527581334114075
0.63129270076751709 0.07451176643371582 0.070455126464366913
0.81578612327575684 0.0874357670545578 0.063489608466625214
0.92421501874923706 0.13748466968536377 0.070098549127578735
0.94048881530761719 0.18313106894493103 0.099615328013896942
0.95675337314605713 0.19868797063827515 0.11444805562496185
0.97687453031539917 0.19790531694889069 0.11658781766891479
0.017945218831300735 0.11685382574796677 0.10003657639026642
0.04105624184012413 0.11134233325719833 0.084827125072479248
0.068875797092914581 0.10539986193180084 0.072952598333358765
0.13160285353660583 0.10285376757383347 0.067814141511917114
0.22432638704776764 0.10180628299713135 0.068553462624549866
0.32138296961784363 0.10132530331611633 0.067700885236263275
0.45001673698425293 0.099884673953056335 0.068370029330253601
0.61657273769378662 0.10181225091218948 0.06789233535528183
0.80330485105514526 0.11059615015983582 0.06795000284910202
0.91441839933395386 0.15943324565887451 0.077296778559684753
0.94205600023269653 0.19424726068973541 0.096741080284118652
0.96076351404190063 0.20679980516433716 0.10936935991048813
0.98325473070144653 0.21011149883270264 0.11556214094161987
0.016662223264575005 0.19846352934837341 0.10025576502084732
0.041320260614156723 0.1911776065826416 0.084967777132987976
0.074154719710350037 0.18485715985298157 0.074832528829574585
