assets/lut/toddblankenship longbeachmorning.cube
# Created by: G'MIC (https://gmic.eu)
TITLE "longbeachmorning"
# LUT size
LUT_3D_SIZE 13
# Data domain
DOMAIN_MIN 0.0 0.0 0.0
DOMAIN_MAX 1.0 1.0 1.0
# LUT data points
0.019076120108366013 0.017714796587824821 0.015885954722762108
0.091885507106781006 0.0099835712462663651 0.0076903547160327435
0.16663482785224915 0.005122749600559473 0.0017526664305478334
0.23752862215042114 0.0001026826721499674 0.0015678555937483907
0.31318238377571106 0 0.00017813888553064317
0.39506056904792786 0 0
0.48476454615592957 0 0
0.58366906642913818 0 0
0.69761556386947632 0 0.00010618322266964242
0.8328481912612915 0 0.00079637416638433933
0.96398156881332397 0 0.00011629590881057084
1 0 0
1 0 0
0.014275988563895226 0.091582521796226501 0.010371129959821701
0.080436602234840393 0.078406453132629395 0.002953757531940937
0.16432514786720276 0.062148779630661011 5.9838388551725075e-05
0.24392679333686829 0.035361167043447495 0.00037008547224104404
0.31872797012329102 0.015535945072770119 0.0011470121098682284
0.3992106020450592 0.007173455785959959 0.00018630681734066457
0.49000066518783569 0.0041741463355720043 0
0.59095519781112671 0.00072735059075057507 0
0.71004897356033325 0 0
0.85039287805557251 0 0
0.97633790969848633 0 0
1 2.1392224880401045e-06 0
1 0.0017076828517019749 0
0.0056879231706261635 0.16266623139381409 0.01003239955753088
0.056413866579532623 0.15126433968544006 0.0006230672006495297
0.15204709768295288 0.14727692306041718 0
0.2551664412021637 0.13543947041034698 9.1986563347745687e-05
0.34259364008903503 0.10615961253643036 0.0012652528239414096
0.42434865236282349 0.077350631356239319 0.00077906588558107615
0.51280081272125244 0.054540462791919708 0
0.61290043592453003 0.032287463545799255 0
0.72956061363220215 0.014559951610863209 0
0.86560368537902832 0.0054189343936741352 0
0.98500359058380127 0.003950036596506834 0
1 0.0082062520086765289 0
1 0.017548356205224991 0
0.0015507417265325785 0.23307360708713531 0.0044751483947038651
0.039258021861314774 0.223530113697052 8.3339917182456702e-05
0.13006369769573212 0.22593936324119568 0
0.24316868185997009 0.22882989048957825 0
0.3538549542427063 0.21779726445674896 1.9836425053654239e-05
0.45031821727752686 0.18705466389656067 2.5670668037491851e-05
0.54825884103775024 0.1512150764465332 0
0.65718674659729004 0.11727453768253326 0
0.77799606323242188 0.088254593312740326 0.00012388042523525655
0.9064105749130249 0.067505732178688049 0
0.99504345655441284 0.057304996997117996 0
1 0.056096680462360382 0
1 0.059182021766901016 0
0.0017634223913773894 0.30914020538330078 0.00045993280946277082
0.034731082618236542 0.30123814940452576 0
0.10891018807888031 0.30213305354118347 0
0.21617172658443451 0.30978387594223022 0
0.33758595585823059 0.31247517466545105 0
0.45704483985900879 0.29790583252906799 0
0.58020269870758057 0.2697550356388092 0
0.71338993310928345 0.23626774549484253 0
0.85091805458068848 0.20427261292934418 0.00013904945808462799
0.96824294328689575 0.17810380458831787 0
0.99998444318771362 0.15568700432777405 0
1 0.13826112449169159 0
1 0.12784622609615326 0
0.0035288343206048012 0.39027854800224304 0
0.03390972688794136 0.38419502973556519 0
0.094869218766689301 0.3837505578994751 0
0.19022832810878754 0.39134803414344788 0
0.31159433722496033 0.40193319320678711 0
0.44655719399452209 0.4054851233959198 0
0.59486418962478638 0.39447009563446045 0
0.75803530216217041 0.37127962708473206 0
0.91620802879333496 0.34128457307815552 0
0.99732786417007446 0.31064537167549133 5.7175580877810717e-05
1 0.27792802453041077 1.3613233022624627e-05
1 0.24584104120731354 0
1 0.2199137955904007 0
0.0060974271036684513 0.4783724844455719 0
0.03367990255355835 0.47518813610076904 0
0.085650168359279633 0.47577986121177673 0
0.1689426600933075 0.48108723759651184 0
0.2830502986907959 0.49252507090568542 0.00029579611145891249
0.42212656140327454 0.50680994987487793 0
0.5840601921081543 0.51598596572875977 0
0.76909095048904419 0.51167941093444824 0
0.94661879539489746 0.49036279320716858 0.000385284423828125
1 0.45821872353553772 0.0016784818144515157
1 0.41741082072257996 0.00094125786563381553
1 0.37257948517799377 0.00030999278533272445
1 0.33139762282371521 7.4678311648312956e-05
0.0068777496926486492 0.57605886459350586 0
0.031319577246904373 0.57787978649139404 0
0.076321154832839966 0.58069580793380737 0
0.14943838119506836 0.5842633843421936 0
0.25430828332901001 0.59176778793334961 0
0.39009883999824524 0.60794925689697266 0
0.55628293752670288 0.63279169797897339 0
0.75132507085800171 0.65007638931274414 0
0.94344651699066162 0.64337325096130371 0.0014136969111859798
1 0.61352217197418213 0.0037719428073614836
1 0.56738823652267456 0.0027376511134207249
1 0.51274150609970093 0.0016353382961824536
0.99974465370178223 0.46008595824241638 0.00095487106591463089
0.0061135985888540745 0.68587756156921387 0
0.027552392333745956 0.69475030899047852 0
0.066833928227424622 0.70156967639923096 0
0.13285844027996063 0.70634877681732178 0
0.23043006658554077 0.71170705556869507 0
0.36059379577636719 0.72370082139968872 0
0.52612960338592529 0.75250715017318726 0.00011590695794438943
0.72298216819763184 0.78066098690032959 2.3142496502259746e-05
0.92274338006973267 0.78522336483001709 5.7444854064669926e-06
0.99982595443725586 0.76104015111923218 0.00095129571855068207
1 0.71556788682937622 0.0026623294688761234
1 0.65529203414916992 0.0024167378433048725
0.99976229667663574 0.59482502937316895 0.0012771157780662179
0.005026708822697401 0.81261539459228516 9.1014189820270985e-05
0.023912003263831139 0.82343560457229614 0
0.059391830116510391 0.83092224597930908 0
0.12092732638120651 0.83865702152252197 0
0.21439172327518463 0.84776157140731812 0
0.33991605043411255 0.86145979166030884 2.1781173927593045e-05
0.49399206042289734 0.88219928741455078 0.00068494013976305723
0.67413479089736938 0.90243011713027954 0.00022617414651904255
0.8727613091468811 0.90547043085098267 0
0.99427372217178345 0.88507384061813354 0
0.99974620342254639 0.84766364097595215 5.7564528106013313e-05
0.99824005365371704 0.78765374422073364 0.00051730289123952389
0.99902385473251343 0.72268855571746826 0.0001962250389624387
0.0040137497708201408 0.94014930725097656 0
0.021836239844560623 0.94334721565246582 0
0.055998470634222031 0.9484480619430542 0
0.11500375717878342 0.95769721269607544 0
0.20474331080913544 0.96896380186080933 0
0.3235832154750824 0.97948789596557617 3.1310435588238761e-05
0.46282118558883667 0.98607701063156128 0.00041773178963921964
0.62106919288635254 0.99047929048538208 5.6592154578538612e-05
0.80441826581954956 0.98848849534988403 0
0.96514111757278442 0.97251582145690918 0
0.99981945753097534 0.94911539554595947 0
0.99461168050765991 0.89984828233718872 0
0.99419146776199341 0.83714026212692261 0
0.0036212995182722807 0.99876916408538818 0
0.022401995956897736 0.99920207262039185 0
0.057369336485862732 0.99965131282806396 0
0.114940345287323 0.99999362230300903 0
0.20002585649490356 1 0
0.31027543544769287 1 0
0.43819025158882141 1 0
0.58342427015304565 1 0
0.74625605344772339 1 0
0.90776389837265015 0.99977242946624756 0
0.99193853139877319 0.9963526725769043 0
0.99905538558959961 0.97749382257461548 0
0.99542117118835449 0.93128466606140137 0
0.0044079502113163471 1 0.00012640860222745687
0.026913167908787727 1 0
0.064326249063014984 1 0
0.12155167758464813 1 0
0.20195020735263824 1 0
0.30474266409873962 1 0
0.42478799819946289 1 0
0.55907583236694336 1 0
0.70395398139953613 1 0
0.84965676069259644 0.99994432926177979 0
0.96878522634506226 0.99959546327590942 0
1 0.99988383054733276 0
0.99943834543228149 0.99105322360992432 0
0.0091229910030961037 0.0079610040411353111 0.088034912943840027
0.071746230125427246 0.0012035145191475749 0.071151658892631531
0.14840966463088989 0.00012865253665950149 0.04901287704706192
0.2225433886051178 0 0.035953938961029053
0.3005429208278656 1.7113779904320836e-05 0.017168905586004257
0.38580071926116943 0.0002053653442999348 0.0041865329258143902
0.47971615195274353 0 0.0010131985181942582
0.58223927021026611 0 0.0003059087903238833
0.70024567842483521 0 1.7113779904320836e-05
0.83530330657958984 0 0
0.96002292633056641 5.9898226027144119e-05 0
0.99984169006347656 0.00010696111712604761 0
1 0 0
0.0034831177908927202 0.071743115782737732 0.072922602295875549
0.04101543128490448 0.039319384843111038 0.038965862244367599
0.11837370693683624 0.02145753800868988 0.020200049504637718
0.20507186651229858 0.010011066682636738 0.013797086663544178
0.28954035043716431 0.0042139091528952122 0.0055009881034493446
0.37981531023979187 0.0016508812550455332 0.00092855712864547968
0.48037040233612061 0.00075439753709360957 1.382266782457009e-05
0.58966881036758423 1.1518890232764534e-06 0
0.71574574708938599 0 0
0.85974383354187012 0 0
0.9807964563369751 0 0
1 0 0
1 9.0236288087908179e-05 0
0.00018177407037001103 0.14688055217266083 0.059259884059429169
0.020798448473215103 0.11407286673784256 0.023528933525085449
0.10024484246969223 0.096828773617744446 0.0061999303288757801
0.20305760204792023 0.084577761590480804 0.0015501284506171942
0.30024266242980957 0.066748522222042084 0.00072542077396064997
0.39613935351371765 0.049859482795000076 0.00013592290633823723
0.49749588966369629 0.03535379096865654 0
0.60832411050796509 0.019041847437620163 0
0.7355804443359375 0.0066411783918738365 0
0.87907606363296509 0.0020380506757646799 0
0.98971223831176758 0.001437706989236176 0
1 0.0034551434218883514 0
1 0.0087132472544908524 0
0 0.22011235356330872 0.044580992311239243
0.013554292730987072 0.19666567444801331 0.017821501940488815
0.088734708726406097 0.18741972744464874 0.003392896382138133
0.19752301275730133 0.18368282914161682 1.2341667570581194e-05
0.31071415543556213 0.17263530194759369 0
0.4184308648109436 0.15067040920257568 0
0.52663969993591309 0.12374061346054077 0
0.64343249797821045 0.094860062003135681 0
0.77236586809158325 0.067819945514202118 0
0.91081917285919189 0.04964282363653183 0
0.99703234434127808 0.04090677946805954 0
1 0.039786964654922485 0
1 0.042532198131084442 0
1.4361213516167481e-06 0.29992997646331787 0.027420373633503914
0.016194526106119156 0.28467908501625061 0.012402553111314774
0.08136545866727829 0.27831003069877625 0.0034637001808732748
0.18354950845241547 0.27935150265693665 8.6885338532738388e-05
0.30453890562057495 0.27790030837059021 0
0.42939046025276184 0.26482498645782471 0
0.5572083592414856 0.24096211791038513 0
0.69286751747131348 0.21025829017162323 0
0.83400416374206543 0.17746180295944214 0
0.96135091781616211 0.14898139238357544 0
1 0.1273542195558548 0
1 0.11254740506410599 0
1 0.10424312204122543 0
0.0011181700974702835 0.38447856903076172 0.0089215748012065887
0.021055528894066811 0.37461435794830322 0.0054581137374043465
0.075109414756298065 0.37047338485717773 0.0029410268180072308
0.16642571985721588 0.37345370650291443 0.00029850381542928517
0.28700616955757141 0.37873774766921997 0
0.42491039633750916 0.37910947203636169 0
0.57648664712905884 0.36888113617897034 0
0.74025309085845947 0.34629973769187927 0
0.90087723731994629 0.31352713704109192 0
0.99485021829605103 0.27787953615188599 0
1 0.24440132081508636 0
1 0.21509158611297607 0
1 0.19299086928367615 0
0.0036141937598586082 0.47517746686935425 0.0019005121430382133
0.022571340203285217 0.47042998671531677 0.0017881356179714203
0.06775982677936554 0.46915635466575623 0.0015003877924755216
0.14817003905773163 0.47255340218544006 0.00026773189892992377
0.26326876878738403 0.48060530424118042 0
0.4064677357673645 0.49084794521331787 0
0.57312643527984619 0.49724125862121582 0
0.76034855842590332 0.48957055807113647 5.2777457312913612e-05
0.94001692533493042 0.46159866452217102 0.0013430577237159014
1 0.42266419529914856 0.00057866715360432863
1 0.3804570734500885 0
1 0.33905735611915588 0
1 0.30385282635688782 0
0.0032574820797890425 0.57595533132553101 0.0029368530958890915
0.019390854984521866 0.57693874835968018 0.0011071149492636323
0.057624172419309616 0.57960879802703857 0.00033059212728403509
0.12789812684059143 0.58416736125946045 3.4556669561425224e-06
0.23548506200313568 0.59129899740219116 0
0.37704303860664368 0.60400307178497314 0
0.54820197820663452 0.62152349948883057 0
0.7430119514465332 0.6292077898979187 0.0014223435427993536
0.93263834714889526 0.61137622594833374 0.0053237914107739925
0.99996906518936157 0.57261371612548828 0.0034671260509639978
1 0.52416163682937622 5.4811964218970388e-05
1 0.47438415884971619 0
1 0.43009302020072937 0
0.0016893573338165879 0.69074457883834839 0.0051891552284359932
0.013780451379716396 0.69829797744750977 0.00056671444326639175
0.044709194451570511 0.7063104510307312 0
0.10646103322505951 0.71350401639938354 0
0.20645351707935333 0.72001081705093384 0
0.34364232420921326 0.7289968729019165 0
0.51147967576980591 0.74496233463287354 0
0.70107442140579224 0.7564467191696167 0.00033893960062414408
0.88989031314849854 0.74670308828353882 0.001661831745877862
0.99553698301315308 0.71016091108322144 0.0025959988124668598
1 0.66014957427978516 0.00027540617156773806
1 0.60794281959533691 0
1 0.56160598993301392 0
0.00046584184747189283 0.81961196660995483 0.0040376400575041771
0.007710430771112442 0.83142936229705811 2.6493446057429537e-05
0.03230578824877739 0.84315329790115356 0
0.086511306464672089 0.85442376136779785 0
0.18016862869262695 0.86300265789031982 0
0.31144636869430542 0.86890196800231934 0
0.47014465928077698 0.87431007623672485 0
0.64643639326095581 0.87573742866516113 0
0.82957303524017334 0.86302036046981812 8.2936006947420537e-05
0.9731675386428833 0.82691675424575806 7.1088004915509373e-05
1 0.77742403745651245 0.00026604146114550531
0.99999856948852539 0.72783303260803223 0.0008610445074737072
0.9999549388885498 0.68840670585632324 0.00014497345546260476
0.00010250315972371027 0.94323503971099854 0.00089108338579535484
0.0044647217728197575 0.95516979694366455 0
0.024979818612337112 0.96561384201049805 0
0.074985817074775696 0.97551709413528442 0
0.16262140870094299 0.98204082250595093 0
0.28508126735687256 0.98467361927032471 0
0.43067583441734314 0.98358166217803955 0
0.5891459584236145 0.97917211055755615 0
0.75751715898513794 0.96694612503051758 0
0.92181897163391113 0.93160563707351685 0
0.99861407279968262 0.87981027364730835 0
0.99979174137115479 0.834259033203125 9.3632115749642253e-05
0.99863946437835693 0.8029024600982666 4.1138893720926717e-05
1.1488970812933985e-05 0.99946731328964233 0.00048677032464183867
0.0045059802941977978 1 0
0.026083838194608688 1 0
0.074767366051673889 1 0
0.15674090385437012 1 0
0.26903387904167175 1 0
0.40183231234550476 1 0
0.54703050851821899 1 0
0.70109987258911133 0.99999278783798218 0
0.85959708690643311 0.99603390693664551 0
0.97979766130447388 0.97101736068725586 0
0.9999924898147583 0.94236922264099121 0
0.99895775318145752 0.90702718496322632 0
0.0001729030191199854 1 0.0037516127340495586
0.0081264572218060493 1 2.1392224880401045e-06
0.034872721880674362 1 0
0.0843467116355896 1 0
0.16166408360004425 1 0
0.26588889956474304 1 0
0.38925343751907349 1 0
0.52727788686752319 1 0
0.67696207761764526 1 0
0.83338755369186401 1 0
0.96295762062072754 0.99984437227249146 0
1 0.99900007247924805 0
0.99996501207351685 0.98642426729202271 0
0.0031770593486726284 0.0063883312977850437 0.16329516470432281
0.048896115273237228 0.00065437768353149295 0.14877872169017792
0.13093651831150055 0 0.13317419588565826
0.21260850131511688 0 0.11555789411067963
0.29650676250457764 0.0001497455668868497 0.095361180603504181
0.38340896368026733 0.00064915674738585949 0.07268860936164856
0.47950467467308044 3.0338062060764059e-05 0.052772983908653259
0.58619785308837891 0 0.036201030015945435
0.70651602745056152 0 0.020574338734149933
0.84021967649459839 0 0.0089011844247579575
0.95970141887664795 0.0011632433161139488 0.0038955688942223787
0.99939781427383423 0.002184639684855938 0.00091091979993507266
1 0.00075320072937756777 2.3336971935350448e-05
0.0007336934213526547 0.056926771998405457 0.14834097027778625
0.02074197493493557 0.023724110797047615 0.11246959865093231
0.092768259346485138 0.0056967041455209255 0.09027448296546936
0.18237073719501495 0.001665646443143487 0.077407687902450562
0.27441254258155823 0.00070441752905026078 0.062812507152557373
0.37230721116065979 0.00031208712607622147 0.047720350325107574
0.47850647568702698 5.1176783017581329e-05 0.03464902937412262
0.59405934810638428 0 0.018004113808274269
0.72361725568771362 0 0.0070894430391490459
0.87048482894897461 0 0.0027452206704765558
0.9865337610244751 2.2439396616391605e-06 0.00043382830335758626
1 7.4797985689656343e-06 0
1 0 0
5.385455096984515e-06 0.13281732797622681 0.13292555510997772
0.0066185146570205688 0.091999843716621399 0.091123662889003754
0.06748528778553009 0.064695529639720917 0.061752993613481522
0.16583894193172455 0.050470225512981415 0.044045407325029373
0.26967349648475647 0.039334885776042938 0.035506755113601685
0.37653493881225586 0.029596785083413124 0.02898813970386982
0.48792830109596252 0.022094054147601128 0.020068090409040451
0.60745096206665039 0.012317792512476444 0.0069722793996334076
0.7410157322883606 0.0036438438110053539 0.0011404298711568117
0.89120644330978394 0.0010463340440765023 0.00023351931304205209
0.99435865879058838 0.00085592828691005707 0
1 0.0020265167113393545 0
1 0.0041833464056253433 0
0 0.21202142536640167 0.11666771024465561
0.0043913149274885654 0.18073195219039917 0.080333501100540161
0.059322595596313477 0.15909913182258606 0.048832956701517105
0.15949241816997528 0.14716675877571106 0.025036098435521126
0.27445444464683533 0.1355527937412262 0.013816803693771362
0.39049598574638367 0.11906669288873672 0.010445418767631054
0.5066102147102356 0.10044111311435699 0.0081520527601242065
0.62826484441757202 0.078189253807067871 0.0035132614430040121
0.76304453611373901 0.053361404687166214 0.0015454760286957026
0.91348397731781006 0.036528315395116806 7.4050003604497761e-05
0.99854731559753418 0.02918008528649807 0
1 0.027934519574046135 0
1 0.029279746115207672 0
0 0.29542794823646545 0.10023648291826248
0.0075177508406341076 0.27472925186157227 0.072008334100246429
0.058707516640424728 0.26012009382247925 0.046053297817707062
0.15304698050022125 0.25248560309410095 0.023456154391169548
0.27260226011276245 0.24590602517127991 0.0092238634824752808
0.40104356408119202 0.23378418385982513 0.0035362991038709879
0.53125262260437012 0.21456582844257355 0.001413936261087656
0.66512823104858398 0.18843495845794678 0.00042141185258515179
0.80804479122161865 0.15544156730175018 0.00012236949987709522
0.95127004384994507 0.12389791011810303 0
1 0.10220257937908173 0
1 0.089868225157260895 0
1 0.083414964377880096 0
0.00046145869418978691 0.38306987285614014 0.078788056969642639
0.012409105896949768 0.37081268429756165 0.060088466852903366
0.05785573273897171 0.36193603277206421 0.043258681893348694
0.14339573681354523 0.35825255513191223 0.025628183037042618
0.26206213235855103 0.35689103603363037 0.01008981466293335
0.40146589279174805 0.353628009557724 0.002055927412584424
0.55251908302307129 0.34376266598701477 2.5880102839437313e-05
0.7118036150932312 0.32193902134895325 0
0.87253117561340332 0.28671425580978394 0
0.98776006698608398 0.24647456407546997 0
1 0.21217454969882965 0
1 0.18645399808883667 0
1 0.16834078729152679 0
0.0022983625531196594 0.4763333797454834 0.057919818907976151
0.013713372871279716 0.47080954909324646 0.047587554901838303
0.052430801093578339 0.46777352690696716 0.037479862570762634
0.12898363173007965 0.46755871176719666 0.024166107177734375
0.2438160628080368 0.4702765941619873 0.0099879391491413116
0.38878956437110901 0.47480300068855286 0.0019602456595748663
0.55550235509872437 0.47673240303993225 0
0.73885846138000488 0.46425458788871765 6.731818757543806e-06
0.92099487781524658 0.42952847480773926 0.0003354240907356143
0.99953097105026245 0.38589861989021301 7.3047711339313537e-05
1 0.34456858038902283 0
1 0.30773916840553284 0
1 0.27778047323226929 0
0.001002143369987607 0.5800890326499939 0.051783766597509384
0.010217449627816677 0.58031642436981201 0.039984684437513351
0.042017452418804169 0.58270370960235596 0.028873234987258911
0.10904766619205475 0.58647793531417847 0.015863696113228798
0.21778613328933716 0.59156280755996704 0.0050483853556215763
0.3629109263420105 0.59799259901046753 0.00064520741580054164
0.53262370824813843 0.60640078783035278 0
0.72059613466262817 0.60324621200561523 0.0010196760995313525
0.90913116931915283 0.57360923290252686 0.0024992849212139845
0.99881792068481445 0.52875363826751709 0.00080168480053544044
1 0.48197656869888306 0
1 0.43888527154922485 0
1 0.4016147255897522 0
6.4326268329750746e-05 0.69899964332580566 0.046774096786975861
0.0041185119189321995 0.70470643043518066 0.030991079285740852
0.026595739647746086 0.71283566951751709 0.016230205073952675
0.082745030522346497 0.72309088706970215 0.0045710247941315174
0.18381211161613464 0.73029881715774536 0.00037010043160989881
0.32667577266693115 0.73173391819000244 0
0.49293774366378784 0.73272639513015747 0
0.67034316062927246 0.72588837146759033 0.0011776493629440665
0.8478209376335144 0.70156443119049072 0.0027467317413538694
0.98236227035522461 0.65649950504302979 0.0012226329417899251
1 0.60829871892929077 0.00024755141930654645
1 0.56543397903442383 0.00016293993394356221
1 0.52939730882644653 0
0 0.83019411563873291 0.033745381981134415
0.00033035277738235891 0.84116858243942261 0.015760129317641258
0.009729018434882164 0.85585260391235352 0.0039198035374283791
0.052782934159040451 0.873737633228302 0.00013420254981610924
0.14617244899272919 0.88357007503509521 0
0.28483587503433228 0.87971991300582886 0
0.44640171527862549 0.8661186695098877 0
0.61433571577072144 0.84239286184310913 0.00046783147263340652
0.7758023738861084 0.81215161085128784 0.0015015247045084834
0.93101853132247925 0.76598232984542847 0.00034543205401860178
0.99919420480728149 0.71772140264511108 0.0030780867673456669
1 0.68111157417297363 0.0043316562660038471
1 0.65582954883575439 0.0023712157271802425
0 0.95242482423782349 0.017307102680206299
0 0.96610444784164429 0.0041314968839287758
0.0026089088059961796 0.97894394397735596 0.00014226576604414731
0.034254081547260284 0.98931092023849487 0
0.12043750286102295 0.99310523271560669 0
0.25026434659957886 0.99121379852294922 0
0.40245920419692993 0.98296648263931274 0
0.55977171659469604 0.96474480628967285 0
0.71476274728775024 0.93688207864761353 0
0.87947589159011841 0.8897290825843811 0
0.99237465858459473 0.83032947778701782 0.0003868851053994149
1 0.79539215564727783 0.0027423934079706669
1 0.77662688493728638 0.0014321270864456892
0 0.99996364116668701 0.014405194669961929
3.291111454473139e-07 1 0.00222627236507833
0.0030657299794256687 1 6.4326268329750746e-06
0.035387810319662094 1 0
0.11506394296884537 1 0
0.23211823403835297 1 0
0.37140598893165588 1 0
0.51975429058074951 1 0
0.67312222719192505 0.99967920780181885 0
0.83608341217041016 0.98946547508239746 0
0.96961873769760132 0.95417654514312744 0
0.99991494417190552 0.92277276515960693 4.2784446122823283e-05
1 0.88753288984298706 0
0 1 0.027379592880606651
0.00023537430388387293 1 0.0080191073939204216
0.0096615813672542572 1 0.0008858175715431571
0.049505330622196198 1 5.834242983837612e-06
0.12371905148029327 1 0
0.22974248230457306 1 0
0.35842430591583252 1 0
0.50191491842269897 1 0
0.65752047300338745 1 0
0.82176882028579712 1 0
0.95770138502120972 0.99995028972625732 0
0.99982625246047974 0.99736613035202026 0
1 0.97821605205535889 0
0.00050193938659504056 0.0018783269915729761 0.23417569696903229
0.027275757864117622 9.2869180662091821e-05 0.22097261250019073
0.10517289489507675 0 0.21377569437026978
0.19488266110420227 0 0.20530152320861816
0.28625333309173584 0 0.19331566989421844
0.37948673963546753 0 0.17623074352741241
0.47935575246810913 0 0.15344108641147614
0.58916711807250977 0 0.13011752068996429
0.7107011079788208 0 0.11134639382362366
0.84490972757339478 1.0097727681568358e-05 0.095865614712238312
