assets/lut/toddblankenship magichour.cube
# Created by: G'MIC (https://gmic.eu)
TITLE "magichour"
# LUT size
LUT_3D_SIZE 7
# Data domain
DOMAIN_MIN 0.0 0.0 0.0
DOMAIN_MAX 1.0 1.0 1.0
# LUT data points
0.014852575957775116 0.010335315950214863 0.014424522407352924
0.15825071930885315 1.8669577912078239e-05 2.297794162586797e-05
0.31922367215156555 0 0
0.50347054004669189 0 0
0.72361040115356445 0 0.00049980013864114881
0.97080248594284058 0.0016876818845048547 0.00023259181762114167
1 0.0031582552473992109 0
0.00014002183161210269 0.1534712016582489 0.007909407839179039
0.12296838313341141 0.11531587690114975 0
0.31985378265380859 0.078276224434375763 0
0.54097133874893188 0.045158505439758301 0
0.79979979991912842 0.036980513483285904 0
0.99082696437835693 0.0674704909324646 0
1 0.073733538389205933 0
0 0.30774977803230286 0.00070308608701452613
0.095385544002056122 0.2945883572101593 0
0.30953127145767212 0.2809874415397644 0
0.56909644603729248 0.2692202627658844 0
0.87456345558166504 0.26185238361358643 0
1 0.27142608165740967 0
0.99928998947143555 0.27833807468414307 0
0.0012450125068426132 0.48059284687042236 0
0.086213253438472748 0.48585629463195801 0
0.28788959980010986 0.49514096975326538 0
0.56832641363143921 0.50197255611419678 0
0.89819282293319702 0.51201564073562622 0.00041131413308903575
1 0.50926798582077026 0
0.99920803308486938 0.48671957850456238 0.0013193167978897691
0.00046985101653262973 0.6831173300743103 0
0.058381412178277969 0.70673346519470215 0.00025359509163536131
0.25423169136047363 0.73188716173171997 0
0.53105193376541138 0.73373496532440186 0
0.85097783803939819 0.73100626468658447 0.0011682099429890513
1 0.70709908008575439 0
0.99731159210205078 0.65022015571594238 0.0031629374716430902
0.00065849156817421317 0.93460327386856079 5.3675033996114507e-05
0.051126815378665924 0.94831454753875732 0.001262724632397294
0.23135688900947571 0.96280586719512939 0
0.48232343792915344 0.94865769147872925 0
0.77362984418869019 0.92890101671218872 0.00032282809843309224
0.99444121122360229 0.87989979982376099 3.8894954741408583e-06
1 0.80613386631011963 0.0012222739169374108
0.0056360433809459209 1 0
0.076434038579463959 1 0
0.22610124945640564 1 0
0.43540972471237183 1 0
0.67717176675796509 1 0
0.90952539443969727 0.99952536821365356 0
0.99848443269729614 0.96918004751205444 0.00031115961610339582
0.00034071979462169111 9.5681585662532598e-05 0.16232088208198547
0.11448442190885544 0 0.11365172266960144
0.29835471510887146 0 0.064335301518440247
0.4991031289100647 0 0.022674351930618286
0.73818790912628174 0 0.01108850259333849
0.97684985399246216 0 0.015467789955437183
1 0.00011435116175562143 0.007770119234919548
0.00052780448459088802 0.11318754404783249 0.13373048603534698
0.078219994902610779 0.059418324381113052 0.065171755850315094
0.29307651519775391 0.029526654630899429 0.031050963327288628
0.53391331434249878 0.023100549355149269 0.020216533914208412
0.80137670040130615 0.012296848930418491 0.013285199180245399
0.99459677934646606 0.028869358822703362 0.010222865268588066
1 0.044424843043088913 0.019148807972669601
0 0.29241359233856201 0.084483109414577484
0.070114493370056152 0.26147720217704773 0.04820583388209343
0.29102024435997009 0.23884092271327972 0.028852500021457672
0.56672006845474243 0.23298336565494537 0.011176060885190964
0.86508095264434814 0.2208152711391449 0.01183745451271534
1 0.22038102149963379 0.013902402482926846
0.99984407424926758 0.21495248377323151 0.03017762117087841
0.0011919208336621523 0.482796311378479 0.038875699043273926
0.069590114057064056 0.47357359528541565 0.03759225457906723
0.27789318561553955 0.47049754858016968 0.028992731124162674
0.56631803512573242 0.47450941801071167 0.011233161203563213
0.86795341968536377 0.47860923409461975 0.024596495553851128
1 0.46338462829589844 0.043168790638446808
0.9995836615562439 0.43202993273735046 0.06381601095199585
0 0.71508282423019409 0.035536836832761765
0.044425081461668015 0.71498626470565796 0.029083311557769775
0.24452753365039825 0.72042214870452881 0.0096679991111159325
0.52599620819091797 0.707183837890625 0.00070331047754734755
0.82143723964691162 0.69167155027389526 0.016617823392152786
0.99977982044219971 0.6632426381111145 0.034136153757572174
0.99998676776885986 0.61762231588363647 0.079018779098987579
0 0.96256762742996216 0.0092672165483236313
0.030301321297883987 0.96456992626190186 0.0079800030216574669
0.20439863204956055 0.96516197919845581 0.00011114980588899925
0.45505011081695557 0.93135613203048706 0
0.73475497961044312 0.89255720376968384 0.0012951121898368001
0.97955822944641113 0.83861303329467773 0.010822340846061707
1 0.78467142581939697 0.043088532984256744
0.001766204833984375 1 0.025193218141794205
0.049797821789979935 1 0.0063497354276478291
0.18884249031543732 1 0
0.39535760879516602 1 0
0.62485408782958984 1 0
0.86740732192993164 0.99438762664794922 0
0.99971526861190796 0.95671021938323975 0.0057915630750358105
0 0 0.32906889915466309
0.067392356693744659 1.1668485967675224e-05 0.29285398125648499
0.27581140398979187 0 0.26397189497947693
0.50768369436264038 0 0.23501376807689667
0.75337070226669312 2.6448567950865254e-05 0.22431805729866028
0.97568768262863159 0.00042317708721384406 0.20989097654819489
0.99971681833267212 0.00014935662329662591 0.20024952292442322
0.00013904945808462799 0.072582393884658813 0.34843593835830688
0.043507039546966553 0.040408745408058167 0.27271613478660583
0.26692959666252136 0.016163710504770279 0.22733508050441742
0.52471941709518433 0.015229811891913414 0.20769111812114716
0.78553622961044312 0.0040879789739847183 0.1972409188747406
0.99052536487579346 0.011049502529203892 0.17864012718200684
1 0.033876277506351471 0.17317618429660797
0 0.28089237213134766 0.31538748741149902
0.046452108770608902 0.23937168717384338 0.25209373235702515
0.2664000391960144 0.21453036367893219 0.21288391947746277
0.54391086101531982 0.20193441212177277 0.19203644990921021
0.82477849721908569 0.17783330380916595 0.18991979956626892
0.99881529808044434 0.16366945207118988 0.17864425480365753
1 0.16590452194213867 0.1749824732542038
0 0.49380961060523987 0.26546743512153625
0.044245969504117966 0.47077271342277527 0.22833795845508575
0.25826197862625122 0.455007404088974 0.19751743972301483
0.54229569435119629 0.4427696168422699 0.17814059555530548
0.8275679349899292 0.42518436908721924 0.19370353221893311
0.99960875511169434 0.39797776937484741 0.20589736104011536
1 0.36782076954841614 0.20406956970691681
0 0.72998511791229248 0.23313942551612854
0.045564103871583939 0.72303241491317749 0.19847005605697632
0.23870395123958588 0.7059749960899353 0.16494745016098022
0.49771291017532349 0.67778319120407104 0.14220206439495087
0.76485806703567505 0.64067536592483521 0.16316395998001099
0.99333751201629639 0.61299532651901245 0.19492211937904358
1 0.57644319534301758 0.22282879054546356
0 0.95633220672607422 0.19736281037330627
0.031091967597603798 0.97295820713043213 0.15767012536525726
0.19121769070625305 0.96403062343597412 0.11688917875289917
0.42696741223335266 0.91408401727676392 0.09059491753578186
0.68212002515792847 0.84868764877319336 0.094352975487709045
0.94964492321014404 0.80235582590103149 0.12829418480396271
1 0.76820993423461914 0.17731684446334839
0.00025301167625002563 1 0.19065031409263611
0.034585226327180862 1 0.14008642733097076
0.16428983211517334 1 0.087096899747848511
0.36849501729011536 1 0.035315867513418198
0.59716796875 0.99985909461975098 0.021565845236182213
0.84964948892593384 0.98768407106399536 0.043948080390691757
0.99985063076019287 0.95684146881103516 0.079735457897186279
0.0043322993442416191 0 0.5236855149269104
0.076962217688560486 0 0.50448703765869141
0.27117529511451721 0 0.48831325769424438
0.51797854900360107 0 0.47984269261360168
0.76610320806503296 0.0023832882288843393 0.46848905086517334
0.98109728097915649 0.0037582248914986849 0.44982379674911499
1 0.00010501637007109821 0.42485368251800537
0 0.03840738907456398 0.5970349907875061
0.040247417986392975 0.021325638517737389 0.52279061079025269
0.24311335384845734 0.016988717019557953 0.46991628408432007
0.51220649480819702 0.023673232644796371 0.44951555132865906
0.76282989978790283 0.01714903861284256 0.4275897741317749
0.97677862644195557 0.010124759748578072 0.3982771635055542
1 0.019363448023796082 0.37666630744934082
0 0.27009552717208862 0.61775237321853638
0.025255944579839706 0.22507615387439728 0.52874636650085449
0.22431108355522156 0.19799719750881195 0.46987834572792053
0.50558960437774658 0.1834690123796463 0.43090811371803284
0.77328991889953613 0.15058910846710205 0.39972019195556641
0.98040163516998291 0.11754259467124939 0.37005797028541565
1 0.11981070786714554 0.35245272517204285
0 0.5088774561882019 0.57056117057800293
0.0067254756577312946 0.47213461995124817 0.50763583183288574
0.21976348757743835 0.44140663743019104 0.45599791407585144
0.49246245622634888 0.41139289736747742 0.41082164645195007
0.75409197807312012 0.36927363276481628 0.38247084617614746
0.9678533673286438 0.3272520899772644 0.36574891209602356
1 0.30728974938392639 0.35759809613227844
0 0.74521011114120483 0.50374299287796021
0.017489189282059669 0.71858948469161987 0.45128187537193298
0.19336673617362976 0.68208116292953491 0.40625530481338501
0.44564348459243774 0.63702046871185303 0.36667522788047791
0.69437098503112793 0.59227496385574341 0.3452950119972229
0.94412469863891602 0.56049567461013794 0.3536754846572876
1 0.53633731603622437 0.38253560662269592
0 0.96510893106460571 0.45970407128334045
0.0080173863098025322 0.96011048555374146 0.40458863973617554
0.15718887746334076 0.92945200204849243 0.35274490714073181
0.38905626535415649 0.87228250503540039 0.30798158049583435
0.63348871469497681 0.81309026479721069 0.28187248110771179
0.89698225259780884 0.7742919921875 0.30751261115074158
1 0.75167679786682129 0.36658227443695068
0 1 0.42360848188400269
0.015806205570697784 1 0.35451561212539673
0.13600409030914307 1 0.29660880565643311
0.3339170515537262 0.99999356269836426 0.24680425226688385
0.55448180437088013 0.99234837293624878 0.21660949289798737
0.80565327405929565 0.97871130704879761 0.22886836528778076
0.9987291693687439 0.94863039255142212 0.26486453413963318
0.01133283693343401 0 0.76719170808792114
0.086853988468647003 0 0.74754238128662109
0.26804295182228088 0 0.74092817306518555
0.51298338174819946 8.4790997789241374e-05 0.73933106660842896
0.75375843048095703 0.0014249165542423725 0.71089613437652588
0.95971834659576416 0.00024562163162045181 0.66741770505905151
1 0 0.61091262102127075
0.0001898372865980491 0.020500391721725464 0.88548064231872559
0.034451473504304886 0.0067765181884169579 0.79628860950469971
0.21555633842945099 0.0071029514074325562 0.74581116437911987
0.48563143610954285 0.016441434621810913 0.7201240062713623
0.72832834720611572 0.0055733625777065754 0.66589784622192383
0.93410885334014893 1.1967677892243955e-05 0.60619324445724487
1 0.0017756891902536154 0.56321954727172852
0 0.25361159443855286 0.93688118457794189
0.018432542681694031 0.20485641062259674 0.83496439456939697
0.18024773895740509 0.17330828309059143 0.75697916746139526
0.4531061053276062 0.15685109794139862 0.68877005577087402
0.70774084329605103 0.11280984431505203 0.61510646343231201
0.92117887735366821 0.068775087594985962 0.56065362691879272
1 0.078679054975509644 0.53292018175125122
0 0.5133940577507019 0.92161732912063599
0.0038286545313894749 0.46289801597595215 0.83306145668029785
0.15265995264053345 0.41496491432189941 0.7437361478805542
0.41895851492881775 0.37352582812309265 0.65680044889450073
0.67695659399032593 0.31565529108047485 0.58005517721176147
0.90221047401428223 0.266317218542099 0.5414879322052002
1 0.26064148545265198 0.52813816070556641
2.6448567950865254e-05 0.73986804485321045 0.80538368225097656
0.0072902604006230831 0.69037377834320068 0.73067939281463623
0.13409328460693359 0.63578653335571289 0.66204804182052612
0.37666761875152588 0.5841173529624939 0.5962444543838501
0.61971443891525269 0.53295433521270752 0.53694087266921997
0.85071843862533569 0.5011938214302063 0.52012276649475098
0.99701464176177979 0.49645581841468811 0.53978604078292847
7.5845156970899552e-05 0.93732720613479614 0.70638167858123779
0.0048847123980522156 0.89917129278182983 0.6317373514175415
0.11817400902509689 0.85113310813903809 0.58014917373657227
0.33862400054931641 0.80231165885925293 0.52900737524032593
0.56996893882751465 0.75420957803726196 0.48975151777267456
0.81171983480453491 0.72900909185409546 0.49561095237731934
0.99890249967575073 0.72912693023681641 0.54146879911422729
0 1 0.61126047372817993
0.006808591540902853 1 0.54794985055923462
0.10026980936527252 0.99970346689224243 0.51076418161392212
0.29095762968063354 0.99497586488723755 0.49227356910705566
0.50995022058486938 0.97567445039749146 0.46337178349494934
0.75390756130218506 0.95612680912017822 0.46271654963493347
0.98814308643341064 0.9380030632019043 0.49302187561988831
0.013682586140930653 0 0.93360835313796997
0.096052281558513641 0 0.93570685386657715
0.26387065649032593 0 0.95161706209182739
0.48993659019470215 0.00027207020320929587 0.9613337516784668
0.7086482048034668 0 0.91260159015655518
0.89359891414642334 0 0.83817631006240845
0.99777168035507202 0 0.76113486289978027
0.0022021874319761992 0.028350440785288811 0.99873507022857666
0.04986223578453064 0.0051032868213951588 0.97802048921585083
0.20961908996105194 0.0014030606253072619 0.96759140491485596
0.4562084972858429 0.0014249315718188882 0.96044647693634033
0.67684108018875122 0 0.88630479574203491
0.87220042943954468 0 0.80228197574615479
0.99811291694641113 0 0.7314104437828064
0 0.24207554757595062 0.99997663497924805
0.01737600564956665 0.18021419644355774 0.99842697381973267
0.14596708118915558 0.1360994279384613 0.97482025623321533
0.3908345103263855 0.1100480780005455 0.92615926265716553
0.63626015186309814 0.067553363740444183 0.84499895572662354
0.85252368450164795 0.030282637104392052 0.77976399660110474
0.99837970733642578 0.047025613486766815 0.7245975136756897
0 0.51000750064849854 1
0.0015496198320761323 0.43773871660232544 1
0.101051926612854 0.37442117929458618 0.98720741271972656
0.33530429005622864 0.3240397572517395 0.91625452041625977
0.59805905818939209 0.26280912756919861 0.81040108203887939
0.83405405282974243 0.21599607169628143 0.7609143853187561
0.99554771184921265 0.2147383838891983 0.72717392444610596
0 0.72573751211166382 0.99987852573394775
0.00055274215992540121 0.65895211696624756 0.98995399475097656
0.081834279000759125 0.59713280200958252 0.93110543489456177
0.29824864864349365 0.5420653223991394 0.85269701480865479
0.54964792728424072 0.49094155430793762 0.76616984605789185
0.79172277450561523 0.45752072334289551 0.72983074188232422
0.98548042774200439 0.45184308290481567 0.72813332080841064
0 0.88682085275650024 0.93681174516677856
0.0003566367959138006 0.83793991804122925 0.87847012281417847
0.050073735415935516 0.79323720932006836 0.82551729679107666
0.2591826319694519 0.75350767374038696 0.77801895141601562
0.50480860471725464 0.71646761894226074 0.72760969400405884
0.74366432428359985 0.69624191522598267 0.70752954483032227
0.98125344514846802 0.70482951402664185 0.72865301370620728
0 0.99508047103881836 0.7798885703086853
3.8894952012924477e-05 0.98574972152709961 0.74023634195327759
0.03850390762090683 0.98399972915649414 0.7275625467300415
0.21770142018795013 0.97686272859573364 0.73360991477966309
0.45953169465065002 0.95522803068161011 0.71233052015304565
0.70917654037475586 0.93727701902389526 0.69822973012924194
0.96771478652954102 0.93850457668304443 0.71818816661834717
0.010686896741390228 0 0.99716436862945557
0.093520745635032654 0 1
0.24030002951622009 0 1
0.4371914267539978 0 1
0.63577240705490112 0 1
0.80650383234024048 0 0.96463727951049805
0.93454432487487793 0 0.88551974296569824
0.0035845588427037001 0.014937247149646282 1
0.048318061977624893 0.0014719046885147691 1
0.17382387816905975 0 1
0.38469424843788147 0 1
0.60162800550460815 0 0.99966657161712646
0.78856521844863892 0 0.9606284499168396
0.92772960662841797 0 0.87635117769241333
0 0.21454913914203644 0.9994463324546814
0.0077905990183353424 0.15123245120048523 1
0.093257173895835876 0.091020263731479645 1
0.31311222910881042 0.065468430519104004 1
0.56220006942749023 0.039710190147161484 0.99526441097259521
0.77624988555908203 0.016065679490566254 0.97833502292633057
0.94314277172088623 0.038398053497076035 0.90487289428710938
0 0.49285596609115601 0.99998480081558228
0 0.4050825834274292 1
0.064270928502082825 0.32764372229576111 1
0.26943609118461609 0.27648511528968811 0.99993103742599487
0.53078430891036987 0.23066070675849915 0.97807914018630981
0.76698964834213257 0.18957345187664032 0.97197651863098145
0.96178531646728516 0.18592008948326111 0.92816853523254395
0 0.69450259208679199 1
0 0.62838494777679443 1
0.046203270554542542 0.56746631860733032 1
0.23035228252410889 0.51716095209121704 0.99962717294692993
0.48646414279937744 0.48232710361480713 0.97597575187683105
0.74061393737792969 0.44706946611404419 0.95242810249328613
0.96400398015975952 0.41600766777992249 0.93327456712722778
0 0.82807540893554688 1
0 0.78815752267837524 1
0.0090747606009244919 0.76421695947647095 0.99990361928939819
0.17859260737895966 0.7424623966217041 0.99774062633514404
0.44959083199501038 0.71987497806549072 0.97533291578292847
0.71000629663467407 0.70003771781921387 0.94559484720230103
0.95120489597320557 0.68837898969650269 0.94263464212417603
0 0.9303697943687439 0.93908119201660156
0 0.91089069843292236 0.92539709806442261
0.0079390136525034904 0.94047451019287109 0.94393950700759888
0.15718458592891693 0.95950698852539062 0.96041274070739746
0.42229482531547546 0.94764876365661621 0.95009529590606689
0.69271790981292725 0.93962031602859497 0.93651759624481201
0.95363056659698486 0.94705641269683838 0.95102769136428833
