assets/lut/toddblankenship waves.cube
# Created by: G'MIC (https://gmic.eu)
TITLE "waves"
# LUT size
LUT_3D_SIZE 5
# Data domain
DOMAIN_MIN 0.0 0.0 0.0
DOMAIN_MAX 1.0 1.0 1.0
# LUT data points
0.011444690637290478 0.010026221163570881 0.013677305541932583
0.36838918924331665 0.0010740541620180011 0.0001752068055793643
0.825431227684021 0.011140038259327412 0.0027563655748963356
0.99159276485443115 0.0061208689585328102 0
1 0.0062420116737484932 0.00088620651513338089
0.0010293847881257534 0.37294214963912964 0.0010619518579915166
0.27903062105178833 0.26552394032478333 0.0020652471575886011
0.7170148491859436 0.18068407475948334 0.00041059605428017676
0.99615621566772461 0.073801316320896149 0
1 0.057337593287229538 0.00026370777050033212
0.011040556244552135 0.75976192951202393 0.009104081429541111
0.20962689816951752 0.68372732400894165 0.0087957195937633514
0.60991555452346802 0.60150814056396484 0.0026022519450634718
0.98655122518539429 0.51993769407272339 0
0.99879443645477295 0.46769532561302185 0
0.0093137258663773537 0.99384045600891113 0.0054538203403353691
0.13327240943908691 0.99240767955780029 0.0057275062426924706
0.54298603534698486 0.97871232032775879 0.00051751232240349054
0.96137833595275879 0.95015257596969604 0
1 0.89249050617218018 8.4013096056878567e-05
0.0095480829477310181 1 0.0076836529187858105
0.18989665806293488 0.99614548683166504 0.010976888239383698
0.57808220386505127 0.99215686321258545 0.004426904022693634
0.93790769577026367 0.99704092741012573 0.0026860705111175776
1 0.99997413158416748 0.0013471117708832026
0.0059188096784055233 0.0059366114437580109 0.31214210391044617
0.20196206867694855 0.0019326901528984308 0.19117388129234314
0.6579316258430481 0 0.14435338973999023
0.98678010702133179 0.00022642845578957349 0.030583236366510391
1 0.00074216059874743223 0.011689803563058376
0.0029694500844925642 0.26670917868614197 0.24192649126052856
0.18647029995918274 0.1432439386844635 0.12902504205703735
0.60183537006378174 0.070495307445526123 0.055587559938430786
0.99097919464111328 0.06888764351606369 0.02905617468059063
1 0.072444900870323181 0.011143523268401623
0.001774956239387393 0.63450056314468384 0.21647542715072632
0.13951826095581055 0.53689670562744141 0.11100915819406509
0.52302044630050659 0.5101349949836731 0.032565545290708542
0.97299075126647949 0.45198521018028259 0.013108990155160427
1 0.42863890528678894 0.010635525919497013
0.0069315144792199135 0.98145192861557007 0.15341837704181671
0.082103684544563293 0.96116703748703003 0.055365409702062607
0.47314471006393433 0.95544785261154175 0.043461009860038757
0.93161994218826294 0.90509092807769775 0.038494333624839783
1 0.85194355249404907 0.043359238654375076
0 0.99613094329833984 0.093588612973690033
0.11466792970895767 0.99675506353378296 0.059012439101934433
0.51080656051635742 0.98763161897659302 0.095682062208652496
0.89866596460342407 0.99583339691162109 0.036353450268507004
1 0.99557632207870483 0.042441766709089279
0.0014084610156714916 0.00067811855114996433 0.64801561832427979
0.19528740644454956 0 0.66585153341293335
0.27716481685638428 0.04665520042181015 0.29009056091308594
0.68250554800033569 0.021753048524260521 0.31879368424415588
0.99539625644683838 0.0016476799501106143 0.33881086111068726
0.018714860081672668 0.17587229609489441 0.41953346133232117
0.11999888718128204 0.069993786513805389 0.40334641933441162
0.5101478099822998 0.04999624565243721 0.47631102800369263
0.9617728590965271 0.035911142826080322 0.43814712762832642
0.99928873777389526 0.066756211221218109 0.3779703676700592
0.0037699083331972361 0.46454742550849915 0.52745407819747925
0.14061519503593445 0.3941035270690918 0.39582040905952454
0.4848579466342926 0.4384530782699585 0.41427004337310791
0.91909515857696533 0.43498587608337402 0.41246604919433594
0.99927610158920288 0.41028201580047607 0.40499314665794373
0.0010794246336445212 0.86012297868728638 0.56442689895629883
0.14710827171802521 0.78942883014678955 0.4802761971950531
0.49654686450958252 0.86015599966049194 0.44949531555175781
0.85900366306304932 0.82928860187530518 0.42367735505104065
0.99867701530456543 0.78376132249832153 0.39403611421585083
0.0031615612097084522 0.99323290586471558 0.55777180194854736
0.13247466087341309 0.99021852016448975 0.50198936462402344
0.45572033524513245 0.99237668514251709 0.46422621607780457
0.80868107080459595 0.99748235940933228 0.40139713883399963
0.99932050704956055 0.99471127986907959 0.39349600672721863
0.0025304309092462063 0.00097313674632459879 0.96247035264968872
0.10159430652856827 0.001942997332662344 0.97636008262634277
0.48258277773857117 0.00085655663860961795 0.96284157037734985
0.72886592149734497 0.0060491226613521576 0.72954297065734863
0.91378211975097656 0 0.62767875194549561
0.05244070291519165 0.17855909466743469 0.67795383930206299
0.12844493985176086 0.07694631814956665 0.82893294095993042
0.44062206149101257 0.023149961605668068 0.95224177837371826
0.89198857545852661 0.057798691093921661 0.87240439653396606
0.99643605947494507 0.083918780088424683 0.72075361013412476
0.16647478938102722 0.43866780400276184 0.65256756544113159
0.4274623692035675 0.48929968476295471 0.62143701314926147
0.52563959360122681 0.48815906047821045 0.7771485447883606
0.84626644849777222 0.42777702212333679 0.82256615161895752
0.99655318260192871 0.40373378992080688 0.73966890573501587
0.071271561086177826 0.69690787792205811 0.79047924280166626
0.53008908033370972 0.66848844289779663 0.67680150270462036
0.70212048292160034 0.76445317268371582 0.74866724014282227
0.82714611291885376 0.78674411773681641 0.77193355560302734
0.99713039398193359 0.73872774839401245 0.73299020528793335
0.0024318320211023092 0.99562537670135498 0.9297940731048584
0.16791987419128418 0.99253684282302856 0.85804301500320435
0.49529242515563965 0.98904764652252197 0.79254168272018433
0.76093018054962158 0.9891585111618042 0.73850840330123901
0.98328429460525513 0.98525369167327881 0.70680451393127441
0.0070613338612020016 0.0045279259793460369 0.99336612224578857
0.089008510112762451 0.0071537839248776436 0.99205511808395386
0.40001967549324036 0.0011310502886772156 0.9984666109085083
0.80909144878387451 0.0010089201387017965 0.99846601486206055
0.93702900409698486 0 0.92288398742675781
0.066490843892097473 0.19686722755432129 0.93143254518508911
0.12378235161304474 0.095341987907886505 0.9920804500579834
0.40348756313323975 0.052756816148757935 0.99848765134811401
0.82351672649383545 0.079234331846237183 0.99763262271881104
0.99991530179977417 0.069436244666576385 0.97701585292816162
0.34485152363777161 0.52662324905395508 0.81159716844558716
0.44409048557281494 0.5651276707649231 0.9228435754776001
0.51982134580612183 0.50008642673492432 0.99296516180038452
0.78402119874954224 0.4265887439250946 0.99334758520126343
0.99046593904495239 0.3871486485004425 0.97981077432632446
0.39291548728942871 0.71568149328231812 0.87101948261260986
0.58918088674545288 0.77291351556777954 0.89316761493682861
0.74434804916381836 0.83262091875076294 0.96015220880508423
0.81717360019683838 0.7763969898223877 0.98323798179626465
0.98011595010757446 0.7107582688331604 0.97627764940261841
0.22219190001487732 0.91223776340484619 0.98780077695846558
0.46521198749542236 0.93828195333480835 0.97579264640808105
0.67302674055099487 0.96404337882995605 0.97397279739379883
0.8331494927406311 0.97919636964797974 0.97038829326629639
0.98213702440261841 0.97418135404586792 0.97374355792999268
