assets/lut/toddblankenship waves.cube
# Created by: G'MIC (https://gmic.eu)
TITLE "waves"
# LUT size
LUT_3D_SIZE 13
# Data domain
DOMAIN_MIN 0.0 0.0 0.0
DOMAIN_MAX 1.0 1.0 1.0
# LUT data points
0.011444690637290478 0.010026221163570881 0.013677305541932583
0.064755730330944061 0.0050633447244763374 0.004796929657459259
0.17597098648548126 0.00099126773420721292 0.0005737454048357904
0.36838918924331665 0.0010740541620180011 0.0001752068055793643
0.53173786401748657 0.0047926511615514755 0.0016002430347725749
0.67690032720565796 0.011458497494459152 0.0043548434041440487
0.825431227684021 0.011140038259327412 0.0027563655748963356
0.94945859909057617 0.0055013019591569901 0.00041297465213574469
0.97950237989425659 0.0055027082562446594 0
0.99159276485443115 0.0061208689585328102 0
0.99589270353317261 0.0071969274431467056 0
0.99793297052383423 0.0075115426443517208 2.1541820842685411e-06
1 0.0062420116737484932 0.00088620651513338089
0.007615960668772459 0.072229169309139252 0.004916501697152853
0.056510221213102341 0.049488306045532227 0.0054031373001635075
0.13866986334323883 0.036547597497701645 0.00078579771798104048
0.29840093851089478 0.033770542591810226 0.0011975605739280581
0.48997294902801514 0.037043701857328415 0.0026710210368037224
0.63961267471313477 0.040723733603954315 0.0036920583806931973
0.78701430559158325 0.037363793700933456 0.0012272404273971915
0.92215132713317871 0.021418388932943344 6.7961453169118613e-05
0.97706687450408936 0.015999946743249893 0
0.99175840616226196 0.018300987780094147 0
0.99653512239456177 0.022950788959860802 0
0.99966078996658325 0.023421149700880051 1.7951516895209352e-07
1 0.021217616274952888 0.00080183439422398806
0.0019193910993635654 0.2012452632188797 0.0032927270513027906
0.044761240482330322 0.13289572298526764 0.0011272655101493001
0.12331119924783707 0.11322052776813507 0.00030861649429425597
0.26522412896156311 0.1287628710269928 0.0013369990047067404
0.45198279619216919 0.13081353902816772 0.0015304565895348787
0.60506910085678101 0.10080403089523315 0.00071246578590944409
0.7501145601272583 0.073042623698711395 9.9271885119378567e-05
0.89689308404922485 0.045283418148756027 0.00031944722286425531
0.98141229152679443 0.033946618437767029 0
0.99432480335235596 0.042074106633663177 0
0.99916595220565796 0.04445960745215416 0
1 0.041008684784173965 0
1 0.036842763423919678 0.0005740894703194499
0.0010293847881257534 0.37294214963912964 0.0010619518579915166
0.045143846422433853 0.29374849796295166 0.0015909232897683978
0.14465919137001038 0.2576853334903717 0.0013762230519205332
0.27903062105178833 0.26552394032478333 0.0020652471575886011
0.4365847110748291 0.26280099153518677 0.0025878008455038071
0.57598620653152466 0.22678253054618835 0.0014663547044619918
0.7170148491859436 0.18068407475948334 0.00041059605428017676
0.86675304174423218 0.13113650679588318 0.0011522779241204262
0.97691887617111206 0.096977159380912781 3.1594670872436836e-05
0.99615621566772461 0.073801316320896149 0
1 0.070956319570541382 0
1 0.06680743396282196 0
1 0.057337593287229538 0.00026370777050033212
0.00074443442281335592 0.51247137784957886 0.001398243592120707
0.039054974913597107 0.47664666175842285 0.0036234688013792038
0.15359148383140564 0.44064870476722717 0.0037837906274944544
0.28144705295562744 0.42074984312057495 0.0042699775658547878
0.41214120388031006 0.39693701267242432 0.0052748285233974457
0.5433201789855957 0.36093541979789734 0.0042932699434459209
0.68406784534454346 0.31673070788383484 0.0018395218066871166
0.8328210711479187 0.26760846376419067 0.0014038983499631286
0.96208822727203369 0.22677126526832581 9.1911766503471881e-05
0.99122434854507446 0.19465094804763794 0
0.99816048145294189 0.1734454482793808 0
0.99973529577255249 0.15508921444416046 0
1 0.13597202301025391 0
0.0040910756215453148 0.63526064157485962 0.0063328612595796585
0.027463875710964203 0.6039690375328064 0.008693949319422245
0.126031294465065 0.57308751344680786 0.0071705984883010387
0.2513333261013031 0.55083286762237549 0.0078262332826852798
0.37675753235816956 0.52676022052764893 0.0076079722493886948
0.50622773170471191 0.49584680795669556 0.0057631996460258961
0.64802068471908569 0.45639136433601379 0.002419834490865469
0.79940962791442871 0.40844222903251648 0.0014159558340907097
0.93674486875534058 0.37863385677337646 9.1911766503471881e-05
0.98278582096099854 0.35818019509315491 0
0.99534916877746582 0.33681127429008484 0
0.99644166231155396 0.31195780634880066 0
0.99957513809204102 0.2896474301815033 0
0.011040556244552135 0.75976192951202393 0.009104081429541111
0.030154703184962273 0.72761058807373047 0.011588661000132561
0.093106590211391449 0.70264118909835815 0.0095120444893836975
0.20962689816951752 0.68372732400894165 0.0087957195937633514
0.33718019723892212 0.66308897733688354 0.0079631730914115906
0.46702671051025391 0.63687688112258911 0.0059283087030053139
0.60991555452346802 0.60150814056396484 0.0026022519450634718
0.76042616367340088 0.56409275531768799 0.0012704887194558978
0.9062047004699707 0.53922992944717407 9.1911766503471881e-05
0.98655122518539429 0.51993769407272339 0
0.99599570035934448 0.504996657371521 0
0.99607843160629272 0.48708680272102356 0
0.99879443645477295 0.46769532561302185 0
0.010452090762555599 0.89413756132125854 0.0077739940024912357
0.029968651011586189 0.8640933632850647 0.0096936691552400589
0.063657753169536591 0.84361231327056885 0.0094377109780907631
0.16280372440814972 0.82696288824081421 0.0082286763936281204
0.2956598699092865 0.80533397197723389 0.0076985978521406651
0.43001407384872437 0.78259527683258057 0.0052847918123006821
0.57350516319274902 0.75275635719299316 0.0020923390984535217
0.72354471683502197 0.72551333904266357 0.00085896509699523449
0.87594687938690186 0.698688805103302 2.8722426577587612e-05
0.98532360792160034 0.67617160081863403 0
0.99600839614868164 0.66413182020187378 0
0.9960816502571106 0.64830666780471802 0
0.99874728918075562 0.63128501176834106 0
0.008491097018122673 0.984943687915802 0.0040548886172473431
0.027004944160580635 0.96967542171478271 0.0053775114938616753
0.04783325269818306 0.96625232696533203 0.0059039546176791191
0.12668034434318542 0.95728039741516113 0.0057859085500240326
0.26210954785346985 0.93916571140289307 0.0062446743249893188
0.40049088001251221 0.92621731758117676 0.0033891566563397646
0.54570639133453369 0.89977449178695679 0.00089842855231836438
0.69953018426895142 0.87082171440124512 0.00011040183017030358
0.8505023717880249 0.84518945217132568 0
0.97106277942657471 0.8201289176940918 0
0.99597108364105225 0.80076730251312256 0
0.99626260995864868 0.78196269273757935 0
0.99957895278930664 0.7663227915763855 9.8015283583663404e-05
0.0093137258663773537 0.99384045600891113 0.0054538203403353691
0.026885148137807846 0.99148327112197876 0.0055919871665537357
0.053072445094585419 0.99475091695785522 0.0059919767081737518
0.13327240943908691 0.99240767955780029 0.0057275062426924706
0.26101252436637878 0.9908255934715271 0.0054530422203242779
0.39780405163764954 0.9908679723739624 0.0028417250141501427
0.54298603534698486 0.97871232032775879 0.00051751232240349054
0.69374716281890869 0.96626323461532593 3.7698184769396903e-06
0.84380894899368286 0.96168535947799683 0
0.96137833595275879 0.95015257596969604 0
0.99445712566375732 0.92720049619674683 0
0.99913805723190308 0.9082413911819458 0
1 0.89249050617218018 8.4013096056878567e-05
0.0093090580776333809 0.99595963954925537 0.0068068113178014755
0.028743669390678406 0.99600076675415039 0.0067337932996451855
0.07016492635011673 0.99607843160629272 0.0073369042947888374
0.15366718173027039 0.99554860591888428 0.0078020733781158924
0.27705127000808716 0.99542415142059326 0.0067183701321482658
0.41457149386405945 0.99278551340103149 0.0043140933848917484
0.55926758050918579 0.98888880014419556 0.0024410323239862919
0.70819491147994995 0.98703986406326294 0.0014060076791793108
0.8481287956237793 0.99197286367416382 0.00080527510726824403
0.94802987575531006 0.99493604898452759 0
0.99350297451019287 0.99553453922271729 0
1 0.98864275217056274 0
1 0.98529839515686035 0
0.0087794885039329529 0.99723756313323975 0.0074397814460098743
0.037278927862644196 0.99800568819046021 0.0070430529303848743
0.094414867460727692 0.99619549512863159 0.0084020430222153664
0.17494234442710876 0.99607843160629272 0.0094243967905640602
0.29046037793159485 0.99598652124404907 0.0084635717794299126
0.42993858456611633 0.99243360757827759 0.0049637290649116039
0.57230561971664429 0.99139958620071411 0.0038390215486288071
0.71164172887802124 0.99125277996063232 0.0030903834849596024
0.83503520488739014 0.9929434061050415 0.0021431716158986092
0.94192004203796387 0.99620085954666138 0.00086640001973137259
0.99546074867248535 0.99849343299865723 0.00072482239920645952
1 0.99740904569625854 0.00037360098212957382
1 0.99941188097000122 6.9831396103836596e-05
0.0095480829477310181 1 0.0076836529187858105
0.052654806524515152 1 0.0073421550914645195
0.11610491573810577 0.99876105785369873 0.0093201585114002228
0.18989665806293488 0.99614548683166504 0.010976888239383698
0.29685837030410767 0.99606120586395264 0.0098089482635259628
0.43857625126838684 0.99245244264602661 0.0055226641707122326
0.57808220386505127 0.99215686321258545 0.004426904022693634
0.70733797550201416 0.99215686321258545 0.0043579698540270329
0.8274005651473999 0.99398964643478394 0.0038789785467088223
0.93790769577026367 0.99704092741012573 0.0026860705111175776
0.99657779932022095 1 0.0018099616281688213
1 0.99988585710525513 0.0019441492622718215
1 0.99997413158416748 0.0013471117708832026
0.0088909072801470757 0.0081385448575019836 0.084474571049213409
0.056523416191339493 0.0060357488691806793 0.045199152082204819
0.13462911546230316 0.0013778536813333631 0.03213539719581604
0.29141643643379211 0.0021964728366583586 0.02647615410387516
0.48508760333061218 0.0038306443020701408 0.020006844773888588
0.63046634197235107 0.0071595283225178719 0.015117241069674492
0.77023601531982422 0.0072064567357301712 0.0073494105599820614
0.91001909971237183 0.003438104409724474 0.0036906222812831402
0.98433440923690796 0.0030800164677202702 8.4252453234512359e-05
0.99577027559280396 0.0044739814475178719 0.0010362513130530715
0.99686980247497559 0.0061194775626063347 0.0004991868045181036
0.9998706579208374 0.0055444603785872459 0.0018908631755039096
1 0.0052268831059336662 0.0049993176944553852
0.011473367922008038 0.069214567542076111 0.063889235258102417
0.087849348783493042 0.069305926561355591 0.059993159025907516
0.19898256659507751 0.042494021356105804 0.039339460432529449
0.32531696557998657 0.024978218600153923 0.018416475504636765
0.46050924062728882 0.02348601445555687 0.015084405429661274
0.59865802526473999 0.025488326326012611 0.015940317884087563
0.74331855773925781 0.022865235805511475 0.0086870081722736359
0.8903767466545105 0.014792677946388721 0.0026526208966970444
0.98157083988189697 0.0084549998864531517 3.5544002457754686e-05
0.99577212333679199 0.011928094550967216 0.00053742353338748217
0.99836856126785278 0.016698606312274933 0.0015190124977380037
0.99999982118606567 0.01744372770190239 0.0032312131952494383
1 0.018290411680936813 0.0050191241316497326
0.0053242999128997326 0.18578052520751953 0.056224524974822998
0.062119577080011368 0.18226200342178345 0.037640798836946487
0.17398767173290253 0.14868515729904175 0.018605984747409821
0.29645410180091858 0.11740341037511826 0.0096168369054794312
0.42878696322441101 0.088127449154853821 0.0097316671162843704
0.56425118446350098 0.067651249468326569 0.010706149972975254
0.70718526840209961 0.057176955044269562 0.0067301583476364613
0.85652714967727661 0.043655022978782654 0.0041637197136878967
0.97339731454849243 0.029577277600765228 0.00062906602397561073
0.99605083465576172 0.032935917377471924 0.00058098585577681661
0.99992620944976807 0.038065113127231598 0.002161751501262188
1 0.037312015891075134 0.0031859902665019035
1 0.035326492041349411 0.0042351069860160351
0.0034810982178896666 0.33490616083145142 0.045350633561611176
0.04783133789896965 0.30647927522659302 0.024821037426590919
0.15072092413902283 0.27158254384994507 0.021341973915696144
0.26742660999298096 0.24206332862377167 0.017371518537402153
0.39856803417205811 0.2144673615694046 0.015240508131682873
0.53249716758728027 0.17998717725276947 0.010077577084302902
0.67448228597640991 0.14745877683162689 0.006658636499196291
0.82519912719726562 0.10863862931728363 0.005184816662222147
0.95843267440795898 0.071362905204296112 0.0010825961362570524
0.99703985452651978 0.063513904809951782 5.0488641136325896e-05
1 0.072567015886306763 0.0016399009618908167
1 0.071589797735214233 0.0020711710676550865
1 0.066530339419841766 0.0032799814362078905
0.0012247123522683978 0.47653084993362427 0.02711271308362484
0.04329516738653183 0.43427193164825439 0.020657004788517952
0.13432249426841736 0.39768329262733459 0.02589702233672142
0.24355462193489075 0.37138074636459351 0.021989904344081879
0.36920735239982605 0.34642812609672546 0.018630921840667725
0.5015607476234436 0.3147377073764801 0.012683643959462643
0.64448451995849609 0.27825936675071716 0.0064531364478170872
0.79742348194122314 0.2339533269405365 0.0049256565980613232
0.93885308504104614 0.1931920051574707 0.0015775044448673725
0.99021309614181519 0.17193146049976349 0
0.9975513219833374 0.16565428674221039 2.5670668037491851e-05
0.99960356950759888 0.15714757144451141 6.582222908946278e-07
1 0.14781449735164642 0.00022862752666696906
0.0048965751193463802 0.59348630905151367 0.025843467563390732
0.03124021552503109 0.55461752414703369 0.024667568504810333
0.11101732403039932 0.52223455905914307 0.025687199085950851
0.21926574409008026 0.5003320574760437 0.023372426629066467
0.34054014086723328 0.48028674721717834 0.021910902112722397
0.47199884057044983 0.45484080910682678 0.014738613739609718
0.61445027589797974 0.42065563797950745 0.0070648193359375
0.76977026462554932 0.37887752056121826 0.0052840737625956535
0.91581755876541138 0.35164818167686462 0.002538404194638133
0.98026001453399658 0.33398300409317017 0
0.99384289979934692 0.31822293996810913 0
0.99634885787963867 0.3000093400478363 0
0.99963951110839844 0.28769567608833313 0.00031388227944262326
0.0093257231637835503 0.71791398525238037 0.026921112090349197
0.026529049500823021 0.67915225028991699 0.030444441363215446
0.082360133528709412 0.65097886323928833 0.028298860415816307
0.19174590706825256 0.63394713401794434 0.025999749079346657
0.30985334515571594 0.61837852001190186 0.022511590272188187
0.44060510396957397 0.60107064247131348 0.014817720279097557
0.58305609226226807 0.57219457626342773 0.0073011061176657677
0.73564296960830688 0.53989911079406738 0.005017254501581192
0.88767844438552856 0.51691162586212158 0.0030339858494699001
0.98224121332168579 0.49946621060371399 8.8860006144386716e-06
0.99518501758575439 0.48824545741081238 0
0.99607938528060913 0.47522726655006409 0
0.99927657842636108 0.46182987093925476 1.2835334018745925e-05
0.009219869039952755 0.84909075498580933 0.019760819151997566
0.024476099759340286 0.81463116407394409 0.024998638778924942
0.05709407851099968 0.78996974229812622 0.026324044913053513
0.15318924188613892 0.77628082036972046 0.023543205112218857
0.27817201614379883 0.76043128967285156 0.021897424012422562
0.40762698650360107 0.74781286716461182 0.013578646816313267
0.54983848333358765 0.72592085599899292 0.0066818986088037491
0.70261847972869873 0.7014346718788147 0.004383475985378027
0.85853612422943115 0.67881697416305542 0.002753029577434063
0.97913664579391479 0.65957832336425781 4.8873003834160045e-05
0.99592107534408569 0.6483568549156189 5.7070861657848582e-05
0.99663782119750977 0.63501769304275513 0.00072942994302138686
0.99989604949951172 0.62054312229156494 0.0014907986624166369
0.0088946325704455376 0.9614906907081604 0.0093934303149580956
0.027211433276534081 0.94045227766036987 0.014440514147281647
0.05194835364818573 0.92317724227905273 0.019601544365286827
0.11862902343273163 0.9161536693572998 0.017461350187659264
0.24448905885219574 0.90131604671478271 0.016714327037334442
0.37961065769195557 0.89042407274246216 0.011168311350047588
0.52425819635391235 0.872364342212677 0.0046159033663570881
0.67753660678863525 0.8471992015838623 0.003027687780559063
0.83030503988265991 0.82447314262390137 0.001112829428166151
0.96610403060913086 0.80458205938339233 1.9746669295273023e-06
0.99606907367706299 0.78727030754089355 0.0013502681395038962
0.99747771024703979 0.76931726932525635 0.0030034382361918688
1 0.75559914112091064 0.0035884184762835503
0.0089295478537678719 0.99260407686233521 0.0091902194544672966
0.026977958157658577 0.9890250563621521 0.012412874959409237
0.050606939941644669 0.98610824346542358 0.015587376430630684
0.11233213543891907 0.98276621103286743 0.01442559901624918
0.23309704661369324 0.97884166240692139 0.0130360322073102
0.37047064304351807 0.97835147380828857 0.0075806560926139355
0.51587706804275513 0.96960949897766113 0.0038403829094022512
0.66621929407119751 0.9562574028968811 0.0013672473141923547
0.81773489713668823 0.9430658221244812 0.0016210218891501427
0.95120292901992798 0.9315866231918335 9.8733340564649552e-05
0.99295473098754883 0.91628456115722656 0.0021661496721208096
0.99901533126831055 0.89771431684494019 0.0028570885770022869
1 0.8841710090637207 0.0024879905395209789
0.0075663398019969463 0.99607473611831665 0.017431521788239479
0.02398345060646534 0.99603688716888428 0.016182379797101021
0.052648026496171951 0.9954875111579895 0.016531297937035561
0.12673106789588928 0.99323302507400513 0.015043864957988262
0.24655149877071381 0.99160492420196533 0.013756935484707355
0.38613346219062805 0.99153357744216919 0.008347739465534687
0.53066325187683105 0.98894631862640381 0.0042777415364980698
0.68081116676330566 0.98569124937057495 0.004162223543971777
0.82815366983413696 0.98707813024520874 0.0036453097127377987
0.94046932458877563 0.99329262971878052 0.0010921104112640023
0.98877298831939697 0.99218642711639404 0.0022693709470331669
0.99878227710723877 0.98601210117340088 0.0013789008371531963
1 0.98321783542633057 0.00012938556028530002
0.0054293316788971424 0.99676316976547241 0.027001937851309776
0.021657681092619896 0.99816346168518066 0.019172459840774536
0.062535561621189117 0.99680560827255249 0.01649944856762886
0.14452795684337616 0.99607890844345093 0.016311466693878174
0.26510989665985107 0.99512660503387451 0.014888524077832699
0.40446370840072632 0.99215686321258545 0.011074305512011051
0.54698425531387329 0.99169385433197021 0.0079241432249546051
0.69289082288742065 0.9887351393699646 0.0074600670486688614
0.8282846212387085 0.99132257699966431 0.0070659113116562366
0.9341617226600647 0.99537289142608643 0.0051744496449828148
0.98878175020217896 0.9961046576499939 0.004055950790643692
0.99888277053833008 0.99608039855957031 0.0037027844227850437
1 0.99628037214279175 0.0035057815257459879
0.0028897153679281473 0.99911016225814819 0.028787096962332726
0.025489043444395065 0.99999803304672241 0.017810598015785217
0.078637637197971344 0.99980777502059937 0.016711695119738579
0.16009263694286346 0.99682164192199707 0.016994655132293701
0.28428423404693604 0.99563491344451904 0.015145709738135338
0.41887864470481873 0.99215614795684814 0.0136210722848773
0.55856913328170776 0.99019575119018555 0.011458647437393665
0.69620370864868164 0.98950290679931641 0.011554224416613579
0.82175761461257935 0.99185669422149658 0.011839982122182846
0.9283677339553833 0.99557596445083618 0.0078342510387301445
0.98904484510421753 0.99897146224975586 0.0053137834183871746
0.99898034334182739 0.99786931276321411 0.0055990777909755707
1 0.99651932716369629 0.0075978897511959076
0.0066694822162389755 0.0068822824396193027 0.1895616352558136
0.049661539494991302 0.00094544654712080956 0.12333320081233978
0.11651138961315155 0.00066662958124652505 0.10315822809934616
0.22054485976696014 0.0014419854851439595 0.098261170089244843
0.41156059503555298 0.00039294373709708452 0.10362324118614197
0.58161360025405884 0.00029658895800821483 0.076677776873111725
0.72333168983459473 0.00088550342479720712 0.037654291838407516
0.8624192476272583 0.00054610008373856544 0.020538719370961189
0.96978855133056641 0.0001880870113382116 0.0095916744321584702
0.99475014209747314 0.0031200333032757044 0.0051647559739649296
0.99900650978088379 0.0042629018425941467 0.001080681337043643
1 0.0029995937366038561 0.0052274814806878567
1 0.0031921237241476774 0.0078244674950838089
0.009592108428478241 0.072523720562458038 0.16579459607601166
0.069207765161991119 0.042046774178743362 0.15152837336063385
0.17304776608943939 0.016397364437580109 0.13341705501079559
0.290875643491745 0.0076370839960873127 0.10430231690406799
0.42599311470985413 0.0064810807816684246 0.075560308992862701
0.56270462274551392 0.0089083956554532051 0.046210002154111862
0.7077452540397644 0.011082951910793781 0.023246988654136658
0.85556823015213013 0.0078033446334302425 0.0069211325608193874
0.97204041481018066 0.0026177051477134228 0.0076919104903936386
0.99580925703048706 0.0069307214580476284 0.0051447548903524876
0.99903255701065063 0.010392611846327782 0.0038846184033900499
1 0.01063989382237196 0.005612736102193594
1 0.01414782926440239 0.0078431377187371254
0.0050973780453205109 0.1815793514251709 0.15526789426803589
0.044790994375944138 0.14194896817207336 0.11640121042728424
0.1416972279548645 0.10577473044395447 0.090851984918117523
0.26437798142433167 0.076159492135047913 0.068230018019676208
0.39328470826148987 0.049932055175304413 0.048104424029588699
0.52456390857696533 0.045958783477544785 0.039013881236314774
0.66814553737640381 0.039634104818105698 0.019974727183580399
0.81992650032043457 0.031998161226511002 0.011808985844254494
0.95687586069107056 0.023013485595583916 0.0096472492441534996
0.99498683214187622 0.026097152382135391 0.0069821975193917751
0.99954581260681152 0.033208496868610382 0.0040337657555937767
1 0.032929006963968277 0.0051826476119458675
1 0.034121420234441757 0.0075532803311944008
0.0040770438499748707 0.3084673285484314 0.15280358493328094
0.031457968056201935 0.25960028171539307 0.099556714296340942
0.11868499964475632 0.22360709309577942 0.073224596679210663
0.2304302453994751 0.19357243180274963 0.052983961999416351
0.35932782292366028 0.16636833548545837 0.034088045358657837
0.49257743358612061 0.13784919679164886 0.024901624768972397
0.63381874561309814 0.1061217188835144 0.01656189002096653
0.78608804941177368 0.078195862472057343 0.013249430805444717
0.93710994720458984 0.055958196520805359 0.010659550316631794
0.9961128830909729 0.058013632893562317 0.0071338578127324581
0.99871057271957397 0.072141893208026886 0.0054721157066524029
0.99998515844345093 0.075384728610515594 0.0041013080626726151
1 0.074257150292396545 0.0046126721426844597
0.0036199381574988365 0.43878185749053955 0.13892033696174622
0.030264521017670631 0.38523778319358826 0.088233739137649536
0.10809501260519028 0.34825140237808228 0.067336514592170715
0.20415887236595154 0.32043403387069702 0.045625887811183929
0.32756882905960083 0.29581397771835327 0.033506356179714203
0.46311983466148376 0.2687925398349762 0.019194090738892555
0.6055452823638916 0.23517487943172455 0.0099268443882465363
0.76085901260375977 0.19825880229473114 0.011145079508423805
0.91683363914489746 0.1650485098361969 0.0095038618892431259
0.99038910865783691 0.15296657383441925 0.0051228692755103111
0.99609231948852539 0.1557067334651947 0.0045467750169336796
0.99884873628616333 0.15151034295558929 0.0019517636392265558
1 0.14456874132156372 0.002821499714627862
0.0038194993976503611 0.55671852827072144 0.11791321635246277
0.021026073023676872 0.50909477472305298 0.078240834176540375
0.086181133985519409 0.47250959277153015 0.058453742414712906
0.1843181699514389 0.44927048683166504 0.046337202191352844
0.30253815650939941 0.43246111273765564 0.03781953826546669
0.43563240766525269 0.40926069021224976 0.022202210500836372
0.57709974050521851 0.38127738237380981 0.010247577913105488
