assets/lut/toddblankenship longbeachmorning.cube
# Created by: G'MIC (https://gmic.eu)
TITLE "longbeachmorning"
# LUT size
LUT_3D_SIZE 7
# Data domain
DOMAIN_MIN 0.0 0.0 0.0
DOMAIN_MAX 1.0 1.0 1.0
# LUT data points
0.019076120108366013 0.017714796587824821 0.015885954722762108
0.16663482785224915 0.005122749600559473 0.0017526664305478334
0.31318238377571106 0 0.00017813888553064317
0.48476454615592957 0 0
0.69761556386947632 0 0.00010618322266964242
0.96398156881332397 0 0.00011629590881057084
1 0 0
0.0056879231706261635 0.16266623139381409 0.01003239955753088
0.15204709768295288 0.14727692306041718 0
0.34259364008903503 0.10615961253643036 0.0012652528239414096
0.51280081272125244 0.054540462791919708 0
0.72956061363220215 0.014559951610863209 0
0.98500359058380127 0.003950036596506834 0
1 0.017548356205224991 0
0.0017634223913773894 0.30914020538330078 0.00045993280946277082
0.10891018807888031 0.30213305354118347 0
0.33758595585823059 0.31247517466545105 0
0.58020269870758057 0.2697550356388092 0
0.85091805458068848 0.20427261292934418 0.00013904945808462799
0.99998444318771362 0.15568700432777405 0
1 0.12784622609615326 0
0.0060974271036684513 0.4783724844455719 0
0.085650168359279633 0.47577986121177673 0
0.2830502986907959 0.49252507090568542 0.00029579611145891249
0.5840601921081543 0.51598596572875977 0
0.94661879539489746 0.49036279320716858 0.000385284423828125
1 0.41741082072257996 0.00094125786563381553
1 0.33139762282371521 7.4678311648312956e-05
0.0061135985888540745 0.68587756156921387 0
0.066833928227424622 0.70156967639923096 0
0.23043006658554077 0.71170705556869507 0
0.52612960338592529 0.75250715017318726 0.00011590695794438943
0.92274338006973267 0.78522336483001709 5.7444854064669926e-06
1 0.71556788682937622 0.0026623294688761234
0.99976229667663574 0.59482502937316895 0.0012771157780662179
0.0040137497708201408 0.94014930725097656 0
0.055998470634222031 0.9484480619430542 0
0.20474331080913544 0.96896380186080933 0
0.46282118558883667 0.98607701063156128 0.00041773178963921964
0.80441826581954956 0.98848849534988403 0
0.99981945753097534 0.94911539554595947 0
0.99419146776199341 0.83714026212692261 0
0.0044079502113163471 1 0.00012640860222745687
0.064326249063014984 1 0
0.20195020735263824 1 0
0.42478799819946289 1 0
0.70395398139953613 1 0
0.96878522634506226 0.99959546327590942 0
0.99943834543228149 0.99105322360992432 0
0.0031770593486726284 0.0063883312977850437 0.16329516470432281
0.13093651831150055 0 0.13317419588565826
0.29650676250457764 0.0001497455668868497 0.095361180603504181
0.47950467467308044 3.0338062060764059e-05 0.052772983908653259
0.70651602745056152 0 0.020574338734149933
0.95970141887664795 0.0011632433161139488 0.0038955688942223787
1 0.00075320072937756777 2.3336971935350448e-05
5.385455096984515e-06 0.13281732797622681 0.13292555510997772
0.06748528778553009 0.064695529639720917 0.061752993613481522
0.26967349648475647 0.039334885776042938 0.035506755113601685
0.48792830109596252 0.022094054147601128 0.020068090409040451
0.7410157322883606 0.0036438438110053539 0.0011404298711568117
0.99435865879058838 0.00085592828691005707 0
1 0.0041833464056253433 0
0 0.29542794823646545 0.10023648291826248
0.058707516640424728 0.26012009382247925 0.046053297817707062
0.27260226011276245 0.24590602517127991 0.0092238634824752808
0.53125262260437012 0.21456582844257355 0.001413936261087656
0.80804479122161865 0.15544156730175018 0.00012236949987709522
1 0.10220257937908173 0
1 0.083414964377880096 0
0.0022983625531196594 0.4763333797454834 0.057919818907976151
0.052430801093578339 0.46777352690696716 0.037479862570762634
0.2438160628080368 0.4702765941619873 0.0099879391491413116
0.55550235509872437 0.47673240303993225 0
0.92099487781524658 0.42952847480773926 0.0003354240907356143
1 0.34456858038902283 0
1 0.27778047323226929 0
6.4326268329750746e-05 0.69899964332580566 0.046774096786975861
0.026595739647746086 0.71283566951751709 0.016230205073952675
0.18381211161613464 0.73029881715774536 0.00037010043160989881
0.49293774366378784 0.73272639513015747 0
0.8478209376335144 0.70156443119049072 0.0027467317413538694
1 0.60829871892929077 0.00024755141930654645
1 0.52939730882644653 0
0 0.95242482423782349 0.017307102680206299
0.0026089088059961796 0.97894394397735596 0.00014226576604414731
0.12043750286102295 0.99310523271560669 0
0.40245920419692993 0.98296648263931274 0
0.71476274728775024 0.93688207864761353 0
0.99237465858459473 0.83032947778701782 0.0003868851053994149
1 0.77662688493728638 0.0014321270864456892
0 1 0.027379592880606651
0.0096615813672542572 1 0.0008858175715431571
0.12371905148029327 1 0
0.35842430591583252 1 0
0.65752047300338745 1 0
0.95770138502120972 0.99995028972625732 0
1 0.97821605205535889 0
0.0020383349619805813 0 0.3083394467830658
0.092837207019329071 0 0.29834851622581482
0.27556052803993225 0 0.28630420565605164
0.47847068309783936 0.00040800805436447263 0.25800111889839172
0.71707886457443237 0 0.22895331680774689
0.97408288717269897 0.0035262312740087509 0.19502712786197662
0.99786001443862915 0.0026598912663757801 0.13512164354324341
0 0.099592767655849457 0.29879122972488403
0.041606049984693527 0.044004462659358978 0.25465968251228333
0.22816021740436554 0.015519280917942524 0.2325124591588974
0.46307039260864258 0.0083276936784386635 0.21893608570098877
0.73116910457611084 0.00068236707011237741 0.1856895387172699
0.99253332614898682 0 0.12734547257423401
1 0 0.075865864753723145
0 0.28230932354927063 0.28339934349060059
0.019871819764375687 0.24015159904956818 0.23615944385528564
0.2110666036605835 0.20321035385131836 0.1968902200460434
0.47359088063240051 0.17766460776329041 0.1692592054605484
0.78302842378616333 0.11357992142438889 0.11419659852981567
1 0.054272804409265518 0.050848014652729034
1 0.040823515504598618 0.026163872331380844
0 0.4805910587310791 0.25842618942260742
0.018973959609866142 0.47137883305549622 0.21944551169872284
0.19225588440895081 0.45547321438789368 0.17369076609611511
0.48932698369026184 0.43611335754394531 0.10597386211156845
0.84708458185195923 0.37185022234916687 0.024654058739542961
1 0.29186806082725525 0.0035800710320472717
0.99994003772735596 0.22942554950714111 0.0001573749614180997
0 0.71661281585693359 0.23084999620914459
0.0042464463040232658 0.72371888160705566 0.19511575996875763
0.13288566470146179 0.75435304641723633 0.1317761093378067
0.42256650328636169 0.73324745893478394 0.089140214025974274
0.75382953882217407 0.63251566886901855 0.01573498360812664
1 0.54578679800033569 2.106311330862809e-05
0.9961363673210144 0.46947979927062988 0
0 0.9767918586730957 0.18656033277511597
0 0.99105167388916016 0.13276071846485138
0.060941942036151886 1 0.065202124416828156
0.35127264261245728 0.99744492769241333 0.027129333466291428
0.66057705879211426 0.93653124570846558 0.0020416260231286287
0.98209232091903687 0.80181622505187988 0.0014170178910717368
0.99288135766983032 0.70300662517547607 0.00083939795149490237
0 1 0.17717897891998291
0 1 0.12386764585971832
0.064602270722389221 1 0.074187211692333221
0.30118373036384583 1 0.034520663321018219
0.60376548767089844 1 0.0079572489485144615
0.92989730834960938 0.99989014863967896 6.1035157159494702e-06
0.99959367513656616 0.95847856998443604 5.6008731917245314e-05
0.011365927755832672 1.4002182979311328e-05 0.49187168478965759
0.089298918843269348 0 0.49869170784950256
0.26047208905220032 0.00020069794845767319 0.48982062935829163
0.47571325302124023 0.0017656363779678941 0.47534120082855225
0.72342783212661743 0 0.46802401542663574
0.9842103123664856 0 0.45031723380088806
1 0 0.41642764210700989
0.00017311246483586729 0.06317959725856781 0.47963026165962219
0.037545401602983475 0.026713456958532333 0.47223889827728271
0.20738844573497772 0.013864884153008461 0.46420159935951233
0.44702339172363281 0.011096086353063583 0.45968472957611084
0.71385765075683594 7.180606644396903e-06 0.44662967324256897
0.98620510101318359 0 0.40462619066238403
1 0 0.35168543457984924
0 0.25390446186065674 0.48087412118911743
0.0079476004466414452 0.21726004779338837 0.46303626894950867
0.16778856515884399 0.18004834651947021 0.45549505949020386
0.4280402660369873 0.1564776599407196 0.4448322057723999
0.73398077487945557 0.096934281289577484 0.40357336401939392
0.99942082166671753 0.036037970334291458 0.34931683540344238
1 0.0072457259520888329 0.28321251273155212
0 0.47684729099273682 0.48154333233833313
0.0069091496989130974 0.46811333298683167 0.46719276905059814
0.15087366104125977 0.44131118059158325 0.44203674793243408
0.41692367196083069 0.40886551141738892 0.40303486585617065
0.75612860918045044 0.34536296129226685 0.32888945937156677
0.99642705917358398 0.2677728533744812 0.27208083868026733
0.99955737590789795 0.18713690340518951 0.19168980419635773
0 0.73260128498077393 0.47161439061164856
0.0011815238976851106 0.7355608344078064 0.45468416810035706
0.11354027688503265 0.7403181791305542 0.40298110246658325
0.36045071482658386 0.71375143527984619 0.35240653157234192
0.68753480911254883 0.60487610101699829 0.25170111656188965
0.98197966814041138 0.50919383764266968 0.14243417978286743
0.99848020076751709 0.41986387968063354 0.086605370044708252
0 0.98778808116912842 0.44928735494613647
0 0.99013370275497437 0.40361332893371582
0.033306661993265152 0.99912416934967041 0.34884431958198547
0.28578943014144897 0.98657310009002686 0.27944222092628479
0.59676778316497803 0.90005338191986084 0.18845234811306
0.95660370588302612 0.7670292854309082 0.045447807759046555
0.99998253583908081 0.6255568265914917 0.0082544060423970222
0 1 0.41697019338607788
0 1 0.37078681588172913
0.022849483415484428 1 0.31632798910140991
0.22883273661136627 1 0.24568063020706177
0.50432884693145752 1 0.17095074057579041
0.85626161098480225 0.99706083536148071 0.045990917831659317
0.99953204393386841 0.90890473127365112 0.00018454159726388752
0.010869269259274006 0 0.73018795251846313
0.074764326214790344 0 0.74754130840301514
0.2365519255399704 0 0.7380710244178772
0.47106525301933289 0 0.73311281204223633
0.73246753215789795 0 0.74006879329681396
0.97966891527175903 0 0.70959043502807617
1 0 0.66936671733856201
0.00019870832329615951 0.026311418041586876 0.71203494071960449
0.024825885891914368 0.0088234394788742065 0.74049335718154907
0.18486903607845306 0.0010850494727492332 0.74376535415649414
0.44630295038223267 0.0042579350993037224 0.72674322128295898
0.67963105440139771 0.0015955757116898894 0.69955015182495117
0.940776526927948 0 0.64448755979537964
1 0 0.62169903516769409
0 0.23436737060546875 0.71615743637084961
0.0037419935688376427 0.19608780741691589 0.72230875492095947
0.12777131795883179 0.13789252936840057 0.76245278120040894
0.40046471357345581 0.12269488722085953 0.74375718832015991
0.65414011478424072 0.10681986808776855 0.65933066606521606
0.95964598655700684 0.0086983628571033478 0.62063544988632202
1 0.00078902899986132979 0.57172948122024536
0.0012146893423050642 0.47119781374931335 0.73538637161254883
0.0021615868899971247 0.45612487196922302 0.7326967716217041
0.10707572847604752 0.4051268994808197 0.7373163104057312
0.36132118105888367 0.35820376873016357 0.71259438991546631
0.62516164779663086 0.31183844804763794 0.62885451316833496
0.91447824239730835 0.22103886306285858 0.5719495415687561
1 0.15679900348186493 0.49202623963356018
0 0.73818683624267578 0.73516285419464111
0.0022137959022074938 0.69852322340011597 0.69503182172775269
0.10452724993228912 0.65395832061767578 0.65513914823532104
0.31139659881591797 0.62614691257476807 0.62445604801177979
0.56574130058288574 0.55071151256561279 0.55109101533889771
0.83116441965103149 0.46878325939178467 0.47266781330108643
0.99922758340835571 0.38933351635932922 0.39934882521629333
0 0.98308181762695312 0.705433189868927
0 0.93992066383361816 0.64541196823120117
0.014389442279934883 0.95985907316207886 0.62187421321868896
0.22485168278217316 0.90502244234085083 0.56757205724716187
0.49986517429351807 0.7886042594909668 0.48107275366783142
0.79509234428405762 0.68788057565689087 0.35833141207695007
0.99977201223373413 0.56839537620544434 0.26158177852630615
0 1 0.65582704544067383
0 1 0.62800806760787964
0.0034185671247541904 1 0.58841162919998169
0.16228578984737396 1 0.50648659467697144
0.42023074626922607 0.99087941646575928 0.43330520391464233
0.71875786781311035 0.96499907970428467 0.32975828647613525
0.99825179576873779 0.82561886310577393 0.17179140448570251
0.0027795829810202122 0.0016077228356152773 0.95008391141891479
0.046413317322731018 5.3869509429205209e-05 0.96136105060577393
0.19025056064128876 0 0.94727545976638794
0.44026824831962585 0 0.9650418758392334
0.70850002765655518 2.4892769943107851e-05 0.98349153995513916
0.9352184534072876 0.006908416748046875 0.92621207237243652
1 0.0041439132764935493 0.87428742647171021
0 0.0052977767772972584 0.93395835161209106
0.001794224139302969 2.9919194730609888e-06 0.97911828756332397
0.12250541150569916 0 0.99003994464874268
0.40378013253211975 0 0.98639512062072754
0.65179473161697388 0 0.95203346014022827
0.87290424108505249 0.00693511962890625 0.86714982986450195
0.99975335597991943 0.0051947352476418018 0.86479657888412476
0 0.19091092050075531 0.93633139133453369
0 0.13037283718585968 0.97435903549194336
0.058924537152051926 0.06103699654340744 0.99994677305221558
0.34017160534858704 0.051305852830410004 0.99538582563400269
0.60322725772857666 0.044114310294389725 0.93675857782363892
0.87200474739074707 0.00104585534427315 0.87557834386825562
1 0 0.83643323183059692
0.0015149434329941869 0.45120379328727722 0.98606568574905396
5.8192832511849701e-05 0.4136870801448822 0.9856606125831604
0.038512419909238815 0.35342919826507568 0.99263054132461548
0.28289300203323364 0.29327723383903503 0.96903699636459351
0.55848264694213867 0.23239952325820923 0.8879619836807251
0.83957326412200928 0.13980460166931152 0.84958416223526001
0.99968338012695312 0.085391759872436523 0.75825875997543335
5.6008731917245314e-05 0.71308952569961548 0.98239874839782715
8.6167283370741643e-06 0.65853112936019897 0.94371473789215088
0.020709797739982605 0.62585794925689697 0.96029478311538696
0.23095411062240601 0.57367789745330811 0.90979397296905518
0.49348175525665283 0.49435728788375854 0.80328047275543213
0.73178142309188843 0.4102039635181427 0.73982119560241699
0.97864621877670288 0.35884785652160645 0.6720888614654541
0 0.94140529632568359 0.94092726707458496
0.00026022217934951186 0.86504894495010376 0.86608260869979858
0.0044915592297911644 0.87928789854049683 0.88245600461959839
0.13851472735404968 0.84489625692367554 0.84165900945663452
0.41240668296813965 0.72927278280258179 0.72850990295410156
0.66158533096313477 0.64059674739837646 0.64176267385482788
0.95474588871002197 0.59181970357894897 0.59747815132141113
0 0.99999499320983887 0.86432051658630371
0.0010876973392441869 1 0.85615581274032593
0 1 0.83838188648223877
0.06133410707116127 0.99971669912338257 0.75503718852996826
0.34670373797416687 0.96467727422714233 0.67720139026641846
0.62958335876464844 0.92383497953414917 0.6225738525390625
0.95008170604705811 0.84385138750076294 0.53088361024856567
0.0014342513168230653 0.00062231923220679164 0.99996966123580933
0.032510224729776382 7.0399866672232747e-05 1
0.14672982692718506 0.0020834081806242466 0.99990898370742798
0.39296945929527283 0.00081173767102882266 1
0.66771787405014038 0.0046678432263433933 1
0.87986701726913452 0.013686341233551502 0.99995869398117065
0.99059468507766724 0.0061739454977214336 0.98871368169784546
0 0.00099434948060661554 0.99997663497924805
0.0039530587382614613 0 1
0.09776364266872406 0 1
0.34589952230453491 0 1
0.63526254892349243 0 1
0.86597651243209839 0.011777495965361595 0.99781012535095215
0.99409985542297363 0.012791368179023266 0.99311196804046631
0 0.14937777817249298 0.99874663352966309
7.7789909482817166e-06 0.062648147344589233 0.99941718578338623
0.038105610758066177 0.022924430668354034 0.99986368417739868
0.26894721388816833 0.011493009515106678 1
0.56056249141693115 0.0036340153310447931 1
0.83437520265579224 0 1
0.9999237060546875 6.9233014073688537e-05 0.98782742023468018
0 0.41515019536018372 1
0 0.35438770055770874 0.99936521053314209
0.0086575374007225037 0.29252892732620239 0.99198824167251587
0.20935614407062531 0.2237527072429657 1
0.48666873574256897 0.15795253217220306 0.99889284372329712
0.76708334684371948 0.062118232250213623 0.99982517957687378
0.99447691440582275 0.04311516135931015 0.97562044858932495
0 0.66585320234298706 1
0 0.63744688034057617 1
0.011005491018295288 0.58038753271102905 1
0.17495843768119812 0.50204652547836304 1
0.42791283130645752 0.43455857038497925 0.98584145307540894
0.68833482265472412 0.34790685772895813 0.96357327699661255
0.96245545148849487 0.27249929308891296 0.95451396703720093
0 0.86986565589904785 1
0 0.8606535792350769 1
0.0027157503645867109 0.8356090784072876 1
0.094140760600566864 0.76009505987167358 0.99996769428253174
0.35557377338409424 0.67901510000228882 0.96648204326629639
0.61776882410049438 0.62723249197006226 0.91815018653869629
0.915069580078125 0.59830218553543091 0.92362993955612183
0 0.99955856800079346 0.99874472618103027
0 0.99908989667892456 0.99932217597961426
0 1 0.99715566635131836
0.015108205378055573 0.99440783262252808 0.99601644277572632
0.28623637557029724 0.94998842477798462 0.94979649782180786
0.59566456079483032 0.90969902276992798 0.91035264730453491
0.92087793350219727 0.91412663459777832 0.9097130298614502
