assets/lut/toddblankenship waves.cube
# Created by: G'MIC (https://gmic.eu)
TITLE "waves"
# LUT size
LUT_3D_SIZE 7
# Data domain
DOMAIN_MIN 0.0 0.0 0.0
DOMAIN_MAX 1.0 1.0 1.0
# LUT data points
0.011444690637290478 0.010026221163570881 0.013677305541932583
0.17597098648548126 0.00099126773420721292 0.0005737454048357904
0.53173786401748657 0.0047926511615514755 0.0016002430347725749
0.825431227684021 0.011140038259327412 0.0027563655748963356
0.97950237989425659 0.0055027082562446594 0
0.99589270353317261 0.0071969274431467056 0
1 0.0062420116737484932 0.00088620651513338089
0.0019193910993635654 0.2012452632188797 0.0032927270513027906
0.12331119924783707 0.11322052776813507 0.00030861649429425597
0.45198279619216919 0.13081353902816772 0.0015304565895348787
0.7501145601272583 0.073042623698711395 9.9271885119378567e-05
0.98141229152679443 0.033946618437767029 0
0.99916595220565796 0.04445960745215416 0
1 0.036842763423919678 0.0005740894703194499
0.00074443442281335592 0.51247137784957886 0.001398243592120707
0.15359148383140564 0.44064870476722717 0.0037837906274944544
0.41214120388031006 0.39693701267242432 0.0052748285233974457
0.68406784534454346 0.31673070788383484 0.0018395218066871166
0.96208822727203369 0.22677126526832581 9.1911766503471881e-05
0.99816048145294189 0.1734454482793808 0
1 0.13597202301025391 0
0.011040556244552135 0.75976192951202393 0.009104081429541111
0.093106590211391449 0.70264118909835815 0.0095120444893836975
0.33718019723892212 0.66308897733688354 0.0079631730914115906
0.60991555452346802 0.60150814056396484 0.0026022519450634718
0.9062047004699707 0.53922992944717407 9.1911766503471881e-05
0.99599570035934448 0.504996657371521 0
0.99879443645477295 0.46769532561302185 0
0.008491097018122673 0.984943687915802 0.0040548886172473431
0.04783325269818306 0.96625232696533203 0.0059039546176791191
0.26210954785346985 0.93916571140289307 0.0062446743249893188
0.54570639133453369 0.89977449178695679 0.00089842855231836438
0.8505023717880249 0.84518945217132568 0
0.99597108364105225 0.80076730251312256 0
0.99957895278930664 0.7663227915763855 9.8015283583663404e-05
0.0093090580776333809 0.99595963954925537 0.0068068113178014755
0.07016492635011673 0.99607843160629272 0.0073369042947888374
0.27705127000808716 0.99542415142059326 0.0067183701321482658
0.55926758050918579 0.98888880014419556 0.0024410323239862919
0.8481287956237793 0.99197286367416382 0.00080527510726824403
0.99350297451019287 0.99553453922271729 0
1 0.98529839515686035 0
0.0095480829477310181 1 0.0076836529187858105
0.11610491573810577 0.99876105785369873 0.0093201585114002228
0.29685837030410767 0.99606120586395264 0.0098089482635259628
0.57808220386505127 0.99215686321258545 0.004426904022693634
0.8274005651473999 0.99398964643478394 0.0038789785467088223
0.99657779932022095 1 0.0018099616281688213
1 0.99997413158416748 0.0013471117708832026
0.0066694822162389755 0.0068822824396193027 0.1895616352558136
0.11651138961315155 0.00066662958124652505 0.10315822809934616
0.41156059503555298 0.00039294373709708452 0.10362324118614197
0.72333168983459473 0.00088550342479720712 0.037654291838407516
0.96978855133056641 0.0001880870113382116 0.0095916744321584702
0.99900650978088379 0.0042629018425941467 0.001080681337043643
1 0.0031921237241476774 0.0078244674950838089
0.0050973780453205109 0.1815793514251709 0.15526789426803589
0.1416972279548645 0.10577473044395447 0.090851984918117523
0.39328470826148987 0.049932055175304413 0.048104424029588699
0.66814553737640381 0.039634104818105698 0.019974727183580399
0.95687586069107056 0.023013485595583916 0.0096472492441534996
0.99954581260681152 0.033208496868610382 0.0040337657555937767
1 0.034121420234441757 0.0075532803311944008
0.0036199381574988365 0.43878185749053955 0.13892033696174622
0.10809501260519028 0.34825140237808228 0.067336514592170715
0.32756882905960083 0.29581397771835327 0.033506356179714203
0.6055452823638916 0.23517487943172455 0.0099268443882465363
0.91683363914489746 0.1650485098361969 0.0095038618892431259
0.99609231948852539 0.1557067334651947 0.0045467750169336796
1 0.14456874132156372 0.002821499714627862
0.0034992292057722807 0.67781996726989746 0.086466558277606964
0.058899015188217163 0.60362404584884644 0.048505358397960663
0.2845313549041748 0.57324051856994629 0.040762148797512054
0.55105578899383545 0.54066115617752075 0.011772814206779003
0.86504411697387695 0.48706746101379395 0.0049182516522705555
0.99270117282867432 0.46063622832298279 0.001225699670612812
0.99985784292221069 0.44660988450050354 0.0033272239379584789
0.0070940502919256687 0.93494874238967896 0.03382376953959465
0.051117271184921265 0.87696284055709839 0.038718804717063904
0.22317135334014893 0.86472398042678833 0.027238493785262108
0.50177520513534546 0.84458774328231812 0.0084970509633421898
0.81172072887420654 0.80399090051651001 0.0081836925819516182
0.99595677852630615 0.77199476957321167 0.0074483533389866352
1 0.74544107913970947 0.008481164462864399
0.004734458401799202 0.99546927213668823 0.052835099399089813
0.045666683465242386 0.99428063631057739 0.031467948108911514
0.21315118670463562 0.99226152896881104 0.022586911916732788
0.5034099817276001 0.99288511276245117 0.013455529697239399
0.80889236927032471 0.98648560047149658 0.015578026883304119
0.98410618305206299 0.98646581172943115 0.0053121829405426979
1 0.97839963436126709 0.0084824655205011368
0.00053853052668273449 0.99724292755126953 0.053311455994844437
0.043450959026813507 1 0.02514750137925148
0.26529586315155029 0.9945303201675415 0.031089318916201591
0.53326284885406494 0.98826080560684204 0.03291073814034462
0.80911779403686523 0.99115324020385742 0.021716892719268799
0.98586428165435791 0.99873995780944824 0.0078470269218087196
1 0.99607843160629272 0.017049826681613922
0.0077627743594348431 0.0035505108535289764 0.42256027460098267
0.14356321096420288 0.0012776991352438927 0.41186171770095825
0.26232635974884033 0.0048437830992043018 0.2588329017162323
0.45155560970306396 0.0062963748350739479 0.19471964240074158
0.85239303112030029 0 0.16666299104690552
0.99384164810180664 0 0.11480215936899185
1 0.00031232647597789764 0.081591889262199402
0.0070230374112725258 0.12059592455625534 0.29147613048553467
0.087046168744564056 0.039264291524887085 0.26917791366577148
0.32301709055900574 0.016393398866057396 0.26894867420196533
0.5989803671836853 0.030485415831208229 0.207188680768013
0.91324031352996826 0.018366914242506027 0.14507114887237549
0.99448531866073608 0.02289898507297039 0.10087431222200394
1 0.021756460890173912 0.068259775638580322
0.00077544566011056304 0.32886573672294617 0.32757627964019775
0.022338118404150009 0.23631076514720917 0.22192288935184479
0.24524796009063721 0.1984018087387085 0.17829258739948273
0.54555255174636841 0.16941109299659729 0.15727642178535461
0.87957763671875 0.13640232384204865 0.11209560930728912
0.99462211132049561 0.12921197712421417 0.11272276192903519
1 0.12932541966438293 0.10681719332933426
0.00041046141996048391 0.58010542392730713 0.34268626570701599
0.026505803689360619 0.5062987208366394 0.25675326585769653
0.22357472777366638 0.4743400514125824 0.18403404951095581
0.50222384929656982 0.47924366593360901 0.1307741105556488
0.8345215916633606 0.44575566053390503 0.11023283004760742
0.98857426643371582 0.43105787038803101 0.10955116152763367
0.99990272521972656 0.41785070300102234 0.11181230843067169
0.0033724317327141762 0.84880584478378296 0.29918071627616882
0.032359447330236435 0.78999227285385132 0.23820799589157104
0.1951715350151062 0.78937029838562012 0.17266930639743805
0.47135633230209351 0.79938983917236328 0.13109858334064484
0.78332674503326416 0.76772111654281616 0.12468615919351578
0.99026727676391602 0.74709653854370117 0.11632092297077179
0.99948781728744507 0.71239793300628662 0.11598698049783707
0.0015145844081416726 0.98534858226776123 0.26766908168792725
0.031805329024791718 0.98366522789001465 0.22131289541721344
0.1794414222240448 0.99208647012710571 0.17313651740550995
0.47390592098236084 0.98179394006729126 0.15662799775600433
0.77744024991989136 0.98942548036575317 0.11964986473321915
0.98109155893325806 0.97487044334411621 0.1134413480758667
0.99849796295166016 0.93643039464950562 0.12636344134807587
0.001261482946574688 0.99548894166946411 0.21326911449432373
0.02040029875934124 0.99632114171981812 0.17221713066101074
0.22866226732730865 0.99194133281707764 0.19961455464363098
0.49488979578018188 0.98747521638870239 0.20551480352878571
0.75336730480194092 0.99362903833389282 0.1625729501247406
0.96703195571899414 0.99921590089797974 0.11468154191970825
0.99948799610137939 0.99171042442321777 0.13525307178497314
0.0014084610156714916 0.00067811855114996433 0.64801561832427979
0.085153736174106598 0.00039285398088395596 0.70089530944824219
0.31746998429298401 1.8669577912078239e-05 0.63301676511764526
0.27716481685638428 0.04665520042181015 0.29009056091308594
0.36455473303794861 0.070206224918365479 0.23678404092788696
0.88574099540710449 0.00013574337936006486 0.35505020618438721
0.99539625644683838 0.0016476799501106143 0.33881086111068726
0.0059231179766356945 0.088760748505592346 0.45665189623832703
0.068736955523490906 0.021000821143388748 0.4897865355014801
0.25665169954299927 0.0043485751375555992 0.54219925403594971
0.53675216436386108 0.018106468021869659 0.49737676978111267
0.84170520305633545 0.0070504583418369293 0.46869030594825745
0.98790258169174194 0.017387226223945618 0.41601502895355225
0.99784773588180542 0.025877485051751137 0.34671637415885925
0.020686086267232895 0.26096072793006897 0.43903303146362305
0.064963579177856445 0.19450339674949646 0.35553696751594543
0.18325963616371155 0.15113085508346558 0.3475935161113739
0.49757048487663269 0.13438081741333008 0.44648757576942444
0.83031409978866577 0.1312631368637085 0.43571487069129944
0.9914284348487854 0.11909887194633484 0.42044785618782043
1 0.14424741268157959 0.3971727192401886
0.0037699083331972361 0.46454742550849915 0.52745407819747925
0.058794718235731125 0.40606293082237244 0.44666144251823425
0.22475020587444305 0.38997000455856323 0.36353874206542969
0.4848579466342926 0.4384530782699585 0.41427004337310791
0.79660886526107788 0.43857219815254211 0.42194837331771851
0.98679989576339722 0.4299834668636322 0.41334983706474304
0.99927610158920288 0.41028201580047607 0.40499314665794373
2.8812184609705582e-05 0.72610032558441162 0.57445210218429565
0.043222613632678986 0.66220533847808838 0.50154173374176025
0.27632877230644226 0.68365573883056641 0.4638746976852417
0.50387358665466309 0.73704081773757935 0.44558271765708923
0.76334488391876221 0.72723007202148438 0.43315768241882324
0.97006869316101074 0.70484566688537598 0.41282036900520325
0.9978330135345459 0.66655611991882324 0.39456337690353394
0.0034403782337903976 0.96463215351104736 0.56408786773681641
0.044310446828603745 0.92810690402984619 0.51156866550445557
0.23897495865821838 0.94401043653488159 0.47726666927337646
0.4775213897228241 0.96193897724151611 0.44894331693649292
0.73328351974487305 0.95020920038223267 0.42975881695747375
0.94278240203857422 0.92432069778442383 0.41078004240989685
0.99885493516921997 0.8913872241973877 0.39142882823944092
0.0031615612097084522 0.99323290586471558 0.55777180194854736
0.048012766987085342 0.99553108215332031 0.52362620830535889
0.24037806689739227 0.98993265628814697 0.49189528822898865
0.45572033524513245 0.99237668514251709 0.46422621607780457
0.70496624708175659 0.99635779857635498 0.4161895215511322
0.91237843036651611 0.99753719568252563 0.39456382393836975
0.99932050704956055 0.99471127986907959 0.39349600672721863
0.0044262157753109932 0.00093249150086194277 0.85879039764404297
0.062366127967834473 0.00011991612700512633 0.91744619607925415
0.23216128349304199 0.0017088347813114524 0.9236137866973877
0.50569373369216919 0.00023274141130968928 0.8347136378288269
0.4651629626750946 0.091778114438056946 0.48977816104888916
0.72877418994903564 0.024561295285820961 0.54003626108169556
0.93887370824813843 0 0.54229140281677246
0.010891379788517952 0.071248821914196014 0.6580580472946167
0.04973970353603363 0.025074079632759094 0.74517881870269775
0.21382445096969604 0.0089756688103079796 0.80011546611785889
0.47490623593330383 0.012865717522799969 0.81164002418518066
0.75996667146682739 0.021754799410700798 0.76367074251174927
0.98509120941162109 0.019857114180922508 0.70573890209197998
0.99745649099349976 0.028763474896550179 0.58717960119247437
0.090798817574977875 0.26609063148498535 0.57163840532302856
0.17161980271339417 0.23972061276435852 0.56423789262771606
0.24752140045166016 0.19763955473899841 0.62536501884460449
0.46505522727966309 0.13969458639621735 0.77160882949829102
0.76882320642471313 0.14293214678764343 0.75950324535369873
0.98702728748321533 0.13148973882198334 0.71663790941238403
0.99857813119888306 0.18334457278251648 0.63216805458068848
0.08324788510799408 0.42570719122886658 0.61532288789749146
0.29192996025085449 0.42719689011573792 0.5509951114654541
0.36536848545074463 0.44542911648750305 0.50632202625274658
0.48724621534347534 0.46397459506988525 0.6355820894241333
0.75896596908569336 0.43244215846061707 0.71388596296310425
0.96570003032684326 0.42621752619743347 0.68828278779983521
0.99711424112319946 0.40840637683868408 0.64247393608093262
0.04585755243897438 0.60958439111709595 0.70385664701461792
0.30427899956703186 0.58067286014556885 0.61717158555984497
0.51567924022674561 0.62298411130905151 0.61764603853225708
0.60444581508636475 0.6928325891494751 0.66513532400131226
0.74921607971191406 0.70418494939804077 0.68163782358169556
0.9317852258682251 0.67521250247955322 0.66687506437301636
0.99622255563735962 0.64007121324539185 0.63913416862487793
0.0063686445355415344 0.85410958528518677 0.77924275398254395
0.22636689245700836 0.77786201238632202 0.68635517358779907
0.46605893969535828 0.7892298698425293 0.67488962411880493
0.61010646820068359 0.85711181163787842 0.68996477127075195
0.74023360013961792 0.89567846059799194 0.67527687549591064
0.90672045946121216 0.88155949115753174 0.6511690616607666
0.99321824312210083 0.84859752655029297 0.62450850009918213
0.00084575579967349768 0.99434566497802734 0.8324083685874939
0.047807507216930389 0.99609369039535522 0.79670953750610352
0.27719655632972717 0.9943271279335022 0.73258507251739502
0.46031635999679565 0.99176883697509766 0.69748771190643311
0.67600136995315552 0.99278998374938965 0.65253806114196777
0.86478888988494873 0.99434250593185425 0.63168144226074219
0.99036240577697754 0.9931570291519165 0.6119229793548584
0.004599343053996563 0.0035789341200143099 0.98710757493972778
0.034409511834383011 0.0048194886185228825 0.97256636619567871
0.18511953949928284 0.0036354963667690754 0.9806862473487854
0.45246648788452148 0.0016451667761430144 0.98207324743270874
0.7133820652961731 0.0028169071301817894 0.94925588369369507
0.83511239290237427 6.5822227043099701e-05 0.82078772783279419
0.91581040620803833 0 0.73308509588241577
0.013460122048854828 0.063820183277130127 0.86208850145339966
0.019674248993396759 0.015390807762742043 0.95707708597183228
0.17270484566688538 0.0090791294351220131 0.98166817426681519
0.44112372398376465 0.016045499593019485 0.98363620042800903
0.73140460252761841 0.03535379096865654 0.971657395362854
0.97600275278091431 0.0099539812654256821 0.96536028385162354
0.98210102319717407 0.026435447856783867 0.79157042503356934
0.13780862092971802 0.29428291320800781 0.70969885587692261
0.19888466596603394 0.2719041109085083 0.7938847541809082
0.25911247730255127 0.20732378959655762 0.93802851438522339
0.43497562408447266 0.1540781557559967 0.98915785551071167
0.72975093126296997 0.15643042325973511 0.97572487592697144
0.96813642978668213 0.12269552052021027 0.92923712730407715
0.99742430448532104 0.15341044962406158 0.83373403549194336
0.24285772442817688 0.45807787775993347 0.69057881832122803
0.40620827674865723 0.5059809684753418 0.69701457023620605
0.48818382620811462 0.53594660758972168 0.78177589178085327
0.54242455959320068 0.49102237820625305 0.90760278701782227
0.72112488746643066 0.43723064661026001 0.94143211841583252
0.9321933388710022 0.40597862005233765 0.91457736492156982
0.99272328615188599 0.39712008833885193 0.83394330739974976
0.21992722153663635 0.61153030395507812 0.7712404727935791
0.49788194894790649 0.63192844390869141 0.71220988035202026
0.65264689922332764 0.69971024990081787 0.75633412599563599
0.70337957143783569 0.74580270051956177 0.81746566295623779
0.740814208984375 0.71419751644134521 0.8653450608253479
0.89489519596099854 0.65544766187667847 0.8680834174156189
0.99007731676101685 0.63044124841690063 0.82953298091888428
0.12321847677230835 0.79049468040466309 0.87854492664337158
0.45920458436012268 0.73762106895446777 0.7627260684967041
0.64890176057815552 0.7689242959022522 0.76958209276199341
0.76109164953231812 0.81719177961349487 0.80616122484207153
0.80630391836166382 0.85902923345565796 0.83928626775741577
0.89079904556274414 0.85654473304748535 0.83894723653793335
0.99244153499603271 0.8219449520111084 0.81291311979293823
0.022649861872196198 0.99093866348266602 0.97962057590484619
0.14957050979137421 0.98059636354446411 0.9408373236656189
0.36186835169792175 0.98024630546569824 0.90043550729751587
0.54770040512084961 0.98340094089508057 0.86895787715911865
0.70394062995910645 0.98764669895172119 0.84045970439910889
0.84345859289169312 0.98997431993484497 0.81829833984375
0.98605525493621826 0.98228216171264648 0.79610514640808105
0.0070613338612020016 0.0045279259793460369 0.99336612224578857
0.05452868714928627 0.010429875925183296 0.99145656824111938
0.13596051931381226 0.0027873918879777193 0.99440354108810425
0.40001967549324036 0.0011310502886772156 0.9984666109085083
0.71154987812042236 0.0020172717049717903 0.99783158302307129
0.86725252866744995 4.4878790504299104e-05 0.99657702445983887
0.93702900409698486 0 0.92288398742675781
0.015204321593046188 0.056074447929859161 0.97893160581588745
0.027440479025244713 0.037051752209663391 0.99547839164733887
0.1531444638967514 0.017944036051630974 0.99746227264404297
0.40408074855804443 0.01008281297981739 0.99628078937530518
0.69476079940795898 0.05491098016500473 0.99461311101913452
0.92668765783309937 0.015209856443107128 0.9986993670463562
0.99295002222061157 0.014880041591823101 0.97415763139724731
0.17004074156284332 0.33217671513557434 0.86329787969589233
0.21023212373256683 0.30832591652870178 0.95574063062667847
0.26812246441841125 0.23219484090805054 0.9959709644317627
0.42640435695648193 0.16641852259635925 0.99981868267059326
0.68789768218994141 0.16634981334209442 0.99655371904373169
0.91989779472351074 0.14272007346153259 0.99585425853729248
0.99998277425765991 0.1505381166934967 0.97959595918655396
0.34485152363777161 0.52662324905395508 0.81159716844558716
0.42489144206047058 0.56239074468612671 0.86691999435424805
0.46143618226051331 0.55537420511245728 0.95448285341262817
0.51982134580612183 0.50008642673492432 0.99296516180038452
0.68295115232467651 0.44521644711494446 0.99620425701141357
0.88353896141052246 0.40601286292076111 0.99057835340499878
0.99046593904495239 0.3871486485004425 0.97981077432632446
0.39804860949516296 0.65534681081771851 0.83857619762420654
0.51939082145690918 0.70655280351638794 0.87136799097061157
0.62222766876220703 0.7503281831741333 0.92860972881317139
0.68644660711288452 0.75591886043548584 0.97499626874923706
0.74208682775497437 0.70357036590576172 0.99188381433486938
0.86083924770355225 0.64017993211746216 0.99216854572296143
0.98113745450973511 0.62079346179962158 0.98720824718475342
0.35858505964279175 0.76625758409500122 0.90061688423156738
0.50944095849990845 0.79517948627471924 0.89855468273162842
0.64967799186706543 0.84323298931121826 0.92884397506713867
0.76327681541442871 0.87447267770767212 0.94946908950805664
0.82782512903213501 0.87917304039001465 0.96214812994003296
0.88541275262832642 0.84500467777252197 0.98293036222457886
0.98111921548843384 0.7995416522026062 0.9716981053352356
0.22219190001487732 0.91223776340484619 0.98780077695846558
0.38572350144386292 0.93206238746643066 0.97727924585342407
0.53907281160354614 0.94696581363677979 0.97333097457885742
0.67302674055099487 0.96404337882995605 0.97397279739379883
0.78781622648239136 0.97627538442611694 0.97154378890991211
0.88039577007293701 0.97996413707733154 0.97208023071289062
0.98213702440261841 0.97418135404586792 0.97374355792999268
