assets/lut/toddblankenship bluehour.cube
# Created by: G'MIC (https://gmic.eu)
TITLE "bluehour"
# LUT size
LUT_3D_SIZE 13
# Data domain
DOMAIN_MIN 0.0 0.0 0.0
DOMAIN_MAX 1.0 1.0 1.0
# LUT data points
0.015896143391728401 0.033956475555896759 0.046346761286258698
0.12173347920179367 0.016620784997940063 0.025455968454480171
0.24422931671142578 0.0057535208761692047 0.0088421246036887169
0.36013895273208618 0.00025437297881580889 0.0021811691112816334
0.47236436605453491 0 0
0.58651185035705566 0 0
0.70716816186904907 0 0
0.83314871788024902 0 0
0.9498516321182251 0 0
0.99952197074890137 4.434024594957009e-05 0
1 0.00070597330341115594 0
1 0.0030828288290649652 0
0.99869465827941895 0.0084557179361581802 0.0015838025137782097
0.0056589911691844463 0.18415193259716034 0.023748060688376427
0.087507300078868866 0.1449006050825119 0.0067560384050011635
0.21490225195884705 0.10253717750310898 0.00073218252509832382
0.33809289336204529 0.062980502843856812 4.8873003834160045e-05
0.45383736491203308 0.035032056272029877 9.8015283583663404e-05
0.56989353895187378 0.016786761581897736 2.3336971935350448e-05
0.69459140300750732 0.0097246803343296051 0
0.8278348445892334 0.0091599710285663605 0.00021664488303940743
0.95079940557479858 0.013602866791188717 0.0026940589305013418
0.9997057318687439 0.015870487317442894 0.0013607399305328727
1 0.019026707857847214 2.1392223061411642e-05
1 0.02817300520837307 0
0.99730086326599121 0.042585156857967377 0.0008844712283462286
0.0045970096252858639 0.34254440665245056 0.01020183227956295
0.064519010484218597 0.29945725202560425 0.0060089561156928539
0.18369771540164948 0.2519078254699707 0.0025968663394451141
0.31649667024612427 0.20419982075691223 0.00079326255945488811
0.43933668732643127 0.16050863265991211 2.6059618903673254e-05
0.55912321805953979 0.11904960870742798 1.9447477370704291e-06
0.68644541501998901 0.087062373757362366 0
0.82731813192367554 0.070206679403781891 0.00088194303680211306
0.95396566390991211 0.066033832728862762 0.0040104584768414497
0.99990427494049072 0.064383111894130707 0.0040431302040815353
1 0.066463381052017212 0.00086871878011152148
0.99950522184371948 0.07860400527715683 0
0.99480271339416504 0.099213063716888428 3.9672850107308477e-05
0.0013609792804345489 0.49475014209747314 0.00088022270938381553
0.040818039327859879 0.44496572017669678 0.0096793677657842636
0.14468412101268768 0.39511534571647644 0.011093438602983952
0.28340750932693481 0.34742167592048645 0.0036617503501474857
0.42184320092201233 0.30419328808784485 0.00020400402718223631
0.54960876703262329 0.26191392540931702 0
0.68326777219772339 0.22072900831699371 1.516903103038203e-05
0.83100652694702148 0.18690565228462219 0.00076584162889048457
0.96017497777938843 0.16748742759227753 0.002299080602824688
1 0.15788447856903076 0.0019941441714763641
0.99999499320983887 0.15514802932739258 0.00043717926018871367
0.99849265813827515 0.16522566974163055 0
0.99520909786224365 0.18485397100448608 0
0.0001983642578125 0.65854752063751221 0
0.02232176810503006 0.60113978385925293 0.0041710645891726017
0.10498782992362976 0.54496711492538452 0.0092889079824090004
0.24148295819759369 0.49664050340652466 0.0038154153153300285
0.39408904314041138 0.45219874382019043 0.00048307530232705176
0.53618592023849487 0.410562664270401 2.8004365958622657e-05
0.67892760038375854 0.37056073546409607 0
0.83224689960479736 0.33486294746398926 8.2262828072998673e-05
0.96161824464797974 0.30942583084106445 0.00037339155096560717
1 0.29216733574867249 8.2846250734291971e-05
1 0.28384840488433838 0
0.99997490644454956 0.28670743107795715 0
0.99825847148895264 0.29643812775611877 0
0.00051924760919064283 0.82795143127441406 0
0.01871725358068943 0.7687264084815979 0.00032029993599280715
0.08627617359161377 0.71006858348846436 0.0017302419291809201
0.20981793105602264 0.6599927544593811 0.0017938351957127452
0.36352229118347168 0.61050224304199219 0.0015565759968012571
0.52020812034606934 0.56396329402923584 0.0013885498046875
0.67506682872772217 0.52740848064422607 0.00050232833018526435
0.83620524406433105 0.49609428644180298 4.4923668610863388e-05
0.9676329493522644 0.46840706467628479 0
1 0.44545426964759827 0
1 0.4304058849811554 0
1 0.4242357611656189 0
0.99907976388931274 0.4217376708984375 0
0.0030633516144007444 0.96864736080169678 0
0.026420518755912781 0.92525303363800049 0
0.086532101035118103 0.87673693895339966 0
0.19262236356735229 0.83290106058120728 0.00027129228692501783
0.33788439631462097 0.78396505117416382 0.002263297326862812
0.5039515495300293 0.73302185535430908 0.004133172333240509
0.67314702272415161 0.70066893100738525 0.002047624671831727
0.84310424327850342 0.66988545656204224 0.00064896227559074759
0.9750322699546814 0.63557833433151245 0
1 0.6054033637046814 0
1 0.58174943923950195 0
0.99999892711639404 0.5646548867225647 0
0.99851113557815552 0.54880982637405396 3.0338062060764059e-05
0.0074964636005461216 1 0
0.034909147769212723 0.99889934062957764 0
0.089986301958560944 0.99083495140075684 0
0.18226058781147003 0.97665083408355713 0
0.31500473618507385 0.9526640772819519 0.00066296447766944766
0.4811958372592926 0.91282665729522705 0.002488304628059268
0.65865272283554077 0.88009858131408691 0.0026265762280672789
0.83472877740859985 0.85032570362091064 0.0016191968461498618
0.97441929578781128 0.8094136118888855 0.00033546896884217858
1 0.77340418100357056 0.00067191029665991664
0.99995249509811401 0.73802328109741211 0.00039361690869554877
0.99879562854766846 0.70587974786758423 0
0.99727892875671387 0.67290031909942627 0.00023259181762114167
0.010517988353967667 1 0
0.041334774345159531 1 0
0.094999872148036957 1 0
0.18146006762981415 1 0
0.30642017722129822 1 0
0.46587535738945007 0.99895888566970825 0.00025690117035992444
0.64124506711959839 0.99396347999572754 0.0011662651086226106
0.81600987911224365 0.98476600646972656 0.0018904891330748796
0.96536350250244141 0.95860481262207031 0.00052274815971031785
0.99999356269836426 0.93411105871200562 0.00066802080255001783
0.9974251389503479 0.89982467889785767 0.0004836587468162179
0.99521028995513916 0.85103017091751099 0
0.99804574251174927 0.79966390132904053 0
0.011694141663610935 1 0
0.046395067125558853 1 0
0.10213921964168549 1 0
0.18765540421009064 1 0
0.30837467312812805 1 0
0.46157005429267883 1 0
0.63534325361251831 1 4.8424215492559597e-05
0.81387454271316528 1 0.00032691206433810294
0.96026384830474854 0.99999356269836426 1.4002182979311328e-05
0.99992245435714722 0.99961644411087036 0
0.99980074167251587 0.99465620517730713 0
0.99949753284454346 0.96987414360046387 0
0.99993860721588135 0.9274410605430603 0
0.011834881268441677 1 0
0.050931908190250397 1 0
0.10978630185127258 1 0
0.19552689790725708 1 0
0.31236812472343445 1 0
0.45912060141563416 1 0
0.6277586817741394 1 0
0.80320471525192261 1 5.7564528106013313e-05
0.95120900869369507 0.9999852180480957 6.6315893491264433e-05
0.99999678134918213 0.99998944997787476 0
1 1 0
1 0.99999451637268066 0
1 0.99631655216217041 0
0.011753217317163944 1 0
0.055232163518667221 1 0
0.11716853082180023 1 0
0.2023833841085434 1 0
0.31406748294830322 1 0
0.45127785205841064 1 0
0.60855144262313843 1 1.1668486195048899e-06
0.77470844984054565 1 0.00061065074987709522
0.92808997631072998 0.99874359369277954 0.00051574705867096782
0.99906319379806519 0.99905270338058472 0
1 1 0
1 1 0
1 1 0
0.013045472092926502 0.99968397617340088 0
0.060482565313577652 1 0
0.12495012581348419 1 0
0.2089494913816452 1 0
0.31400281190872192 1 0
0.43990316987037659 1 0
0.58220714330673218 1 0.0002996856055688113
0.73335897922515869 1 0.0025577321648597717
0.88602817058563232 0.99922788143157959 0.0011446784483268857
0.99265635013580322 0.99928480386734009 0
1 1 0
1 1 0
1 1 0.00037416943814605474
0.001378856017254293 0.0077238795347511768 0.21437935531139374
0.072221376001834869 0.0024224375374615192 0.16727522015571594
0.21129284799098969 0.00013945336104370654 0.11580487340688705
0.33592402935028076 0 0.068018592894077301
0.45347234606742859 0 0.029649727046489716
0.56884878873825073 7.0594338467344642e-05 0.011982637457549572
0.68834900856018066 6.8455119617283344e-05 0.0029168371111154556
0.81456834077835083 0 0.0029789942782372236
0.93443953990936279 0 0.0032342649064958096
0.99744778871536255 0 0.00074038037564605474
1 0.00030574423726648092 0.00020141601271461695
0.99900811910629272 0.0019110884750261903 0.0026335024740546942
0.99168276786804199 0.0053128409199416637 0.022055532783269882
1.5976849681464955e-05 0.12337061762809753 0.15938495099544525
0.042184058576822281 0.088015235960483551 0.11316043883562088
0.17550718784332275 0.053664412349462509 0.069908082485198975
0.30569207668304443 0.029497796669602394 0.035731986165046692
0.4267277717590332 0.017768874764442444 0.017763743177056313
0.54735845327377319 0.011919178999960423 0.0059567769058048725
0.673187255859375 0.0061162463389337063 0.00045746448449790478
0.80553489923477173 0.0048262504860758781 0.00065623264526948333
0.92977041006088257 0.0083578666672110558 0.0043509090319275856
0.99661803245544434 0.0098088877275586128 0.0046749040484428406
1 0.012380128726363182 0.0046592261642217636
0.9997708797454834 0.02099456824362278 0.0088410470634698868
0.99290323257446289 0.034430395811796188 0.023892421275377274
7.9525219916831702e-05 0.29538065195083618 0.10816796869039536
0.028126601129770279 0.2490786612033844 0.078786902129650116
0.1393115222454071 0.20167753100395203 0.045125953853130341
0.27454337477684021 0.15852206945419312 0.014929917640984058
0.40420806407928467 0.11957646161317825 0.0058139725588262081
0.53134703636169434 0.090863443911075592 0.0013430726248770952
0.66404914855957031 0.066689781844615936 1.9746669295273023e-06
0.80637979507446289 0.054184991866350174 1.2341667570581194e-05
0.93501710891723633 0.054495763033628464 0.00096549239242449403
0.99758243560791016 0.055213239043951035 0.0033804501872509718
1 0.057262778282165527 0.0068825962953269482
0.99999856948852539 0.069522038102149963 0.010872186161577702
0.99610882997512817 0.089536972343921661 0.017588177695870399
2.8722427032334963e-06 0.4579940140247345 0.051359198987483978
0.014492034912109375 0.40248411893844604 0.049962226301431656
0.10175936669111252 0.35050845146179199 0.033898670226335526
0.23789077997207642 0.3046499490737915 0.010312891565263271
0.38078823685646057 0.26305419206619263 0.0010447034146636724
0.51737034320831299 0.22559945285320282 2.2050446204957552e-05
0.65747278928756714 0.19125273823738098 0
0.80685335397720337 0.16633492708206177 0
0.94059115648269653 0.15697456896305084 0
0.99889957904815674 0.15252567827701569 0.00011957206152146682
1 0.15006031095981598 0.0017841263907030225
0.99999994039535522 0.15895465016365051 0.0044577955268323421
0.99932032823562622 0.17711083590984344 0.0066412831656634808
0 0.62572062015533447 0.0164337158203125
0.0048155090771615505 0.56082981824874878 0.018285609781742096
0.06824927031993866 0.5018652081489563 0.015099454671144485
0.19810974597930908 0.45530480146408081 0.0035327237565070391
0.35243123769760132 0.41425308585166931 6.9936118961777538e-05
0.50259792804718018 0.37787282466888428 0
0.65150922536849976 0.3439146876335144 0
0.80490267276763916 0.3146950900554657 0
0.93889975547790527 0.29716813564300537 0
0.99857246875762939 0.28606215119361877 0
1 0.27866360545158386 1.1189778888365254e-05
1 0.28143191337585449 0.00033733891905285418
0.99962079524993896 0.29010108113288879 0.0023710064124315977
0 0.79818928241729736 0.0023544311989098787
0.0036208957899361849 0.7287973165512085 0.00075388891855254769
0.054514400660991669 0.66736787557601929 0.0004493264714255929
0.17058780789375305 0.62004154920578003 4.3442669266369194e-05
0.32514938712120056 0.57520151138305664 0
0.48787370324134827 0.53488898277282715 0
0.64835816621780396 0.50290626287460327 0
0.80727726221084595 0.4752635657787323 0
0.94052928686141968 0.45175042748451233 0
0.99813151359558105 0.43322527408599854 0
1 0.4207112193107605 0
0.99991852045059204 0.41584011912345886 1.1518890232764534e-06
0.99767583608627319 0.41330793499946594 0.002489875303581357
6.6330852860119194e-05 0.95039826631546021 0
0.0097182923927903175 0.89387053251266479 0
0.057059075683355331 0.84145849943161011 0
0.15625053644180298 0.79718190431594849 0
0.30145120620727539 0.75022715330123901 0
0.47060564160346985 0.70642107725143433 0
0.64397072792053223 0.67550218105316162 0
0.81334477663040161 0.64718139171600342 0
0.95148706436157227 0.61511987447738647 0
0.99940335750579834 0.58627504110336304 0
1 0.56532347202301025 0
0.99921047687530518 0.54927372932434082 0.00011518890096340328
0.99475687742233276 0.53399091958999634 0.0057272217236459255
0.0018011354841291904 0.99989455938339233 0
0.018126992508769035 0.99456745386123657 0
0.061480022966861725 0.97900956869125366 0
0.1474190354347229 0.95579534769058228 0
0.28022652864456177 0.92163687944412231 0
0.44781011343002319 0.88311153650283813 0
0.62843871116638184 0.85354137420654297 0
0.8070252537727356 0.82486230134963989 0
0.95516741275787354 0.78537297248840332 0
0.99998223781585693 0.74799036979675293 0
0.99999988079071045 0.71585214138031006 0
0.99877899885177612 0.68467074632644653 0.00057919073151424527
0.99561887979507446 0.65266382694244385 0.0066426293924450874
0.0042674345895648003 1 0
0.023737769573926926 1 0
0.065848946571350098 1 0
0.14478468894958496 1 0
0.26820081472396851 0.99915498495101929 0
0.42901164293289185 0.99360072612762451 0
0.60830801725387573 0.98370319604873657 0
0.78849035501480103 0.96863257884979248 0
0.94035416841506958 0.93823981285095215 0
0.99876898527145386 0.90776228904724121 0
0.99992728233337402 0.87261819839477539 0
0.99837303161621094 0.82616603374481201 0.00020585901802405715
0.99803417921066284 0.77555936574935913 0.0021855970844626427
0.0050878040492534637 1 0
0.027844268828630447 1 0
0.071535028517246246 1 0
0.14852224290370941 1 0
0.26556143164634705 1 0
0.41912972927093506 1 0
0.59596025943756104 1 0
0.77720218896865845 1 0
0.92936974763870239 0.99915099143981934 0
0.99661886692047119 0.99593609571456909 0
0.9999997615814209 0.98364025354385376 0
0.99992138147354126 0.95042616128921509 0
0.99997740983963013 0.89895594120025635 0.00091597612481564283
0.0048621385358273983 1 0
0.031808245927095413 1 0
0.079027645289897919 1 0
0.15552741289138794 1 0
0.26725536584854126 1 0
0.4129888117313385 1 0
0.58367151021957397 1 0
0.76389062404632568 1 0
0.92305225133895874 0.99999535083770752 0
0.99826252460479736 0.99994730949401855 0
1 1 0
1 0.9993901252746582 0
1 0.98595905303955078 0.0012850891798734665
0.0053398581221699715 1 0
0.036719139665365219 1 0
0.087581038475036621 1 0
0.16362327337265015 1 0
0.26930853724479675 1 0
0.40429705381393433 1 0
0.56245851516723633 1 0
0.73346042633056641 1 0
0.89540380239486694 0.99927753210067749 0
0.99327242374420166 0.99893862009048462 0
1 1 0
1 1 0
1 1 0.0032525903079658747
0.0070417365059256554 0.99772930145263672 0
0.04370485246181488 0.99996507167816162 0
0.097432367503643036 1 0
0.17256619036197662 1 0
0.27151119709014893 1 0
0.39419412612915039 1 0
0.5359644889831543 1 0
0.69046902656555176 0.99971878528594971 5.0563439799589105e-06
0.84815937280654907 0.99760568141937256 0
0.97312277555465698 0.99816089868545532 0
1 1 0
1 1 8.9458389993524179e-06
1 1 0.0097571881487965584
0.00013068703992757946 0.00011363309749867767 0.40124359726905823
0.040512684732675552 1.7053940609912388e-05 0.34576430916786194
0.16635605692863464 0 0.28209960460662842
0.30457660555839539 0 0.21600085496902466
0.43484011292457581 0 0.16261883080005646
0.55730134248733521 0.00052644318202510476 0.12261535227298737
0.67677813768386841 0.0024422141723334789 0.086000658571720123
0.8078194260597229 0.00025729011395014822 0.067375525832176208
0.93426519632339478 7.7789909482817166e-06 0.054782599210739136
0.997100830078125 0.00042609419324435294 0.047180969268083572
0.99949485063552856 0.00043906416976824403 0.046853337436914444
0.99325037002563477 0.00022772994998376817 0.058887168765068054
0.98629295825958252 0.0012433369411155581 0.086351864039897919
0 0.071805424988269806 0.34174042940139771
0.014629753306508064 0.045341700315475464 0.28521591424942017
0.12600106000900269 0.020175574347376823 0.2275974303483963
0.27057600021362305 0.0058558895252645016 0.17325286567211151
0.40221646428108215 0.0022551743313670158 0.1299089789390564
0.52833861112594604 0.0032623142469674349 0.09376256912946701
0.65562254190444946 0.0013614878989756107 0.063797175884246826
0.7931215763092041 0.00029172710492275655 0.052534859627485275
0.92053908109664917 0.0015257592312991619 0.055974744260311127
0.99247550964355469 0.0019629085436463356 0.058691661804914474
0.99999898672103882 0.0027641146443784237 0.064145706593990326
0.99794453382492065 0.0098372064530849457 0.074440792202949524
0.98930829763412476 0.022714069113135338 0.09233132004737854
0 0.24222800135612488 0.27815994620323181
0.0034276028163731098 0.19080756604671478 0.22227343916893005
0.085894778370857239 0.14485535025596619 0.17138171195983887
0.23373346030712128 0.10608974099159241 0.12604938447475433
0.37296247482299805 0.077548190951347351 0.092002615332603455
0.50639146566390991 0.060620956122875214 0.065050505101680756
0.64128142595291138 0.038786899298429489 0.044884998351335526
0.78329497575759888 0.031253140419721603 0.039644774049520493
0.91305029392242432 0.039721619337797165 0.045113105326890945
0.99009984731674194 0.039978399872779846 0.053997024893760681
1 0.039749279618263245 0.067088544368743896
0.99997198581695557 0.054701965302228928 0.079975426197052002
0.99559259414672852 0.076336011290550232 0.092959381639957428
0 0.41461029648780823 0.20974308252334595
0.0010133181931450963 0.35360884666442871 0.16532789170742035
0.057869795709848404 0.29970332980155945 0.12633419036865234
0.19467158615589142 0.25631144642829895 0.090525500476360321
0.34510526061058044 0.21988579630851746 0.060416322201490402
0.48733571171760559 0.1904841810464859 0.037745755165815353
0.6283450722694397 0.16120162606239319 0.02710234746336937
0.77502989768981934 0.14410501718521118 0.025730118155479431
0.91079986095428467 0.1460578590631485 0.026864819228649139
0.9924587607383728 0.14503107964992523 0.034274082630872726
1 0.13897693157196045 0.054897323250770569
1 0.14787290990352631 0.071184493601322174
0.99923199415206909 0.16592441499233246 0.082924649119377136
0 0.58641678094863892 0.13631440699100494
0.0002618826983962208 0.5165705680847168 0.10647599399089813
0.040074966847896576 0.45762306451797485 0.082365386188030243
0.15986360609531403 0.41312545537948608 0.057458840310573578
0.31523317098617554 0.37658452987670898 0.031723666936159134
0.4699016809463501 0.34718248248100281 0.015288573689758778
0.61891525983810425 0.31975987553596497 0.010882060043513775
0.76797914505004883 0.29636067152023315 0.011796914041042328
0.90508365631103516 0.28757882118225098 0.014788295142352581
0.99104964733123779 0.28198391199111938 0.02337099052965641
1 0.27328377962112427 0.039060182869434357
1 0.27399519085884094 0.055722329765558243
0.99908751249313354 0.28138801455497742 0.070506677031517029
0 0.75962346792221069 0.07257118821144104
0.00037203021929599345 0.6828342080116272 0.04640921950340271
0.032650202512741089 0.62377017736434937 0.034296445548534393
0.1350862979888916 0.58030611276626587 0.023595457896590233
0.28772377967834473 0.5399741530418396 0.00968958530575037
0.45505431294441223 0.50574547052383423 0.0027104995679110289
0.61553609371185303 0.47875741124153137 0.0029230304062366486
0.76756495237350464 0.45490097999572754 0.0040869172662496567
0.90246826410293579 0.4375205934047699 0.0075228973291814327
0.98768877983093262 0.42423602938652039 0.015379139222204685
0.99997413158416748 0.41267475485801697 0.024380762130022049
0.99855202436447144 0.40698906779289246 0.044459637254476547
0.99490821361541748 0.40389156341552734 0.067117832601070404
8.7513646576553583e-05 0.92274850606918335 0.022516900673508644
0.0024128484074026346 0.85531491041183472 0.00986506137996912
0.03289482370018959 0.80374300479888916 0.0068596038036048412
0.11903290450572968 0.75965350866317749 0.00553156528621912
0.26193651556968689 0.71558332443237305 0.0019641800317913294
0.43483680486679077 0.67647343873977661 0.00011444091796875
0.60971415042877197 0.64679807424545288 0.00042604931513778865
0.77398991584777832 0.62123197317123413 0.0013182397233322263
0.9120449423789978 0.59490454196929932 0.003633835818618536
0.99085450172424316 0.56934964656829834 0.010730354115366936
0.99996268749237061 0.54978412389755249 0.018914122134447098
0.99705344438552856 0.53486144542694092 0.042140092700719833
0.99251049757003784 0.52098923921585083 0.071282558143138885
0.00030148075893521309 0.9984174370765686 0.0035525304265320301
0.0064025130122900009 0.98538923263549805 0.00065448239911347628
0.034977316856384277 0.96335244178771973 0.00032552084303461015
0.10919675976037979 0.92819273471832275 0.00036665971856564283
0.23970864713191986 0.88664025068283081 0.0001211727358167991
0.41078251600265503 0.84839832782745361 0
0.59537136554718018 0.81813031435012817 0
0.77224379777908325 0.79091042280197144 4.7421923227375373e-05
0.92128801345825195 0.75638943910598755 0.0017251706449314952
0.99606990814208984 0.71959573030471802 0.01236280519515276
1 0.6904914379119873 0.026849230751395226
0.99970799684524536 0.66298669576644897 0.046317141503095627
0.99575388431549072 0.63497167825698853 0.071047745645046234
0.0011615080293267965 1 8.7513646576553583e-05
0.0090561956167221069 1 0
0.037136465311050415 1 0
0.10509434342384338 0.99938905239105225 0
0.22540411353111267 0.99309104681015015 0
0.3893657922744751 0.97853827476501465 0
0.57416212558746338 0.96063739061355591 0
0.75595712661743164 0.94034874439239502 0
0.91272354125976562 0.90856730937957764 0.00022262871789280325
0.99532508850097656 0.87181574106216431 0.0092958034947514534
1 0.83858412504196167 0.027335850521922112
0.9999997615814209 0.79659110307693481 0.041067909449338913
0.99917489290237427 0.75115311145782471 0.061606835573911667
0.0013150981394574046 1 0
0.011236497201025486 1 0
0.041099995374679565 1 0
0.10732705891132355 1 0
0.21999625861644745 1 0
0.37485003471374512 1 0
0.55465984344482422 1 0
0.7366451621055603 0.99968945980072021 0
0.8947150707244873 0.99548143148422241 2.4533739633625373e-05
0.98809629678726196 0.98430615663528442 0.0063867457211017609
1 0.96218490600585938 0.016893124207854271
1 0.92312294244766235 0.024517029523849487
0.99987208843231201 0.86961847543716431 0.050569958984851837
0.0010968376882374287 1 0
0.014955108985304832 1 0
0.04913928359746933 1 0
0.11509586125612259 1 0
0.22153641283512115 1 0
0.36608392000198364 1 0
0.53769725561141968 1 0
0.71876668930053711 1 0
0.88497763872146606 1 0.00027651319396682084
0.98863714933395386 0.99999415874481201 0.0041549382731318474
1 0.99986940622329712 0.0057479860261082649
1 0.99614357948303223 0.010138179175555706
0.99968552589416504 0.97140514850616455 0.040970131754875183
0.0018447726033627987 0.99999308586120605 1.9447477370704291e-06
0.021411851048469543 1 0
0.060326654464006424 1 0
0.12639643251895905 1 0
0.22580626606941223 1 0
0.35827410221099854 1 0
0.51687806844711304 1 0
0.69023299217224121 1 7.4797986826524721e-07
0.85767090320587158 1 0.00020300173491705209
0.97872799634933472 0.99999570846557617 0.00035259770811535418
1 1 0.00073676015017554164
1 1 0.0082384450361132622
1 0.99990159273147583 0.046010635793209076
0.0042514125816524029 0.9954524040222168 0.0011009216541424394
0.030311480164527893 0.99965500831604004 2.7226466045249254e-05
0.07341437041759491 1 0
0.13900008797645569 1 0
0.23176978528499603 1 0
0.35123392939567566 1 0
0.49410009384155273 1 0
0.65276825428009033 0.99981856346130371 0.0004967184504494071
0.81268548965454102 0.99942845106124878 0.00086538278264924884
0.94855725765228271 0.99960446357727051 4.2784446122823283e-05
0.99967527389526367 0.99998056888580322 0.00030987308127805591
1 1 0.01285445224493742
1 1 0.05759512260556221
0.0013383752666413784 0 0.59369742870330811
0.035763818770647049 0 0.53301531076431274
0.13535934686660767 0 0.45949506759643555
