assets/lut/toddblankenship crispautumn.cube
# Created by: G'MIC (https://gmic.eu)
TITLE "crispautumn"
# LUT size
LUT_3D_SIZE 13
# Data domain
DOMAIN_MIN 0.0 0.0 0.0
DOMAIN_MAX 1.0 1.0 1.0
# LUT data points
0.0032475041225552559 0.010240936651825905 0.01815420389175415
0.016452040523290634 0.010112283751368523 0.028706854209303856
0.041330136358737946 0.0026085199788212776 0.01467316597700119
0.075243227183818817 0.00020195456454530358 0.003593504661694169
0.14405187964439392 0 0.00013625201245304197
0.2822796106338501 0.00018787758017424494 0.001580601092427969
0.44368690252304077 0.0051075504161417484 0.0058108908124268055
0.5751727819442749 0.0088567547500133514 0.0099345333874225616
0.68760031461715698 0.014964533969759941 0.0067464942112565041
0.79516118764877319 0.018296783789992332 0.013999250717461109
0.88929289579391479 0.018806068226695061 0.023711994290351868
0.965506911277771 0.031340416520833969 0.03917655348777771
0.99407786130905151 0.074302420020103455 0.082990445196628571
0.0046278261579573154 0.033631134778261185 0.017313100397586823
0.023696554824709892 0.043020840734243393 0.026189288124442101
0.060299951583147049 0.019475316628813744 0.010977023281157017
0.11085253208875656 0.0093336664140224457 0.0024213753640651703
0.18884751200675964 0.0077423844486474991 0.00016802619211375713
0.33636891841888428 0.011671163141727448 0.00043417239794507623
0.53803354501724243 0.026025015860795975 0.002113147871568799
0.70047682523727417 0.039534103125333786 0.0040823542512953281
0.82502990961074829 0.053088363260030746 0.0074183745309710503
0.92057710886001587 0.060103815048933029 0.0092576565220952034
0.9825512170791626 0.075859487056732178 0.0068077538162469864
0.99383294582366943 0.11826696991920471 0.014503180049359798
0.99764668941497803 0.16755913197994232 0.025152154266834259
0.002428585896268487 0.065124332904815674 0.010443175211548805
0.019594768062233925 0.085619203746318817 0.009977392852306366
0.052445743232965469 0.04484226182103157 0.0016940247733145952
0.10127889364957809 0.035973701626062393 9.298885561292991e-05
0.19032828509807587 0.04266044870018959 1.4361213516167481e-06
0.37875118851661682 0.064722098410129547 3.1415154808200896e-05
0.63445460796356201 0.08309638500213623 0.00085275690071284771
0.81375807523727417 0.095747567713260651 0.0026913662441074848
0.93974077701568604 0.1106586679816246 0.0057259355671703815
0.97738313674926758 0.1388067752122879 0.010944201610982418
0.9903033971786499 0.17491051554679871 0.0087774088606238365
0.99628603458404541 0.22111538052558899 0.0097062056884169579
0.99949204921722412 0.26334264874458313 0.012367592193186283
0.0014603857416659594 0.10557183623313904 0.0061927046626806259
0.022741518914699554 0.14545384049415588 0.0029160743579268456
0.061087872833013535 0.084277376532554626 0.00027871225029230118
0.12378855794668198 0.074027039110660553 0
0.25855115056037903 0.10240186750888824 0
0.49739420413970947 0.14573545753955841 0.00015779382374603301
0.73531174659729004 0.17142544686794281 0.00069584563607349992
0.90802627801895142 0.18579547107219696 0.0024904287420213223
0.96702826023101807 0.20880544185638428 0.0043442370370030403
0.98218363523483276 0.23807953298091888 0.01000614557415247
0.99191409349441528 0.27579811215400696 0.0098123140633106232
0.9979138970375061 0.31723016500473022 0.009261665865778923
1 0.35447362065315247 0.023571837693452835
0.0010584363481029868 0.16900518536567688 0.0039759166538715363
0.036833506077528 0.23007339239120483 0.0014281179755926132
0.092298321425914764 0.14716953039169312 5.8372348576085642e-05
0.18909664452075958 0.14447353780269623 0
0.38754874467849731 0.19879478216171265 0
0.62380558252334595 0.24342550337314606 0
0.84038758277893066 0.26471516489982605 0.00044874302693642676
0.96865999698638916 0.28508666157722473 0.0022584204562008381
0.97563570737838745 0.31140619516372681 0.0044751036912202835
0.98309308290481567 0.33701613545417786 0.0073508019559085369
0.99478882551193237 0.37054088711738586 0.0087856817990541458
0.9990314245223999 0.40768864750862122 0.0075551951304078102
1 0.44286233186721802 0.011173831298947334
0.0021159453317523003 0.31001463532447815 0.0068407845683395863
0.061292476952075958 0.34501686692237854 0.0021379208192229271
0.16025008261203766 0.2724297046661377 0.00030213897116482258
0.31433513760566711 0.27862775325775146 3.7698184769396903e-06
0.52883493900299072 0.3266395628452301 0
0.73380982875823975 0.34956049919128418 0
0.91772055625915527 0.36136090755462646 5.385455096984515e-06
0.98383450508117676 0.38448187708854675 0.00054855347843840718
0.98614025115966797 0.41179659962654114 0.0024889628402888775
0.98987060785293579 0.43580168485641479 0.0045012230984866619
0.99855166673660278 0.46399146318435669 0.0049392851069569588
1 0.49914538860321045 0.0042193843983113766
1 0.53498786687850952 0.0029652165248990059
0.012649700976908207 0.48132726550102234 0.012358811683952808
0.097859419882297516 0.47541317343711853 0.0055975220166146755
0.24494607746601105 0.4505886435508728 0.002435347530990839
0.43039396405220032 0.4509979784488678 0.0015870487550273538
0.63110637664794922 0.46830728650093079 0.0004079033387824893
0.81848430633544922 0.4729163646697998 5.385455096984515e-06
0.96835142374038696 0.47698768973350525 0
0.99384522438049316 0.49600771069526672 0.00043900433229282498
0.99438172578811646 0.52160888910293579 0.0019655714277178049
0.99811947345733643 0.54126536846160889 0.0037824593018740416
1 0.56165206432342529 0.0043093813583254814
1 0.59494256973266602 0.0037692948244512081
1 0.61994463205337524 0.0053101186640560627
0.046242345124483109 0.60284924507141113 0.026030911132693291
0.13235905766487122 0.58754885196685791 0.014787770807743073
0.29015669226646423 0.59091651439666748 0.0086467517539858818
0.48380401730537415 0.59941107034683228 0.0061532263644039631
0.68975198268890381 0.60154670476913452 0.0034148572012782097
0.8842812180519104 0.60183697938919067 0.00026242126477882266
0.98910427093505859 0.61041921377182007 0
0.99632906913757324 0.62483179569244385 0.00042947506881318986
0.99841427803039551 0.63693696260452271 0.0033626032527536154
1 0.65232592821121216 0.005132727324962616
1 0.66951185464859009 0.002786105265840888
1 0.69407439231872559 0.0024549595545977354
1 0.70055198669433594 0.0090581104159355164
0.062660247087478638 0.70252364873886108 0.036889392882585526
0.13728901743888855 0.69534844160079956 0.020445520058274269
0.30764827132225037 0.7065092921257019 0.014307389035820961
0.50969153642654419 0.71980363130569458 0.010017963126301765
0.71984851360321045 0.72574925422668457 0.0054727140814065933
0.92269295454025269 0.72969865798950195 0.00092694151680916548
0.99514341354370117 0.74167466163635254 0
0.99825602769851685 0.75085157155990601 0.0008379618520848453
1 0.74617612361907959 0.0062546674162149429
1 0.75800281763076782 0.0062760594300925732
1 0.77514916658401489 0.0031385833863168955
1 0.78105193376541138 0.005558656994253397
1 0.77609068155288696 0.014138659462332726
0.078694723546504974 0.8003547191619873 0.044660590589046478
0.13554614782333374 0.80605554580688477 0.024789383634924889
0.32004529237747192 0.82279646396636963 0.020773375406861305
0.52779614925384521 0.83709186315536499 0.014153005555272102
0.73895394802093506 0.84952211380004883 0.0046157538890838623
0.93882584571838379 0.85831725597381592 0.00068232219200581312
0.99405395984649658 0.87346816062927246 4.5237822632770985e-05
0.99905139207839966 0.87433344125747681 0.0025315079838037491
1 0.86000043153762817 0.006189428735524416
1 0.85866057872772217 0.0080860359594225883
1 0.86596822738647461 0.010966790840029716
1 0.85322004556655884 0.022392243146896362
1 0.8431660532951355 0.014903378672897816
0.11233046650886536 0.89623063802719116 0.056593980640172958
0.16050915420055389 0.91559582948684692 0.03648236021399498
0.33042988181114197 0.93290501832962036 0.029747787863016129
0.5380551815032959 0.94902491569519043 0.023188242688775063
0.74959921836853027 0.96046960353851318 0.0066063376143574715
0.93677264451980591 0.9598049521446228 0.0028469311073422432
0.99092161655426025 0.97878921031951904 0.0016321667935699224
0.99913686513900757 0.97425264120101929 0.0054141026921570301
0.99957418441772461 0.96078121662139893 0.0072576934471726418
0.99998944997787476 0.95660442113876343 0.0084723532199859619
1 0.94888472557067871 0.021568283438682556
1 0.92029625177383423 0.045517895370721817
1 0.89807718992233276 0.060022138059139252
0.1164398193359375 0.96556532382965088 0.085009016096591949
0.17837989330291748 0.98483633995056152 0.056633684784173965
0.33864638209342957 0.98984700441360474 0.045849084854125977
0.54514414072036743 0.99477839469909668 0.047130227088928223
0.75528037548065186 0.99659174680709839 0.033656850457191467
0.94102936983108521 0.9967072606086731 0.011195672675967216
0.98949563503265381 0.99608814716339111 0.0059511968865990639
0.99477469921112061 0.99576073884963989 0.011137151159346104
0.99611443281173706 0.99378561973571777 0.013632127083837986
0.99831056594848633 0.99456238746643066 0.015773219987750053
1 0.99157559871673584 0.026712918654084206
1 0.97322148084640503 0.049526393413543701
1 0.936958909034729 0.19198209047317505
0.070858195424079895 0.99165451526641846 0.13114102184772491
0.1885673999786377 0.99120497703552246 0.086772069334983826
0.34806236624717712 0.99508345127105713 0.062821827828884125
0.55173444747924805 0.99667048454284668 0.061462342739105225
0.76201534271240234 0.99937397241592407 0.047609202563762665
0.9445418119430542 0.99992156028747559 0.01341120433062315
0.99204921722412109 0.99965804815292358 0.0070122363977134228
0.99216854572296143 0.99861437082290649 0.013895116746425629
0.99473470449447632 0.9964107871055603 0.017863254994153976
0.9964216947555542 0.99649012088775635 0.021593490615487099
0.99982297420501709 0.99795681238174438 0.025959702208638191
1 0.99567335844039917 0.095979891717433929
1 0.96024495363235474 0.4098549485206604
0.00066218659048900008 0.0055275410413742065 0.049041986465454102
0.013010121881961823 0.0062749376520514488 0.070918142795562744
0.049221336841583252 0.0022637760266661644 0.047314334660768509
0.091412670910358429 0.00034860349842347205 0.031401645392179489
0.14387057721614838 0.00017215505067724735 0.019967008382081985
0.26632162928581238 0.001220703125 0.026806505396962166
0.42901250720024109 0.0053338892757892609 0.035410534590482712
0.56781005859375 0.0057773515582084656 0.036742489784955978
0.68499606847763062 0.01214599609375 0.05179678276181221
0.79291540384292603 0.019774014130234718 0.077059760689735413
0.89429622888565063 0.019581424072384834 0.09942232072353363
0.9610716700553894 0.045254889875650406 0.13758838176727295
0.98960214853286743 0.087916955351829529 0.19142286479473114
0.0032102547120302916 0.029047513380646706 0.04677886888384819
0.031345292925834656 0.054855242371559143 0.094820506870746613
0.10069911926984787 0.039095394313335419 0.073846496641635895
0.18612104654312134 0.022674845531582832 0.046261463314294815
0.28489482402801514 0.01530030183494091 0.024174408987164497
0.39767342805862427 0.018630338832736015 0.01454137172549963
0.5285910964012146 0.031985804438591003 0.020917391404509544
0.6759263277053833 0.031910885125398636 0.012653485871851444
0.8038705587387085 0.043696772307157516 0.021895149722695351
0.912689208984375 0.064608357846736908 0.040456421673297882
0.98036640882492065 0.082163207232952118 0.04531015083193779
0.98961555957794189 0.12423613667488098 0.076622650027275085
0.99448060989379883 0.17162515223026276 0.12060526013374329
0.0024031095672398806 0.063069015741348267 0.039959702640771866
0.033015560358762741 0.12101548165082932 0.077093474566936493
0.1024261936545372 0.093164734542369843 0.038428734987974167
0.21591313183307648 0.081666804850101471 0.015222093090415001
0.33693984150886536 0.076232761144638062 0.0095016779378056526
0.47093290090560913 0.076592810451984406 0.0056937574408948421
0.62332969903945923 0.089683011174201965 0.0089516285806894302
0.77973216772079468 0.10219093412160873 0.0064827115274965763
0.90825146436691284 0.1212630495429039 0.011278788559138775
0.97406387329101562 0.14829297363758087 0.026963567361235619
0.99157321453094482 0.1827574223279953 0.029108310118317604
0.99616408348083496 0.2265477180480957 0.028431551530957222
0.99869281053543091 0.26733028888702393 0.062664642930030823
0.0014936559600755572 0.10358010232448578 0.036317862570285797
0.03500506654381752 0.19741316139698029 0.056921280920505524
0.12265489995479584 0.17313343286514282 0.019662236794829369
0.24998734891414642 0.16343392431735992 0.0086750108748674393
0.38968133926391602 0.16419008374214172 0.0060411342419683933
0.53804033994674683 0.17002201080322266 0.0068827462382614613
0.71022206544876099 0.18555137515068054 0.0049376245588064194
0.87215214967727661 0.20396828651428223 0.0053674587979912758
0.95816683769226074 0.22678379714488983 0.0081065157428383827
0.97965401411056519 0.25377184152603149 0.018947556614875793
0.99234968423843384 0.2882544994354248 0.028399987146258354
0.99907487630844116 0.32521679997444153 0.014829149469733238
1 0.36366936564445496 0.038771010935306549
0.00080814736429601908 0.16994164884090424 0.039551425725221634
0.043059255927801132 0.28542551398277283 0.044731978327035904
0.15757514536380768 0.26882630586624146 0.019105589017271996
0.30266770720481873 0.2613464891910553 0.0062594693154096603
0.4550480842590332 0.26250174641609192 0.0067615732550621033
0.63121455907821655 0.27517598867416382 0.0055065080523490906
0.80144578218460083 0.29119807481765747 0.0054364223033189774
0.93795317411422729 0.31166261434555054 0.007587044034153223
0.97435051202774048 0.3354889452457428 0.0094567844644188881
0.98310494422912598 0.35961464047431946 0.014612309634685516
0.99375033378601074 0.38849025964736938 0.015742836520075798
0.99982821941375732 0.42155307531356812 0.010451671667397022
1 0.45134568214416504 0.019589398056268692
0.0033402238041162491 0.31252172589302063 0.059624437242746353
0.053743638098239899 0.38256704807281494 0.04408060759305954
0.1933874636888504 0.37298503518104553 0.022984538227319717
0.35833051800727844 0.37107813358306885 0.01025784108787775
0.53087157011032104 0.37478774785995483 0.0045624379999935627
0.7083398699760437 0.38300684094429016 0.0059123770333826542
0.8899422287940979 0.39477139711380005 0.0062387054786086082
0.97769153118133545 0.41589134931564331 0.005274664144963026
0.98514777421951294 0.44143274426460266 0.0072581120766699314
0.99143648147583008 0.46368312835693359 0.011594779789447784
0.99803459644317627 0.48643159866333008 0.0094652362167835236
1 0.51489520072937012 0.0055842828005552292
1 0.54210448265075684 0.0046347673051059246
0.01735241524875164 0.47852855920791626 0.078945919871330261
0.08530532568693161 0.49284979701042175 0.048336178064346313
0.22452299296855927 0.49185165762901306 0.026841916143894196
0.40537360310554504 0.49190756678581238 0.013931873254477978
0.58999216556549072 0.49879035353660583 0.0038403829094022512
0.76978129148483276 0.50453150272369385 0.002621624618768692
0.93838602304458618 0.51470649242401123 0.002523145405575633
0.99190688133239746 0.53147774934768677 0.0032115413341671228
0.99463474750518799 0.55141556262969971 0.005779520608484745
0.99856966733932495 0.56857872009277344 0.014762534759938717
1 0.58712732791900635 0.019792294129729271
1 0.60977143049240112 0.010510433465242386
1 0.63088548183441162 0.0081694060936570168
0.042016360908746719 0.60094195604324341 0.095773480832576752
0.11608543992042542 0.60486292839050293 0.060931816697120667
0.25386780500411987 0.61356014013290405 0.035498000681400299
0.44354572892189026 0.62037545442581177 0.014315796084702015
0.63915717601776123 0.62967324256896973 0.0050860685296356678
0.82306241989135742 0.63509303331375122 0.0029088787268847227
0.96808117628097534 0.64375597238540649 0.00020125145965721458
0.99573349952697754 0.6558348536491394 0.0047865472733974457
0.99816691875457764 0.66423314809799194 0.013758581131696701
1 0.67710083723068237 0.022296397015452385
1 0.6914217472076416 0.021606894209980965
1 0.70556795597076416 0.013026981614530087
1 0.7139936089515686 0.01547540444880724
0.049316570162773132 0.71212923526763916 0.11394956707954407
0.12384429574012756 0.72076725959777832 0.073750711977481842
0.27370277047157288 0.73226463794708252 0.047688920050859451
0.46849897503852844 0.74380743503570557 0.023893648758530617
0.67045140266418457 0.75519216060638428 0.011519832536578178
0.86855530738830566 0.76205223798751831 0.0055267182178795338
0.98977494239807129 0.76930874586105347 0.00049652397865429521
0.99933004379272461 0.77286446094512939 0.0071054794825613499
1 0.76981604099273682 0.021250616759061813
1 0.7767866849899292 0.024739313870668411
1 0.78757560253143311 0.023439504206180573
1 0.78910404443740845 0.026688802987337112
1 0.78621059656143188 0.021500876173377037
0.053695078939199448 0.81996864080429077 0.12898929417133331
0.12323416769504547 0.83813852071762085 0.083011537790298462
0.28300938010215759 0.85174578428268433 0.058891564607620239
0.48432135581970215 0.86487817764282227 0.040263455361127853
0.68805098533630371 0.87977725267410278 0.021433047950267792
0.89422881603240967 0.88818669319152832 0.01244698278605938
0.99273169040679932 0.89619141817092896 0.0017968271858990192
0.99918800592422485 0.89010787010192871 0.0083525115624070168
1 0.87319886684417725 0.018821103498339653
1 0.86691129207611084 0.025640286505222321
1 0.86928099393844604 0.033124286681413651
1 0.85790646076202393 0.053812302649021149
1 0.85138177871704102 0.05687224492430687
0.083212144672870636 0.91783815622329712 0.14248159527778625
0.13923262059688568 0.9455757737159729 0.10539446026086807
0.29755860567092896 0.95709264278411865 0.084860377013683319
0.49940970540046692 0.96693164110183716 0.063538827002048492
0.70298677682876587 0.98146587610244751 0.034122809767723083
0.90037494897842407 0.98447829484939575 0.020736560225486755
0.98874157667160034 0.9862130880355835 0.0091865984722971916
0.99880468845367432 0.97646540403366089 0.0149244274944067
0.99998730421066284 0.96247607469558716 0.021584229543805122
1 0.95542323589324951 0.026745636016130447
1 0.94738560914993286 0.04462229460477829
1 0.92362523078918457 0.071249417960643768
1 0.9034736156463623 0.15417510271072388
0.085305534303188324 0.98194199800491333 0.17600087821483612
0.15948432683944702 0.99346280097961426 0.14581453800201416
0.31692942976951599 0.99398380517959595 0.12585723400115967
0.51448976993560791 0.99383652210235596 0.11035012453794479
0.70710617303848267 0.99602895975112915 0.078706137835979462
0.89037811756134033 0.99614053964614868 0.044724050909280777
0.98188102245330811 0.99605989456176758 0.025581808760762215
0.99384695291519165 0.99451875686645508 0.030766714364290237
0.9974181056022644 0.99144840240478516 0.035944007337093353
0.99964600801467896 0.99192005395889282 0.038711637258529663
1 0.99005556106567383 0.060086298733949661
1 0.97563350200653076 0.11028387397527695
1 0.93859213590621948 0.32381030917167664
0.086416177451610565 0.99631571769714355 0.22030086815357208
0.18103434145450592 0.99546092748641968 0.1880071759223938
0.34085783362388611 0.99632209539413452 0.16469909250736237
0.5324777364730835 0.99739152193069458 0.15111209452152252
0.7165672779083252 0.99835187196731567 0.11552815139293671
0.89355510473251343 0.99961858987808228 0.06377728283405304
0.98411411046981812 0.99976086616516113 0.031722065061330795
0.99166005849838257 0.99878299236297607 0.037522632628679276
0.99499553442001343 0.99769043922424316 0.045391261577606201
0.99726223945617676 0.99761301279067993 0.050823405385017395
1 0.99796396493911743 0.065270982682704926
1 0.99556589126586914 0.20778544247150421
1 0.96249914169311523 0.51135498285293579
4.3083641685370822e-06 0.0018864800222218037 0.089851364493370056
0.0074905096553266048 0.0020307654049247503 0.16095511615276337
0.043716758489608765 0.001248782267794013 0.12093445658683777
0.088381029665470123 1.1668485967675224e-05 0.088869847357273102
0.14757440984249115 0.0004400215984787792 0.083570234477519989
0.26806998252868652 0.0041909758001565933 0.10966213792562485
0.41936421394348145 0.011635724455118179 0.13439451158046722
0.5628507137298584 0.013544314540922642 0.14533650875091553
0.6854977011680603 0.013902252539992332 0.15627183020114899
0.79390788078308105 0.024481410160660744 0.18134550750255585
0.89707714319229126 0.028345802798867226 0.2152235209941864
0.95030444860458374 0.058398302644491196 0.25548800826072693
0.98630023002624512 0.09981885552406311 0.30201429128646851
0.00017466825374867767 0.020103184506297112 0.07693798840045929
0.017311874777078629 0.043811317533254623 0.1731322705745697
0.082514174282550812 0.031839273869991302 0.16236488521099091
0.17578853666782379 0.020279617980122566 0.13581538200378418
0.27713257074356079 0.017389513552188873 0.11198704689741135
0.38655325770378113 0.025164240971207619 0.095153003931045532
0.50973337888717651 0.042365025728940964 0.096658356487751007
0.658283531665802 0.040338166058063507 0.084304884076118469
0.78700774908065796 0.05223223939538002 0.093187518417835236
0.90207952260971069 0.077143169939517975 0.11847444623708725
0.97598278522491455 0.095110468566417694 0.14830821752548218
0.98675274848937988 0.13450393080711365 0.19513235986232758
0.9933706521987915 0.18044927716255188 0.24613694846630096
0.00029874316533096135 0.051444213837385178 0.069350898265838623
0.021849313750863075 0.11487242579460144 0.15695120394229889
0.086911112070083618 0.098824217915534973 0.13815954327583313
0.19909344613552094 0.087593987584114075 0.10614978522062302
0.32148215174674988 0.082879774272441864 0.072330981492996216
0.45430260896682739 0.082593269646167755 0.051540717482566833
0.60194414854049683 0.098034754395484924 0.047636143863201141
0.75802421569824219 0.11357057094573975 0.042942557483911514
0.88978791236877441 0.13822227716445923 0.047454491257667542
0.96990311145782471 0.16655632853507996 0.070270523428916931
0.99152266979217529 0.19858688116073608 0.10066463798284531
0.99433153867721558 0.23746152222156525 0.13754308223724365
0.99774003028869629 0.27695527672767639 0.18742160499095917
0.00070091697853058577 0.10231637209653854 0.076776094734668732
0.032007884234189987 0.20013426244258881 0.14559859037399292
0.10264548659324646 0.18733888864517212 0.11163114756345749
0.22751955687999725 0.17276272177696228 0.069556228816509247
0.37418928742408752 0.17533181607723236 0.04249674454331398
0.52094656229019165 0.18484129011631012 0.035182595252990723
0.6830865740776062 0.20019572973251343 0.026436271145939827
0.8449103832244873 0.22362831234931946 0.021170597523450851
0.9565201997756958 0.24739040434360504 0.02493731863796711
0.98432272672653198 0.27521225810050964 0.04365292564034462
0.99433052539825439 0.30914482474327087 0.066061414778232574
0.99957108497619629 0.33985430002212524 0.091645486652851105
0.99999463558197021 0.37253010272979736 0.13666762411594391
0.0010094137396663427 0.18986451625823975 0.10117287933826447
0.041603267192840576 0.29117023944854736 0.13609330356121063
0.12978306412696838 0.28750360012054443 0.097125604748725891
0.27222380042076111 0.27979171276092529 0.0541660375893116
0.43166336417198181 0.28436571359634399 0.03786906972527504
0.59339463710784912 0.29737645387649536 0.029511664062738419
0.75785791873931885 0.31451895833015442 0.022186458110809326
0.91443979740142822 0.33750414848327637 0.017911424860358238
0.98417669534683228 0.36155396699905396 0.020389378070831299
0.98860841989517212 0.38518649339675903 0.032556332647800446
0.99552398920059204 0.41259738802909851 0.039332415908575058
1 0.43967318534851074 0.051176182925701141
1 0.46311798691749573 0.090125471353530884
0.0055348416790366173 0.34550514817237854 0.14560997486114502
0.051297355443239212 0.38918331265449524 0.12487246841192245
0.15133041143417358 0.39036634564399719 0.086440049111843109
0.31718584895133972 0.39396744966506958 0.054991345852613449
0.49259668588638306 0.40231412649154663 0.039978671818971634
0.66011708974838257 0.4125155508518219 0.03685620054602623
