assets/lut/toddblankenship hardboost.cube
# Created by: G'MIC (https://gmic.eu)
TITLE "hardboost"
# LUT size
LUT_3D_SIZE 7
# Data domain
DOMAIN_MIN 0.0 0.0 0.0
DOMAIN_MAX 1.0 1.0 1.0
# LUT data points
0.018588166683912277 0.013052472844719887 0.041301965713500977
0.17869797348976135 0.014347675256431103 0.013392997905611992
0.26962712407112122 0.013355853967368603 0.0134735107421875
0.51489078998565674 0.017616691067814827 0.013143681921064854
0.88281363248825073 0.072034679353237152 0.017294222488999367
0.97417104244232178 0.1463925838470459 0.049280069768428802
0.98553812503814697 0.18115702271461487 0.088661298155784607
0.014658250845968723 0.083457633852958679 0.014527788385748863
0.13011081516742706 0.073920518159866333 0.015615515410900116
0.25880563259124756 0.075647942721843719 0.016046755015850067
0.48958671092987061 0.077139250934123993 0.016987640410661697
0.84115666151046753 0.11091736704111099 0.027654446661472321
0.96628081798553467 0.16718427836894989 0.050914809107780457
0.98979860544204712 0.18438711762428284 0.073277205228805542
0.014837676659226418 0.18255840241909027 0.014149040915071964
0.10184619575738907 0.18571338057518005 0.014701140113174915
0.27919945120811462 0.1848672479391098 0.019834989681839943
0.51836687326431274 0.17808997631072998 0.021227354183793068
0.81966483592987061 0.17222480475902557 0.027741855010390282
0.96946889162063599 0.19582444429397583 0.035846620798110962
0.97343248128890991 0.22003263235092163 0.084215991199016571
0.058019481599330902 0.48627790808677673 0.037677615880966187
0.19527977705001831 0.47261369228363037 0.040548525750637054
0.41648039221763611 0.49005201458930969 0.055347546935081482
0.64730292558670044 0.49490061402320862 0.10339171439409256
0.92408114671707153 0.47724771499633789 0.066146478056907654
0.96680730581283569 0.38203197717666626 0.09638628363609314
0.96479290723800659 0.28541389107704163 0.11005904525518417
0.22431980073451996 0.84297740459442139 0.14890779554843903
0.32943105697631836 0.82667875289916992 0.15869162976741791
0.52311241626739502 0.79328453540802002 0.18272493779659271
0.75169605016708374 0.79258131980895996 0.15192186832427979
0.9322274923324585 0.78621107339859009 0.14063431322574615
0.95944488048553467 0.7097785472869873 0.18797808885574341
0.98375749588012695 0.60578376054763794 0.19885450601577759
0.35075697302818298 0.91772949695587158 0.26695460081100464
0.39530986547470093 0.9254910945892334 0.24710704386234283
0.54262799024581909 0.92117458581924438 0.22998778522014618
0.73801827430725098 0.93073415756225586 0.2100999653339386
0.9123075008392334 0.94476586580276489 0.16566863656044006
0.96283411979675293 0.89789432287216187 0.18293432891368866
0.98509591817855835 0.83475595712661743 0.2231965959072113
0.31940057873725891 0.96154707670211792 0.24036401510238647
0.34580418467521667 0.97288411855697632 0.22195173799991608
0.49832916259765625 0.97056907415390015 0.21499553322792053
0.67723298072814941 0.96823805570602417 0.19675485789775848
0.83637422323226929 0.97299903631210327 0.18002445995807648
0.93958532810211182 0.9861762523651123 0.15222170948982239
0.98803925514221191 0.96691310405731201 0.17494937777519226
0.01460005808621645 0.013042554259300232 0.22748191654682159
0.12995333969593048 0.013308790512382984 0.14464883506298065
0.25620037317276001 0.017511539161205292 0.076377600431442261
0.44853690266609192 0.016789276152849197 0.07701294869184494
0.83561110496520996 0.033962443470954895 0.055025901645421982
0.96664226055145264 0.13757526874542236 0.074163220822811127
0.96688717603683472 0.17963743209838867 0.11780031770467758
0.018720140680670738 0.075105838477611542 0.13982868194580078
0.074520111083984375 0.066768676042556763 0.087182216346263885
0.22922955453395844 0.068120591342449188 0.06927897036075592
0.44782215356826782 0.069089777767658234 0.069527581334114075
0.81578612327575684 0.0874357670545578 0.063489608466625214
0.94048881530761719 0.18313106894493103 0.099615328013896942
0.97687453031539917 0.19790531694889069 0.11658781766891479
0.016662223264575005 0.19846352934837341 0.10025576502084732
0.074154719710350037 0.18485715985298157 0.074832528829574585
0.24263548851013184 0.18572781980037689 0.070245839655399323
0.48385992646217346 0.1763996034860611 0.068253912031650543
0.8090064525604248 0.16427990794181824 0.070212572813034058
0.93802237510681152 0.21477267146110535 0.10084264725446701
0.97547388076782227 0.23140145838260651 0.11943983286619186
0.047714907675981522 0.49559485912322998 0.14164319634437561
0.13965591788291931 0.49988052248954773 0.1178906038403511
0.3859083354473114 0.50282496213912964 0.099970094859600067
0.63569086790084839 0.50448149442672729 0.12292247265577316
0.90130650997161865 0.49074706435203552 0.11342080682516098
0.93460237979888916 0.42224648594856262 0.16221614181995392
0.96556925773620605 0.30226308107376099 0.1404191255569458
0.20870111882686615 0.85372096300125122 0.18126562237739563
0.29170748591423035 0.82043075561523438 0.20628640055656433
0.49616363644599915 0.7958608865737915 0.21323290467262268
0.73198115825653076 0.79570943117141724 0.19730724394321442
0.90846306085586548 0.77789723873138428 0.19461122155189514
0.93839806318283081 0.7125357985496521 0.23148533701896667
0.98611998558044434 0.62721776962280273 0.21920131146907806
0.33101892471313477 0.92844551801681519 0.26978561282157898
0.37265989184379578 0.91636180877685547 0.28004753589630127
0.50980311632156372 0.91257131099700928 0.27227839827537537
0.70766383409500122 0.90523552894592285 0.24793438613414764
0.87747812271118164 0.92189961671829224 0.22252386808395386
0.94081485271453857 0.88371199369430542 0.23289932310581207
0.98344427347183228 0.83310544490814209 0.23419111967086792
0.31033781170845032 0.96581178903579712 0.24732291698455811
0.32684621214866638 0.97474497556686401 0.23973891139030457
0.45556893944740295 0.97515499591827393 0.23124447464942932
0.64438414573669434 0.97124224901199341 0.21617776155471802
0.8280181884765625 0.9781920313835144 0.19444459676742554
0.92642080783843994 0.97987252473831177 0.18579666316509247
0.98665529489517212 0.97061622142791748 0.19375400245189667
0.018210900947451591 0.017922226339578629 0.37834420800209045
0.078666195273399353 0.017768619582056999 0.33530333638191223
0.20288167893886566 0.019569816067814827 0.21791870892047882
0.40756288170814514 0.023790426552295685 0.16197954118251801
0.77179139852523804 0.031801920384168625 0.15234607458114624
0.96500629186630249 0.12023080885410309 0.11273595690727234
0.96947956085205078 0.17047908902168274 0.14983372390270233
0.023346381261944771 0.08210919052362442 0.33609026670455933
0.069813698530197144 0.0720338374376297 0.28521877527236938
0.16928359866142273 0.069661624729633331 0.19328662753105164
0.40503773093223572 0.070838421583175659 0.14770331978797913
0.76931565999984741 0.075553029775619507 0.14042520523071289
0.93598216772079468 0.18102936446666718 0.13461144268512726
0.96692144870758057 0.20118589699268341 0.16590814292430878
0.022347543388605118 0.23909114301204681 0.3560728132724762
0.070340536534786224 0.21800366044044495 0.30376005172729492
0.18105007708072662 0.20382119715213776 0.22329001128673553
0.46021094918251038 0.20159773528575897 0.15978369116783142
0.7878839373588562 0.18034335970878601 0.12614303827285767
0.92585098743438721 0.2278057336807251 0.15343132615089417
0.95648646354675293 0.24264098703861237 0.17560112476348877
0.11142276227474213 0.53978079557418823 0.45623695850372314
0.12570014595985413 0.52877384424209595 0.41822722554206848
0.29898393154144287 0.52032965421676636 0.34044972062110901
0.60076099634170532 0.52266979217529297 0.25405651330947876
0.86538660526275635 0.5238269567489624 0.19647142291069031
0.92984604835510254 0.47797134518623352 0.20955038070678711
0.95778703689575195 0.34533879160881042 0.19469931721687317
0.22488616406917572 0.82903295755386353 0.48631221055984497
0.25309205055236816 0.81340456008911133 0.45371049642562866
0.42594212293624878 0.78620457649230957 0.41113612055778503
0.68209308385848999 0.79074251651763916 0.30471402406692505
0.88783770799636841 0.7785041332244873 0.2615448534488678
0.93324220180511475 0.7299419641494751 0.26895195245742798
0.9839361310005188 0.66064262390136719 0.2549283504486084
0.31370258331298828 0.92089885473251343 0.43402004241943359
0.33898183703422546 0.90774166584014893 0.41209188103675842
0.42936542630195618 0.91458147764205933 0.36816114187240601
0.64668089151382446 0.91324478387832642 0.30691623687744141
0.86201071739196777 0.92124253511428833 0.27051126956939697
0.93477141857147217 0.89457827806472778 0.26758536696434021
0.9837794303894043 0.84969025850296021 0.26157692074775696
0.29396894574165344 0.96607375144958496 0.32423102855682373
0.30310577154159546 0.9768100380897522 0.30912104249000549
0.3933403491973877 0.9783901572227478 0.29097798466682434
0.59205538034439087 0.97567719221115112 0.25168472528457642
0.80291146039962769 0.97478991746902466 0.24136732518672943
0.91168272495269775 0.97877615690231323 0.22827328741550446
0.972240149974823 0.96946549415588379 0.21290692687034607
0.01411361712962389 0.022207118570804596 0.56550782918930054
0.066865541040897369 0.03268725797533989 0.53604614734649658
0.14618635177612305 0.02970866858959198 0.4759194552898407
0.35037383437156677 0.027795888483524323 0.36824086308479309
0.72482478618621826 0.040236260741949081 0.36416387557983398
0.96528589725494385 0.11397169530391693 0.31358093023300171
0.96395814418792725 0.18581116199493408 0.24110715091228485
0.018886387348175049 0.13195914030075073 0.611591637134552
0.060364622622728348 0.10068827867507935 0.55911815166473389
0.12107675522565842 0.074348434805870056 0.46979326009750366
0.34611612558364868 0.07776922732591629 0.38354745507240295
0.72031909227371216 0.085136383771896362 0.34988981485366821
0.93185269832611084 0.18014167249202728 0.33029016852378845
0.95812129974365234 0.21423594653606415 0.25809767842292786
0.043856199830770493 0.33598566055297852 0.68267810344696045
0.084746643900871277 0.31386652588844299 0.64408141374588013
0.12201806157827377 0.2543787956237793 0.52525728940963745
0.40714448690414429 0.24669255316257477 0.45644956827163696
0.75919151306152344 0.23692430555820465 0.39779254794120789
0.91906678676605225 0.24901169538497925 0.33972829580307007
0.94626796245574951 0.25752711296081543 0.27246344089508057
0.14023721218109131 0.60236471891403198 0.78902310132980347
0.17860153317451477 0.58442223072052002 0.73819684982299805
0.1963094174861908 0.56052833795547485 0.662830650806427
0.52560925483703613 0.55042731761932373 0.57079720497131348
0.83519482612609863 0.54399955272674561 0.47379207611083984
0.92281413078308105 0.52003908157348633 0.35497120022773743
0.94707083702087402 0.40782630443572998 0.2719329297542572
0.20734941959381104 0.86837583780288696 0.79178535938262939
0.25746357440948486 0.85375106334686279 0.78394007682800293
0.32816681265830994 0.82518482208251953 0.726543128490448
0.56981104612350464 0.80569052696228027 0.61381202936172485
0.86491113901138306 0.79432147741317749 0.50832194089889526
0.92920118570327759 0.74940747022628784 0.37726151943206787
0.97523653507232666 0.69126719236373901 0.30685046315193176
0.27343598008155823 0.92312979698181152 0.72546976804733276
0.32281532883644104 0.90947312116622925 0.71042656898498535
0.35689938068389893 0.91902482509613037 0.65825939178466797
0.53753179311752319 0.92410355806350708 0.58268672227859497
0.83220154047012329 0.9265097975730896 0.46048703789710999
0.93563163280487061 0.9032408595085144 0.34857764840126038
0.97891294956207275 0.86032342910766602 0.31542745232582092
0.2728830873966217 0.96315234899520874 0.61451810598373413
0.28745776414871216 0.97212475538253784 0.59638327360153198
0.31676414608955383 0.97777664661407471 0.55567687749862671
0.5009685754776001 0.97938448190689087 0.4908243715763092
0.75921458005905151 0.97766804695129395 0.36471843719482422
0.9116748571395874 0.9761117696762085 0.27827039361000061
0.97053104639053345 0.96457540988922119 0.24752478301525116
0.01279887743294239 0.073592409491539001 0.78711795806884766
0.033462688326835632 0.033786069601774216 0.79743832349777222
0.11715219169855118 0.046606428921222687 0.73818123340606689
0.2760893702507019 0.038287337869405746 0.63410627841949463
0.66914135217666626 0.046816494315862656 0.65279299020767212
0.96297150850296021 0.15581697225570679 0.65129053592681885
0.97644519805908203 0.21369887888431549 0.52515327930450439
0.023833300918340683 0.22363059222698212 0.82874244451522827
0.066581606864929199 0.2039276510477066 0.83681273460388184
0.085263319313526154 0.1056777685880661 0.80574518442153931
0.25749823451042175 0.087165087461471558 0.6772301197052002
0.66118001937866211 0.10249696671962738 0.6588398814201355
0.93112176656723022 0.20461948215961456 0.63952535390853882
0.97411972284317017 0.23104016482830048 0.52857190370559692
0.0700492262840271 0.42670395970344543 0.91214966773986816
0.10627409815788269 0.4147762656211853 0.88832694292068481
0.14357486367225647 0.38474464416503906 0.85885876417160034
0.2532922625541687 0.30285310745239258 0.78776198625564575
0.70531415939331055 0.31363329291343689 0.72011059522628784
0.92177706956863403 0.29781481623649597 0.65261411666870117
0.9706413745880127 0.26491940021514893 0.53284895420074463
0.22573971748352051 0.67677676677703857 0.90262168645858765
0.2589227557182312 0.65484756231307983 0.89132940769195557
0.28932836651802063 0.63364112377166748 0.87510102987289429
0.36462497711181641 0.5923236608505249 0.85314202308654785
0.7624049186706543 0.58820128440856934 0.80279010534286499
0.92737609148025513 0.5666203498840332 0.69975990056991577
0.97804743051528931 0.47265127301216125 0.56290632486343384
0.25226545333862305 0.88669711351394653 0.91192501783370972
0.3095281720161438 0.86741107702255249 0.89535480737686157
0.3450869619846344 0.84783107042312622 0.88373243808746338
0.43123367428779602 0.83575409650802612 0.88058143854141235
0.78105473518371582 0.81033605337142944 0.83123677968978882
0.928871750831604 0.77170848846435547 0.7020871639251709
0.97815412282943726 0.72119307518005371 0.57472783327102661
0.26327204704284668 0.93709367513656616 0.8771064281463623
0.31083554029464722 0.91942292451858521 0.86261981725692749
0.34072849154472351 0.92252755165100098 0.85362476110458374
0.41370514035224915 0.92654818296432495 0.85067659616470337
0.73493927717208862 0.92706894874572754 0.78069323301315308
0.92277252674102783 0.91028857231140137 0.65942537784576416
0.97687429189682007 0.87395656108856201 0.52906477451324463
0.23997218906879425 0.96305394172668457 0.84562498331069946
0.27203759551048279 0.96885639429092407 0.83386826515197754
0.3000546395778656 0.97781980037689209 0.82177883386611938
0.36061215400695801 0.97703444957733154 0.78529047966003418
0.66330599784851074 0.98508679866790771 0.69749057292938232
0.89580738544464111 0.98054629564285278 0.57770252227783203
0.97450798749923706 0.96923452615737915 0.43539953231811523
0.01460418663918972 0.17786477506160736 0.86916071176528931
0.024537598714232445 0.11392174661159515 0.89364063739776611
0.057716026902198792 0.048383481800556183 0.89829713106155396
0.20743231475353241 0.056156069040298462 0.80092924833297729
0.54483389854431152 0.040335383266210556 0.87009334564208984
0.95332717895507812 0.15760859847068787 0.93085366487503052
0.97966909408569336 0.2418535053730011 0.81875771284103394
0.027359787374734879 0.30185911059379578 0.9185594916343689
0.078709818422794342 0.27981171011924744 0.91104871034622192
0.10047867894172668 0.21120062470436096 0.9180220365524292
0.16815470159053802 0.11993056535720825 0.88539570569992065
0.53627485036849976 0.12586373090744019 0.88221722841262817
0.91187781095504761 0.21604864299297333 0.90485495328903198
0.97763252258300781 0.2606680691242218 0.80799299478530884
0.15115085244178772 0.48580774664878845 0.94810253381729126
0.19980381429195404 0.47990310192108154 0.91917282342910767
0.2127830982208252 0.44287142157554626 0.9193146824836731
0.24362562596797943 0.39146801829338074 0.90432268381118774
0.57982414960861206 0.37435492873191833 0.91454505920410156
0.91178560256958008 0.36129665374755859 0.90123796463012695
0.9838595986366272 0.30776762962341309 0.83032846450805664
0.27875745296478271 0.69961553812026978 0.92939203977584839
0.32326862215995789 0.69173091650009155 0.91291677951812744
0.32830408215522766 0.65723448991775513 0.92141127586364746
0.35753098130226135 0.63967859745025635 0.91967839002609253
0.6198800802230835 0.62060165405273438 0.92350131273269653
0.91890925168991089 0.59793782234191895 0.92042076587677002
0.98621797561645508 0.53440779447555542 0.85940855741500854
0.29435569047927856 0.86491161584854126 0.93924081325531006
0.34825333952903748 0.85222721099853516 0.92338854074478149
0.3710017204284668 0.84362244606018066 0.92734986543655396
0.41024991869926453 0.83829867839813232 0.92885506153106689
0.60861349105834961 0.82026046514511108 0.92632842063903809
0.92037665843963623 0.79513674974441528 0.92874985933303833
0.98638319969177246 0.74782800674438477 0.87024790048599243
0.26583239436149597 0.93631488084793091 0.94021046161651611
0.31003126502037048 0.91740185022354126 0.92262399196624756
0.34031659364700317 0.92169284820556641 0.92403221130371094
0.39330387115478516 0.92286735773086548 0.92685168981552124
0.54914069175720215 0.92629826068878174 0.92796087265014648
0.89321780204772949 0.92421156167984009 0.92205131053924561
0.98370587825775146 0.88906329870223999 0.83195620775222778
0.2470860481262207 0.96598345041275024 0.91797757148742676
0.26925042271614075 0.96976882219314575 0.91822803020477295
0.29018402099609375 0.98026597499847412 0.92142385244369507
0.34787586331367493 0.97204899787902832 0.91158473491668701
0.49387970566749573 0.97808188199996948 0.91288948059082031
0.81414896249771118 0.98450607061386108 0.86692333221435547
0.98245018720626831 0.98154336214065552 0.7490464448928833
0.016996031627058983 0.28092944622039795 0.94181042909622192
0.034024465829133987 0.23640759289264679 0.96309340000152588
0.063352890312671661 0.15246912837028503 0.96901607513427734
0.13455955684185028 0.06709849089384079 0.92790472507476807
0.32923367619514465 0.063731849193572998 0.81983309984207153
0.83308613300323486 0.13947862386703491 0.97959882020950317
0.9761384129524231 0.27979364991188049 0.97583234310150146
0.075559653341770172 0.38295340538024902 0.97129601240158081
0.10583289712667465 0.35552859306335449 0.96783322095870972
0.13837012648582458 0.31205198168754578 0.96545565128326416
0.1831720769405365 0.22856901586055756 0.94129705429077148
0.30799379944801331 0.14567035436630249 0.89320945739746094
0.8054700493812561 0.19902272522449493 0.98068177700042725
0.97840946912765503 0.29451566934585571 0.97611540555953979
0.24089591205120087 0.54675167798995972 0.95700132846832275
0.24752901494503021 0.52822071313858032 0.96264815330505371
0.25618040561676025 0.49927785992622375 0.96872812509536743
0.27140295505523682 0.45096373558044434 0.95056897401809692
0.34351092576980591 0.39687767624855042 0.92481410503387451
0.84234124422073364 0.39634460210800171 0.97738087177276611
0.98392581939697266 0.35753047466278076 0.98310238122940063
0.29677104949951172 0.70975399017333984 0.95332181453704834
0.3236047625541687 0.70034277439117432 0.96162784099578857
0.34222778677940369 0.68493270874023438 0.96932053565979004
0.37744253873825073 0.66996169090270996 0.96626776456832886
0.41727936267852783 0.62899816036224365 0.95073282718658447
0.84377920627593994 0.62494444847106934 0.9806520938873291
0.98135209083557129 0.59078812599182129 0.98331165313720703
0.32257354259490967 0.84413236379623413 0.96439445018768311
0.34621900320053101 0.839549720287323 0.96800315380096436
0.37224242091178894 0.83981978893280029 0.977638840675354
0.41101524233818054 0.83523333072662354 0.97559422254562378
0.4627414345741272 0.82219582796096802 0.96492290496826172
0.80259472131729126 0.80916422605514526 0.97834199666976929
0.98453426361083984 0.77388143539428711 0.98444074392318726
0.28907954692840576 0.9151495099067688 0.97080248594284058
0.31261181831359863 0.91283220052719116 0.97316378355026245
0.33835425972938538 0.91940450668334961 0.98117518424987793
0.37688934803009033 0.91459798812866211 0.97659313678741455
0.43376699090003967 0.91549724340438843 0.97515785694122314
0.73220443725585938 0.92042499780654907 0.97985756397247314
0.98494923114776611 0.89886951446533203 0.98674803972244263
0.24616925418376923 0.97584915161132812 0.97831505537033081
0.26562190055847168 0.9720032811164856 0.97755634784698486
0.28094008564949036 0.9804651141166687 0.98431104421615601
0.31858271360397339 0.97507935762405396 0.97818458080291748
0.36558711528778076 0.97115528583526611 0.97064107656478882
0.62754899263381958 0.98179882764816284 0.98010134696960449
0.95930862426757812 0.98632681369781494 0.9818497896194458
