assets/lut/toddblankenship naturalboost.cube
# Created by: G'MIC (https://gmic.eu)
TITLE "naturalboost"
# LUT size
LUT_3D_SIZE 7
# Data domain
DOMAIN_MIN 0.0 0.0 0.0
DOMAIN_MAX 1.0 1.0 1.0
# LUT data points
0.0089926328510046005 0.02132110670208931 0.026988834142684937
0.12851165235042572 0.0034339157864451408 0.018626119941473007
0.30498963594436646 6.7677217884920537e-05 0.011190586723387241
0.49847027659416199 0 0.0041635851375758648
0.71154385805130005 0 0.00037339155096560717
0.92258173227310181 0.0033634710125625134 0.0005250818794593215
0.99791288375854492 0.00015674665337428451 0.0090720532462000847
0.019073545932769775 0.17814469337463379 0.0039295721799135208
0.12617652118206024 0.10192030668258667 0.00088112027151510119
0.27456957101821899 0.035926233977079391 0.00021441590797621757
0.47642198204994202 0.00083253148477524519 0
0.77708011865615845 0 0
0.99868154525756836 0.00095677096396684647 0
1 0.0016460344195365906 0
0.032657831907272339 0.34084132313728333 0.00052436377154663205
0.14526233077049255 0.28360188007354736 0.0001904655946418643
0.29970255494117737 0.2247481644153595 0.00075544469291344285
0.51270502805709839 0.15270231664180756 0
0.83596348762512207 0.083398886024951935 0.00054452935000881553
1 0.097580403089523315 0
0.9965025782585144 0.13937057554721832 0.0010725283063948154
0.036063101142644882 0.50312727689743042 0
0.1720796525478363 0.47156301140785217 0
0.34482952952384949 0.43548497557640076 0.0034070333931595087
0.57837176322937012 0.4027920663356781 0.0021683936938643456
0.902293860912323 0.37536579370498657 0.0016497294418513775
1 0.39108783006668091 0
0.99985963106155396 0.45206555724143982 0.00013418759044725448
0.022946106269955635 0.66693407297134399 7.0010915806051344e-05
0.1714603453874588 0.6533055305480957 0
0.36406651139259338 0.63778173923492432 7.3122508183587343e-05
0.60951578617095947 0.63877451419830322 0.0024175157304853201
0.92367458343505859 0.66727620363235474 0.00047840792103670537
1 0.71372491121292114 0
1 0.74456733465194702 0.00062776455888524652
0.028766227886080742 0.8477935791015625 0
0.18554310500621796 0.84790432453155518 0
0.38347232341766357 0.8484606146812439 0
0.62005031108856201 0.87031304836273193 0
0.90353626012802124 0.92014461755752563 0.00023764815705362707
1 0.97043776512145996 0
1 0.9732588529586792 5.4452932090498507e-05
0.050111208111047745 0.98797762393951416 0.0019350239308550954
0.21429377794265747 0.99324142932891846 0
0.40935912728309631 0.99800485372543335 0
0.62739503383636475 1 0.0011841568630188704
0.88950067758560181 1 0.0044829575344920158
1 1 0
1 1 0.0041526048444211483
0.0051221209578216076 0.022673243656754494 0.19529971480369568
0.1074458435177803 0.00052244897233322263 0.17739556729793549
0.28936263918876648 4.4729196815751493e-05 0.16750393807888031
0.48064395785331726 2.2559072021977045e-05 0.15904377400875092
0.67224043607711792 2.1781173927593045e-05 0.15700453519821167
0.87641757726669312 0.0020900203380733728 0.16251823306083679
0.99711304903030396 0 0.20108456909656525
0.00048623178736306727 0.18295179307460785 0.14455719292163849
0.086426757276058197 0.097955323755741119 0.10848724097013474
0.26832178235054016 0.030897311866283417 0.076839402318000793
0.47951853275299072 0.0083546955138444901 0.054816272109746933
0.73598164319992065 0.0035035077016800642 0.063376441597938538
0.96747869253158569 0.0090534435585141182 0.083881407976150513
1 0.0038527245633304119 0.16537496447563171
0.010619144886732101 0.36195525527000427 0.09579072892665863
0.099881537258625031 0.28479048609733582 0.067533113062381744
0.27546912431716919 0.21585372090339661 0.036121129989624023
0.50806909799575806 0.17107266187667847 0.010567773133516312
0.80941593647003174 0.14774174988269806 0.025358492508530617
0.99944049119949341 0.16674153506755829 0.054537501186132431
0.99987590312957764 0.20284754037857056 0.14327040314674377
0.010909345932304859 0.53930068016052246 0.051348172128200531
0.11336439847946167 0.47935521602630615 0.042298275977373123
0.29843094944953918 0.43421664834022522 0.039845172315835953
0.54821443557739258 0.41399621963500977 0.017586981877684593
0.85741859674453735 0.42284166812896729 0.013161917217075825
1 0.44923964142799377 0.053337156772613525
1 0.49361702799797058 0.13468417525291443
0.003554116003215313 0.72852641344070435 0.036875274032354355
0.11396709084510803 0.68156582117080688 0.025900552049279213
0.31557536125183105 0.65559917688369751 0.041673697531223297
0.56618726253509521 0.65704190731048584 0.036156881600618362
0.86984550952911377 0.69221502542495728 0.026821166276931763
0.99999845027923584 0.72871613502502441 0.055634114891290665
0.99931210279464722 0.75907939672470093 0.12887686491012573
0.016126580536365509 0.92014211416244507 0.026209767907857895
0.1478259265422821 0.89399510622024536 0.028536584228277206
0.3489396870136261 0.8851933479309082 0.039509687572717667
0.57992732524871826 0.88744205236434937 0.037386380136013031
0.85299301147460938 0.92670100927352905 0.042041376233100891
0.99999701976776123 0.95900607109069824 0.052533004432916641
0.99861258268356323 0.96817386150360107 0.098329119384288788
0.050155401229858398 1 0.052266273647546768
0.19573013484477997 1 0.04959583654999733
0.38310372829437256 1 0.053724072873592377
0.58436137437820435 1 0.069092303514480591
0.82234883308410645 1 0.070021070539951324
0.99833029508590698 1 0.057972613722085953
1 1 0.085160665214061737
0.0022731407079845667 0.028261879459023476 0.37994953989982605
0.075112283229827881 0.00021541820024140179 0.36216884851455688
0.23996838927268982 0 0.35274389386177063
0.43796166777610779 0 0.3551144003868103
0.63323253393173218 0 0.37422385811805725
0.84882330894470215 0.0038506302516907454 0.39492020010948181
0.99945390224456787 0 0.43558701872825623
0 0.19300474226474762 0.34657645225524902
0.042224030941724777 0.10162899643182755 0.30412742495536804
0.21664762496948242 0.044497232884168625 0.28065794706344604
0.44032785296440125 0.027204684913158417 0.28913676738739014
0.6761404275894165 0.025278428569436073 0.3180229663848877
0.92435950040817261 0.043745961040258408 0.36353608965873718
1 0.049238108098506927 0.42394864559173584
0.00018597771122585982 0.38425832986831665 0.29237443208694458
0.047049682587385178 0.29397237300872803 0.25528380274772644
0.22423101961612701 0.22992038726806641 0.23478701710700989
0.46827176213264465 0.20228822529315948 0.23905004560947418
0.74526017904281616 0.20661173760890961 0.27897417545318604
0.99189049005508423 0.23545674979686737 0.33520853519439697
1 0.24684290587902069 0.40390607714653015
0 0.5791391134262085 0.23341327905654907
0.053166873753070831 0.50409460067749023 0.2222515344619751
0.24486564099788666 0.45345914363861084 0.22575181722640991
0.50628364086151123 0.43996110558509827 0.23721958696842194
0.80355924367904663 0.45895561575889587 0.26336735486984253
0.99982935190200806 0.48709514737129211 0.31556475162506104
1 0.51134872436523438 0.39677909016609192
0 0.78474569320678711 0.20046339929103851
0.050465945154428482 0.71902292966842651 0.21320173144340515
0.27015382051467896 0.68172633647918701 0.23619659245014191
0.5271952748298645 0.67734956741333008 0.25020867586135864
0.80600547790527344 0.70247495174407959 0.26349958777427673
0.99995929002761841 0.73505240678787231 0.30496856570243835
1 0.77280020713806152 0.41174593567848206
0.0035310033708810806 0.97098034620285034 0.17704449594020844
0.1003672257065773 0.92628037929534912 0.21017198264598846
0.31139492988586426 0.90856164693832397 0.23850809037685394
0.53947299718856812 0.90995985269546509 0.25331157445907593
0.79145079851150513 0.93071389198303223 0.26183000206947327
0.99525147676467896 0.94626635313034058 0.28127357363700867
1 0.97261226177215576 0.36010003089904785
0.044957239180803299 1 0.19842809438705444
0.16844825446605682 1 0.22254377603530884
0.34727638959884644 1 0.24066169559955597
0.5410953164100647 1 0.25255793333053589
0.75826716423034668 1 0.2570655345916748
0.98195689916610718 0.99916589260101318 0.24751926958560944
1 1 0.2552221417427063
0.00054666853975504637 0.023402852937579155 0.56537115573883057
0.044977478682994843 1.1488970812933985e-05 0.55295252799987793
0.19185306131839752 0 0.5528445839881897
0.40348842740058899 0.0031669915188103914 0.56472682952880859
0.61944228410720825 0.0042918934486806393 0.59357297420501709
0.84149301052093506 0.00032025505788624287 0.61980581283569336
0.99922287464141846 2.8004365958622657e-05 0.6583673357963562
0 0.19086317718029022 0.541034996509552
0.010814786888659 0.10323673486709595 0.50800180435180664
0.16638600826263428 0.069941170513629913 0.50274538993835449
0.40659520030021667 0.072029203176498413 0.52151203155517578
0.65379732847213745 0.070159763097763062 0.55613940954208374
0.9079403281211853 0.068073466420173645 0.59498721361160278
1 0.074072070419788361 0.64116626977920532
0 0.39692002534866333 0.5133054256439209
0.0064125359058380127 0.31441071629524231 0.48569917678833008
0.17261664569377899 0.26353034377098083 0.47884154319763184
0.42905813455581665 0.24769805371761322 0.4957522451877594
0.69268029928207397 0.25290656089782715 0.53236150741577148
0.96036893129348755 0.26068505644798279 0.57191932201385498
1 0.26192915439605713 0.614635169506073
0 0.61708182096481323 0.47482889890670776
0.01427224837243557 0.54280984401702881 0.46673190593719482
0.20041589438915253 0.49041905999183655 0.47049438953399658
0.45964023470878601 0.47173267602920532 0.4869941771030426
0.7334257960319519 0.47980436682701111 0.51157283782958984
0.96892631053924561 0.49166902899742126 0.54201114177703857
0.99911689758300781 0.50253051519393921 0.59966284036636353
0 0.83976036310195923 0.44296076893806458
0.028664696961641312 0.77206337451934814 0.45373213291168213
0.23743578791618347 0.71547079086303711 0.46864193677902222
0.48604938387870789 0.69524091482162476 0.48140811920166016
0.74576443433761597 0.69978523254394531 0.49256083369255066
0.96976649761199951 0.71455228328704834 0.52703595161437988
0.99945622682571411 0.75632393360137939 0.6535409688949585
0.0016815634444355965 0.99582314491271973 0.42054688930511475
0.078437447547912598 0.97619104385375977 0.44265809655189514
0.28220012784004211 0.93672221899032593 0.46504861116409302
0.5028424859046936 0.91776466369628906 0.47431409358978271
0.7331089973449707 0.9154970645904541 0.47612515091896057
0.96185493469238281 0.92229747772216797 0.49711310863494873
1 0.95606911182403564 0.60966449975967407
0.035348061472177505 1 0.42001068592071533
0.13834741711616516 1 0.44334900379180908
0.31119716167449951 1 0.45787316560745239
0.50560730695724487 1 0.46094408631324768
0.70765513181686401 1 0.45923870801925659
0.92233002185821533 0.99929797649383545 0.44935774803161621
1 0.99966996908187866 0.4467795193195343
0 0.017285903915762901 0.75223106145858765
0.02510802261531353 0 0.75982576608657837
0.16414335370063782 0 0.77715021371841431
0.38376292586326599 0.0026325001381337643 0.8001827597618103
0.61556839942932129 0.0047868764959275723 0.82013660669326782
0.84757441282272339 0.0013563866959884763 0.84510529041290283
0.99992066621780396 0.0054314406588673592 0.87487965822219849
0 0.1891133040189743 0.74838429689407349
0.001579224830493331 0.11702246218919754 0.73344343900680542
0.14367464184761047 0.091955609619617462 0.7388489842414856
0.39346539974212646 0.10041490197181702 0.75243175029754639
0.63448029756546021 0.089687302708625793 0.7734636664390564
0.87765997648239136 0.07937324047088623 0.80184692144393921
1 0.093775741755962372 0.8432612419128418
0 0.40769210457801819 0.74935990571975708
0.00025446273502893746 0.34517356753349304 0.72496968507766724
0.15357662737369537 0.30215030908584595 0.72510790824890137
0.4162200391292572 0.28384065628051758 0.72926801443099976
0.66064739227294922 0.27378377318382263 0.74870747327804565
0.91334074735641479 0.2659570574760437 0.77237898111343384
1 0.26401171088218689 0.8099219799041748
0 0.64501136541366577 0.73389685153961182
0.0056867562234401703 0.58154487609863281 0.72283363342285156
0.1838175505399704 0.53071534633636475 0.71956247091293335
0.43128904700279236 0.49840828776359558 0.72154009342193604
0.68064260482788086 0.48643702268600464 0.72821688652038574
0.91703581809997559 0.48019617795944214 0.74210768938064575
1 0.48190739750862122 0.78681868314743042
0 0.88666462898254395 0.70722240209579468
0.0092695793136954308 0.8078187108039856 0.70746177434921265
0.20264755189418793 0.74715018272399902 0.70402103662490845
0.44668674468994141 0.709980309009552 0.70614099502563477
0.68326514959335327 0.69117367267608643 0.70454740524291992
0.91172116994857788 0.68672358989715576 0.71629148721694946
1 0.70883148908615112 0.79363727569580078
0.0039768293499946594 1 0.67700731754302979
0.042991772294044495 0.98879760503768921 0.68022435903549194
0.23114700615406036 0.95147985219955444 0.68573415279388428
0.45784461498260498 0.9180789589881897 0.68578243255615234
0.6758042573928833 0.8962637186050415 0.67957842350006104
0.89835715293884277 0.89282083511352539 0.68845242261886597
1 0.91377002000808716 0.77679622173309326
0.021379882469773293 1 0.65501523017883301
0.092130936682224274 1 0.66154485940933228
0.25877124071121216 1 0.66692698001861572
0.46260350942611694 1 0.66119134426116943
0.66159904003143311 1 0.65439677238464355
0.87363916635513306 1 0.63919752836227417
1 1 0.64767760038375854
0 0.020669331774115562 0.91036641597747803
0.028252845630049706 6.9831396103836596e-05 0.93424320220947266
0.16245971620082855 2.8722427032334963e-06 0.95873451232910156
0.37998175621032715 0.0098563851788640022 0.98159694671630859
0.60846388339996338 0.013860620558261871 0.9858241081237793
0.83489876985549927 0.0071517047472298145 0.98932427167892456
0.99883109331130981 0.016034370288252831 0.99872434139251709
0 0.19578151404857635 0.9328312873840332
0.0091125490143895149 0.13690744340419769 0.93231511116027832
0.15102826058864594 0.11749844998121262 0.93785011768341064
0.38353198766708374 0.12995927035808563 0.94293272495269775
0.61793124675750732 0.11973127722740173 0.95069843530654907
0.84960442781448364 0.10688208788633347 0.96116125583648682
0.998992919921875 0.11064402014017105 0.9806056022644043
0 0.41452956199645996 0.96237969398498535
0.012245372869074345 0.36716991662979126 0.94429737329483032
0.16771182417869568 0.33335569500923157 0.95186734199523926
0.40150737762451172 0.31174501776695251 0.93529558181762695
0.63562154769897461 0.29362103343009949 0.93675196170806885
0.87059158086776733 0.28033140301704407 0.94868111610412598
0.99919712543487549 0.26198762655258179 0.96522587537765503
0 0.65438413619995117 0.96164470911026001
0.016169814392924309 0.5992966890335083 0.95452570915222168
0.17641469836235046 0.55011570453643799 0.95714527368545532
0.41060483455657959 0.51258111000061035 0.9338645339012146
0.6462939977645874 0.48961639404296875 0.92566478252410889
0.87346881628036499 0.47275939583778381 0.92600727081298828
0.99866563081741333 0.45851802825927734 0.94023019075393677
0 0.89473623037338257 0.96106380224227905
0.0074195261113345623 0.82790756225585938 0.96287405490875244
0.16613221168518066 0.76344531774520874 0.9473034143447876
0.41180777549743652 0.71616339683532715 0.92546355724334717
0.64226073026657104 0.68201631307601929 0.91021478176116943
0.86342597007751465 0.66210544109344482 0.89750605821609497
0.99757307767868042 0.65950053930282593 0.91955244541168213
0.00020867142302449793 1 0.9334830641746521
0.0087025361135601997 0.99634695053100586 0.93427062034606934
0.17675013840198517 0.96667188405990601 0.92587900161743164
0.41551458835601807 0.92927843332290649 0.90956759452819824
0.63233041763305664 0.88263958692550659 0.88363903760910034
0.83819222450256348 0.85219663381576538 0.86125236749649048
0.99175804853439331 0.85310858488082886 0.8948056697845459
0.0032190957572311163 1 0.8831138014793396
0.029252698644995689 1 0.89272671937942505
0.20171259343624115 1 0.89129793643951416
0.42310944199562073 1 0.86728274822235107
0.62511098384857178 1 0.85396671295166016
0.823722243309021 0.99842125177383423 0.82666015625
0.99443691968917847 0.99697715044021606 0.80984842777252197
0.004286403302103281 0.043722175061702728 0.99560201168060303
0.065843500196933746 0.012891387566924095 1
0.19680233299732208 0.011014766059815884 1
0.38745194673538208 0.022925103083252907 1
0.59346598386764526 0.019222961738705635 1
0.79429173469543457 0.0074694915674626827 1
0.9770093560218811 0.015529857017099857 1
0.0022673811763525009 0.22044847905635834 1
0.054843634366989136 0.18057341873645782 1
0.19184882938861847 0.17028345167636871 0.9999813437461853
0.390533447265625 0.16674944758415222 1
0.60479021072387695 0.14925700426101685 1
0.81903398036956787 0.1302800178527832 1
0.98807471990585327 0.12651816010475159 1
0.005182348657399416 0.42888763546943665 1
0.054836630821228027 0.39121946692466736 1
0.19614063203334808 0.36571428179740906 1
0.39990958571434021 0.34114152193069458 1
0.61816823482513428 0.31660374999046326 1
0.83910655975341797 0.29640340805053711 1
0.99793368577957153 0.27649098634719849 1
0.00074920651968568563 0.6526215672492981 1
0.04086240753531456 0.61000710725784302 1
0.18402138352394104 0.56499558687210083 1
0.40041211247444153 0.52427315711975098 1
0.62438416481018066 0.49525913596153259 1
0.83624881505966187 0.4710298478603363 1
0.98953419923782349 0.44872671365737915 1
0 0.87572783231735229 1
0.016031138598918915 0.83502316474914551 1
0.153211310505867 0.76991647481918335 1
0.38886150717735291 0.70930624008178711 1
0.61555606126785278 0.66994374990463257 1
0.81732833385467529 0.64337289333343506 0.99998456239700317
0.97820842266082764 0.62481874227523804 0.99991434812545776
0 1 1
0.0013228771276772022 0.99595576524734497 1
0.13755875825881958 0.96832931041717529 0.99964076280593872
0.37666776776313782 0.90985774993896484 1
0.59857094287872314 0.85396754741668701 0.99998599290847778
0.79851049184799194 0.82179790735244751 0.99781322479248047
0.97347623109817505 0.79882681369781494 0.99430674314498901
0 1 1
0.016806913539767265 1 1
0.17037308216094971 1 1
0.38277864456176758 1 1
0.58376097679138184 0.99956899881362915 0.99709385633468628
0.77744597196578979 0.99176967144012451 0.98983585834503174
0.97046726942062378 0.97886174917221069 0.97446876764297485
