assets/lut/toddblankenship softblackandwhite.cube
# Created by: G'MIC (https://gmic.eu)
TITLE "softblackandwhite"
# LUT size
LUT_3D_SIZE 7
# Data domain
DOMAIN_MIN 0.0 0.0 0.0
DOMAIN_MAX 1.0 1.0 1.0
# LUT data points
0.0011485680006444454 0.0022173863835632801 0.010212603025138378
0.0034466164652258158 0.0099758077412843704 0.01515624113380909
0.021976904943585396 0.033365301787853241 0.03345884382724762
0.059645351022481918 0.076997973024845123 0.069574214518070221
0.15324890613555908 0.17425133287906647 0.16102060675621033
0.29243576526641846 0.31550288200378418 0.29644283652305603
0.44745990633964539 0.47294127941131592 0.44502162933349609
0.034347325563430786 0.039014074951410294 0.050989590585231781
0.043641619384288788 0.051623564213514328 0.060770459473133087
0.068056754767894745 0.079103030264377594 0.084184877574443817
0.11873041838407516 0.13219039142131805 0.13240787386894226
0.21653074026107788 0.23083412647247314 0.22726894915103912
0.34564328193664551 0.35863927006721497 0.35068380832672119
0.4894736111164093 0.50246554613113403 0.48660734295845032
0.1489885002374649 0.1542375385761261 0.16951970756053925
0.16661034524440765 0.17517416179180145 0.18788807094097137
0.20021302998065948 0.21095740795135498 0.22057133913040161
0.25514736771583557 0.26651951670646667 0.27335506677627563
0.34068915247917175 0.35024762153625488 0.35466697812080383
0.44736945629119873 0.45293515920639038 0.45393857359886169
0.56907957792282104 0.57105457782745361 0.56583333015441895
0.37192174792289734 0.37259453535079956 0.39268642663955688
0.37901017069816589 0.38466659188270569 0.40218853950500488
0.40621781349182129 0.41508007049560547 0.43018209934234619
0.45033073425292969 0.45924240350723267 0.47273224592208862
0.51135706901550293 0.51698470115661621 0.5292859673500061
0.59113109111785889 0.59075522422790527 0.6006963849067688
0.68420141935348511 0.67698627710342407 0.68246859312057495
0.62717932462692261 0.62151128053665161 0.64690583944320679
0.61932969093322754 0.6200987696647644 0.64332681894302368
0.62975591421127319 0.63467252254486084 0.65617096424102783
0.65459388494491577 0.65899491310119629 0.68055242300033569
0.68754768371582031 0.68697643280029297 0.70915889739990234
0.74122661352157593 0.73219966888427734 0.75523090362548828
0.80920112133026123 0.79042625427246094 0.81243646144866943
0.84262478351593018 0.8323359489440918 0.86242932081222534
0.81873494386672974 0.81503140926361084 0.84372252225875854
0.81088829040527344 0.81002217531204224 0.83880186080932617
0.81738138198852539 0.81476283073425293 0.84530067443847656
0.83174663782119751 0.82315397262573242 0.85651993751525879
0.86339086294174194 0.84519201517105103 0.88242894411087036
0.91512066125869751 0.8838733434677124 0.92555707693099976
0.94864273071289062 0.94323039054870605 0.9722633957862854
0.94441032409667969 0.93970620632171631 0.97150284051895142
0.93973636627197266 0.93344038724899292 0.96899509429931641
0.93853336572647095 0.92897158861160278 0.96786850690841675
0.93980133533477783 0.92672616243362427 0.96736019849777222
0.94721889495849609 0.93126058578491211 0.96954643726348877
0.96934878826141357 0.94909083843231201 0.98250341415405273
0 0.0029390372801572084 0.0096656950190663338
0.0022294586524367332 0.013113897293806076 0.016512596979737282
0.023702599108219147 0.03951658308506012 0.037823591381311417
0.066838793456554413 0.08766695111989975 0.079343937337398529
0.15551286935806274 0.18046198785305023 0.16556750237941742
0.28594538569450378 0.31440088152885437 0.29111909866333008
0.43590003252029419 0.4681834876537323 0.43296307325363159
0.034784562885761261 0.044055383652448654 0.052818194031715393
0.040576845407485962 0.053396634757518768 0.059218626469373703
0.067988194525241852 0.083542875945568085 0.085324965417385101
0.12120449542999268 0.13895894587039948 0.13631957769393921
0.21190787851810455 0.22997669875621796 0.22281181812286377
0.3333008885383606 0.35055112838745117 0.337323397397995
0.47487014532089233 0.49307942390441895 0.4686826765537262
0.15561360120773315 0.16506411135196686 0.17606514692306519
0.1620817631483078 0.17549030482769012 0.18362103402614594
0.19354534149169922 0.208929643034935 0.21449777483940125
0.24905374646186829 0.26462996006011963 0.26704496145248413
0.33077734708786011 0.34402242302894592 0.34320560097694397
0.43353164196014404 0.4420795738697052 0.43612185120582581
0.55446308851242065 0.55882149934768677 0.54409134387969971
0.37099525332450867 0.37562307715415955 0.39101794362068176
0.37015816569328308 0.38042652606964111 0.39293009042739868
0.3928242027759552 0.4059520959854126 0.41619396209716797
0.43674108386039734 0.44952598214149475 0.45787045359611511
0.49972137808799744 0.50839847326278687 0.51401472091674805
0.58082526922225952 0.5816652774810791 0.58330690860748291
0.67399424314498901 0.66564476490020752 0.66118127107620239
0.62053763866424561 0.61817795038223267 0.6389661431312561
0.60572987794876099 0.61002171039581299 0.6285557746887207
0.6108776330947876 0.61854106187820435 0.63576638698577881
0.6362844705581665 0.64270365238189697 0.65993654727935791
0.67713326215744019 0.67738181352615356 0.69423550367355347
0.73686796426773071 0.72556716203689575 0.74131709337234497
0.80561238527297974 0.779613196849823 0.79335027933120728
0.82811576128005981 0.82077133655548096 0.84674441814422607
0.80606871843338013 0.80365431308746338 0.82953923940658569
0.7970007061958313 0.79562264680862427 0.82325977087020874
0.80577546358108521 0.80040484666824341 0.83058953285217285
0.82754820585250854 0.81404465436935425 0.84678667783737183
0.86470150947570801 0.83894068002700806 0.87343257665634155
0.91781121492385864 0.87590497732162476 0.91063714027404785
0.95089656114578247 0.94458884000778198 0.97318571805953979
0.94129198789596558 0.93425637483596802 0.96724337339401245
0.9368358850479126 0.92468422651290894 0.96409422159194946
0.93851608037948608 0.9199758768081665 0.96474260091781616
0.94555813074111938 0.920479416847229 0.96707606315612793
0.95556467771530151 0.92855316400527954 0.972026526927948
0.97930371761322021 0.95060676336288452 0.98688137531280518
0.0060956468805670738 0.018760306760668755 0.02243417501449585
0.0087147727608680725 0.026758560910820961 0.026259059086441994
0.031523626297712326 0.053612112998962402 0.047923937439918518
0.082542106509208679 0.10823827981948853 0.097619287669658661
0.17029936611652374 0.1998305469751358 0.18280084431171417
0.29252681136131287 0.32708895206451416 0.29969093203544617
0.43694368004798889 0.47774407267570496 0.43439179658889771
0.041295774281024933 0.056809309870004654 0.060847803950309753
0.045464593917131424 0.064663752913475037 0.065270505845546722
0.075448967516422272 0.096533909440040588 0.093782119452953339
0.13389648497104645 0.15639099478721619 0.15025854110717773
0.22080790996551514 0.24428762495517731 0.23297849297523499
0.33377465605735779 0.35837602615356445 0.33821302652359009
0.46975946426391602 0.49617663025856018 0.46152931451797485
0.16344757378101349 0.17836879193782806 0.18406237661838531
0.16613923013210297 0.18485310673713684 0.1877809464931488
0.1969258189201355 0.21721665561199188 0.21779105067253113
0.25382894277572632 0.27401918172836304 0.27209377288818359
0.33217576146125793 0.35048440098762512 0.34396916627883911
0.43030241131782532 0.44481950998306274 0.42966064810752869
0.54650086164474487 0.55792343616485596 0.52979904413223267
0.37602490186691284 0.38549056649208069 0.39590686559677124
0.37033337354660034 0.38527333736419678 0.39333096146583557
0.38962239027023315 0.40714764595031738 0.41339236497879028
0.43200737237930298 0.44900447130203247 0.45330759882926941
0.49224567413330078 0.5052216649055481 0.50514501333236694
0.57033318281173706 0.57514780759811401 0.56763088703155518
0.66231030225753784 0.6571357250213623 0.63954263925552368
0.61989855766296387 0.62058383226394653 0.63762074708938599
0.60004448890686035 0.60746753215789795 0.62303721904754639
0.60070312023162842 0.61127990484237671 0.62648403644561768
0.62355536222457886 0.63316613435745239 0.64772289991378784
0.66380047798156738 0.66687649488449097 0.67926442623138428
0.72184324264526367 0.71164196729660034 0.72013002634048462
0.79132139682769775 0.7642478346824646 0.76704740524291992
0.82602256536483765 0.81932508945465088 0.84327727556228638
0.79755032062530518 0.79537922143936157 0.82123583555221558
0.78617793321609497 0.78364557027816772 0.81276017427444458
0.79384779930114746 0.78706592321395874 0.81841564178466797
0.81929618120193481 0.80313467979431152 0.83573800325393677
0.85648852586746216 0.82763224840164185 0.85797709226608276
0.9053032398223877 0.86004757881164551 0.88576453924179077
0.94631445407867432 0.93894189596176147 0.96861255168914795
0.93677198886871338 0.92630821466445923 0.96305298805236816
0.93299835920333862 0.91528886556625366 0.9598163366317749
0.93982613086700439 0.91071814298629761 0.96321731805801392
0.95341527462005615 0.914298415184021 0.96936994791030884
0.96462845802307129 0.92520296573638916 0.97337824106216431
0.98744112253189087 0.94766336679458618 0.98400509357452393
0.022494999691843987 0.041361596435308456 0.039287537336349487
0.025237992405891418 0.050839025527238846 0.043789554387331009
0.04813385009765625 0.076847419142723083 0.06567808985710144
0.10245273262262344 0.13343079388141632 0.11851399391889572
0.19075493514537811 0.22542917728424072 0.20438146591186523
0.30904597043991089 0.34822794795036316 0.31733080744743347
0.44818198680877686 0.49279409646987915 0.4461510181427002
0.050679627805948257 0.071697309613227844 0.069693349301815033
0.058442387729883194 0.083535276353359222 0.078302435576915741
0.090065062046051025 0.1166222095489502 0.10859783738851547
0.15053355693817139 0.17831709980964661 0.16740715503692627
0.23734001815319061 0.26639798283576965 0.24995897710323334
0.34408405423164368 0.37583073973655701 0.34843465685844421
0.47427195310592651 0.5089181661605835 0.46377989649772644
0.17274622619152069 0.19211386144161224 0.19282644987106323
0.17696541547775269 0.20039753615856171 0.19865421950817108
0.2080305814743042 0.23277400434017181 0.22932982444763184
0.264823317527771 0.28988698124885559 0.28388038277626038
0.3414822518825531 0.36589282751083374 0.35351169109344482
0.43417000770568848 0.45775246620178223 0.43186590075492859
0.54392892122268677 0.56706744432449341 0.5216858983039856
0.38446685671806335 0.39798802137374878 0.40494820475578308
0.37811604142189026 0.39684292674064636 0.4022393524646759
0.39531052112579346 0.41684925556182861 0.42080190777778625
0.43458351492881775 0.45698821544647217 0.45822206139564514
0.49096643924713135 0.51073354482650757 0.50527447462081909
0.5640636682510376 0.57774192094802856 0.55907857418060303
0.65124619007110596 0.65752393007278442 0.62192577123641968
0.61866945028305054 0.62320053577423096 0.6382942795753479
0.60119754076004028 0.61121100187301636 0.62654215097427368
0.60049057006835938 0.61403101682662964 0.62944585084915161
0.61981606483459473 0.63392168283462524 0.64776360988616943
0.65354502201080322 0.66481071710586548 0.67246496677398682
0.70616382360458374 0.70580422878265381 0.70481228828430176
0.7738531231880188 0.75749045610427856 0.74513596296310425
0.81491100788116455 0.80969130992889404 0.83415460586547852
0.79316741228103638 0.79110109806060791 0.81907844543457031
0.78236120939254761 0.77993643283843994 0.81271624565124512
0.78917461633682251 0.78358548879623413 0.81813782453536987
0.80950546264648438 0.79887533187866211 0.83049649000167847
0.84275990724563599 0.82204729318618774 0.84592258930206299
0.89001452922821045 0.85387605428695679 0.86771607398986816
0.94734817743301392 0.93586981296539307 0.96909111738204956
0.936240553855896 0.92196571826934814 0.96372431516647339
0.93206727504730225 0.9103887677192688 0.96203470230102539
0.93888139724731445 0.90625 0.96624130010604858
0.95138299465179443 0.91130626201629639 0.9712100625038147
0.96332758665084839 0.92404407262802124 0.97263556718826294
0.98623359203338623 0.94784039258956909 0.97946417331695557
0.031099431216716766 0.055242978036403656 0.043812517076730728
0.044219940900802612 0.075912937521934509 0.060371518135070801
0.069815829396247864 0.10406724363565445 0.085589028894901276
0.12634822726249695 0.16356050968170166 0.14077778160572052
0.21676525473594666 0.25907814502716064 0.22881564497947693
0.33341717720031738 0.38075345754623413 0.33999443054199219
0.46530702710151672 0.51723170280456543 0.46169129014015198
0.069557309150695801 0.091842472553253174 0.083814330399036407
0.080542333424091339 0.10905162990093231 0.097857654094696045
0.11317560821771622 0.14448049664497375 0.13046760857105255
0.17236024141311646 0.20569173991680145 0.18769462406635284
0.26154911518096924 0.29883459210395813 0.27295485138893127
0.3687920868396759 0.41109529137611389 0.37040227651596069
0.48973622918128967 0.53704899549484253 0.47583714127540588
0.19571396708488464 0.21557065844535828 0.21230058372020721
0.19911946356296539 0.22497344017028809 0.219331294298172
0.22784020006656647 0.25723224878311157 0.24921700358390808
0.28156951069831848 0.31318861246109009 0.30136558413505554
0.35925856232643127 0.39215996861457825 0.37208536267280579
0.4491608738899231 0.48487964272499084 0.44571086764335632
0.54962819814682007 0.58938848972320557 0.52433949708938599
0.40047401189804077 0.41557314991950989 0.41984245181083679
0.39177528023719788 0.41359084844589233 0.41622111201286316
0.4046500027179718 0.43154492974281311 0.43218564987182617
0.44079470634460449 0.47069549560546875 0.46749985218048096
0.49709582328796387 0.52633249759674072 0.51494663953781128
0.56569522619247437 0.59292656183242798 0.56299823522567749
0.64548426866531372 0.67035669088363647 0.61545544862747192
0.62051951885223389 0.62753129005432129 0.64147275686264038
0.60308128595352173 0.61606216430664062 0.63046973943710327
0.59916996955871582 0.61794853210449219 0.63169354200363159
0.6142653226852417 0.63753455877304077 0.64806646108627319
0.64705759286880493 0.66995501518249512 0.67244267463684082
0.69662314653396606 0.71163970232009888 0.70033067464828491
0.75967669486999512 0.76333117485046387 0.73522502183914185
0.80499851703643799 0.80025345087051392 0.82556182146072388
0.78765171766281128 0.78683137893676758 0.81613302230834961
0.77654844522476196 0.77875024080276489 0.81179672479629517
0.77939409017562866 0.78436762094497681 0.81687575578689575
0.79713571071624756 0.80041283369064331 0.8273884654045105
0.82894206047058105 0.82439249753952026 0.83984601497650146
0.8751024603843689 0.85801315307617188 0.85954266786575317
0.94811075925827026 0.93224167823791504 0.96934813261032104
0.93562489748001099 0.91945970058441162 0.96472412347793579
0.92804574966430664 0.90889722108840942 0.96273112297058105
0.9301411509513855 0.90629708766937256 0.96683984994888306
0.93775480985641479 0.91305661201477051 0.96931791305541992
0.95092517137527466 0.92800527811050415 0.9688144326210022
0.97691410779953003 0.95338904857635498 0.97569024562835693
0.045876894146203995 0.071370877325534821 0.050503585487604141
0.060057248920202255 0.093086913228034973 0.069218456745147705
0.094590127468109131 0.1331150084733963 0.10562917590141296
0.15605455636978149 0.20150241255760193 0.16730202734470367
0.2469974160194397 0.30192992091178894 0.25598889589309692
0.35894808173179626 0.42411899566650391 0.36207857728004456
0.48072165250778198 0.55541384220123291 0.47361516952514648
0.094694904983043671 0.11711867153644562 0.10184694081544876
0.10745647549629211 0.13717480003833771 0.11924866586923599
0.14351890981197357 0.17967048287391663 0.15754245221614838
0.20357124507427216 0.2469429224729538 0.21777769923210144
0.29121443629264832 0.3429255485534668 0.30085039138793945
0.39331406354904175 0.4550134539604187 0.39252063632011414
0.50392985343933105 0.57442903518676758 0.48777711391448975
0.22838589549064636 0.24729424715042114 0.2391153872013092
0.22973690927028656 0.25700706243515015 0.24600663781166077
0.25608101487159729 0.29138541221618652 0.27612864971160889
0.30687081813812256 0.34952250123023987 0.32698675990104675
0.38085055351257324 0.42981725931167603 0.39488279819488525
0.4650021493434906 0.52145898342132568 0.46323102712631226
0.55697834491729736 0.62016159296035767 0.53387689590454102
0.42567834258079529 0.43981033563613892 0.44055905938148499
0.41373097896575928 0.4377174973487854 0.43602341413497925
0.42131179571151733 0.45523801445960999 0.44922661781311035
0.45280003547668457 0.49515655636787415 0.48237901926040649
0.50555074214935303 0.55257827043533325 0.52833205461502075
0.56945860385894775 0.61861211061477661 0.57291102409362793
0.64321374893188477 0.69265055656433105 0.62130123376846313
0.62963390350341797 0.63569372892379761 0.64714640378952026
0.61075896024703979 0.62616640329360962 0.63731330633163452
0.60223430395126343 0.62907356023788452 0.63708770275115967
0.61287796497344971 0.65050971508026123 0.6518980860710144
0.64342010021209717 0.68575823307037354 0.67627286911010742
0.68936431407928467 0.72774046659469604 0.7026253342628479
0.7485540509223938 0.77860540151596069 0.73408389091491699
0.80422061681747437 0.79845231771469116 0.82241469621658325
0.78598064184188843 0.78728336095809937 0.81443041563034058
0.77180063724517822 0.78283429145812988 0.81017398834228516
0.76952648162841797 0.79170793294906616 0.81467986106872559
0.78468841314315796 0.81052929162979126 0.82528769969940186
0.81443732976913452 0.83517634868621826 0.83782613277435303
0.85869884490966797 0.86781632900238037 0.85572147369384766
0.94918584823608398 0.93098866939544678 0.96762323379516602
0.93408691883087158 0.91892069578170776 0.96259433031082153
0.92186903953552246 0.91134297847747803 0.96018147468566895
0.91705667972564697 0.91299736499786377 0.96231991052627563
0.92142212390899658 0.92253738641738892 0.96541756391525269
0.93518674373626709 0.93748831748962402 0.96716141700744629
0.96268981695175171 0.95956236124038696 0.97289270162582397
0.083652809262275696 0.11090328544378281 0.078912504017353058
0.093787521123886108 0.1295534074306488 0.094948098063468933
0.13154883682727814 0.17586007714271545 0.13639135658740997
0.19510082900524139 0.25154867768287659 0.20101943612098694
0.28228005766868591 0.35425546765327454 0.28724503517150879
0.38679340481758118 0.47454488277435303 0.38610455393791199
0.50075632333755493 0.60262459516525269 0.49065741896629333
0.14737361669540405 0.17071400582790375 0.146677166223526
0.15037694573402405 0.18330544233322144 0.15569956600666046
0.18668569624423981 0.23021882772445679 0.19649843871593475
0.24626633524894714 0.30256110429763794 0.25744485855102539
0.32579603791236877 0.39689803123474121 0.33315902948379517
0.4185536801815033 0.50469261407852173 0.41613221168518066
0.51918333768844604 0.61770528554916382 0.50187498331069946
0.27925649285316467 0.29885485768318176 0.28319162130355835
0.27385672926902771 0.30471387505531311 0.28499630093574524
0.29602384567260742 0.34003153443336487 0.31296828389167786
0.34160342812538147 0.39956313371658325 0.36087647080421448
0.40608870983123779 0.47728133201599121 0.42033547163009644
0.48152792453765869 0.56439429521560669 0.48164021968841553
0.56602102518081665 0.65717536211013794 0.54620504379272461
0.46376731991767883 0.47802525758743286 0.47238597273826599
0.44658055901527405 0.47398671507835388 0.46453487873077393
0.4485020637512207 0.49103578925132751 0.47465184330940247
0.47347453236579895 0.53175687789916992 0.50369751453399658
0.51780664920806885 0.58882695436477661 0.54389911890029907
0.57574105262756348 0.65292191505432129 0.58557760715484619
0.64639866352081299 0.72409278154373169 0.6333010196685791
0.65051501989364624 0.6565282940864563 0.6627846360206604
0.62718582153320312 0.64654821157455444 0.65060508251190186
0.61490565538406372 0.65060180425643921 0.64884668588638306
0.62108749151229858 0.67414987087249756 0.66186463832855225
0.64604073762893677 0.71204012632369995 0.68467146158218384
0.68753147125244141 0.75398695468902588 0.71011722087860107
0.74402886629104614 0.80367362499237061 0.74203115701675415
0.81137394905090332 0.8062024712562561 0.82534503936767578
0.79098021984100342 0.79626643657684326 0.81661605834960938
0.7743765115737915 0.79477620124816895 0.81209707260131836
0.76963967084884644 0.80707061290740967 0.81690001487731934
0.7806931734085083 0.82958215475082397 0.82811784744262695
0.80699354410171509 0.85567951202392578 0.84131628274917603
0.84739404916763306 0.88693153858184814 0.85814017057418823
0.95309704542160034 0.93570679426193237 0.96751457452774048
0.93609273433685303 0.92438977956771851 0.96148025989532471
0.92036700248718262 0.92063277959823608 0.95902389287948608
0.91172510385513306 0.92670899629592896 0.96074342727661133
0.9133836030960083 0.93986397981643677 0.96540302038192749
0.92594391107559204 0.95655566453933716 0.97030210494995117
0.95181077718734741 0.97255808115005493 0.973582923412323
