assets/lut/toddblankenship crispautumn.cube
# Created by: G'MIC (https://gmic.eu)
TITLE "crispautumn"
# LUT size
LUT_3D_SIZE 5
# Data domain
DOMAIN_MIN 0.0 0.0 0.0
DOMAIN_MAX 1.0 1.0 1.0
# LUT data points
0.0032475041225552559 0.010240936651825905 0.01815420389175415
0.075243227183818817 0.00020195456454530358 0.003593504661694169
0.44368690252304077 0.0051075504161417484 0.0058108908124268055
0.79516118764877319 0.018296783789992332 0.013999250717461109
0.99407786130905151 0.074302420020103455 0.082990445196628571
0.0014603857416659594 0.10557183623313904 0.0061927046626806259
0.12378855794668198 0.074027039110660553 0
0.73531174659729004 0.17142544686794281 0.00069584563607349992
0.98218363523483276 0.23807953298091888 0.01000614557415247
1 0.35447362065315247 0.023571837693452835
0.012649700976908207 0.48132726550102234 0.012358811683952808
0.43039396405220032 0.4509979784488678 0.0015870487550273538
0.96835142374038696 0.47698768973350525 0
0.99811947345733643 0.54126536846160889 0.0037824593018740416
1 0.61994463205337524 0.0053101186640560627
0.078694723546504974 0.8003547191619873 0.044660590589046478
0.52779614925384521 0.83709186315536499 0.014153005555272102
0.99405395984649658 0.87346816062927246 4.5237822632770985e-05
1 0.85866057872772217 0.0080860359594225883
1 0.8431660532951355 0.014903378672897816
0.070858195424079895 0.99165451526641846 0.13114102184772491
0.55173444747924805 0.99667048454284668 0.061462342739105225
0.99204921722412109 0.99965804815292358 0.0070122363977134228
0.9964216947555542 0.99649012088775635 0.021593490615487099
1 0.96024495363235474 0.4098549485206604
0 0.00061433081282302737 0.13770709931850433
0.10173757374286652 0.0017263973131775856 0.2083432525396347
0.42929255962371826 0.017821323126554489 0.25070616602897644
0.80078357458114624 0.032089967280626297 0.30813872814178467
0.99188476800918579 0.11019661277532578 0.42294403910636902
0.00032098806696012616 0.1182253360748291 0.1430751234292984
0.19058255851268768 0.17708395421504974 0.19644133746623993
0.64597958326339722 0.22171992063522339 0.15207976102828979
0.98317879438400269 0.29715588688850403 0.17902986705303192
0.99945449829101562 0.38248184323310852 0.28243821859359741
0.037855170667171478 0.50602918863296509 0.27495169639587402
0.31857210397720337 0.55180370807647705 0.1823878139257431
0.83749300241470337 0.58284175395965576 0.1203807145357132
0.99720597267150879 0.62958180904388428 0.11460967361927032
1 0.65595775842666626 0.18298967182636261
0.058881588280200958 0.86128836870193481 0.34732308983802795
0.42065680027008057 0.91587907075881958 0.2470841258764267
0.93770849704742432 0.95023649930953979 0.12633417546749115
0.99860334396362305 0.90104156732559204 0.14539049565792084
1 0.87632709741592407 0.40877512097358704
0.13464623689651489 0.99989193677902222 0.41331955790519714
0.4479842483997345 0.99912190437316895 0.35260993242263794
0.91501319408416748 1 0.20049405097961426
0.99994397163391113 0.99878865480422974 0.1834208071231842
1 0.97404748201370239 0.68294996023178101
0.006751340813934803 0.00091226614313200116 0.53776699304580688
0.12877063453197479 0.0048421225510537624 0.5947909951210022
0.47854161262512207 0.027187047526240349 0.63547927141189575
0.83936160802841187 0.063232704997062683 0.69052481651306152
0.99091172218322754 0.1558142751455307 0.76199674606323242
0.0043597351759672165 0.2242577075958252 0.57208645343780518
0.18326036632061005 0.23829331994056702 0.61528462171554565
0.59061652421951294 0.29642042517662048 0.65243083238601685
0.96942269802093506 0.35411661863327026 0.67634469270706177
0.99675506353378296 0.40474763512611389 0.69903534650802612
0.030424723401665688 0.55878865718841553 0.62734299898147583
0.26859608292579651 0.61976253986358643 0.65326225757598877
0.70649832487106323 0.65951555967330933 0.63946628570556641
0.98804450035095215 0.67175018787384033 0.6304008960723877
1 0.83589822053909302 0.80734407901763916
0.060390114784240723 0.94389575719833374 0.72150570154190063
0.33618703484535217 0.96360534429550171 0.69985556602478027
0.7475704550743103 0.97204160690307617 0.63508588075637817
0.99478650093078613 0.9415779709815979 0.56249356269836426
1 0.97285383939743042 0.91492569446563721
0.11711003631353378 0.99811792373657227 0.74441921710968018
0.40729767084121704 0.99884092807769775 0.70595341920852661
0.88057225942611694 1 0.83561867475509644
0.99881660938262939 1 0.59086793661117554
1 0.9996485710144043 0.82346081733703613
0.0036444868892431259 0.025783509016036987 0.88147944211959839
0.17778925597667694 0.023283042013645172 0.91236275434494019
0.54632765054702759 0.067224301397800446 0.95654100179672241
0.92127144336700439 0.11383602768182755 0.99428868293762207
0.99920409917831421 0.21786887943744659 0.99521112442016602
0.014464957639575005 0.28367558121681213 0.91995882987976074
0.23389634490013123 0.32445061206817627 0.9513353705406189
0.59116590023040771 0.36126169562339783 0.97729897499084473
0.93914556503295898 0.39794892072677612 0.97845494747161865
0.99864274263381958 0.43261006474494934 0.98158043622970581
0.023628698661923409 0.65352141857147217 0.9801824688911438
0.29062771797180176 0.6910398006439209 0.98494637012481689
0.62807679176330566 0.68320143222808838 0.97515743970870972
0.9411734938621521 0.66693639755249023 0.97533857822418213
1 0.81725531816482544 0.97174167633056641
0.049805346876382828 0.99143421649932861 0.99488931894302368
0.32707273960113525 0.9811636209487915 0.9959869384765625
0.63144505023956299 0.96511489152908325 0.98959845304489136
0.90736633539199829 0.90508788824081421 0.91158938407897949
1 0.96392476558685303 0.96945887804031372
0.14772133529186249 0.99996268749237061 0.99658322334289551
0.47757583856582642 1 0.98486185073852539
0.86403733491897583 1 0.98507028818130493
0.96865367889404297 1 0.95742160081863403
1 0.99983644485473633 0.90025085210800171
0.035032056272029877 0.09984404593706131 0.99894887208938599
0.28206738829612732 0.12615369260311127 0.99985587596893311
0.6144644021987915 0.13904821872711182 1
0.90447521209716797 0.22017613053321838 1
1 0.4348052442073822 1
0.065853551030158997 0.39282688498497009 0.99614077806472778
0.32169747352600098 0.41748106479644775 1
0.62220793962478638 0.42018479108810425 1
0.90059292316436768 0.54655671119689941 1
1 0.62826180458068848 1
0.125138059258461 0.69375914335250854 1
0.36665770411491394 0.70661425590515137 1
0.72821950912475586 0.77297627925872803 1
0.97147482633590698 0.9141198992729187 1
1 0.78099030256271362 1
0.140671506524086 0.99252480268478394 1
0.49383693933486938 0.95635926723480225 1
0.86574375629425049 0.9723360538482666 1
0.96151518821716309 0.96976572275161743 1
0.9975273609161377 0.91107732057571411 1
0.42144539952278137 1 1
0.60963279008865356 1 1
0.78010106086730957 1 1
0.92970573902130127 0.99980449676513672 1
0.99399900436401367 0.99304682016372681 0.99290657043457031
