assets/lut/toddblankenship bluearchitecture.cube
# Created by: G'MIC (https://gmic.eu)
TITLE "bluearchitecture"
# LUT size
LUT_3D_SIZE 7
# Data domain
DOMAIN_MIN 0.0 0.0 0.0
DOMAIN_MAX 1.0 1.0 1.0
# LUT data points
0.014645400457084179 0.009398127906024456 0.093373380601406097
0.10908728092908859 0.006518001202493906 0.03997662290930748
0.20491637289524078 0.0024223476648330688 0.012942011468112469
0.34260904788970947 0.0034915551077574492 0.0059956121258437634
0.59020334482192993 0.050762776285409927 0.0024767408613115549
0.81696003675460815 0.11607550829648972 0
0.86872148513793945 0.13472887873649597 0
0.018189463764429092 0.069947123527526855 0.047189809381961823
0.092301160097122192 0.056838046759366989 0.021215222775936127
0.1890522688627243 0.053255762904882431 0.0080657508224248886
0.34220007061958313 0.061416100710630417 0.0029020123183727264
0.59653806686401367 0.10918302088975906 0.0054786833934485912
0.80139702558517456 0.15825679898262024 0.0024403890129178762
0.85378813743591309 0.15848951041698456 0
0.068728476762771606 0.18343977630138397 0.021027883514761925
0.14256113767623901 0.17528174817562103 0.01935393363237381
0.24862772226333618 0.18601171672344208 0.022343026474118233
0.42238584160804749 0.22424738109111786 0.019273286685347557
0.66883420944213867 0.28559955954551697 0.020558899268507957
0.82678908109664917 0.30522799491882324 0.018283439800143242
0.85396099090576172 0.26992055773735046 0.0061435475945472717
0.25986760854721069 0.4465695321559906 0.052309282124042511
0.34112933278083801 0.44596096873283386 0.052392683923244476
0.45489805936813354 0.45821863412857056 0.061640452593564987
0.62725818157196045 0.50894129276275635 0.061284292489290237
0.82550519704818726 0.57515209913253784 0.061382517218589783
0.91946238279342651 0.57656311988830566 0.060366086661815643
0.91927289962768555 0.52774173021316528 0.051733683794736862
0.52108758687973022 0.77479678392410278 0.11470037698745728
0.58792179822921753 0.76856851577758789 0.097691573202610016
0.69045144319534302 0.7733648419380188 0.10092157125473022
0.81593590974807739 0.79295212030410767 0.10668414086103439
0.94577407836914062 0.83603352308273315 0.11872280389070511
0.99586325883865356 0.83754432201385498 0.12179939448833466
0.9896584153175354 0.80449759960174561 0.1106828898191452
0.65138041973114014 0.94383811950683594 0.13551396131515503
0.69988918304443359 0.94313210248947144 0.11784894019365311
0.78412431478500366 0.94127333164215088 0.12124147266149521
0.88017290830612183 0.93089854717254639 0.13029411435127258
0.96189022064208984 0.94072818756103516 0.15216083824634552
0.99990689754486084 0.95228570699691772 0.16697895526885986
1 0.93779730796813965 0.16050851345062256
0.67029750347137451 0.98107784986495972 0.13135825097560883
0.70470523834228516 0.98088288307189941 0.11618012189865112
0.76579612493515015 0.97001034021377563 0.12228188663721085
0.86594897508621216 0.94747078418731689 0.12664565443992615
0.94934624433517456 0.94344711303710938 0.1465097963809967
0.98857218027114868 0.95936352014541626 0.1752297431230545
0.99918556213378906 0.95918607711791992 0.18251289427280426
0.0026046752464026213 0.0025476643349975348 0.22203832864761353
0.065719187259674072 0.00015438304399140179 0.16455425322055817
0.16391550004482269 4.0211398300016299e-05 0.10761452466249466
0.32982921600341797 0.0039551826193928719 0.060971923172473907
0.59700101613998413 0.052729032933712006 0.026955459266901016
0.82119691371917725 0.10998222231864929 0.0025603799149394035
0.8802916407585144 0.12209055572748184 0
0.0031030692625790834 0.066882431507110596 0.18736417591571808
0.057992540299892426 0.051570981740951538 0.14341737329959869
0.15685988962650299 0.044749554246664047 0.095209755003452301
0.35247918963432312 0.058328412473201752 0.046968303620815277
0.64224040508270264 0.10741879045963287 0.018233444541692734
0.83664500713348389 0.14145192503929138 0.00015572940174024552
0.86959660053253174 0.12879401445388794 0
0.049130517989397049 0.20059025287628174 0.16179443895816803
0.11632074415683746 0.19578950107097626 0.13799351453781128
0.21489900350570679 0.1901555210351944 0.10735035687685013
0.42302432656288147 0.2114093154668808 0.056334715336561203
0.7008129358291626 0.2580966055393219 0.019390959292650223
0.8550724983215332 0.26104050874710083 0.0031055973377078772
0.86389851570129395 0.21219149231910706 0.0014638414140790701
0.22787027060985565 0.46631884574890137 0.18174950778484344
0.32474714517593384 0.48979893326759338 0.1637091338634491
0.44677755236625671 0.49893060326576233 0.14029602706432343
0.61786079406738281 0.5077328085899353 0.094638869166374207
0.81813496351242065 0.53398925065994263 0.056060373783111572
0.91730695962905884 0.51804053783416748 0.040020961314439774
0.91074544191360474 0.45470258593559265 0.037000440061092377
0.49480676651000977 0.78788238763809204 0.21629272401332855
0.57739436626434326 0.81266814470291138 0.18213726580142975
0.68145859241485596 0.81117767095565796 0.1576981395483017
0.80513709783554077 0.8005368709564209 0.12898615002632141
0.92621874809265137 0.80716145038604736 0.11314772069454193
0.98361265659332275 0.79863858222961426 0.10673318058252335
0.97889000177383423 0.75722140073776245 0.099472597241401672
0.64169788360595703 0.954490065574646 0.20827536284923553
0.67479431629180908 0.95903664827346802 0.16674821078777313
0.75657302141189575 0.95321112871170044 0.1464335024356842
0.86105924844741821 0.93263453245162964 0.13430511951446533
0.9514235258102417 0.93108206987380981 0.14283329248428345
0.99845176935195923 0.9397779107093811 0.15965759754180908
1 0.92416918277740479 0.15581195056438446
0.66652393341064453 0.98424369096755981 0.17831288278102875
0.67901420593261719 0.97968584299087524 0.13957744836807251
0.73451381921768188 0.96961408853530884 0.12781618535518646
0.83970725536346436 0.94669705629348755 0.1198963075876236
0.93459087610244751 0.94211775064468384 0.13703452050685883
0.98662298917770386 0.95517259836196899 0.17455033957958221
1 0.96058171987533569 0.18189840018749237
0 0.0037290835753083229 0.39208582043647766
0.024515204131603241 0.00018190870468970388 0.34281006455421448
0.10398309677839279 0.00015474206884391606 0.27141496539115906
0.29284265637397766 0.020609447732567787 0.19331502914428711
0.60173076391220093 0.090150587260723114 0.13561314344406128
0.82062596082687378 0.14804506301879883 0.088206946849822998
0.8629223108291626 0.14941217005252838 0.051269844174385071
0 0.074564211070537567 0.3844694197177887
0.014585457742214203 0.056143354624509811 0.34078767895698547
0.10236641019582748 0.044897399842739105 0.27003705501556396
0.32343202829360962 0.062847569584846497 0.17851696908473969
0.64852070808410645 0.11961104720830917 0.10000487416982651
0.83658784627914429 0.15691643953323364 0.053166721016168594
0.86423748731613159 0.14049378037452698 0.017266741022467613
0.014651728793978691 0.22921611368656158 0.39562711119651794
0.060790326446294785 0.21924801170825958 0.3641839325428009
0.1534300297498703 0.19932112097740173 0.29821658134460449
0.38298267126083374 0.19949449598789215 0.18585047125816345
0.69593340158462524 0.22999317944049835 0.081924036145210266
0.85806655883789062 0.2309064120054245 0.027802381664514542
0.86540812253952026 0.17964088916778564 0.0053840787149965763
0.16530898213386536 0.50393152236938477 0.43623366951942444
0.24385012686252594 0.52488893270492554 0.4067414402961731
0.35518702864646912 0.51395630836486816 0.34278133511543274
0.54858940839767456 0.49281179904937744 0.2309596985578537
0.78468173742294312 0.48601850867271423 0.11893141269683838
0.90527021884918213 0.45555427670478821 0.051469467580318451
0.89553344249725342 0.37048184871673584 0.026668518781661987
0.42647510766983032 0.8217766284942627 0.45099833607673645
0.49593666195869446 0.84835618734359741 0.40233764052391052
0.60156840085983276 0.83635926246643066 0.33382752537727356
0.75355207920074463 0.8067021369934082 0.24669475853443146
0.8941417932510376 0.77727687358856201 0.17369987070560455
0.96627366542816162 0.74952292442321777 0.12072838842868805
0.96687972545623779 0.6867600679397583 0.087464623153209686
0.58987689018249512 0.9752800464630127 0.40398618578910828
0.62338155508041382 0.98507702350616455 0.33888992667198181
0.70581996440887451 0.97305536270141602 0.27207466959953308
0.82959753274917603 0.94519871473312378 0.21486577391624451
0.93830949068069458 0.92678511142730713 0.18274828791618347
0.99177992343902588 0.92437529563903809 0.17190174758434296
0.99932008981704712 0.89900434017181396 0.15070903301239014
0.62101709842681885 0.98771315813064575 0.33198517560958862
0.64729160070419312 0.98980027437210083 0.25764569640159607
0.71163696050643921 0.97904354333877563 0.19547645747661591
0.81641304492950439 0.95654314756393433 0.16519083082675934
0.92491728067398071 0.94762110710144043 0.15473067760467529
0.98471075296401978 0.9577057957649231 0.17590144276618958
0.99979382753372192 0.96094745397567749 0.1734212189912796
0.00029413559241220355 0.045522052794694901 0.58956581354141235
0.0094218682497739792 0.040908858180046082 0.56952911615371704
0.064135879278182983 0.044593349099159241 0.53113698959350586
0.24552743136882782 0.091731488704681396 0.47322335839271545
0.56110215187072754 0.17338685691356659 0.427630215883255
0.77513283491134644 0.23150849342346191 0.38078370690345764
0.81554108858108521 0.22676058113574982 0.31480821967124939
0 0.12354192137718201 0.61293995380401611
0.00092166080139577389 0.10728964954614639 0.59549593925476074
0.060592532157897949 0.095809578895568848 0.55331194400787354
0.25424620509147644 0.11636070162057877 0.47474810481071472
0.59095025062561035 0.18167741596698761 0.38645404577255249
0.7910919189453125 0.22554579377174377 0.31711572408676147
0.82948249578475952 0.20828090608119965 0.23630316555500031
0.0027456844691187143 0.28684303164482117 0.66647440195083618
0.01475086621940136 0.2684357762336731 0.65328526496887207
0.077290162444114685 0.2347751259803772 0.59870415925979614
0.27237576246261597 0.21174316108226776 0.48329845070838928
0.61284732818603516 0.23823046684265137 0.33923834562301636
0.8121371865272522 0.2489871084690094 0.23955263197422028
0.84309905767440796 0.20949587225914001 0.16544009745121002
0.10356599092483521 0.56089752912521362 0.74503928422927856
0.13520357012748718 0.56313234567642212 0.72872400283813477
0.20536971092224121 0.52714377641677856 0.66353261470794678
0.38128718733787537 0.47442692518234253 0.53052735328674316
0.6809198260307312 0.44600784778594971 0.3527352511882782
0.86994493007659912 0.41514253616333008 0.21170346438884735
0.881858229637146 0.34157547354698181 0.12063371390104294
0.28505274653434753 0.86493945121765137 0.77455610036849976
0.32941249012947083 0.86581462621688843 0.73081177473068237
0.41955998539924622 0.84121221303939819 0.65128582715988159
0.5883907675743103 0.79698294401168823 0.53879934549331665
0.80135369300842285 0.74622857570648193 0.39841824769973755
0.94380432367324829 0.69849520921707153 0.25837776064872742
0.96031582355499268 0.62378203868865967 0.1509532630443573
0.41699451208114624 0.99051642417907715 0.72223544120788574
0.45783379673957825 0.99523770809173584 0.65351659059524536
0.54517728090286255 0.98251700401306152 0.56178301572799683
0.70371729135513306 0.95565330982208252 0.45907893776893616
0.87065392732620239 0.92509108781814575 0.36912298202514648
0.97497463226318359 0.90252137184143066 0.29240953922271729
0.99554181098937988 0.86693543195724487 0.2163703441619873
0.45324349403381348 0.9944881796836853 0.65321093797683716
0.50187039375305176 0.99858987331390381 0.55693316459655762
0.57965987920761108 0.99133932590484619 0.45430818200111389
0.71009081602096558 0.97240948677062988 0.36982181668281555
0.86931860446929932 0.95747441053390503 0.29545575380325317
0.96956115961074829 0.96143054962158203 0.27138203382492065
0.99548006057739258 0.9563833475112915 0.22892795503139496
0.0042519662529230118 0.14363022148609161 0.767985999584198
0.014057159423828125 0.13998563587665558 0.76980233192443848
0.045737188309431076 0.1419079452753067 0.77759605646133423
0.17270611226558685 0.18727080523967743 0.78070724010467529
0.45358568429946899 0.27133885025978088 0.79106950759887695
0.66890335083007812 0.32291474938392639 0.78456062078475952
0.71850371360778809 0.31497251987457275 0.72490793466567993
0.0023065605200827122 0.20693764090538025 0.79562985897064209
0.0094036031514406204 0.19493450224399567 0.80020934343338013
0.053419675678014755 0.19250257313251495 0.8003774881362915
0.16791743040084839 0.20740732550621033 0.78248846530914307
0.44384276866912842 0.27053660154342651 0.75871014595031738
0.66699635982513428 0.30970698595046997 0.71943587064743042
0.72933554649353027 0.29795059561729431 0.65079349279403687
0.017475321888923645 0.35709917545318604 0.85233312845230103
0.009659486822783947 0.32660672068595886 0.85550642013549805
0.035362184047698975 0.29132744669914246 0.83956712484359741
0.16244058310985565 0.26955562829971313 0.78993940353393555
0.43484172224998474 0.29428693652153015 0.71827691793441772
0.67742335796356201 0.30760094523429871 0.63789474964141846
0.75864237546920776 0.28487101197242737 0.55547487735748291
0.092691965401172638 0.6213144063949585 0.92830830812454224
0.079072870314121246 0.58574396371841431 0.92766743898391724
0.09913095086812973 0.53079092502593994 0.89929020404815674
0.21472159028053284 0.47249853610992432 0.83087491989135742
0.47316321730613708 0.43946200609207153 0.71557337045669556
0.74427056312561035 0.4144890308380127 0.58429992198944092
0.82182437181472778 0.35992196202278137 0.45446920394897461
0.18766206502914429 0.88777005672454834 0.96118921041488647
0.19416281580924988 0.86231744289398193 0.94872075319290161
0.23630803823471069 0.81599724292755127 0.90713346004486084
0.35535308718681335 0.75822824239730835 0.84447616338729858
0.58346337080001831 0.70822811126708984 0.73821860551834106
0.8361053466796875 0.65783679485321045 0.57918596267700195
0.9224083423614502 0.5755009651184082 0.40584209561347961
0.24300172924995422 0.99679857492446899 0.94846254587173462
0.26284465193748474 0.98967170715332031 0.91873294115066528
0.32085224986076355 0.97014212608337402 0.86717623472213745
0.46097347140312195 0.94124597311019897 0.7814062237739563
0.6757436990737915 0.90860104560852051 0.6884416937828064
0.89440757036209106 0.87429845333099365 0.57475680112838745
0.98465240001678467 0.81950175762176514 0.43679767847061157
0.25065159797668457 0.99936854839324951 0.91825348138809204
0.29102867841720581 0.99995392560958862 0.87724244594573975
0.3517778217792511 0.99672967195510864 0.80625605583190918
0.48288106918334961 0.98507612943649292 0.70829617977142334
0.69556468725204468 0.97194451093673706 0.61151731014251709
0.9071921706199646 0.9618067741394043 0.53211438655853271
0.99728590250015259 0.95407205820083618 0.45817893743515015
0.0044176587834954262 0.22515846788883209 0.86918336153030396
0.015954440459609032 0.21920891106128693 0.86880654096603394
0.039239741861820221 0.2238309234380722 0.87577569484710693
0.13763144612312317 0.26017037034034729 0.89473050832748413
0.36043670773506165 0.32234150171279907 0.94821810722351074
0.56697589159011841 0.3688887357711792 0.98644399642944336
0.633045494556427 0.36939126253128052 0.96579831838607788
0.0078431377187371254 0.25752353668212891 0.8808060884475708
0.011441533453762531 0.24418739974498749 0.88436824083328247
0.03253154456615448 0.24115820229053497 0.88651549816131592
0.12205628305673599 0.26065677404403687 0.89032483100891113
0.33507838845252991 0.3162676990032196 0.93154960870742798
0.54827147722244263 0.36097210645675659 0.95953249931335449
0.62726175785064697 0.36573615670204163 0.94144600629806519
0.022814476862549782 0.36848345398902893 0.91625165939331055
0.0084171965718269348 0.32662948966026306 0.91706430912017822
0.016573572531342506 0.29822605848312378 0.91712456941604614
0.10059697926044464 0.29367312788963318 0.91215437650680542
0.30273386836051941 0.32266402244567871 0.91584604978561401
0.53390014171600342 0.35317781567573547 0.9170762300491333
0.64007711410522461 0.35849401354789734 0.89612030982971191
0.083195783197879791 0.60376369953155518 0.96789145469665527
0.055590998381376266 0.53729492425918579 0.96366095542907715
0.050484497100114822 0.47966811060905457 0.96274304389953613
0.11466215550899506 0.43651613593101501 0.95017784833908081
0.29650846123695374 0.42219230532646179 0.92272299528121948
0.54742717742919922 0.41806319355964661 0.89098215103149414
0.69213348627090454 0.39674299955368042 0.84248965978622437
0.14730122685432434 0.86573100090026855 0.99504238367080688
0.1342436820268631 0.8142082691192627 0.99781394004821777
0.13800716400146484 0.75267624855041504 0.98864853382110596
0.19091452658176422 0.6906667947769165 0.97413146495819092
0.34783712029457092 0.64788424968719482 0.94211184978485107
0.6006772518157959 0.61271196603775024 0.87464886903762817
0.79601788520812988 0.5494229793548584 0.76877152919769287
0.16954316198825836 0.99357974529266357 1
0.17080052196979523 0.97466164827346802 0.99907875061035156
0.19240564107894897 0.94629561901092529 0.99240165948867798
0.2588045597076416 0.91245394945144653 0.96553707122802734
0.42645639181137085 0.87388092279434204 0.92931169271469116
0.6889147162437439 0.83998459577560425 0.8631405234336853
0.90528404712677002 0.79171133041381836 0.76353555917739868
0.1584240198135376 1 0.99801832437515259
0.16737166047096252 0.99997663497924805 0.98869603872299194
0.19677695631980896 0.99994361400604248 0.98201942443847656
0.26993277668952942 0.99459147453308105 0.95097076892852783
0.45042067766189575 0.98294353485107422 0.89176797866821289
0.7208552360534668 0.97168576717376709 0.82898485660552979
0.96153396368026733 0.96293413639068604 0.76691734790802002
0.002763471333310008 0.23982010781764984 0.88627451658248901
0.005559195764362812 0.23127125203609467 0.88566404581069946
0.025109369307756424 0.23566237092018127 0.88451683521270752
0.10525223612785339 0.26294520497322083 0.89510965347290039
0.30234172940254211 0.31598928570747375 0.93825089931488037
0.52689278125762939 0.36901885271072388 0.98636859655380249
0.59189426898956299 0.38173785805702209 0.99478423595428467
0.0011530708288773894 0.25096297264099121 0.88920187950134277
0.00020461737585719675 0.23360250890254974 0.88776785135269165
0.014098118990659714 0.2321137934923172 0.88327276706695557
0.096906654536724091 0.25831079483032227 0.88965123891830444
0.28906700015068054 0.31214496493339539 0.93110448122024536
0.50576472282409668 0.36709198355674744 0.98353928327560425
0.59304434061050415 0.38814195990562439 1
0.0058655831962823868 0.32717201113700867 0.91715562343597412
7.1327362093143165e-05 0.28519508242607117 0.91113340854644775
0.0053563136607408524 0.25979506969451904 0.90136760473251343
0.073386445641517639 0.26925727725028992 0.90018057823181152
0.23996491730213165 0.30811786651611328 0.92246520519256592
0.46728107333183289 0.3586660623550415 0.96389013528823853
0.59119188785552979 0.3844047486782074 0.99615877866744995
0.052579738199710846 0.52762132883071899 0.96209245920181274
0.03352019190788269 0.45842912793159485 0.95681029558181763
0.029983729124069214 0.39525297284126282 0.94167804718017578
0.064210765063762665 0.36020737886428833 0.93913137912750244
0.17926803231239319 0.36337026953697205 0.93327921628952026
0.39824950695037842 0.39062842726707458 0.95543646812438965
0.58991646766662598 0.40121534466743469 0.98317128419876099
0.13399922847747803 0.7998233437538147 0.99209696054458618
0.11789344251155853 0.73870730400085449 0.99037349224090576
0.10365304350852966 0.66127991676330566 0.98221677541732788
0.11568184942007065 0.59042936563491821 0.9753759503364563
0.19898277521133423 0.54665946960449219 0.96882659196853638
0.3857305645942688 0.53980183601379395 0.97127640247344971
0.62763792276382446 0.51630419492721558 0.97227460145950317
0.17219139635562897 0.97017818689346313 1
0.17085491120815277 0.94880586862564087 1
0.16824471950531006 0.89966690540313721 0.99959367513656616
0.18559364974498749 0.84378534555435181 0.99471724033355713
0.25387316942214966 0.78267586231231689 0.99318492412567139
0.44821012020111084 0.76209235191345215 0.98816925287246704
0.74383676052093506 0.74273103475570679 0.97564029693603516
0.15595513582229614 0.99978005886077881 1
0.1565830409526825 1 1
0.16581065952777863 0.99920624494552612 1
0.1907336562871933 0.99027681350708008 1
0.25621923804283142 0.97226828336715698 0.99418747425079346
0.45495125651359558 0.96523237228393555 0.98458540439605713
0.84896731376647949 0.96478915214538574 0.97609508037567139
