assets/lut/toddblankenship bluehour.cube
# Created by: G'MIC (https://gmic.eu)
TITLE "bluehour"
# LUT size
LUT_3D_SIZE 5
# Data domain
DOMAIN_MIN 0.0 0.0 0.0
DOMAIN_MAX 1.0 1.0 1.0
# LUT data points
0.015896143391728401 0.033956475555896759 0.046346761286258698
0.36013895273208618 0.00025437297881580889 0.0021811691112816334
0.70716816186904907 0 0
0.99952197074890137 4.434024594957009e-05 0
0.99869465827941895 0.0084557179361581802 0.0015838025137782097
0.0013609792804345489 0.49475014209747314 0.00088022270938381553
0.28340750932693481 0.34742167592048645 0.0036617503501474857
0.68326777219772339 0.22072900831699371 1.516903103038203e-05
1 0.15788447856903076 0.0019941441714763641
0.99520909786224365 0.18485397100448608 0
0.0030633516144007444 0.96864736080169678 0
0.19262236356735229 0.83290106058120728 0.00027129228692501783
0.67314702272415161 0.70066893100738525 0.002047624671831727
1 0.6054033637046814 0
0.99851113557815552 0.54880982637405396 3.0338062060764059e-05
0.011694141663610935 1 0
0.18765540421009064 1 0
0.63534325361251831 1 4.8424215492559597e-05
0.99992245435714722 0.99961644411087036 0
0.99993860721588135 0.9274410605430603 0
0.013045472092926502 0.99968397617340088 0
0.2089494913816452 1 0
0.58220714330673218 1 0.0002996856055688113
0.99265635013580322 0.99928480386734009 0
1 1 0.00037416943814605474
0.0013383752666413784 0 0.59369742870330811
0.271169513463974 0 0.38337957859039307
0.67112189531326294 0.0015705781988799572 0.22893209755420685
0.99593168497085571 0.0031744115985929966 0.16438846290111542
0.98909181356430054 7.0010914896556642e-06 0.18767367303371429
0 0.36237326264381409 0.39161831140518188
0.14535360038280487 0.20711684226989746 0.23236633837223053
0.60378104448318481 0.13414613902568817 0.15640453994274139
0.97542065382003784 0.12652517855167389 0.15745499730110168
0.99846380949020386 0.15157723426818848 0.20454598963260651
0.0020839916542172432 0.88206374645233154 0.17267931997776031
0.072407573461532593 0.71928036212921143 0.096615314483642578
0.57428896427154541 0.61482733488082886 0.065656267106533051
0.98033034801483154 0.55158072710037231 0.11263787001371384
0.99534779787063599 0.51075810194015503 0.19626638293266296
0 0.99982810020446777 0.030493149533867836
0.061125349253416061 1 0.026320198550820351
0.5112074613571167 0.99867111444473267 0.020270120352506638
0.97223573923110962 0.96201300621032715 0.061378389596939087
0.99865573644638062 0.84271526336669922 0.17768971621990204
0.0026406680699437857 0.99723827838897705 0.037123497575521469
0.10911800712347031 1 0.020654177293181419
0.4571223258972168 1 0.012004687450826168
0.92351454496383667 0.99939632415771484 0.032824810594320297
1 1 0.15006189048290253
0.0015118467854335904 0 1
0.16370406746864319 0 0.90654152631759644
0.62528330087661743 0.0067253261804580688 0.71825528144836426
0.99610328674316406 0.0031996932812035084 0.59337747097015381
1 0 0.55879068374633789
0 0.13484501838684082 0.94893574714660645
0.019680231809616089 0.028154036030173302 0.73700827360153198
0.52387768030166626 0.051341906189918518 0.63742673397064209
0.94524788856506348 0.067203566431999207 0.55384260416030884
0.999672532081604 0.11570747196674347 0.54195928573608398
0.00050757912686094642 0.72522741556167603 0.7543339729309082
0.002859900938346982 0.5744815468788147 0.60510170459747314
0.46378907561302185 0.51180309057235718 0.53043526411056519
0.88997447490692139 0.49599915742874146 0.52276992797851562
0.99983936548233032 0.49959316849708557 0.55668056011199951
0 1 0.55109071731567383
0.00047095803893171251 0.99819886684417725 0.46797698736190796
0.41054204106330872 0.95039099454879761 0.44737306237220764
0.87107539176940918 0.87023186683654785 0.47484105825424194
1 0.78762274980545044 0.54212743043899536
0 0.99868959188461304 0.42366641759872437
0.051871355623006821 0.99328386783599854 0.40332740545272827
0.38270372152328491 0.99853211641311646 0.39147263765335083
0.82105833292007446 0.99999654293060303 0.43042996525764465
1 0.99989497661590576 0.49067071080207825
0 0 1
0.082737505435943604 0 1
0.51662349700927734 0.0050732633098959923 1
0.97216355800628662 0.00018533444381318986 0.98995667695999146
1 0 0.92375761270523071
0 0.0032223719172179699 0.99993878602981567
0.002054491313174367 0 1
0.42402887344360352 0.0014506770530715585 0.99989217519760132
0.89373421669006348 0.036630339920520782 0.94519400596618652
1 0.11616723984479904 0.86706459522247314
0.0013534844620153308 0.52260971069335938 0.99999332427978516
1.6425638023065403e-05 0.40283495187759399 0.99965447187423706
0.32581391930580139 0.37638485431671143 0.94953745603561401
0.8164246678352356 0.42479428648948669 0.85857051610946655
1 0.4745752215385437 0.82791310548782349
0 0.9957202672958374 0.9971005916595459
1.7772001228877343e-05 0.90437561273574829 0.91957396268844604
0.30267602205276489 0.83276522159576416 0.84838545322418213
0.76547110080718994 0.77900141477584839 0.7958720326423645
0.99946039915084839 0.76079440116882324 0.80021828413009644
0 0.99758392572402954 0.86284542083740234
0.0085244569927453995 0.99887931346893311 0.80756831169128418
0.32779747247695923 1 0.74442571401596069
0.73754310607910156 1 0.73527485132217407
0.99801313877105713 0.99673378467559814 0.74993008375167847
0 0 0.99987614154815674
0.013784610666334629 0 1
0.41373440623283386 0.00026312435511499643 0.99744600057601929
0.88651084899902344 0 0.99972617626190186
1 0.00529454555362463 1
0 0 0.99818885326385498
0 0 0.99994927644729614
0.33980512619018555 0 0.99795699119567871
0.81706720590591431 0.0082226768136024475 0.9999159574508667
1 0.12046055495738983 0.99642837047576904
0.00046187755651772022 0.35169216990470886 0.99829387664794922
0 0.28444716334342957 0.98639047145843506
0.28218463063240051 0.30901414155960083 1
0.74847495555877686 0.35225579142570496 1
0.99989962577819824 0.42955094575881958 0.9896577000617981
0 0.83421629667282104 0.99739795923233032
0.0026072482578456402 0.77429693937301636 0.99937146902084351
0.27099347114562988 0.70815706253051758 1
0.68628638982772827 0.69881027936935425 0.99786120653152466
0.97824245691299438 0.71987533569335938 0.98937755823135376
0.0013471117708832026 1 1
0.0094941984862089157 1 1
0.28427550196647644 0.99994397163391113 0.99968475103378296
0.6604163646697998 0.984211266040802 0.98962676525115967
0.96911990642547607 0.97557294368743896 0.97736531496047974
