assets/lut/toddblankenship bluearchitecture.cube
# Created by: G'MIC (https://gmic.eu)
TITLE "bluearchitecture"
# LUT size
LUT_3D_SIZE 13
# Data domain
DOMAIN_MIN 0.0 0.0 0.0
DOMAIN_MAX 1.0 1.0 1.0
# LUT data points
0.014645400457084179 0.009398127906024456 0.093373380601406097
0.059844508767127991 0.0077495649456977844 0.066414713859558105
0.10908728092908859 0.006518001202493906 0.03997662290930748
0.15635764598846436 0.0043589724227786064 0.021828295662999153
0.20491637289524078 0.0024223476648330688 0.012942011468112469
0.26421308517456055 0.002044677734375 0.0085207326337695122
0.34260904788970947 0.0034915551077574492 0.0059956121258437634
0.45216614007949829 0.018696997314691544 0.0042943619191646576
0.59020334482192993 0.050762776285409927 0.0024767408613115549
0.72466832399368286 0.087990961968898773 0.00057714123977348208
0.81696003675460815 0.11607550829648972 0
0.85706967115402222 0.12938788533210754 0
0.86872148513793945 0.13472887873649597 0
0.015085302293300629 0.037764560431241989 0.069708868861198425
0.054627645760774612 0.03248157724738121 0.049412071704864502
0.098014429211616516 0.027778774499893188 0.029483286663889885
0.14383687078952789 0.024144848808646202 0.015585596673190594
0.19527366757392883 0.022109236568212509 0.008908245712518692
0.25797832012176514 0.021597977727651596 0.00558497104793787
0.34023335576057434 0.024283241480588913 0.0032517826184630394
0.45274832844734192 0.039445284754037857 0.0023228214122354984
0.59021669626235962 0.070113852620124817 0.0024195204023271799
0.71957910060882568 0.10493099689483643 0.0018005820456892252
0.80854129791259766 0.12912708520889282 6.4176674641203135e-05
0.85009801387786865 0.13956010341644287 0
0.86314511299133301 0.14157219231128693 0
0.018189463764429092 0.069947123527526855 0.047189809381961823
0.05358554795384407 0.062801986932754517 0.03364989161491394
0.092301160097122192 0.056838046759366989 0.021215222775936127
0.13645726442337036 0.05349234864115715 0.012979769147932529
0.1890522688627243 0.053255762904882431 0.0080657508224248886
0.25471800565719604 0.055162228643894196 0.0051240809261798859
0.34220007061958313 0.061416100710630417 0.0029020123183727264
0.45967400074005127 0.077989809215068817 0.0032606835011392832
0.59653806686401367 0.10918302088975906 0.0054786833934485912
0.71957999467849731 0.14060978591442108 0.0059079788625240326
0.80139702558517456 0.15825679898262024 0.0024403890129178762
0.84092426300048828 0.1619391143321991 2.1392223061411642e-05
0.85378813743591309 0.15848951041698456 0
0.031694106757640839 0.11365164816379547 0.029590321704745293
0.064763881266117096 0.10635236650705338 0.02142518013715744
0.10299654304981232 0.10191822797060013 0.016866331920027733
0.14754827320575714 0.10083433985710144 0.013792644254863262
0.201536625623703 0.10399191081523895 0.011339404620230198
0.2702135443687439 0.11128172278404236 0.0088068647310137749
0.36293196678161621 0.12537936866283417 0.0071163550019264221
0.48656892776489258 0.14941340684890747 0.0082010459154844284
0.62068867683410645 0.18019275367259979 0.010932249017059803
0.73354077339172363 0.20541064441204071 0.011606702581048012
0.80543911457061768 0.21469199657440186 0.0080613382160663605
0.83854389190673828 0.20862570405006409 0.0022140503861010075
0.84775036573410034 0.19723834097385406 4.2006548028439283e-05
0.068728476762771606 0.18343977630138397 0.021027883514761925
0.1015646830201149 0.17653360962867737 0.017774859443306923
0.14256113767623901 0.17528174817562103 0.01935393363237381
0.19092753529548645 0.17879553139209747 0.021447470411658287
0.24862772226333618 0.18601171672344208 0.022343026474118233
0.32323238253593445 0.20051141083240509 0.021363725885748863
0.42238584160804749 0.22424738109111786 0.019273286685347557
0.54497450590133667 0.25534823536872864 0.019414326176047325
0.66883420944213867 0.28559955954551697 0.020558899268507957
0.7673448920249939 0.30446100234985352 0.020934984087944031
0.82678908109664917 0.30522799491882324 0.018283439800143242
0.85095691680908203 0.29038029909133911 0.012812176719307899
0.85396099090576172 0.26992055773735046 0.0061435475945472717
0.14488202333450317 0.29508954286575317 0.028836494311690331
0.1787213534116745 0.288808673620224 0.027260484173893929
0.22253954410552979 0.28974831104278564 0.031800318509340286
0.27507209777832031 0.29628422856330872 0.036941736936569214
0.33576774597167969 0.30494815111160278 0.040296413004398346
0.41474300622940063 0.32418146729469299 0.040475718677043915
0.51645445823669434 0.35557490587234497 0.038254518061876297
0.63160252571105957 0.39137062430381775 0.037491697818040848
0.74062061309814453 0.42144793272018433 0.037359319627285004
0.82235336303710938 0.43575188517570496 0.037184230983257294
0.8672906756401062 0.43014079332351685 0.035582270473241806
0.88179481029510498 0.40973898768424988 0.031726375222206116
0.88040685653686523 0.38500669598579407 0.025929499417543411
0.25986760854721069 0.4465695321559906 0.052309282124042511
0.29601141810417175 0.44402381777763367 0.049281101673841476
0.34112933278083801 0.44596096873283386 0.052392683923244476
0.39435052871704102 0.45087367296218872 0.057486157864332199
0.45489805936813354 0.45821863412857056 0.061640452593564987
0.53203099966049194 0.47693473100662231 0.062407743185758591
0.62725818157196045 0.50894129276275635 0.061284292489290237
0.73105490207672119 0.54529780149459839 0.060785241425037384
0.82550519704818726 0.57515209913253784 0.061382517218589783
0.88984310626983643 0.58632743358612061 0.061748400330543518
0.91946238279342651 0.57656311988830566 0.060366086661815643
0.92506766319274902 0.55429601669311523 0.057153858244419098
0.91927289962768555 0.52774173021316528 0.051733683794736862
0.39528626203536987 0.61767959594726562 0.084491029381752014
0.43051117658615112 0.61653786897659302 0.077401734888553619
0.47291117906570435 0.61653590202331543 0.076359078288078308
0.52411901950836182 0.61915123462677002 0.079213954508304596
0.58317059278488159 0.62532687187194824 0.082892321050167084
0.65255928039550781 0.63863980770111084 0.08434130996465683
0.73416543006896973 0.66301524639129639 0.085211373865604401
0.82254242897033691 0.69434863328933716 0.087268978357315063
0.90245217084884644 0.7230151891708374 0.089914761483669281
0.95133590698242188 0.731772780418396 0.091481246054172516
0.96746331453323364 0.72082406282424927 0.090484336018562317
0.96686989068984985 0.70054638385772705 0.087028741836547852
0.9587673544883728 0.67570734024047852 0.080902233719825745
0.52108758687973022 0.77479678392410278 0.11470037698745728
0.55117136240005493 0.77180784940719604 0.103348508477211
0.58792179822921753 0.76856851577758789 0.097691573202610016
0.63504290580749512 0.7696041464805603 0.098354116082191467
0.69045144319534302 0.7733648419380188 0.10092157125473022
0.75017279386520386 0.77964586019515991 0.103485107421875
0.81593590974807739 0.79295212030410767 0.10668414086103439
0.88471591472625732 0.81427502632141113 0.11229901760816574
0.94577407836914062 0.83603352308273315 0.11872280389070511
0.98358315229415894 0.84401810169219971 0.1223536804318428
0.99586325883865356 0.83754432201385498 0.12179939448833466
0.99532729387283325 0.82412129640579224 0.11791148781776428
0.9896584153175354 0.80449759960174561 0.1106828898191452
0.60748165845870972 0.88458544015884399 0.13167198002338409
0.63345175981521606 0.88297128677368164 0.11918438225984573
0.66461426019668579 0.87950152158737183 0.11198894679546356
0.70772945880889893 0.879974365234375 0.11167076230049133
0.75944113731384277 0.88179802894592285 0.11461140960454941
0.81069678068161011 0.88043051958084106 0.11768091470003128
0.86369490623474121 0.88289326429367065 0.12248608469963074
0.91576015949249268 0.89311301708221436 0.13102716207504272
0.95980793237686157 0.90677160024642944 0.14154264330863953
0.99090921878814697 0.91476142406463623 0.1481078565120697
1 0.91410732269287109 0.14892275631427765
1 0.9072420597076416 0.14555053412914276
0.99995625019073486 0.8922271728515625 0.13836278021335602
0.65138041973114014 0.94383811950683594 0.13551396131515503
0.67384606599807739 0.945354163646698 0.12417111545801163
0.69988918304443359 0.94313210248947144 0.11784894019365311
0.73755913972854614 0.94249773025512695 0.11790705472230911
0.78412431478500366 0.94127333164215088 0.12124147266149521
0.83241617679595947 0.93545258045196533 0.12479820847511292
0.88017290830612183 0.93089854717254639 0.13029411435127258
0.92501544952392578 0.93303471803665161 0.13990135490894318
0.96189022064208984 0.94072818756103516 0.15216083824634552
0.98899847269058228 0.94857650995254517 0.16201388835906982
0.99990689754486084 0.95228570699691772 0.16697895526885986
1 0.94898909330368042 0.16644108295440674
1 0.93779730796813965 0.16050851345062256
0.66768747568130493 0.97098708152770996 0.13418899476528168
0.68639886379241943 0.9730955958366394 0.12343151867389679
0.70746827125549316 0.97145229578018188 0.11824063956737518
0.7381359338760376 0.9693792462348938 0.11950155347585678
0.77948987483978271 0.96457988023757935 0.12341606616973877
0.82755160331726074 0.95606142282485962 0.12625372409820557
0.87713140249252319 0.94721513986587524 0.13089004158973694
0.92201876640319824 0.94444751739501953 0.13948477804660797
0.95778077840805054 0.94838434457778931 0.1522374302148819
0.98284024000167847 0.95644354820251465 0.16545003652572632
0.99701613187789917 0.96221292018890381 0.17519637942314148
0.99998944997787476 0.96247893571853638 0.178916335105896
1 0.95536512136459351 0.17552392184734344
0.67029750347137451 0.98107784986495972 0.13135825097560883
0.68699067831039429 0.98280209302902222 0.12057296186685562
0.70470523834228516 0.98088288307189941 0.11618012189865112
0.72956985235214233 0.97720170021057129 0.11814995855093002
0.76579612493515015 0.97001034021377563 0.12228188663721085
0.81383484601974487 0.95927220582962036 0.12427531182765961
0.86594897508621216 0.94747078418731689 0.12664565443992615
0.91317588090896606 0.94020849466323853 0.13367487490177155
0.94934624433517456 0.94344711303710938 0.1465097963809967
0.97365039587020874 0.9520689845085144 0.16182047128677368
0.98857218027114868 0.95936352014541626 0.1752297431230545
0.99598002433776855 0.96164208650588989 0.1826760470867157
0.99918556213378906 0.95918607711791992 0.18251289427280426
0.0079794786870479584 0.0058149597607553005 0.15344378352165222
0.0457802414894104 0.0037701176479458809 0.12548850476741791
0.0891389399766922 0.0021847742609679699 0.096594445407390594
0.13551189005374908 0.0012729121372103691 0.072529405355453491
0.18877036869525909 0.0010980792576447129 0.054371464997529984
0.25466528534889221 0.0012712965253740549 0.040107127279043198
0.3397631049156189 0.0034287397284060717 0.028436264023184776
0.45516255497932434 0.018675800412893295 0.018925415351986885
0.59524387121200562 0.049014057964086533 0.011066167615354061
0.72832447290420532 0.083721563220024109 0.0036503062583506107
0.82047826051712036 0.10955571383237839 4.6673943870700896e-05
0.86430293321609497 0.12209375202655792 0
0.87765014171600342 0.12559449672698975 0
0.007617950439453125 0.033528540283441544 0.13340993225574493
0.041402347385883331 0.027700776234269142 0.10940560698509216
0.080784663558006287 0.02225392684340477 0.084587246179580688
0.12621660530567169 0.019093383103609085 0.063803896307945251
0.18304306268692017 0.01961650513112545 0.047543544322252274
0.25452640652656555 0.021738149225711823 0.034363824874162674
0.3440822958946228 0.024297406896948814 0.022501911967992783
0.46451553702354431 0.039580088108778 0.014129295013844967
0.60650378465652466 0.068757392466068268 0.008816438727080822
0.73616123199462891 0.10050757974386215 0.0030192355625331402
0.82248032093048096 0.12128512561321259 0
0.86191731691360474 0.12869922816753387 0
0.87258780002593994 0.12830755114555359 0
0.010329766198992729 0.068889811635017395 0.11172225326299667
0.042257450520992279 0.061930786818265915 0.093422755599021912
0.077801436185836792 0.054606389254331589 0.075001165270805359
0.12052343040704727 0.049991697072982788 0.058577980846166611
0.17741735279560089 0.050111822783946991 0.044473178684711456
0.25240790843963623 0.053292442113161087 0.031324051320552826
0.35067829489707947 0.060108333826065063 0.020041536539793015
0.47882947325706482 0.078100629150867462 0.013010930269956589
0.62265110015869141 0.10735732316970825 0.01065902691334486
0.74664878845214844 0.13471506536006927 0.0071543673984706402
0.82292419672012329 0.14743952453136444 0.00063709932146593928
0.85586702823638916 0.14679107069969177 0
0.86362326145172119 0.14034520089626312 0
0.023434434086084366 0.1168220192193985 0.09246603399515152
0.055499762296676636 0.11060421168804169 0.079667381942272186
0.090049803256988525 0.10437985509634018 0.068237632513046265
0.13188889622688293 0.10081952810287476 0.057588748633861542
0.1878533661365509 0.10125380754470825 0.046263378113508224
0.26544883847236633 0.10711080580949783 0.033785276114940643
0.37207067012786865 0.12098748981952667 0.022505054250359535
0.50592529773712158 0.14461329579353333 0.015594662167131901
0.64671647548675537 0.17320540547370911 0.012982656247913837
0.76110327243804932 0.1945803314447403 0.010443743318319321
0.82758450508117676 0.19844618439674377 0.0033521016594022512
0.85331100225448608 0.18801441788673401 0.00014959597319830209
0.85690414905548096 0.17360223829746246 0
0.058858893811702728 0.18919426202774048 0.080906935036182404
0.092111758887767792 0.18498788774013519 0.071927569806575775
0.13156448304653168 0.18412785232067108 0.068104825913906097
0.1775863915681839 0.18457868695259094 0.063524194061756134
0.23580655455589294 0.18781282007694244 0.055569399148225784
0.3161475658416748 0.19780305027961731 0.044331584125757217
0.42611163854598999 0.21828125417232513 0.032393854111433029
0.55775338411331177 0.2459854930639267 0.02363058365881443
0.68710827827453613 0.27254393696784973 0.018889019265770912
0.78711956739425659 0.28730174899101257 0.015360499732196331
0.84343045949935913 0.28317847847938538 0.010947717353701591
0.86199462413787842 0.26392534375190735 0.0067470623180270195
0.86070579290390015 0.24122454226016998 0.0036151362583041191
0.13015997409820557 0.29954257607460022 0.083204694092273712
0.16856689751148224 0.30072396993637085 0.077763624489307404
0.21497900784015656 0.30557695031166077 0.077517658472061157
0.2674776017665863 0.31091016530990601 0.076648280024528503
0.32926502823829651 0.31638005375862122 0.071560665965080261
0.41018956899642944 0.32879093289375305 0.06168052926659584
0.51625931262969971 0.35214465856552124 0.049573503434658051
0.63675355911254883 0.3806946873664856 0.039651293307542801
0.74941766262054443 0.40497943758964539 0.032993689179420471
0.83243507146835327 0.4142507016658783 0.02927817590534687
0.87642616033554077 0.40442115068435669 0.026525041088461876
0.88745957612991333 0.37978306412696838 0.024660596624016762
0.88170415163040161 0.3519284725189209 0.021911665797233582
0.24308553338050842 0.45060339570045471 0.10186896473169327
0.28584176301956177 0.45735460519790649 0.09584306925535202
0.33674779534339905 0.46591904759407043 0.095347955822944641
0.39412033557891846 0.47327658534049988 0.094095639884471893
0.45693802833557129 0.47914627194404602 0.090272895991802216
0.53265112638473511 0.48936814069747925 0.081917360424995422
0.62691062688827515 0.50977802276611328 0.071484193205833435
0.73075944185256958 0.535805344581604 0.062402643263339996
0.82499998807907104 0.5575181245803833 0.056508425623178482
0.8903927206993103 0.56337541341781616 0.053058847784996033
0.92100387811660767 0.55082571506500244 0.050932791084051132
0.92519623041152954 0.52516084909439087 0.049176819622516632
0.91664808988571167 0.49544808268547058 0.046121783554553986
0.38156750798225403 0.62331211566925049 0.12975019216537476
0.42295101284980774 0.63132673501968384 0.11904895305633545
0.47159340977668762 0.6387144923210144 0.1139126792550087
0.52758532762527466 0.64492338895797729 0.11139322817325592
0.58810317516326904 0.64872902631759644 0.10772399604320526
0.65493094921112061 0.65389657020568848 0.1009899377822876
0.7337186336517334 0.66738259792327881 0.093682907521724701
0.81844830513000488 0.68766170740127563 0.088268682360649109
0.89405107498168945 0.70580500364303589 0.085443668067455292
0.94371688365936279 0.71047943830490112 0.083733081817626953
0.96401411294937134 0.69891685247421265 0.082111075520515442
0.96416860818862915 0.67697179317474365 0.079876378178596497
0.95469892024993896 0.6495591402053833 0.075751826167106628
0.50981354713439941 0.77897149324417114 0.1531292051076889
0.54566997289657593 0.78603297472000122 0.13812325894832611
0.58643639087677002 0.78928101062774658 0.12885956466197968
0.63566786050796509 0.79230135679244995 0.12399011105298996
0.69095617532730103 0.79318040609359741 0.12029269337654114
0.75008606910705566 0.79303944110870361 0.11591155081987381
0.81423157453536987 0.79850947856903076 0.1127350926399231
0.88013797998428345 0.81111788749694824 0.11222761869430542
0.93770772218704224 0.82476329803466797 0.11452092230319977
0.975921630859375 0.82945257425308228 0.11614804714918137
0.99219793081283569 0.82287752628326416 0.11536754667758942
0.99295973777770996 0.80862939357757568 0.11302101612091064
0.98588424921035767 0.78705930709838867 0.10797286778688431
0.60043680667877197 0.88913416862487793 0.16391375660896301
0.62816387414932251 0.89426857233047485 0.14673896133899689
0.65918785333633423 0.89448654651641846 0.13553252816200256
0.70113086700439453 0.89464962482452393 0.12975245714187622
0.75184935331344604 0.89339148998260498 0.12705156207084656
0.80503267049789429 0.88914668560028076 0.1248852014541626
0.85889267921447754 0.88723456859588623 0.12501977384090424
0.91082680225372314 0.8922426700592041 0.12943358719348907
0.95464670658111572 0.90145903825759888 0.13730274140834808
0.98641490936279297 0.90747827291488647 0.14310738444328308
0.99968165159225464 0.90655803680419922 0.14468275010585785
1 0.89914697408676147 0.14308501780033112
0.99960875511169434 0.8832734227180481 0.13734103739261627
0.64812642335891724 0.94946789741516113 0.16285030543804169
0.66674673557281494 0.95244091749191284 0.14538396894931793
0.68808978796005249 0.95120233297348022 0.13417311012744904
0.72367209196090698 0.9503023624420166 0.12972798943519592
0.77075070142745972 0.94747453927993774 0.12850400805473328
0.82142353057861328 0.9401203989982605 0.12776096165180206
0.87178480625152588 0.9328199028968811 0.12976102530956268
0.91802006959915161 0.93223494291305542 0.13651591539382935
0.95673352479934692 0.93819499015808105 0.14783744513988495
0.98570901155471802 0.94529974460601807 0.15836678445339203
0.99954050779342651 0.94870966672897339 0.16495496034622192
1 0.94605886936187744 0.16585339605808258
1 0.93473076820373535 0.16054180264472961
0.66612762212753296 0.97532576322555542 0.15577036142349243
0.67779052257537842 0.97601699829101562 0.1386844664812088
0.69114649295806885 0.9735751748085022 0.12860596179962158
0.71958863735198975 0.97133368253707886 0.12621632218360901
0.76169919967651367 0.96721667051315308 0.12673449516296387
0.81257915496826172 0.95791041851043701 0.12600180506706238
0.86495184898376465 0.94755780696868896 0.12787704169750214
0.91232019662857056 0.94292068481445312 0.13494980335235596
0.95124608278274536 0.94689345359802246 0.14778126776218414
0.9794275164604187 0.9545854926109314 0.16284589469432831
0.99600481986999512 0.9604341983795166 0.17505612969398499
0.99998944997787476 0.96145117282867432 0.18043738603591919
1 0.95548874139785767 0.17659863829612732
0.66911774873733521 0.98362356424331665 0.14819455146789551
0.67892515659332275 0.98322635889053345 0.13190646469593048
0.68936514854431152 0.98009854555130005 0.12338080257177353
0.70947045087814331 0.97624188661575317 0.12297746539115906
0.74418848752975464 0.96970051527023315 0.12540780007839203
0.79544001817703247 0.95886719226837158 0.12368565052747726
0.85118585824966431 0.94707328081130981 0.12288513034582138
0.90137767791748047 0.94042623043060303 0.12889009714126587
0.94149899482727051 0.94283032417297363 0.14231359958648682
0.96973806619644165 0.95055568218231201 0.15989850461483002
0.98706042766571045 0.9577099084854126 0.17595075070858002
0.99627840518951416 0.96136701107025146 0.18503056466579437
0.99977791309356689 0.96047300100326538 0.18396270275115967
0.0026046752464026213 0.0025476643349975348 0.22203832864761353
0.029329366981983185 0.00086529302643612027 0.19448120892047882
0.065719187259674072 0.00015438304399140179 0.16455425322055817
0.10888968408107758 1.0411879884486552e-05 0.1350349634885788
0.16391550004482269 4.0211398300016299e-05 0.10761452466249466
0.23575729131698608 0.00041844983934424818 0.082734033465385437
0.32982921600341797 0.0039551826193928719 0.060971923172473907
0.45239511132240295 0.02157987654209137 0.042943559587001801
0.59700101613998413 0.052729032933712006 0.026955459266901016
0.73040735721588135 0.086222447454929352 0.012528467923402786
0.82119691371917725 0.10998222231864929 0.0025603799149394035
0.8654361367225647 0.12082280218601227 6.8066168751101941e-05
0.8802916407585144 0.12209055572748184 0
0.0017525766743347049 0.027777712792158127 0.20506423711776733
0.025204991921782494 0.021171689033508301 0.18004216253757477
0.058995775878429413 0.015496362000703812 0.15275527536869049
0.10168316215276718 0.012192924506962299 0.12563371658325195
0.16007010638713837 0.01290423795580864 0.099496625363826752
0.23833900690078735 0.016540093347430229 0.074513420462608337
0.34022310376167297 0.023759206756949425 0.051767941564321518
0.47137913107872009 0.042166855186223984 0.033721685409545898
0.61845976114273071 0.071672551333904266 0.019943132996559143
0.74754345417022705 0.10128799080848694 0.0077174468897283077
0.83017045259475708 0.11965179443359375 0.00027868233155459166
0.86659687757492065 0.12444049865007401 0
0.87645655870437622 0.1216377392411232 0
0.0031030692625790834 0.066882431507110596 0.18736417591571808
0.026896711438894272 0.059265106916427612 0.16598914563655853
0.057992540299892426 0.051570981740951538 0.14341737329959869
0.098337970674037933 0.045969989150762558 0.12003704905509949
0.15685988962650299 0.044749554246664047 0.095209755003452301
0.24037922918796539 0.048558641225099564 0.069932632148265839
0.35247918963432312 0.058328412473201752 0.046968303620815277
0.49276024103164673 0.078811138868331909 0.029390551149845123
0.64224040508270264 0.10741879045963287 0.018233444541692734
0.76530724763870239 0.13204753398895264 0.0083078574389219284
0.83664500713348389 0.14145192503929138 0.00015572940174024552
0.86468267440795898 0.13770048320293427 0
0.86959660053253174 0.12879401445388794 0
0.014002571813762188 0.12136661261320114 0.17095868289470673
0.041780851781368256 0.11481275409460068 0.15335278213024139
0.072323575615882874 0.10788796842098236 0.13734704256057739
0.11128843575716019 0.10163946449756622 0.11953528970479965
0.16765505075454712 0.09860152006149292 0.097365796566009521
0.25319871306419373 0.10237090289592743 0.071850329637527466
0.37399852275848389 0.1165337935090065 0.047485604882240295
0.52026629447937012 0.14000198245048523 0.028768083080649376
0.66673994064331055 0.16672009229660034 0.016883939504623413
0.78079545497894287 0.18455494940280914 0.0078815538436174393
0.84276026487350464 0.18491607904434204 0.00034586587571538985
0.86350059509277344 0.17143169045448303 0
0.86329072713851929 0.15437033772468567 0
0.049130517989397049 0.20059025287628174 0.16179443895816803
0.080479547381401062 0.19749000668525696 0.14692124724388123
0.11632074415683746 0.19578950107097626 0.13799351453781128
0.15858937799930573 0.19289720058441162 0.12614575028419495
0.21489900350570679 0.1901555210351944 0.10735035687685013
0.2999291718006134 0.19461353123188019 0.082560732960700989
0.42302432656288147 0.2114093154668808 0.056334715336561203
0.56582486629486084 0.23547756671905518 0.034548740833997726
0.7008129358291626 0.2580966055393219 0.019390959292650223
0.80135798454284668 0.26882079243659973 0.0096076661720871925
0.8550724983215332 0.26104050874710083 0.0031055973377078772
