assets/lut/toddblankenship bluearchitecture.cube
# Created by: G'MIC (https://gmic.eu)
TITLE "bluearchitecture"
# LUT size
LUT_3D_SIZE 5
# Data domain
DOMAIN_MIN 0.0 0.0 0.0
DOMAIN_MAX 1.0 1.0 1.0
# LUT data points
0.014645400457084179 0.009398127906024456 0.093373380601406097
0.15635764598846436 0.0043589724227786064 0.021828295662999153
0.34260904788970947 0.0034915551077574492 0.0059956121258437634
0.72466832399368286 0.087990961968898773 0.00057714123977348208
0.86872148513793945 0.13472887873649597 0
0.031694106757640839 0.11365164816379547 0.029590321704745293
0.14754827320575714 0.10083433985710144 0.013792644254863262
0.36293196678161621 0.12537936866283417 0.0071163550019264221
0.73354077339172363 0.20541064441204071 0.011606702581048012
0.84775036573410034 0.19723834097385406 4.2006548028439283e-05
0.25986760854721069 0.4465695321559906 0.052309282124042511
0.39435052871704102 0.45087367296218872 0.057486157864332199
0.62725818157196045 0.50894129276275635 0.061284292489290237
0.88984310626983643 0.58632743358612061 0.061748400330543518
0.91927289962768555 0.52774173021316528 0.051733683794736862
0.60748165845870972 0.88458544015884399 0.13167198002338409
0.70772945880889893 0.879974365234375 0.11167076230049133
0.86369490623474121 0.88289326429367065 0.12248608469963074
0.99090921878814697 0.91476142406463623 0.1481078565120697
0.99995625019073486 0.8922271728515625 0.13836278021335602
0.67029750347137451 0.98107784986495972 0.13135825097560883
0.72956985235214233 0.97720170021057129 0.11814995855093002
0.86594897508621216 0.94747078418731689 0.12664565443992615
0.97365039587020874 0.9520689845085144 0.16182047128677368
0.99918556213378906 0.95918607711791992 0.18251289427280426
0.00016282025899272412 0.0015653123846277595 0.30167940258979797
0.080380111932754517 0 0.21293452382087708
0.31356269121170044 0.0075808805413544178 0.11200921982526779
0.7357056736946106 0.099611304700374603 0.041125442832708359
0.87516123056411743 0.12966227531433105 0.0050730239599943161
0.0040568034164607525 0.12742419540882111 0.26875615119934082
0.085233487188816071 0.10380540788173676 0.20561537146568298
0.3652988076210022 0.11237753927707672 0.092882148921489716
0.78797578811645508 0.17614197731018066 0.015287077985703945
0.86583030223846436 0.14409218728542328 0
0.2040916234254837 0.48610511422157288 0.29459941387176514
0.34857818484306335 0.51311826705932617 0.24982650578022003
0.59346300363540649 0.50155794620513916 0.14327092468738556
0.87776684761047363 0.50527375936508179 0.049123261123895645
0.90297526121139526 0.41027376055717468 0.026920812204480171
0.57282191514968872 0.90862870216369629 0.30554687976837158
0.66466325521469116 0.92558097839355469 0.23438912630081177
0.83579790592193604 0.89274495840072632 0.16798073053359985
0.97303706407546997 0.87923604249954224 0.14022740721702576
0.99294793605804443 0.83808779716491699 0.12307798862457275
0.65535682439804077 0.98503106832504272 0.23422470688819885
0.69300347566604614 0.97980755567550659 0.15873697400093079
0.83133035898208618 0.94946742057800293 0.12892529368400574
0.96489369869232178 0.94912838935852051 0.15400724112987518
1 0.96022093296051025 0.17660462856292725
0.00029413559241220355 0.045522052794694901 0.58956581354141235
0.027004033327102661 0.040596906095743179 0.55324697494506836
0.24552743136882782 0.091731488704681396 0.47322335839271545
0.6996157169342041 0.21139994263648987 0.40370649099349976
0.81554108858108521 0.22676058113574982 0.31480821967124939
0 0.1927836686372757 0.63556915521621704
0.019155135378241539 0.1608147919178009 0.60153079032897949
0.25811833143234253 0.14778195321559906 0.47797849774360657
0.73380964994430542 0.21920850872993469 0.31433126330375671
0.83741003274917603 0.19989912211894989 0.19567319750785828
0.10356599092483521 0.56089752912521362 0.74503928422927856
0.1618875116109848 0.54930132627487183 0.70402407646179199
0.38128718733787537 0.47442692518234253 0.53052735328674316
0.80365860462188721 0.43578362464904785 0.2746429443359375
0.881858229637146 0.34157547354698181 0.12063371390104294
0.36465701460838318 0.95093828439712524 0.7519649863243103
0.44354769587516785 0.94677191972732544 0.65764313936233521
0.66626816987991333 0.90122365951538086 0.50321286916732788
0.91919642686843872 0.84038501977920532 0.33926683664321899
0.98600733280181885 0.76195728778839111 0.18507334589958191
0.45324349403381348 0.9944881796836853 0.65321093797683716
0.5364830493927002 0.99676203727722168 0.50029009580612183
0.71009081602096558 0.97240948677062988 0.36982181668281555
0.92930334806442261 0.95875751972198486 0.28380584716796875
0.99548006057739258 0.9563833475112915 0.22892795503139496
0.0044009340927004814 0.19285888969898224 0.83135956525802612
0.026733607053756714 0.18884994089603424 0.83685547113418579
0.1522282212972641 0.23285940289497375 0.86061292886734009
0.52719098329544067 0.33671355247497559 0.92225450277328491
0.66833293437957764 0.34786981344223022 0.88271820545196533
0.010335286147892475 0.29199439287185669 0.87006199359893799
0.014350323006510735 0.25944793224334717 0.87713021039962769
0.1325145810842514 0.25570368766784668 0.86433732509613037
0.49253389239311218 0.32251593470573425 0.85570907592773438
0.68072032928466797 0.32746002078056335 0.78884494304656982
0.092211060225963593 0.62514740228652954 0.95961695909500122
0.0617801733314991 0.5416293740272522 0.95511811971664429
0.15747402608394623 0.46159353852272034 0.91364914178848267
0.52297765016555786 0.43103399872779846 0.81124311685562134
0.764942467212677 0.38078632950782776 0.67217350006103516
0.18272094428539276 0.96109300851821899 0.99068921804428101
0.19954465329647064 0.91786563396453857 0.97242897748947144
0.31291091442108154 0.84750759601593018 0.91778844594955444
0.64351272583007812 0.78594118356704712 0.80958861112594604
0.92434501647949219 0.68735253810882568 0.59288454055786133
0.18688952922821045 1 0.97650718688964844
0.22990278899669647 0.99937403202056885 0.93948096036911011
0.36175483465194702 0.99001955986022949 0.85481327772140503
0.70571684837341309 0.97273272275924683 0.72935348749160767
0.98683375120162964 0.95843547582626343 0.61523890495300293
0.002763471333310008 0.23982010781764984 0.88627451658248901
0.011102025397121906 0.23120640218257904 0.88456434011459351
0.10525223612785339 0.26294520497322083 0.89510965347290039
0.42802897095680237 0.34627068042755127 0.96568304300308228
0.59189426898956299 0.38173785805702209 0.99478423595428467
0.0014402202796190977 0.27541360259056091 0.89839643239974976
8.7109736341517419e-05 0.24027030169963837 0.89295667409896851
0.086732245981693268 0.25901314616203308 0.89166140556335449
0.38667508959770203 0.33617442846298218 0.95022308826446533
0.59130591154098511 0.38708969950675964 0.99972623586654663
0.052579738199710846 0.52762132883071899 0.96209245920181274
0.027965007349848747 0.42467549443244934 0.95029401779174805
0.064210765063762665 0.36020737886428833 0.93913137912750244
0.27738898992538452 0.3747107982635498 0.93872004747390747
0.58991646766662598 0.40121534466743469 0.98317128419876099
0.16351164877414703 0.90721935033798218 0.99928724765777588
0.14810137450695038 0.83152526617050171 0.99659425020217896
0.15374721586704254 0.72459119558334351 0.98649865388870239
0.30710557103157043 0.65317249298095703 0.98242539167404175
0.68137264251708984 0.62157332897186279 0.97431570291519165
0.15595513582229614 0.99978005886077881 1
0.15938228368759155 0.99994868040084839 1
0.1907336562871933 0.99027681350708008 1
0.33323472738265991 0.96692758798599243 0.98825633525848389
0.84896731376647949 0.96478915214538574 0.97609508037567139
