assets/lut/toddblankenship darkandsomber.cube
# Created by: G'MIC (https://gmic.eu)
TITLE "darkandsomber"
# LUT size
LUT_3D_SIZE 13
# Data domain
DOMAIN_MIN 0.0 0.0 0.0
DOMAIN_MAX 1.0 1.0 1.0
# LUT data points
0.0038923975080251694 0.0043797511607408524 0.0047889109700918198
0.027566378936171532 0.00098266603890806437 0.0025398104917258024
0.061982084065675735 0.0010518990457057953 0.001820298726670444
0.10056301951408386 0.0028476191218942404 0.0017603705637156963
0.1355622261762619 0.0028165481053292751 3.6621095205191523e-05
0.16879457235336304 0.0016693414654582739 0
0.20492313802242279 0.0012286616256460547 0
0.24684572219848633 0.0020039128139615059 0
0.29536595940589905 0.0065202899277210236 0
0.35129210352897644 0.018452243879437447 0
0.41356033086776733 0.036215316504240036 0
0.47974488139152527 0.058476854115724564 0
0.5474972128868103 0.084995642304420471 0.001275171060115099
0.0023819119669497013 0.015588573180139065 0.007321331650018692
0.021671518683433533 0.0095877256244421005 0.0035073524340987206
0.052988521754741669 0.0090050492435693741 0.0021352581679821014
0.090167239308357239 0.012433579191565514 0.0013781229499727488
0.12806707620620728 0.014899997971951962 0.00019220091053284705
0.16548369824886322 0.015847418457269669 0
0.20428894460201263 0.016618646681308746 0
0.24738726019859314 0.019094174727797508 0
0.297425776720047 0.026106636971235275 0
0.3556247353553772 0.039756864309310913 0
0.41986304521560669 0.058974679559469223 0
0.48780089616775513 0.082602016627788544 3.6591172829503193e-05
0.55673074722290039 0.11021997779607773 0.0044499416835606098
0.0068465736694633961 0.034269027411937714 0.014286130666732788
0.023945871740579605 0.027447853237390518 0.0092376861721277237
0.052106279879808426 0.026558505371212959 0.0068677566014230251
0.08856721967458725 0.030357914045453072 0.0055483053438365459
0.12755773961544037 0.034852329641580582 0.0040212892927229404
0.16770143806934357 0.039098970592021942 0.0028973447624593973
0.21004432439804077 0.043032027781009674 0.0021769355516880751
0.25572302937507629 0.047710314393043518 0.0020206975750625134
0.30696403980255127 0.055818371474742889 0.0022416207939386368
0.36689373850822449 0.070168666541576385 0.0018919551512226462
0.43294018507003784 0.090196527540683746 0.002024482237175107
0.50181132555007935 0.11452319473028183 0.0045892903581261635
0.57135432958602905 0.1425643265247345 0.013676288537681103
0.022782763466238976 0.063878029584884644 0.028831915929913521
0.038380850106477737 0.05802522599697113 0.023819927126169205
0.064198434352874756 0.057850632816553116 0.021718896925449371
0.099062807857990265 0.061406917870044708 0.020116319879889488
0.13820590078830719 0.066890448331832886 0.018996473401784897
0.18110010027885437 0.073755748569965363 0.01877124235033989
0.22636491060256958 0.081128217279911041 0.017888491973280907
0.27483764290809631 0.088572241365909576 0.017516536638140678
0.32801026105880737 0.098403558135032654 0.01752237044274807
0.38827666640281677 0.11278186738491058 0.017336063086986542
0.45431432127952576 0.13209962844848633 0.018277037888765335
0.52340835332870483 0.15567722916603088 0.022026136517524719
0.59276670217514038 0.18328961730003357 0.031137324869632721
0.051576051861047745 0.10578607022762299 0.05377502366900444
0.065988622605800629 0.1017044335603714 0.04974881187081337
0.09080958366394043 0.10263730585575104 0.04890403151512146
0.12363411486148834 0.10635778307914734 0.048357285559177399
0.16301718354225159 0.11253675818443298 0.048127416521310806
0.20694102346897125 0.12083470821380615 0.048127058893442154
0.25392761826515198 0.13051848113536835 0.047207236289978027
0.30406633019447327 0.14053049683570862 0.045579228550195694
0.3584601879119873 0.15176501870155334 0.044859282672405243
0.41913941502571106 0.16622401773929596 0.045695330947637558
0.48533797264099121 0.1842113733291626 0.047562047839164734
0.55364924669265747 0.20661991834640503 0.051952123641967773
0.62167966365814209 0.23321136832237244 0.061507970094680786
0.096164703369140625 0.16106627881526947 0.092724516987800598
0.1097787469625473 0.15734364092350006 0.089798241853713989
0.13275082409381866 0.1593540757894516 0.09000733494758606
0.16424316167831421 0.16393771767616272 0.091419398784637451
0.20254163444042206 0.17081615328788757 0.092234186828136444
0.24607224762439728 0.17984482645988464 0.092352941632270813
0.29334142804145813 0.19033819437026978 0.091059677302837372
0.34359493851661682 0.20171429216861725 0.088723264634609222
0.39817935228347778 0.21420587599277496 0.086950190365314484
0.45987516641616821 0.22862331569194794 0.088456667959690094
0.5256456732749939 0.24642458558082581 0.091942884027957916
0.59262937307357788 0.26764765381813049 0.09778314083814621
0.65809756517410278 0.29313534498214722 0.10811240971088409
0.1589055061340332 0.23012471199035645 0.14717938005924225
0.17003908753395081 0.22748373448848724 0.1441374272108078
0.19037908315658569 0.22827501595020294 0.14528992772102356
0.21909937262535095 0.23306645452976227 0.14760048687458038
0.25543171167373657 0.24009472131729126 0.14983342587947845
0.29868012666702271 0.24942263960838318 0.15071330964565277
0.34607955813407898 0.26023542881011963 0.14976491034030914
0.39669463038444519 0.2723216712474823 0.14755618572235107
0.45140135288238525 0.28532201051712036 0.14591549336910248
0.51285874843597412 0.30011573433876038 0.14778171479701996
0.5772017240524292 0.31728211045265198 0.152125284075737
0.64076346158981323 0.33785837888717651 0.15888103842735291
0.70194458961486816 0.36209070682525635 0.16996854543685913
0.23635341227054596 0.31139791011810303 0.21395622193813324
0.24488881230354309 0.30753758549690247 0.2112567275762558
0.26206377148628235 0.30861061811447144 0.2128719836473465
0.28796523809432983 0.31281185150146484 0.21609751880168915
0.32232251763343811 0.31971278786659241 0.21918775141239166
0.36404430866241455 0.32876694202423096 0.22137276828289032
0.41199022531509399 0.33986470103263855 0.22160379588603973
0.46388435363769531 0.35208702087402344 0.22079160809516907
0.51930052042007446 0.36518433690071106 0.22023770213127136
0.57881563901901245 0.37989842891693115 0.22208993136882782
0.639182448387146 0.39664319157600403 0.2263578325510025
0.69758796691894531 0.4160153865814209 0.23313458263874054
0.75229024887084961 0.43880397081375122 0.24376627802848816
0.32484304904937744 0.40209716558456421 0.2907155454158783
0.33197832107543945 0.39892292022705078 0.28875911235809326
0.34611907601356506 0.39903587102890015 0.2908940315246582
0.3688080906867981 0.40245139598846436 0.29473331570625305
0.40051150321960449 0.40883591771125793 0.29887491464614868
0.44123426079750061 0.41757994890213013 0.30192333459854126
0.4895169734954834 0.42848595976829529 0.30347701907157898
0.54216605424880981 0.44043296575546265 0.30436348915100098
0.59751874208450317 0.453398197889328 0.3053031861782074
0.65436959266662598 0.46755251288414001 0.3072822093963623
0.709747314453125 0.48335602879524231 0.31120258569717407
0.76073694229125977 0.5011250376701355 0.31715932488441467
0.80674165487289429 0.52197420597076416 0.32609519362449646
0.42133033275604248 0.50117146968841553 0.37584826350212097
0.42728120088577271 0.49747079610824585 0.37481522560119629
0.44003063440322876 0.49758726358413696 0.37730348110198975
0.46012207865715027 0.50087457895278931 0.38175204396247864
0.4894411563873291 0.50670284032821655 0.38660761713981628
0.52895939350128174 0.51511460542678833 0.3904595673084259
0.57654309272766113 0.52535825967788696 0.39334699511528015
0.62835067510604858 0.53685861825942993 0.39546489715576172
0.68195134401321411 0.54895269870758057 0.39730685949325562
0.73504519462585449 0.56190747022628784 0.39979013800621033
0.7845197319984436 0.57629460096359253 0.40339720249176025
0.8263012170791626 0.59235674142837524 0.40812143683433533
0.86094391345977783 0.61068141460418701 0.41498604416847229
0.522724449634552 0.60671699047088623 0.46773993968963623
0.52830421924591064 0.60336208343505859 0.4673040509223938
0.53944826126098633 0.60335767269134521 0.46999672055244446
0.55809879302978516 0.60616719722747803 0.47495496273040771
0.586162269115448 0.61170375347137451 0.48013481497764587
0.62401193380355835 0.61929690837860107 0.48485836386680603
0.66941660642623901 0.62876266241073608 0.48852634429931641
0.71903955936431885 0.63942033052444458 0.49157139658927917
0.76847732067108154 0.6503676176071167 0.49415454268455505
0.81524187326431274 0.66171067953109741 0.4965551495552063
0.85646766424179077 0.67396259307861328 0.49944832921028137
0.88785821199417114 0.68752956390380859 0.50280267000198364
0.90909737348556519 0.70307660102844238 0.50710821151733398
0.62752664089202881 0.71725195646286011 0.56435090303421021
0.63306039571762085 0.71372628211975098 0.56415039300918579
0.64324992895126343 0.71347951889038086 0.56694608926773071
0.66023361682891846 0.71603697538375854 0.57205063104629517
0.68626594543457031 0.72108328342437744 0.57777905464172363
0.72177416086196899 0.72806942462921143 0.58253461122512817
0.76427465677261353 0.73679947853088379 0.58665412664413452
0.80984097719192505 0.74638545513153076 0.59039413928985596
0.85331660509109497 0.75594913959503174 0.59327095746994019
0.89012092351913452 0.76526302099227905 0.59507519006729126
0.91858482360839844 0.77478945255279541 0.59618502855300903
0.93666321039199829 0.7852892279624939 0.59772616624832153
0.94709128141403198 0.79786175489425659 0.6001359224319458
0.73409897089004517 0.83025234937667847 0.66347199678421021
0.73951989412307739 0.82729852199554443 0.6630018949508667
0.74892145395278931 0.82628804445266724 0.66568642854690552
0.7642480731010437 0.82834041118621826 0.67066723108291626
0.78744912147521973 0.83275562524795532 0.67642056941986084
0.81957882642745972 0.8389747142791748 0.68107914924621582
0.85801517963409424 0.84674865007400513 0.68525415658950806
0.89802181720733643 0.8554503321647644 0.68939757347106934
0.9336426854133606 0.86379754543304443 0.6925055980682373
0.95860922336578369 0.87059938907623291 0.69296514987945557
0.9729461669921875 0.87725019454956055 0.69236558675765991
0.97847449779510498 0.88498902320861816 0.692332923412323
0.98123037815093994 0.89502972364425659 0.69357848167419434
0.00086931715486571193 0.0031100255437195301 0.021340897306799889
0.017999282106757164 0.0010822371114045382 0.015636488795280457
0.046935420483350754 0.0014572892105206847 0.011344805359840393
0.080244265496730804 0.0032901389058679342 0.0066710077226161957
0.11406633257865906 0.0044389013200998306 0.0018621258204802871
0.14857757091522217 0.0044965855777263641 4.6240114897955209e-05
0.18698997795581818 0.0054002800025045872 0
0.23072850704193115 0.009200122207403183 0
0.28139403462409973 0.017785316333174706 0
0.33865734934806824 0.032069053500890732 0
0.40167847275733948 0.051223784685134888 3.9493338590546045e-06
0.46831831336021423 0.074970170855522156 0.0010622510453686118
0.53666836023330688 0.10250366479158401 0.0087576918303966522
4.6494427806464955e-05 0.015074576251208782 0.023125952109694481
0.012462451122701168 0.011312013491988182 0.017258124426007271
0.039553098380565643 0.01192843820899725 0.012877879664301872
0.072858072817325592 0.015363132581114769 0.0092581054195761681
0.10851474851369858 0.018581045791506767 0.0050856196321547031
0.1462753564119339 0.02105478011071682 0.0017516640946269035
0.18747764825820923 0.02395845390856266 0.00055338541278615594
0.23336981236934662 0.0291417445987463 0.00020141601271461695
0.28539884090423584 0.038332562893629074 0.00011584712046897039
0.34446755051612854 0.052956137806177139 0.00029554180218838155
0.40944334864616394 0.072849363088607788 0.00083954754518344998
0.47734454274177551 0.097325026988983154 0.0038974089547991753
0.54665100574493408 0.12554560601711273 0.013339487835764885
0.00090879551135003567 0.034451548010110855 0.029298162087798119
0.013774258084595203 0.030544117093086243 0.023390227928757668
0.038939516991376877 0.031458176672458649 0.019694803282618523
0.071884214878082275 0.035538077354431152 0.016608294099569321
0.10973687469959259 0.040339764207601547 0.013582910411059856
0.15115191042423248 0.045548859983682632 0.010769383981823921
0.19554939866065979 0.05138130858540535 0.0085660750046372414
0.24395550787448883 0.058308307081460953 0.0073574590496718884
0.29753142595291138 0.068217962980270386 0.0071666790172457695
0.35762634873390198 0.083051256835460663 0.0072079077363014221
0.42324545979499817 0.1029425710439682 0.0084499884396791458
0.49211341142654419 0.12708237767219543 0.012658616527915001
0.56182783842086792 0.1552632749080658 0.022060588002204895
0.012086322531104088 0.064921557903289795 0.043594643473625183
0.025923097506165504 0.061936471611261368 0.038361180573701859
0.049655914306640625 0.063569039106369019 0.035927925258874893
0.082413844764232635 0.067776009440422058 0.033714819699525833
0.12179215252399445 0.073562711477279663 0.031518720090389252
0.16578549146652222 0.080961950123310089 0.029468357563018799
0.21355657279491425 0.089400902390480042 0.027286095544695854
0.26481443643569946 0.09912235289812088 0.025230288505554199
0.31948748230934143 0.10974474251270294 0.024740017950534821
0.37983360886573792 0.12390550971031189 0.025142580270767212
0.4455050528049469 0.14264298975467682 0.026298103854060173
0.51440250873565674 0.16585896909236908 0.02973906509578228
0.58384466171264648 0.19321814179420471 0.03824412077665329
0.03888600692152977 0.10746809840202332 0.068897619843482971
0.051619347184896469 0.10561339557170868 0.064983770251274109
0.074571959674358368 0.10808335989713669 0.064239621162414551
0.10697322338819504 0.11270488798618317 0.063680104911327362
0.14679208397865295 0.11933447420597076 0.062220152467489243
0.19231496751308441 0.12797537446022034 0.060612577944993973
0.2420336902141571 0.13840571045875549 0.058265283703804016
0.29489362239837646 0.14979985356330872 0.055368296802043915
0.35046207904815674 0.16132453083992004 0.05416831374168396
0.41100147366523743 0.17513859272003174 0.054665450006723404
0.47673484683036804 0.19270764291286469 0.056409679353237152
0.54497921466827393 0.21475933492183685 0.059564791619777679
0.61342209577560425 0.24109698832035065 0.067536011338233948
0.081400446593761444 0.16298139095306396 0.10788852721452713
0.093018852174282074 0.16142112016677856 0.10463050752878189
0.11499737203121185 0.16404551267623901 0.10492471605539322
0.14631271362304688 0.16956132650375366 0.10606344044208527
0.18575547635555267 0.17681622505187988 0.106688492000103
0.2316192239522934 0.18625602126121521 0.10604415833950043
0.28163993358612061 0.19732511043548584 0.10425536334514618
0.33448463678359985 0.20919466018676758 0.1011422723531723
0.39050778746604919 0.22162984311580658 0.09906005859375
0.45178404450416565 0.23587037622928619 0.099349111318588257
0.51727330684661865 0.25318250060081482 0.10164247453212738
0.58426636457443237 0.27421990036964417 0.10607662051916122
0.65046519041061401 0.29953643679618835 0.11544090509414673
0.1412527859210968 0.23172403872013092 0.16084869205951691
0.15114971995353699 0.22959142923355103 0.15859629213809967
0.17108495533466339 0.23226463794708252 0.15934452414512634
0.20055904984474182 0.23785252869129181 0.16210015118122101
0.2387351393699646 0.24546477198600769 0.16401030123233795
0.28403007984161377 0.25513151288032532 0.16484770178794861
0.33395940065383911 0.26622086763381958 0.16416874527931213
0.38663157820701599 0.27836677432060242 0.1614011824131012
0.44290968775749207 0.29134449362754822 0.15937826037406921
0.50406908988952637 0.30586373805999756 0.15974713861942291
0.56815975904464722 0.32297432422637939 0.1625906378030777
0.63255012035369873 0.34333977103233337 0.16823865473270416
0.69493728876113892 0.36754629015922546 0.17855121195316315
0.21682381629943848 0.31216740608215332 0.22636322677135468
0.22488489747047424 0.30985277891159058 0.22429223358631134
0.24212677776813507 0.31202054023742676 0.22621205449104309
0.26883256435394287 0.31708216667175293 0.22959044575691223
0.30464670062065125 0.32463020086288452 0.23296448588371277
0.34906470775604248 0.3342248797416687 0.23492813110351562
0.3988555371761322 0.34519749879837036 0.23520281910896301
0.45197054743766785 0.35734114050865173 0.2340063601732254
0.508323073387146 0.37025046348571777 0.23343795537948608
0.56815981864929199 0.38467279076576233 0.23407475650310516
0.62942004203796387 0.40146350860595703 0.23689961433410645
0.6894758939743042 0.4210146963596344 0.24289768934249878
0.74613887071609497 0.44389763474464417 0.25294104218482971
0.30560985207557678 0.40238982439041138 0.30159386992454529
0.31196349859237671 0.3999975323677063 0.30045914649963379
0.32613927125930786 0.40184926986694336 0.30296942591667175
0.34961658716201782 0.40676775574684143 0.30706697702407837
0.38333562016487122 0.41364336013793945 0.31130796670913696
0.42591205239295959 0.42259114980697632 0.3144073486328125
0.47532001137733459 0.43333038687705994 0.31630423665046692
0.52860355377197266 0.44509857892990112 0.31660640239715576
0.58462905883789062 0.45761987566947937 0.31686300039291382
0.64210695028305054 0.47169601917266846 0.31828078627586365
0.69914913177490234 0.48761895298957825 0.32144594192504883
0.75249552726745605 0.50598603487014771 0.32694253325462341
0.80100721120834351 0.52701824903488159 0.3355981707572937
0.40308097004890442 0.50105541944503784 0.38546669483184814
0.40834277868270874 0.49891871213912964 0.38507965207099915
0.42090281844139099 0.50048613548278809 0.38799324631690979
0.44175669550895691 0.50477856397628784 0.3925231397151947
0.47289243340492249 0.51124566793441772 0.39732474088668823
0.51366251707077026 0.51977938413619995 0.40140068531036377
0.56181114912033081 0.52990090847015381 0.4042637050151825
0.61421859264373779 0.54098790884017944 0.40626713633537292
0.66836678981781006 0.55282121896743774 0.40773937106132507
0.72227448225021362 0.5659034252166748 0.40980541706085205
0.77305763959884644 0.58037179708480835 0.41272374987602234
0.81760823726654053 0.59689128398895264 0.41730818152427673
0.85570412874221802 0.61593067646026611 0.42418152093887329
0.5057450532913208 0.60685265064239502 0.4765230119228363
0.51115816831588745 0.60483843088150024 0.47636446356773376
0.52210092544555664 0.60603982210159302 0.47937160730361938
0.54143428802490234 0.60978788137435913 0.48407909274101257
0.57045525312423706 0.61591726541519165 0.48915404081344604
0.60904264450073242 0.62375736236572266 0.49376088380813599
0.65503549575805664 0.63309347629547119 0.49772369861602783
0.70512497425079346 0.64331233501434326 0.50085622072219849
0.75544601678848267 0.65404278039932251 0.50325363874435425
0.80314356088638306 0.66547024250030518 0.50533133745193481
0.8452221155166626 0.6781466007232666 0.50791096687316895
0.8782920241355896 0.69247925281524658 0.51106733083724976
0.90480488538742065 0.70872503519058228 0.51596063375473022
0.61222976446151733 0.71746331453323364 0.57248753309249878
0.6178092360496521 0.71550565958023071 0.57220697402954102
0.62805914878845215 0.71626573801040649 0.57502067089080811
0.6456494927406311 0.71948862075805664 0.57970559597015381
0.67211204767227173 0.72516852617263794 0.58478224277496338
0.70786362886428833 0.73244172334671021 0.58967667818069458
0.75092828273773193 0.74100196361541748 0.59424632787704468
0.79675453901290894 0.75020581483840942 0.5981101393699646
0.84092849493026733 0.75947767496109009 0.60103809833526611
0.87935954332351685 0.76892483234405518 0.60271543264389038
0.90913742780685425 0.77921104431152344 0.60458910465240479
0.92942321300506592 0.7909618616104126 0.60577952861785889
0.94520109891891479 0.80467116832733154 0.60910642147064209
0.72086435556411743 0.83067178726196289 0.67101562023162842
0.72644531726837158 0.82842409610748291 0.67070192098617554
0.73586362600326538 0.82906371355056763 0.6728435754776001
0.75141394138336182 0.83186620473861694 0.67710846662521362
0.77513927221298218 0.83677756786346436 0.68214839696884155
0.8075183629989624 0.84331947565078735 0.68698936700820923
0.84572023153305054 0.85089433193206787 0.69174587726593018
0.88552498817443848 0.85910427570343018 0.69615983963012695
0.92159843444824219 0.86703544855117798 0.6992071270942688
0.94907635450363159 0.87458854913711548 0.70031833648681641
0.96610981225967407 0.88241899013519287 0.700958251953125
0.97481149435043335 0.89145755767822266 0.70112228393554688
0.98224478960037231 0.90264767408370972 0.7028922438621521
0.00041773178963921964 0.0032396952155977488 0.042211778461933136
0.01285108644515276 0.0017117069801315665 0.033202212303876877
0.035069454461336136 0.0022971658036112785 0.023814810439944267
0.062194615602493286 0.0043501909822225571 0.015303727239370346
0.093497633934020996 0.0066411634907126427 0.0087246615439653397
0.12866388261318207 0.0092630572617053986 0.0040102489292621613
0.16936786472797394 0.013371352106332779 0.0017921896651387215
0.21557646989822388 0.020814064890146255 0.0012276293709874153
0.26845157146453857 0.032518051564693451 0.001550831482745707
0.32741054892539978 0.048573363572359085 0.002917315810918808
0.39135763049125671 0.07056928426027298 0.0063251419924199581
0.45855337381362915 0.096171587705612183 0.013447226956486702
0.52710860967636108 0.1249808669090271 0.024490132927894592
0 0.016418157145380974 0.043147757649421692
0.0078029707074165344 0.014119272120296955 0.034956734627485275
0.02963021956384182 0.015341171994805336 0.027397319674491882
0.057571277022361755 0.01895294152200222 0.020823234692215919
0.090948976576328278 0.023109914734959602 0.015318403020501137
0.12852394580841064 0.027399444952607155 0.011233475990593433
0.17191193997859955 0.033189870417118073 0.0083218896761536598
0.22042039036750793 0.041354924440383911 0.0071223392151296139
0.27469140291213989 0.053307998925447464 0.0074218451045453548
0.33498501777648926 0.069797977805137634 0.0091232750564813614
0.40011504292488098 0.09110686182975769 0.012791696935892105
0.46816951036453247 0.11664732545614243 0.019321411848068237
0.53755837678909302 0.14559973776340485 0.030071243643760681
0.00012344658898655325 0.037030868232250214 0.048449452966451645
0.0087494049221277237 0.035071354359388351 0.041569489985704422
0.029840387403964996 0.037190202623605728 0.03627236932516098
0.058785967528820038 0.041469365358352661 0.031697981059551239
0.094569861888885498 0.047164559364318848 0.027592917904257774
0.13567954301834106 0.053483821451663971 0.02405700646340847
0.18200752139091492 0.061146605759859085 0.021662753075361252
0.23309916257858276 0.070701807737350464 0.019801823422312737
0.28903630375862122 0.082870379090309143 0.019754761829972267
0.34960860013961792 0.098811715841293335 0.0214551892131567
0.41513758897781372 0.11927777528762817 0.02415415458381176
0.48373359441757202 0.14392974972724915 0.029828913509845734
0.55318230390548706 0.1724812388420105 0.040121428668498993
0.0075571397319436073 0.0682334303855896 0.062774032354354858
0.018945597112178802 0.067209921777248383 0.05741589143872261
0.039766751229763031 0.070629611611366272 0.054385241121053696
0.069726191461086273 0.075472377240657806 0.051586706191301346
0.10768431425094604 0.081706851720809937 0.048679620027542114
0.15181019902229309 0.089658729732036591 0.045891899615526199
0.20127907395362854 0.099242113530635834 0.043253835290670395
0.25488537549972534 0.11030866205692291 0.040793787688016891
0.3117680549621582 0.12255365401506424 0.040375668555498123
0.37265205383300781 0.13777627050876617 0.041677810251712799
0.43797588348388672 0.15684251487255096 0.043623771518468857
0.50650590658187866 0.18028703331947327 0.048345260322093964
0.57563650608062744 0.20791421830654144 0.057673092931509018
0.031077051535248756 0.11208303272724152 0.089136816561222076
0.041771158576011658 0.11164848506450653 0.08498738706111908
0.062316879630088806 0.11562258005142212 0.083787433803081512
0.093083731830120087 0.12092892825603485 0.082980647683143616
0.13260354101657867 0.12778119742870331 0.081524595618247986
0.17903773486614227 0.13676196336746216 0.079404927790164948
0.23068264126777649 0.14761878550052643 0.076678961515426636
