assets/lut/toddblankenship coldchrome.cube
# Created by: G'MIC (https://gmic.eu)
TITLE "coldchrome"
# LUT size
LUT_3D_SIZE 13
# Data domain
DOMAIN_MIN 0.0 0.0 0.0
DOMAIN_MAX 1.0 1.0 1.0
# LUT data points
0.035133033990859985 0.025782341137528419 0.022122357040643692
0.15174412727355957 0.015029593370854855 0.011006852611899376
0.29155677556991577 0.0045039905235171318 0.0042474782094359398
0.44677945971488953 0.0014019685331732035 0
0.60240596532821655 0.0012823665747419 0.00060053804190829396
0.75005745887756348 0.0020583209116011858 0.0027804055716842413
0.88662362098693848 0.0013358471915125847 0.00030007454915903509
0.97588199377059937 0.00040800805436447263 0
0.99922364950180054 9.3347889560391195e-06 0
1 0.0008373035816475749 0
1 0.0043410654179751873 0
1 0.0071682948619127274 0
1 0.0064289020374417305 0
0.023251162841916084 0.1219986230134964 0.011654064990580082
0.10127945244312286 0.095945172011852264 0.0040784501470625401
0.19995738565921783 0.072184003889560699 0.00095458683790639043
0.3170853853225708 0.053590033203363419 0
0.43730562925338745 0.044125322252511978 0.00084168679313734174
0.55417823791503906 0.035052865743637085 0.0037362640723586082
0.68151289224624634 0.027807094156742096 0.00087978888768702745
0.82062077522277832 0.020156875252723694 0
0.93775582313537598 0.017015375196933746 0
0.99424970149993896 0.029126934707164764 3.4227559808641672e-05
1 0.04175904393196106 0.00023123048595152795
1 0.045498013496398926 0
1 0.040749449282884598 0
0.025664864107966423 0.22123792767524719 0.010502190329134464
0.085567384958267212 0.18929645419120789 0.0020986669696867466
0.16637760400772095 0.16621722280979156 2.4055032554315403e-05
0.26188898086547852 0.14948733150959015 0
0.35406529903411865 0.13857166469097137 0.00028043260681442916
0.44273951649665833 0.1282949298620224 0.0021150924731045961
0.548534095287323 0.11540720611810684 0.00044672348303720355
0.67809766530990601 0.10446161031723022 0
0.81589072942733765 0.096811644732952118 0
0.93831092119216919 0.10390461981296539 9.4709212135057896e-05
0.99665254354476929 0.11285319924354553 0.00090391869889572263
1 0.11355891823768616 8.3429673395585269e-05
1 0.10357725620269775 0
0.029579088091850281 0.32015794515609741 0.008807104080915451
0.085765033960342407 0.28582349419593811 0.00060333550209179521
0.1614924818277359 0.25748553872108459 0
0.24733720719814301 0.23652911186218262 0
0.33082136511802673 0.2244010716676712 0
0.41299748420715332 0.22005544602870941 7.7400953159667552e-05
0.50364404916763306 0.21665112674236298 6.6704844357445836e-05
0.61120492219924927 0.2118307501077652 0
0.73544847965240479 0.20515511929988861 0
0.86133795976638794 0.20536907017230988 0
0.95866167545318604 0.20906716585159302 0
0.99709761142730713 0.20793509483337402 0
1 0.19611217081546783 0
0.032449189573526382 0.42409664392471313 0.0036431555636227131
0.091752313077449799 0.39208528399467468 3.0517578579747351e-06
0.16780087351799011 0.36163163185119629 0
0.2493063360452652 0.33232039213180542 0
0.32962238788604736 0.31203562021255493 0
0.4114738404750824 0.30382683873176575 0
0.49774345755577087 0.30279368162155151 2.7286305339657702e-05
0.5906187891960144 0.3043326735496521 9.1911766503471881e-05
0.69552898406982422 0.3056509792804718 4.8828125727595761e-05
0.80568152666091919 0.3078005313873291 0
0.90824741125106812 0.31146061420440674 0
0.98077470064163208 0.31196257472038269 0
1 0.30232411623001099 0
0.03327593207359314 0.53478109836578369 0.00044067981070838869
0.09736015647649765 0.50660997629165649 0
0.1738470196723938 0.47595751285552979 0
0.25385460257530212 0.44016548991203308 0
0.33294910192489624 0.41174820065498352 0
0.4142601490020752 0.39533740282058716 0
0.5009685754776001 0.39074164628982544 0.00099201581906527281
0.59332424402236938 0.39416736364364624 0.0035471448209136724
0.68954217433929443 0.40023133158683777 0.0030061460565775633
0.789722740650177 0.40651699900627136 0.0013239393010735512
0.89231240749359131 0.41159507632255554 0.0012737199431285262
0.97619706392288208 0.412636399269104 0.0022617713548243046
1 0.40550348162651062 0.00081740733003243804
0.0295588169246912 0.6513831615447998 0
0.095036014914512634 0.62200391292572021 0
0.17089156806468964 0.59070491790771484 0
0.25197815895080566 0.55700641870498657 0
0.33506187796592712 0.52468043565750122 0
0.4199461042881012 0.50013995170593262 0.00047574509517289698
0.50941115617752075 0.48960033059120178 0.0042629917152225971
0.60324263572692871 0.49093317985534668 0.010077383369207382
0.69821125268936157 0.49712851643562317 0.0088632022961974144
0.79497319459915161 0.50375545024871826 0.0042096604593098164
0.89507830142974854 0.50903773307800293 0.0030862996354699135
0.9803658127784729 0.50883203744888306 0.0071078133769333363
1 0.50284868478775024 0.0069535649381577969
0.023622086271643639 0.77941888570785522 0
0.088936075568199158 0.74680298566818237 0
0.1639585942029953 0.71484833955764771 0
0.24782928824424744 0.68648278713226318 0
0.33629125356674194 0.65258264541625977 6.3189341744873673e-05
0.4267541766166687 0.61903953552246094 0.0019304911838844419
0.5191417932510376 0.60108447074890137 0.0075268913060426712
0.6127353310585022 0.59551423788070679 0.0126292509958148
0.70675599575042725 0.59588462114334106 0.010472256690263748
0.80278688669204712 0.59998017549514771 0.0046510584652423859
0.8996586799621582 0.60357809066772461 0.0027872722130268812
0.98212701082229614 0.60205566883087158 0.0083700446411967278
1 0.59637665748596191 0.012018331326544285
0.024105729535222054 0.92200762033462524 7.3960247391369194e-05
0.090376943349838257 0.8835635781288147 0.00016964183305390179
0.16355541348457336 0.85288584232330322 1.4361213516167481e-06
0.24688547849655151 0.82936215400695801 0
0.33903530240058899 0.79463356733322144 1.1488970812933985e-05
0.43321555852890015 0.75602275133132935 0.00096556718926876783
0.5270804762840271 0.72882509231567383 0.0046679629012942314
0.61954659223556519 0.71020728349685669 0.0083687277510762215
0.71253079175949097 0.69827115535736084 0.0074916617013514042
0.80919033288955688 0.69656121730804443 0.00498224887996912
0.90413028001785278 0.69674193859100342 0.0060095693916082382
0.98167747259140015 0.69350838661193848 0.010446346364915371
1 0.6891208291053772 0.013337423093616962
0.039090055972337723 0.99823296070098877 0.0045850416645407677
0.10726623237133026 0.98706084489822388 0.0050075454637408257
0.17723958194255829 0.97353434562683105 0.0019215004285797477
0.25530466437339783 0.95973187685012817 0.00010927985567832366
0.34572657942771912 0.93112581968307495 0
0.43993782997131348 0.896567702293396 0
0.5340467095375061 0.86334174871444702 0.00046431596274487674
0.62596237659454346 0.83197021484375 0.0011344760423526168
0.71767830848693848 0.80774253606796265 0.00066736259032040834
0.81310504674911499 0.79939240217208862 0.0029342651832848787
0.90627413988113403 0.79387533664703369 0.008412439376115799
0.98147958517074585 0.78629463911056519 0.012492385692894459
1 0.78247374296188354 0.014572263695299625
0.065830603241920471 1 0.024313518777489662
0.13496153056621552 1 0.024367028847336769
0.20320354402065277 1 0.017501756548881531
0.27532777190208435 0.99998384714126587 0.0044065141119062901
0.3573639988899231 0.99859780073165894 1.077091019396903e-05
0.44618374109268188 0.99067986011505127 0
0.53881651163101196 0.9725300669670105 0
0.63072985410690308 0.94337368011474609 0
0.72153943777084351 0.91749852895736694 1.4361213516167481e-06
0.81266951560974121 0.90466594696044922 0.0024430069606751204
0.90146815776824951 0.89380991458892822 0.0094644883647561073
0.9744102954864502 0.88214921951293945 0.011772245168685913
0.99990701675415039 0.87960630655288696 0.012913333252072334
0.094985991716384888 1 0.047355815768241882
0.16283471882343292 1 0.04351532831788063
0.22831910848617554 1 0.031633682548999786
0.2950187623500824 1 0.010611515492200851
0.3678022027015686 1 0.00025114172603935003
0.44890230894088745 1 0
0.5372084379196167 1 0
0.62778240442276001 0.99837231636047363 0
0.71766287088394165 0.9916948676109314 0.00040528539102524519
0.80629026889801025 0.98564207553863525 0.0040990640409290791
0.89197719097137451 0.9761664867401123 0.007314764428883791
0.96207839250564575 0.9631839394569397 0.0057736118324100971
0.99707174301147461 0.96277213096618652 0.0083684884011745453
0.11861974745988846 1 0.062358811497688293
0.18346993625164032 1 0.05391361191868782
0.24493575096130371 1 0.03788776695728302
0.30698183178901672 1 0.014278247021138668
0.37332317233085632 1 0.00086020672461017966
0.44808390736579895 1 0
0.53129690885543823 1 0
0.62040936946868896 1 0
0.71058923006057739 1 0.00029027601704001427
0.80027323961257935 1 0.0013265273300930858
0.8862149715423584 0.99995404481887817 0.00088517431868240237
0.95675605535507202 0.99809998273849487 0.00016605152632109821
0.99415642023086548 0.99805200099945068 0.0031642690300941467
0.017675302922725677 0.018313823267817497 0.096191003918647766
0.11418396979570389 0.0080525120720267296 0.074726372957229614
0.26784524321556091 0.00083465577336028218 0.048935744911432266
0.46566832065582275 0 0.016971243545413017
0.68303030729293823 0 0.00062076345784589648
0.87280839681625366 0 8.5763371316716075e-05
0.97935688495635986 0 1.1668486195048899e-06
0.99959045648574829 0 0
1 0 0
1 6.7677217884920537e-05 0
1 0.0018920748261734843 0
1 0.0020341312047094107 0
1 0.00032656799885444343 0
0.0069101820699870586 0.090930759906768799 0.078952774405479431
0.05734589695930481 0.053831767290830612 0.045036613941192627
0.1593613475561142 0.028008360415697098 0.018919298425316811
0.30921229720115662 0.015606210567057133 0.0017968720057979226
0.47522446513175964 0.0096485661342740059 0
0.62418794631958008 0.0042379489168524742 0.00032864738022908568
0.77465629577636719 0.0035517823416739702 0.00016645544383209199
0.91484451293945312 0.0040140040218830109 0.00091678393073379993
0.98653393983840942 0.0058941561728715897 0
0.99981564283370972 0.019867841154336929 0
1 0.034447479993104935 0
1 0.031889688223600388 0
1 0.016498580574989319 0
0.0073368893936276436 0.18065197765827179 0.066555410623550415
0.037309128791093826 0.13108573853969574 0.032110162079334259
0.10243500024080276 0.10198404639959335 0.013058695942163467
0.20510956645011902 0.086574718356132507 0.0022354426328092813
0.32619175314903259 0.079381652176380157 6.5822227952594403e-06
0.44087973237037659 0.077480748295783997 2.5880102839437313e-05
0.56466341018676758 0.07602393627166748 7.9884248407324776e-06
0.71433991193771362 0.075305119156837463 0.00019502827490214258
0.86641937494277954 0.079379186034202576 0
0.96995532512664795 0.097864590585231781 0
0.99951499700546265 0.1103101521730423 0
1 0.10125705599784851 0
1 0.0735749751329422 0
0.0087475795298814774 0.27439922094345093 0.052952814847230911
0.037487268447875977 0.22066669166088104 0.019913392141461372
0.095204479992389679 0.18463459610939026 0.0092083504423499107
0.17287389934062958 0.16562996804714203 0.0045368121936917305
0.26329532265663147 0.16343887150287628 0.0017616122495383024
0.35975074768066406 0.17309221625328064 0.0013168185250833631
0.4665130078792572 0.18262498080730438 0.0016790053341537714
0.59204095602035522 0.18992879986763 0.0019914216827601194
0.73664981126785278 0.19900964200496674 0.0025099362246692181
0.87590712308883667 0.20947031676769257 0.0039364085532724857
0.97032850980758667 0.21570868790149689 0.0026026556733995676
0.99850916862487793 0.20714950561523438 0.0003681556845549494
0.99997216463088989 0.17853628098964691 0
0.0086095472797751427 0.37365201115608215 0.033987171947956085
0.043569155037403107 0.32199880480766296 0.0057938219979405403
0.10870407521724701 0.28531193733215332 0.0018745422130450606
0.18633650243282318 0.25977471470832825 0.0016130035510286689
0.26339146494865417 0.24930921196937561 0.0034292931668460369
0.34744173288345337 0.25595805048942566 0.0065043880604207516
0.44671204686164856 0.26971867680549622 0.012739039026200771
0.55759501457214355 0.28518077731132507 0.020140852779150009
0.67637354135513306 0.3020053505897522 0.023572046309709549
0.7975040078163147 0.31453117728233337 0.022775357589125633
0.91165256500244141 0.32088619470596313 0.019439846277236938
0.98605459928512573 0.31852686405181885 0.012787972576916218
1 0.30009981989860535 0.00194549560546875
0.014213412068784237 0.48960259556770325 0.020596567541360855
0.060863718390464783 0.44367459416389465 0.0041380338370800018
0.13002954423427582 0.40591013431549072 0.0015017939731478691
0.20923782885074615 0.37450951337814331 0.0016498640179634094
0.28414073586463928 0.35452371835708618 0.0048806136474013329
0.36421951651573181 0.35025915503501892 0.011275122873485088
0.45960900187492371 0.36024343967437744 0.02435201033949852
0.56524980068206787 0.37797313928604126 0.040889367461204529
0.67129260301589966 0.39721548557281494 0.048550684005022049
0.77710169553756714 0.41267699003219604 0.049650918692350388
0.8929029107093811 0.42068973183631897 0.04827442392706871
0.98322963714599609 0.4201294481754303 0.042038366198539734
1 0.40820610523223877 0.021682066842913628
0.019093068316578865 0.61937671899795532 0.012844250537455082
0.074601225554943085 0.57571899890899658 0.0075381258502602577
0.14623762667179108 0.53676503896713257 0.0066373040899634361
0.22710599005222321 0.50376749038696289 0.0079013155773282051
0.30785202980041504 0.47756519913673401 0.013539841398596764
0.39192205667495728 0.46363344788551331 0.02360115759074688
0.48581463098526001 0.46619659662246704 0.038573469966650009
0.58720678091049194 0.48074251413345337 0.054710701107978821
0.68737000226974487 0.49795204401016235 0.062446519732475281
0.78722536563873291 0.51197481155395508 0.060572903603315353
0.89368349313735962 0.51902681589126587 0.056215442717075348
0.98222815990447998 0.51688742637634277 0.055194437503814697
1 0.50634855031967163 0.043972764164209366
0.020135708153247833 0.76325064897537231 0.017603002488613129
0.082392044365406036 0.71609723567962646 0.016103856265544891
0.1580018550157547 0.67465513944625854 0.014438224956393242
0.24334803223609924 0.64304369688034058 0.01526317186653614
0.33106222748756409 0.61395907402038574 0.023803487420082092
0.41996708512306213 0.59216344356536865 0.036265712231397629
0.51300621032714844 0.58602237701416016 0.048790320754051208
0.60985225439071655 0.59187209606170654 0.059715811163187027
0.7054753303527832 0.60159671306610107 0.064019300043582916
0.80062973499298096 0.610526442527771 0.05979219451546669
0.89728504419326782 0.61440896987915039 0.054102685302495956
0.98097825050354004 0.60985320806503296 0.05834585428237915
1 0.59905356168746948 0.054965060204267502
0.024878228083252907 0.91524863243103027 0.029077237471938133
0.09525579959154129 0.86129426956176758 0.027862219139933586
0.17348906397819519 0.81780469417572021 0.01792481355369091
0.26016992330551147 0.78857922554016113 0.016185984015464783
0.35077348351478577 0.75988888740539551 0.025922155007719994
0.44145289063453674 0.73474806547164917 0.036186188459396362
0.53327852487564087 0.71893107891082764 0.04554373025894165
0.62640392780303955 0.71081101894378662 0.050933133810758591
0.71915042400360107 0.70762526988983154 0.053656917065382004
0.81229335069656372 0.7083783745765686 0.057282991707324982
0.90422689914703369 0.70689475536346436 0.060947105288505554
0.98088574409484863 0.70004963874816895 0.064116731286048889
1 0.6900133490562439 0.060822237282991409
0.041883133351802826 0.99750471115112305 0.05063214898109436
0.12108659744262695 0.9742094874382019 0.052011482417583466
0.20010936260223389 0.94196993112564087 0.034339621663093567
0.28094673156738281 0.92038935422897339 0.023138277232646942
0.36674320697784424 0.90001267194747925 0.022103358060121536
0.45440924167633057 0.87963449954986572 0.021749667823314667
0.54472309350967407 0.85632205009460449 0.03013082779943943
0.63674986362457275 0.83375990390777588 0.0325457863509655
0.7289314866065979 0.8171800971031189 0.031816564500331879
0.82025635242462158 0.80922049283981323 0.047052167356014252
0.90804338455200195 0.80171889066696167 0.062534034252166748
0.97964423894882202 0.7915155291557312 0.066368237137794495
1 0.78204143047332764 0.062201764434576035
0.067521162331104279 1 0.085344664752483368
0.15102140605449677 0.99990290403366089 0.089354254305362701
0.22993329167366028 0.99777942895889282 0.076133191585540771
0.30248600244522095 0.99459570646286011 0.049542713910341263
0.37739676237106323 0.99134916067123413 0.021166184917092323
0.45851776003837585 0.98527878522872925 0.0094222426414489746
0.54676079750061035 0.96712929010391235 0.01791992224752903
0.63860267400741577 0.94212168455123901 0.022695429623126984
0.73074978590011597 0.92078906297683716 0.022156570106744766
0.82032018899917603 0.90848851203918457 0.041161928325891495
0.90599328279495239 0.89669442176818848 0.05949750542640686
0.97412949800491333 0.88391351699829102 0.062966108322143555
0.99986499547958374 0.87529724836349487 0.059280246496200562
0.092206276953220367 1 0.11378712207078934
0.17236495018005371 1 0.11439292877912521
0.24649101495742798 1 0.099608145654201508
0.31322452425956726 1 0.066414490342140198
0.38000571727752686 1 0.027743574231863022
0.45446419715881348 1 0.010271124541759491
0.53939950466156006 0.99997627735137939 0.014783432707190514
0.63059604167938232 0.99748367071151733 0.023288263007998466
0.72267401218414307 0.99109596014022827 0.029550934210419655
0.81276923418045044 0.98416072130203247 0.042115528136491776
0.8987388014793396 0.97308349609375 0.050517916679382324
0.96768069267272949 0.95959246158599854 0.048774044960737228
0.99899381399154663 0.95441746711730957 0.049273442476987839
0.1105722188949585 1 0.12929911911487579
0.18414519727230072 1 0.12276807427406311
0.25205212831497192 1 0.10369493067264557
0.31438568234443665 1 0.069812387228012085
0.37637662887573242 1 0.032568465918302536
0.44576883316040039 1 0.011742595583200455
0.52794176340103149 1 0.011357625015079975
0.61887770891189575 1 0.019406411796808243
0.71201628446578979 1 0.027931677177548409
0.80443942546844482 1 0.034041132777929306
0.89353024959564209 0.99980860948562622 0.031769260764122009
0.96670353412628174 0.99618357419967651 0.024799302220344543
0.99902802705764771 0.99516618251800537 0.033730033785104752
0.0091103501617908478 0.011476329527795315 0.17004017531871796
0.069765262305736542 0.0069385305978357792 0.13383956253528595
0.19134068489074707 0.002186883706599474 0.11629784107208252
0.38004177808761597 0.000120514516311232 0.085819542407989502
0.61708825826644897 0 0.035385102033615112
0.85309493541717529 0 0.0077320472337305546
0.99213534593582153 0 3.5005457903025672e-05
1 0 0
1 0 0
1 9.3976188509259373e-05 0
1 0.0020173017401248217 0
1 0.0010882209753617644 0
1 0 0
0.00090729957446455956 0.075946152210235596 0.1594393253326416
0.028734693303704262 0.041468046605587006 0.10720288008451462
0.11180892586708069 0.021130580455064774 0.069666378200054169
0.2654518187046051 0.0097773978486657143 0.029926419258117676
0.4725680947303772 0.0011213863035663962 0.0021588492672890425
0.67604988813400269 0.0014543122379109263 6.8814147198281717e-06
0.87258923053741455 0.0037922579795122147 0.00011049158638343215
0.98141771554946899 0.00063053204212337732 0.00063473568297922611
0.99972540140151978 0.00091409124433994293 0
1 0.014897873625159264 0
1 0.0303192138671875 0
1 0.0218021459877491 0
1 0.002667341148480773 0
0.00013966279220767319 0.1591183990240097 0.14524577558040619
0.011601990088820457 0.10199850052595139 0.091334745287895203
0.059512779116630554 0.070676974952220917 0.060922868549823761
0.15752312541007996 0.056997127830982208 0.034292317926883698
0.31765201687812805 0.043751031160354614 0.0049846125766634941
0.48257580399513245 0.047887299209833145 3.4407072234898806e-05
0.64709746837615967 0.056330393999814987 5.4452932090498507e-05
0.80938625335693359 0.053441230207681656 0.0012074639089405537
0.9381335973739624 0.062120296061038971 0.002540528541430831
0.99305951595306396 0.092708438634872437 0.0038131114561110735
1 0.10656686127185822 0.0024970408994704485
1 0.084847532212734222 0.00031863941694609821
1 0.03571542352437973 0
0.00012799430987797678 0.24291305243968964 0.1254364401102066
0.0084423143416643143 0.17811529338359833 0.074700601398944855
0.047909561544656754 0.13836351037025452 0.056243956089019775
0.11248846352100372 0.12132939696311951 0.04580090194940567
0.21619027853012085 0.11996406316757202 0.025567611679434776
0.34894624352455139 0.1339695006608963 0.013269491493701935
0.49041718244552612 0.15578407049179077 0.017663648352026939
0.63074219226837158 0.17734996974468231 0.029853940010070801
0.77719676494598389 0.19948306679725647 0.040603082627058029
0.91721409559249878 0.21713964641094208 0.046250615268945694
0.99042844772338867 0.2209685891866684 0.03645942360162735
0.99989932775497437 0.19743660092353821 0.014412285760045052
0.9983065128326416 0.14591553807258606 0.0022418303415179253
0.00021538828150369227 0.33596208691596985 0.10569191724061966
0.013433493673801422 0.27222627401351929 0.056011617183685303
0.062497008591890335 0.23116309940814972 0.042362138628959656
0.12707555294036865 0.20675459504127502 0.041084453463554382
0.2022038996219635 0.199546217918396 0.042873218655586243
0.3054269552230835 0.21776755154132843 0.045044947415590286
0.43062704801559448 0.24954916536808014 0.061201807111501694
0.55688285827636719 0.28329148888587952 0.09064706414937973
0.68510299921035767 0.31338399648666382 0.10955148190259933
0.81952106952667236 0.33115255832672119 0.11232003569602966
0.94070416688919067 0.33265355229377747 0.096651442348957062
0.99700462818145752 0.3175177276134491 0.063325144350528717
0.99947112798690796 0.28572693467140198 0.023401731625199318
0.0061092302203178406 0.45003920793533325 0.094007231295108795
0.036877397447824478 0.39479309320449829 0.05597769096493721
0.094851896166801453 0.35405710339546204 0.043141532689332962
0.16594311594963074 0.32584467530250549 0.044649776071310043
0.23712305724620819 0.31188201904296875 0.055283296853303909
0.32470011711120605 0.31962177157402039 0.068732365965843201
0.43536558747291565 0.34601449966430664 0.092980042099952698
0.55266797542572021 0.38155728578567505 0.1266954243183136
0.66631287336349487 0.41219177842140198 0.14866194128990173
0.78270655870437622 0.43055415153503418 0.15703070163726807
0.91192901134490967 0.43329030275344849 0.14651980996131897
0.99449872970581055 0.42277559638023376 0.11753043532371521
1 0.40191295742988586 0.070697054266929626
0.014587567187845707 0.58111655712127686 0.090551801025867462
0.062008757144212723 0.53509336709976196 0.068544633686542511
0.12989035248756409 0.49614965915679932 0.061389189213514328
0.20934650301933289 0.46615046262741089 0.066787451505661011
0.2880251407623291 0.44663318991661072 0.080296382308006287
0.37326419353485107 0.4435768723487854 0.096799366176128387
0.47359830141067505 0.4598410427570343 0.11968838423490524
0.58193570375442505 0.48857766389846802 0.14746035635471344
0.68563163280487061 0.51469987630844116 0.16626030206680298
0.79033064842224121 0.52948790788650513 0.17092552781105042
0.90315645933151245 0.5322878360748291 0.16184532642364502
0.98766672611236572 0.52323740720748901 0.13988801836967468
1 0.50516939163208008 0.10527237504720688
0.020458655431866646 0.7263416051864624 0.1017172709107399
0.081827916204929352 0.68448448181152344 0.089712180197238922
0.16146881878376007 0.64339369535446167 0.086259730160236359
0.25158205628395081 0.61041629314422607 0.093626417219638824
0.33879023790359497 0.58791273832321167 0.10818692296743393
0.4244726300239563 0.57925939559936523 0.12358572334051132
0.51703900098800659 0.58593225479125977 0.13950228691101074
0.61514699459075928 0.60317385196685791 0.15644073486328125
0.71045094728469849 0.61974537372589111 0.16898927092552185
0.80473232269287109 0.62909531593322754 0.17230045795440674
0.90205150842666626 0.62811386585235596 0.16592082381248474
0.98265820741653442 0.61733806133270264 0.14951266348361969
1 0.59980756044387817 0.12461872398853302
0.027231613174080849 0.88189613819122314 0.119515061378479
