assets/lut/toddblankenship longbeachmorning.cube
# Created by: G'MIC (https://gmic.eu)
TITLE "longbeachmorning"
# LUT size
LUT_3D_SIZE 5
# Data domain
DOMAIN_MIN 0.0 0.0 0.0
DOMAIN_MAX 1.0 1.0 1.0
# LUT data points
0.019076120108366013 0.017714796587824821 0.015885954722762108
0.23752862215042114 0.0001026826721499674 0.0015678555937483907
0.48476454615592957 0 0
0.8328481912612915 0 0.00079637416638433933
1 0 0
0.0015507417265325785 0.23307360708713531 0.0044751483947038651
0.24316868185997009 0.22882989048957825 0
0.54825884103775024 0.1512150764465332 0
0.9064105749130249 0.067505732178688049 0
1 0.059182021766901016 0
0.0060974271036684513 0.4783724844455719 0
0.1689426600933075 0.48108723759651184 0
0.5840601921081543 0.51598596572875977 0
1 0.45821872353553772 0.0016784818144515157
1 0.33139762282371521 7.4678311648312956e-05
0.005026708822697401 0.81261539459228516 9.1014189820270985e-05
0.12092732638120651 0.83865702152252197 0
0.49399206042289734 0.88219928741455078 0.00068494013976305723
0.99427372217178345 0.88507384061813354 0
0.99902385473251343 0.72268855571746826 0.0001962250389624387
0.0044079502113163471 1 0.00012640860222745687
0.12155167758464813 1 0
0.42478799819946289 1 0
0.84965676069259644 0.99994432926177979 0
0.99943834543228149 0.99105322360992432 0
0.00050193938659504056 0.0018783269915729761 0.23417569696903229
0.19488266110420227 0 0.20530152320861816
0.47935575246810913 0 0.15344108641147614
0.84490972757339478 1.0097727681568358e-05 0.095865614712238312
0.99947839975357056 0.0028270198963582516 0.024060493335127831
0 0.20322082936763763 0.20271170139312744
0.12895746529102325 0.12222456187009811 0.11309949308633804
0.48514553904533386 0.082148700952529907 0.079268708825111389
0.92296576499938965 0.024592021480202675 0.019808212295174599
1 0.016682703047990799 0.00015456255641765893
0 0.47881796956062317 0.15461860597133636
0.1075347438454628 0.46417665481567383 0.093843318521976471
0.52715790271759033 0.45427891612052917 0.0169551782310009
0.99428689479827881 0.35398015379905701 0
1 0.25284063816070557 0
0 0.84179651737213135 0.10352635383605957
0.025088291615247726 0.89097684621810913 0.025941722095012665
0.41671475768089294 0.87543421983718872 0.0036027347669005394
0.90192884206771851 0.7297738790512085 0.00081483431858941913
0.9989355206489563 0.62055808305740356 0.0047676386311650276
0 1 0.084932439029216766
0.021258290857076645 1 0.018140681087970734
0.33069145679473877 1 0.00057311711134389043
0.80654227733612061 1 0
0.99977582693099976 0.97090160846710205 0
0.011365927755832672 1.4002182979311328e-05 0.49187168478965759
0.16477525234222412 0 0.49662896990776062
0.47571325302124023 0.0017656363779678941 0.47534120082855225
0.86778944730758667 0 0.46104496717453003
1 0 0.41642764210700989
0 0.15018467605113983 0.47880971431732178
0.080962717533111572 0.085108526051044464 0.45940184593200684
0.43457490205764771 0.064264468848705292 0.4544089138507843
0.8855060338973999 0.0027004466392099857 0.40611016750335693
1 0 0.31850320100784302
0 0.47684729099273682 0.48154333233833313
0.058323834091424942 0.45547336339950562 0.45564010739326477
0.41692367196083069 0.40886551141738892 0.40303486585617065
0.92001897096633911 0.30716100335121155 0.30087372660636902
0.99955737590789795 0.18713690340518951 0.19168980419635773
0 0.8757631778717041 0.46309402585029602
0.009668043814599514 0.89098852872848511 0.40589675307273865
0.32398203015327454 0.86864155530929565 0.31591314077377319
0.82023781538009644 0.68905699253082275 0.14326238632202148
0.99984753131866455 0.51759397983551025 0.026077600196003914
0 1 0.41697019338607788
1.0501637007109821e-05 1 0.345863938331604
0.22883273661136627 1 0.24568063020706177
0.66449165344238281 0.99991238117218018 0.11391812562942505
0.99953204393386841 0.90890473127365112 0.00018454159726388752
0.0069196661934256554 0 0.85053831338882446
0.12327002733945847 0 0.86345255374908447
0.46049824357032776 0 0.86422759294509888
0.85710054636001587 1.8669577912078239e-05 0.86033487319946289
1 0.00023574828810524195 0.78032088279724121
0 0.093796990811824799 0.82903242111206055
0.023830099031329155 0.025041423738002777 0.90643656253814697
0.40738171339035034 0.020044185221195221 0.89219409227371216
0.75400686264038086 0.0047035966999828815 0.77079510688781738
1 0 0.7316240668296814
0.00021318922517821193 0.46420225501060486 0.87737041711807251
0.011828687973320484 0.41163700819015503 0.88195919990539551
0.32709118723869324 0.324959397315979 0.8627089262008667
0.72452890872955322 0.22872398793697357 0.73587548732757568
0.99997955560684204 0.12557712197303772 0.62415319681167603
0 0.86005687713623047 0.85696512460708618
0.0066247377544641495 0.75729691982269287 0.75550657510757446
0.23339894413948059 0.7319684624671936 0.73259866237640381
0.60705399513244629 0.59162431955337524 0.59151345491409302
0.98511141538619995 0.48119649291038513 0.48734632134437561
0 1 0.76316899061203003
0 1 0.74120026826858521
0.11785496771335602 0.99999678134918213 0.62713664770126343
0.51462715864181519 0.9557039737701416 0.52228164672851562
0.9847603440284729 0.81976640224456787 0.35235387086868286
0.0014342513168230653 0.00062231923220679164 0.99996966123580933
0.073807783424854279 0.00078703934559598565 1
0.39296945929527283 0.00081173767102882266 1
0.78516221046447754 0.010546246543526649 1
0.99059468507766724 0.0061739454977214336 0.98871368169784546
0 0.039852574467658997 0.9994691014289856
0.014180576428771019 0 1
0.31058034300804138 0 1
0.73294204473495483 3.6037668905919418e-05 1
0.99860250949859619 0.0063087013550102711 0.99303430318832397
0 0.41515019536018372 1
0 0.32443937659263611 0.99466335773468018
0.20935614407062531 0.2237527072429657 1
0.62212711572647095 0.10436305403709412 0.99878346920013428
0.99447691440582275 0.04311516135931015 0.97562044858932495
0 0.77375376224517822 1
0 0.73956871032714844 1
0.14121624827384949 0.6311296820640564 1
0.51611745357513428 0.52370500564575195 0.94941312074661255
0.93431532382965088 0.43272382020950317 0.94011026620864868
0 0.99955856800079346 0.99874472618103027
0 1 0.99725228548049927
0.015108205378055573 0.99440783262252808 0.99601644277572632
0.44498810172080994 0.92337608337402344 0.92365437746047974
0.92087793350219727 0.91412663459777832 0.9097130298614502
