assets/lut/toddblankenship naturalboost.cube
# Created by: G'MIC (https://gmic.eu)
TITLE "naturalboost"
# LUT size
LUT_3D_SIZE 5
# Data domain
DOMAIN_MIN 0.0 0.0 0.0
DOMAIN_MAX 1.0 1.0 1.0
# LUT data points
0.0089926328510046005 0.02132110670208931 0.026988834142684937
0.21089890599250793 3.4466913348296657e-05 0.017096994444727898
0.49847027659416199 0 0.0041635851375758648
0.82468515634536743 0.00056708842748776078 0.00013535443576984107
0.99791288375854492 0.00015674665337428451 0.0090720532462000847
0.025611637160181999 0.25900310277938843 0.0017997442046180367
0.20050197839736938 0.15533801913261414 8.6167283370741643e-06
0.48337206244468689 0.046042066067457199 0
0.9540330171585083 0.013391741551458836 0.00018708471907302737
0.9995502233505249 0.041988298296928406 2.1003274014219642e-05
0.036063101142644882 0.50312727689743042 0
0.25420036911964417 0.4539247453212738 0.0014840069925412536
0.57837176322937012 0.4027920663356781 0.0021683936938643456
0.99792689085006714 0.37538978457450867 0
0.99985963106155396 0.45206555724143982 0.00013418759044725448
0.022602126002311707 0.75693941116333008 2.1003274014219642e-05
0.2691386342048645 0.746837317943573 0
0.61801385879516602 0.75411844253540039 0.00058225746033713222
0.99832832813262939 0.8287397027015686 0
1 0.871956467628479 0
0.050111208111047745 0.98797762393951416 0.0019350239308550954
0.30948644876480103 0.99598753452301025 0
0.62739503383636475 1 0.0011841568630188704
0.98614543676376343 1 0.00064273906173184514
1 1 0.0041526048444211483
0.0026583203580230474 0.026476169005036354 0.28658232092857361
0.17338089644908905 0 0.26349928975105286
0.45921286940574646 0 0.25763288140296936
0.75271391868591309 0.001284490805119276 0.27356067299842834
0.99921411275863647 0 0.32236787676811218
0.00064906699117273092 0.28118285536766052 0.21832102537155151
0.14215518534183502 0.14689579606056213 0.153312087059021
0.47322136163711548 0.078878767788410187 0.12922559678554535
0.87450599670410156 0.079756401479244232 0.1778985857963562
1 0.10483971238136292 0.29100784659385681
0.001569590880535543 0.55899667739868164 0.1295439600944519
0.16482307016849518 0.46084627509117126 0.11668044328689575
0.5294806957244873 0.42512226104736328 0.1072339192032814
0.97256278991699219 0.45645681023597717 0.15015260875225067
1 0.50611841678619385 0.27218353748321533
0.00071049109101295471 0.85923153162002563 0.091410152614116669
0.19283616542816162 0.79366272687911987 0.11552366614341736
0.55504095554351807 0.78595525026321411 0.13516552746295929
0.96924740076065063 0.83399796485900879 0.156179279088974
0.99908691644668579 0.88244551420211792 0.24922226369380951
0.048534542322158813 1 0.11155901104211807
0.27060744166374207 1 0.13032817840576172
0.56158679723739624 1 0.15166586637496948
0.9095311164855957 0.99977225065231323 0.14949767291545868
1 1 0.16471683979034424
0.00054666853975504637 0.023402852937579155 0.56537115573883057
0.10572705417871475 0 0.55099588632583618
0.40348842740058899 0.0031669915188103914 0.56472682952880859
0.73004555702209473 0.0018095128471031785 0.60706043243408203
0.99922287464141846 2.8004365958622657e-05 0.6583673357963562
0 0.29152613878250122 0.52876651287078857
0.065246298909187317 0.1740664541721344 0.48689654469490051
0.4162755012512207 0.14811030030250549 0.50514858961105347
0.81090688705444336 0.15056139230728149 0.56378781795501709
1 0.15787903964519501 0.6302075982093811
0 0.61708182096481323 0.47482889890670776
0.08869481086730957 0.51274210214614868 0.46683543920516968
0.45964023470878601 0.47173267602920532 0.4869941771030426
0.86884355545043945 0.48673954606056213 0.5260322093963623
0.99911689758300781 0.50253051519393921 0.59966284036636353
0 0.93685567378997803 0.43018358945846558
0.14191274344921112 0.85507082939147949 0.45832639932632446
0.49676313996315002 0.80919533967971802 0.4789290726184845
0.87126684188842773 0.81474250555038452 0.49220976233482361
1 0.86668866872787476 0.65352576971054077
0.035348061472177505 1 0.42001068592071533
0.21818508207798004 1 0.45311939716339111
0.50560730695724487 1 0.46094408631324768
0.81788700819015503 1 0.45577344298362732
1 0.99966996908187866 0.4467795193195343
0 0.017299443483352661 0.83824634552001953
0.075861327350139618 0 0.86834031343460083
0.38000333309173584 0.0049803489819169044 0.90502190589904785
0.72942858934402466 0.0046479320153594017 0.92213594913482666
1 0.011792964302003384 0.95889651775360107
0 0.29735168814659119 0.85764175653457642
0.04699624702334404 0.21921081840991974 0.83832740783691406
0.39941039681434631 0.19934871792793274 0.84522432088851929
0.75922310352325439 0.17518392205238342 0.86678481101989746
1 0.17441241443157196 0.90939027070999146
0 0.65309804677963257 0.86023157835006714
0.072766311466693878 0.56630045175552368 0.84839200973510742
0.42045575380325317 0.5067865252494812 0.83726567029953003
0.7847324013710022 0.48098647594451904 0.83625394105911255
1 0.46931460499763489 0.86949634552001953
0.00015966377395670861 0.98654651641845703 0.82303059101104736
0.080141179263591766 0.89569747447967529 0.82428246736526489
0.43271452188491821 0.82484978437423706 0.81461519002914429
0.77120858430862427 0.77998632192611694 0.7913740873336792
0.99975228309631348 0.78693246841430664 0.85340124368667603
0.01166090089827776 1 0.77154457569122314
0.13156451284885406 1 0.77913868427276611
0.44273826479911804 1 0.7629246711730957
0.74498224258422852 0.99990969896316528 0.74283683300018311
0.99912351369857788 0.9994736909866333 0.72775429487228394
0.004286403302103281 0.043722175061702728 0.99560201168060303
0.12172085791826248 0.0091949459165334702 1
0.38745194673538208 0.022925103083252907 1
0.69492119550704956 0.011820490472018719 1
0.9770093560218811 0.015529857017099857 1
0.0035634958185255527 0.32173934578895569 1
0.11364617198705673 0.27325800061225891 1
0.3956027626991272 0.2517964243888855 1
0.72152119874954224 0.21946056187152863 1
0.99442893266677856 0.19718201458454132 1
0.00074920651968568563 0.6526215672492981 1
0.099107585847377777 0.58776998519897461 1
0.40041211247444153 0.52427315711975098 1
0.73181402683258057 0.48315685987472534 1
0.98953419923782349 0.44872671365737915 1
0 0.97566086053848267 1
0.049534741789102554 0.91272193193435669 0.99996441602706909
0.38132402300834656 0.80665260553359985 1
0.70920538902282715 0.74294763803482056 0.99986535310745239
0.97410166263580322 0.71131539344787598 0.99859619140625
0 1 1
0.075995668768882751 1 1
0.38277864456176758 1 1
0.6807740330696106 0.99789053201675415 0.99275141954421997
0.97046726942062378 0.97886174917221069 0.97446876764297485
