assets/lut/youssefhossam halloween dark.cube
# Created by: G'MIC (https://gmic.eu)
TITLE "hallowen_dark"
# LUT size
LUT_3D_SIZE 7
# Data domain
DOMAIN_MIN 0.0 0.0 0.0
DOMAIN_MAX 1.0 1.0 1.0
# LUT data points
0.0086746811866760254 0.0077205882407724857 0.0080194957554340363
0.049789953976869583 0.0047679226845502853 0.0063306773081421852
0.13262344896793365 0.00088082108413800597 0.00083381804870441556
0.25500345230102539 0 0
0.39067575335502625 0.00034000171581283212 0
0.5226173996925354 0.002497250447049737 0
0.64865976572036743 0.010469473898410797 0.0046191345900297165
0.009105428121984005 0.053897198289632797 0.0080632530152797699
0.056990470737218857 0.060894999653100967 0.011642157100141048
0.15438024699687958 0.056730426847934723 0.009914652444422245
0.29844680428504944 0.055390615016222 0.0039705764502286911
0.45561563968658447 0.059603344649076462 0.0018164541106671095
0.60408139228820801 0.069764427840709686 0.0047459769994020462
0.74105030298233032 0.086416251957416534 0.017282238230109215
0.0099217584356665611 0.14903946220874786 0.0053101484663784504
0.072564728558063507 0.16668839752674103 0.011557306163012981
0.18298225104808807 0.17845261096954346 0.016709690913558006
0.34157338738441467 0.18310444056987762 0.017661180347204208
0.51452893018722534 0.18644827604293823 0.016531670466065407
0.67561501264572144 0.19810390472412109 0.018535569310188293
0.82353085279464722 0.21335682272911072 0.026381203904747963
0.012368894182145596 0.30190029740333557 0.0083361910656094551
0.089607939124107361 0.33275997638702393 0.015268377959728241
0.20907142758369446 0.35812744498252869 0.024737473577260971
0.37124952673912048 0.37049520015716553 0.030468495562672615
0.55003803968429565 0.3772023618221283 0.031014475971460342
0.7200055718421936 0.3904382586479187 0.033292971551418304
0.87257462739944458 0.4105379581451416 0.042463071644306183
0.0131633086130023 0.50312530994415283 0.015917982906103134
0.10049233585596085 0.5401756763458252 0.025783194229006767
0.22700926661491394 0.56864285469055176 0.037423241883516312
0.39264702796936035 0.58093035221099854 0.043242808431386948
0.57366001605987549 0.58719444274902344 0.04352213442325592
0.74618613719940186 0.60163462162017822 0.046984653919935226
0.90033590793609619 0.62614041566848755 0.060276541858911514
0.023441165685653687 0.71569472551345825 0.030421627685427666
0.11856797337532043 0.75289911031723022 0.042970962822437286
0.25026139616966248 0.77732539176940918 0.054561778903007507
0.41842839121818542 0.78161633014678955 0.055941052734851837
0.5984073281288147 0.78191870450973511 0.054313808679580688
0.77016544342041016 0.78867030143737793 0.057231035083532333
0.9253583550453186 0.80229943990707397 0.070167034864425659
0.050241924822330475 0.91705191135406494 0.051623865962028503
0.15517847239971161 0.94562172889709473 0.062390886247158051
0.28957226872444153 0.96251225471496582 0.071122996509075165
0.45291680097579956 0.96339601278305054 0.071801222860813141
0.62717556953430176 0.95834589004516602 0.069607846438884735
0.79544419050216675 0.95540374517440796 0.071609020233154297
0.94956833124160767 0.95778286457061768 0.083407536149024963
0.0063363169319927692 0.0044868770055472851 0.048145130276679993
0.050913222134113312 0.0056355344131588936 0.048637107014656067
0.13296423852443695 0.0026020724326372147 0.038309298455715179
0.25741201639175415 0.00073529413202777505 0.019384227693080902
0.39615467190742493 0.0027984918560832739 0.0073241586796939373
0.52958071231842041 0.0076783872209489346 0.006395392119884491
0.65618818998336792 0.015836184844374657 0.018756072968244553
0.011520610190927982 0.05647239089012146 0.048270519822835922
0.061649709939956665 0.062739521265029907 0.05696430429816246
0.1575898677110672 0.060966357588768005 0.058130420744419098
0.30199903249740601 0.056199435144662857 0.049500290304422379
0.46224650740623474 0.061892148107290268 0.043484214693307877
0.6137995719909668 0.070663422346115112 0.04706573486328125
0.75055289268493652 0.087108537554740906 0.060999568551778793
0.011142266914248466 0.15565523505210876 0.046050593256950378
0.074943184852600098 0.17389732599258423 0.060663770884275436
0.18620046973228455 0.18722458183765411 0.071858875453472137
0.34673365950584412 0.19210334122180939 0.073760688304901123
0.52254951000213623 0.1964515894651413 0.073893934488296509
0.6870918869972229 0.20602352917194366 0.079121232032775879
0.83200562000274658 0.22440887987613678 0.093008406460285187
0.0097531341016292572 0.31436696648597717 0.053721781820058823
0.087035417556762695 0.34567850828170776 0.067552529275417328
0.21065431833267212 0.37075841426849365 0.084510073065757751
0.37886738777160645 0.38301992416381836 0.094086982309818268
0.56242090463638306 0.390462726354599 0.097422778606414795
0.73424446582794189 0.40400519967079163 0.10246208310127258
0.88404232263565063 0.4250238835811615 0.11561334878206253
0.0084862355142831802 0.5154992938041687 0.074993893504142761
0.095561489462852478 0.55485540628433228 0.084220081567764282
0.22929418087005615 0.58097398281097412 0.10253824293613434
0.4024168848991394 0.59211844205856323 0.11415408551692963
0.58872175216674805 0.59937715530395508 0.11703244596719742
0.76293730735778809 0.61431872844696045 0.12114829570055008
0.91516542434692383 0.63667386770248413 0.1339649111032486
0.017409933730959892 0.7245643138885498 0.10537558048963547
0.11688683927059174 0.76228410005569458 0.11452604085206985
0.25555506348609924 0.78498125076293945 0.12870654463768005
0.42962470650672913 0.79055655002593994 0.13530032336711884
0.61579430103302002 0.79150331020355225 0.13436989486217499
0.79010307788848877 0.79894375801086426 0.13670459389686584
0.94229209423065186 0.81326305866241455 0.15198312699794769
0.044576890766620636 0.92250102758407593 0.14205485582351685
0.15408432483673096 0.9518856406211853 0.1503404825925827
0.29451945424079895 0.96784907579421997 0.15919347107410431
0.46379873156547546 0.96910059452056885 0.16080527007579803
0.64496386051177979 0.96456724405288696 0.15658201277256012
0.81645923852920532 0.96266615390777588 0.15776549279689789
0.96742159128189087 0.96868002414703369 0.17374224960803986
0.0023068895097821951 0.002261187881231308 0.12078603357076645
0.048030883073806763 0.0072046914137899876 0.1215384379029274
0.13204865157604218 0.0050550722517073154 0.11131895333528519
0.26051279902458191 4.5955883251735941e-05 0.087784305214881897
0.40127173066139221 0.0024171269033104181 0.071200713515281677
0.53712743520736694 0.0038689109496772289 0.061917923390865326
0.66350328922271729 0.0080845402553677559 0.066045306622982025
0.0091062504798173904 0.056869104504585266 0.12711353600025177
0.064768053591251373 0.066199406981468201 0.13820098340511322
0.1612054705619812 0.064495041966438293 0.14138227701187134
0.30473405122756958 0.053605485707521439 0.13248424232006073
0.46785974502563477 0.058643311262130737 0.1260918527841568
0.62303829193115234 0.058877069503068924 0.13014364242553711
0.76079010963439941 0.073025166988372803 0.14332576096057892
0.012229260988533497 0.16190131008625031 0.13018710911273956
0.078951910138130188 0.18218199908733368 0.14970889687538147
0.19055311381816864 0.19654926657676697 0.16506515443325043
0.3512820303440094 0.20083685219287872 0.1686026006937027
0.52945125102996826 0.20361590385437012 0.17037187516689301
0.69666033983230591 0.2093084454536438 0.17916388809680939
0.84053468704223633 0.22697535157203674 0.19725809991359711
0.009645828977227211 0.3259890079498291 0.14188320934772491
0.089102037250995636 0.35700809955596924 0.16154077649116516
0.21509796380996704 0.38179314136505127 0.18402554094791412
0.38596299290657043 0.39430356025695801 0.19631868600845337
0.57207423448562622 0.40225949883460999 0.20194071531295776
0.7440948486328125 0.41462251543998718 0.21030682325363159
0.89163702726364136 0.43409180641174316 0.22674219310283661
0.0080944281071424484 0.52590811252593994 0.1704268604516983
0.098559103906154633 0.56397759914398193 0.1826859712600708
0.23674345016479492 0.58845818042755127 0.2059425562620163
0.41285467147827148 0.60038864612579346 0.22150865197181702
0.60052686929702759 0.6090049147605896 0.22671319544315338
0.77334922552108765 0.62359219789505005 0.23202656209468842
0.92250233888626099 0.64354902505874634 0.2454269677400589
0.017636885866522789 0.7307436466217041 0.21061275899410248
0.12189950048923492 0.76621443033218384 0.221056267619133
0.2651788592338562 0.78759491443634033 0.23812966048717499
0.44147852063179016 0.79538607597351074 0.24809744954109192
0.6288071870803833 0.7982671856880188 0.24791990220546722
0.80208104848861694 0.80639845132827759 0.24994651973247528
0.95065844058990479 0.82075029611587524 0.2656397819519043
0.04452088475227356 0.92568850517272949 0.25742986798286438
0.15836384892463684 0.95334690809249878 0.2662205696105957
0.30293565988540649 0.96868962049484253 0.27630224823951721
0.47446131706237793 0.97108596563339233 0.2792104184627533
0.6575547456741333 0.96832901239395142 0.27400076389312744
0.82962167263031006 0.9682430624961853 0.27365225553512573
0.97603291273117065 0.97543448209762573 0.29096308350563049
0.00079848343739286065 0.00022995892504695803 0.22994820773601532
0.047790512442588806 0.002734943525865674 0.23153586685657501
0.13323269784450531 0.0025226667057722807 0.22369258105754852
0.25864562392234802 4.846909359912388e-05 0.20478464663028717
0.40152493119239807 0 0.1878664493560791
0.54295164346694946 0 0.18095695972442627
0.67546188831329346 0 0.18435284495353699
0.0074078277684748173 0.053535971790552139 0.24867130815982819
0.067371651530265808 0.06451725959777832 0.26149651408195496
0.16468790173530579 0.067233160138130188 0.26813080906867981
0.30687874555587769 0.060929466038942337 0.26264539361000061
0.47088465094566345 0.056108124554157257 0.25763627886772156
0.63081294298171997 0.046599503606557846 0.26491656899452209
0.77361279726028442 0.060479570180177689 0.27823787927627563
0.012106353417038918 0.16353827714920044 0.26399099826812744
0.08208136260509491 0.18499825894832611 0.28478845953941345
0.19305066764354706 0.20152218639850616 0.303577721118927
0.35346329212188721 0.20628318190574646 0.30909106135368347
0.53326427936553955 0.2066626101732254 0.31360155344009399
0.70376825332641602 0.20926471054553986 0.32670497894287109
0.85197615623474121 0.22671660780906677 0.34564176201820374
0.010103457607328892 0.33069619536399841 0.27970117330551147
0.093527838587760925 0.36093232035636902 0.30320015549659729
0.2195265144109726 0.38670575618743896 0.32808971405029297
0.39147517085075378 0.4004034698009491 0.34243768453598022
0.57826358079910278 0.40843570232391357 0.35056683421134949
0.75054019689559937 0.41825553774833679 0.36208143830299377
0.89935046434402466 0.43586570024490356 0.37881860136985779
0.011041752994060516 0.52977746725082397 0.30798324942588806
0.10755298286676407 0.56394857168197632 0.32857823371887207
0.24561333656311035 0.59075677394866943 0.35334759950637817
0.42095261812210083 0.60596615076065063 0.36954474449157715
0.6074405312538147 0.61566275358200073 0.37652984261512756
0.77784150838851929 0.62794035673141479 0.38331228494644165
0.92495250701904297 0.64554452896118164 0.39585191011428833
0.022099573165178299 0.73318243026733398 0.34957057237625122
0.13068526983261108 0.76531678438186646 0.36718153953552246
0.27440071105957031 0.78799176216125488 0.38726848363876343
0.44880837202072144 0.79888546466827393 0.39853605628013611
0.63275063037872314 0.80383265018463135 0.39965802431106567
0.80187052488327026 0.81162112951278687 0.4018857479095459
0.94997817277908325 0.8236963152885437 0.41400003433227539
0.04803016409277916 0.9278377890586853 0.39776232838630676
0.16467329859733582 0.95317453145980835 0.41190734505653381
0.30969205498695374 0.96854305267333984 0.42558655142784119
0.47974535822868347 0.97279292345046997 0.42985507845878601
0.6584046483039856 0.9718400239944458 0.42576593160629272
0.8261711597442627 0.97233420610427856 0.42520400881767273
0.97443515062332153 0.97790670394897461 0.43710753321647644
0.0014183343155309558 0 0.35706010460853577
0.052625559270381927 0 0.36144021153450012
0.13600672781467438 0 0.3587435781955719
0.25606995820999146 0 0.34582111239433289
0.39855927228927612 0 0.33219179511070251
0.54500150680541992 0 0.32727533578872681
0.68426120281219482 0 0.33173272013664246
0.0073656267486512661 0.049195997416973114 0.38626772165298462
0.071557290852069855 0.057234715670347214 0.40460300445556641
0.16899347305297852 0.063269279897212982 0.41894811391830444
0.30878791213035583 0.062695220112800598 0.41679710149765015
0.47254496812820435 0.058607392013072968 0.41195884346961975
0.63651502132415771 0.056340042501688004 0.4209352433681488
0.78561252355575562 0.073304928839206696 0.43497124314308167
0.011512636207044125 0.16411241888999939 0.41052901744842529
0.086663328111171722 0.1833207756280899 0.43766221404075623
0.20012359321117401 0.2013355940580368 0.46268606185913086
0.35897454619407654 0.20973043143749237 0.47154048085212708
0.53873729705810547 0.21166747808456421 0.47695696353912354
0.71228557825088501 0.21544390916824341 0.49306789040565491
0.86627000570297241 0.23368781805038452 0.51427924633026123
0.012316176667809486 0.33452329039573669 0.4322570264339447
0.098900891840457916 0.36269772052764893 0.46198508143424988
0.22730155289173126 0.38910630345344543 0.49038600921630859
0.39904585480690002 0.40488287806510925 0.50690716505050659
0.58609485626220703 0.41302388906478882 0.5173267126083374
0.758689284324646 0.42068102955818176 0.53152686357498169
0.90995234251022339 0.43548339605331421 0.5477789044380188
0.014240339398384094 0.53446018695831299 0.46232503652572632
0.1139160618185997 0.56681478023529053 0.49111789464950562
0.25242653489112854 0.59496200084686279 0.51939702033996582
0.42793595790863037 0.61175429821014404 0.53625357151031494
0.61367166042327881 0.62082439661026001 0.54403752088546753
0.78256428241729736 0.62899553775787354 0.55208289623260498
0.93080973625183105 0.64140963554382324 0.56369078159332275
0.027284001931548119 0.73769986629486084 0.50469177961349487
0.1369672417640686 0.76818007230758667 0.53078544139862061
0.2798326313495636 0.79185116291046143 0.55601948499679565
0.45293381810188293 0.80359423160552979 0.56797575950622559
0.63415515422821045 0.80780160427093506 0.56774097681045532
0.80024510622024536 0.81245630979537964 0.5697711706161499
0.94810402393341064 0.8203887939453125 0.57930248975753784
0.05316803976893425 0.93172496557235718 0.55281990766525269
0.17036066949367523 0.95537924766540527 0.57404136657714844
0.31420323252677917 0.9700016975402832 0.59323775768280029
0.48192793130874634 0.97403216361999512 0.5983397364616394
0.65688556432723999 0.97239530086517334 0.59122025966644287
0.82061398029327393 0.97224265336990356 0.58921825885772705
0.96934604644775391 0.9755479097366333 0.59720313549041748
0.0043169357813894749 0 0.48830291628837585
0.056951992213726044 0 0.49339914321899414
0.13439813256263733 0 0.4929545521736145
0.25123703479766846 0 0.48526176810264587
0.39501592516899109 0 0.47610175609588623
0.54390311241149902 0 0.47241044044494629
0.68573558330535889 0.00092028448125347495 0.47504028677940369
0.0092356214299798012 0.04347577691078186 0.5223701000213623
0.074297994375228882 0.049599189311265945 0.54270213842391968
0.169211745262146 0.056796878576278687 0.55990701913833618
0.30837029218673706 0.061021782457828522 0.56209099292755127
0.47405928373336792 0.062509618699550629 0.56193667650222778
0.6412474513053894 0.066300578415393829 0.57195228338241577
0.79437768459320068 0.082625746726989746 0.58519166707992554
0.01137274969369173 0.16413861513137817 0.55160242319107056
0.090539894998073578 0.18132272362709045 0.58172857761383057
0.20650964975357056 0.20071615278720856 0.60925465822219849
0.3656565248966217 0.21169678866863251 0.62114989757537842
0.54665303230285645 0.21603292226791382 0.62970709800720215
0.72207808494567871 0.22076128423213959 0.64852088689804077
0.87852674722671509 0.2356315553188324 0.66815942525863647
0.012337000109255314 0.34117743372917175 0.57850849628448486
0.10297162085771561 0.36808127164840698 0.61218506097793579
0.23384279012680054 0.39449495077133179 0.6426892876625061
0.40751951932907104 0.40956756472587585 0.66012191772460938
0.5953248143196106 0.4161059558391571 0.67221677303314209
0.76811188459396362 0.42317846417427063 0.68917900323867798
0.91968637704849243 0.43721392750740051 0.70533257722854614
0.017179077491164207 0.54407453536987305 0.61202245950698853
0.11675792187452316 0.57672524452209473 0.64652067422866821
0.25521326065063477 0.60552006959915161 0.6775057315826416
0.43412530422210693 0.62024939060211182 0.69339597225189209
0.62078398466110229 0.62560337781906128 0.70080065727233887
0.78821122646331787 0.63193851709365845 0.71037304401397705
0.93519973754882812 0.64352869987487793 0.72183668613433838
0.032861314713954926 0.74706447124481201 0.6584547758102417
0.14100602269172668 0.7773134708404541 0.6899411678314209
0.28275275230407715 0.80102860927581787 0.71811830997467041
0.45814648270606995 0.81076467037200928 0.72816354036331177
0.63908261060714722 0.81143569946289062 0.72479361295700073
0.80154991149902344 0.81309765577316284 0.72758930921554565
0.94678235054016113 0.81899648904800415 0.73808842897415161
0.060063276439905167 0.93935954570770264 0.70968365669250488
0.17661958932876587 0.96105802059173584 0.73385226726531982
0.31946367025375366 0.97348201274871826 0.75542277097702026
0.48703968524932861 0.97535687685012817 0.75861638784408569
0.66058945655822754 0.97167152166366577 0.74604171514511108
0.81964504718780518 0.96910172700881958 0.74379223585128784
0.96535307168960571 0.97100770473480225 0.7519911527633667
0.010942810215055943 0.0013430427061393857 0.61774951219558716
0.06153399869799614 0 0.6192823052406311
0.13156278431415558 0 0.61717015504837036
0.24858462810516357 0 0.61374199390411377
0.39382928609848022 0 0.61014753580093384
0.54220759868621826 0.00014002183161210269 0.60803651809692383
0.68205773830413818 0.0074259741231799126 0.60737305879592896
0.012298105284571648 0.042382676154375076 0.65201413631439209
0.07809881865978241 0.051935382187366486 0.66803950071334839
0.16908296942710876 0.059700582176446915 0.68027430772781372
0.30823490023612976 0.066746503114700317 0.68737000226974487
0.47574564814567566 0.072505563497543335 0.69473254680633545
0.64363712072372437 0.07821374386548996 0.70831191539764404
0.79934370517730713 0.092094048857688904 0.72340422868728638
0.012972917407751083 0.17026722431182861 0.68466973304748535
0.095850281417369843 0.18826141953468323 0.7107660174369812
0.21217349171638489 0.20817670226097107 0.73398745059967041
0.37228116393089294 0.21937945485115051 0.74805927276611328
0.55359631776809692 0.22419479489326477 0.76185333728790283
0.72764074802398682 0.22852201759815216 0.78498554229736328
0.88700807094573975 0.23820789158344269 0.80794286727905273
0.016017794609069824 0.35443824529647827 0.71562749147415161
0.10889998823404312 0.37985324859619141 0.74785697460174561
0.24039098620414734 0.40529865026473999 0.77617985010147095
0.41617491841316223 0.4172515869140625 0.79250574111938477
0.60418736934661865 0.42150849103927612 0.80601567029953003
0.77314406633377075 0.42927435040473938 0.82561761140823364
0.9232933521270752 0.44367247819900513 0.84242707490921021
0.024485839530825615 0.55881345272064209 0.75097668170928955
0.12147023528814316 0.59101700782775879 0.78709733486175537
0.25754016637802124 0.62009507417678833 0.81685334444046021
0.4421231746673584 0.63024085760116577 0.82920742034912109
0.62834268808364868 0.63200652599334717 0.83642709255218506
0.79186272621154785 0.63843512535095215 0.847015380859375
0.93557673692703247 0.65515989065170288 0.85719186067581177
0.04222501814365387 0.75960534811019897 0.80285131931304932
0.14882522821426392 0.78842657804489136 0.83327418565750122
0.28988274931907654 0.81116217374801636 0.85675501823425293
0.46861961483955383 0.81811010837554932 0.86206936836242676
0.64782512187957764 0.81515532732009888 0.8596683144569397
0.80569630861282349 0.81660634279251099 0.86375969648361206
0.94812482595443726 0.82634127140045166 0.87229651212692261
0.070865124464035034 0.94897907972335815 0.85906636714935303
0.18790337443351746 0.96741557121276855 0.87875711917877197
0.33121967315673828 0.97694224119186401 0.89267110824584961
0.49931338429450989 0.97550177574157715 0.89013761281967163
0.67008733749389648 0.96917921304702759 0.87929445505142212
0.82407665252685547 0.96750682592391968 0.87996631860733032
0.96696054935455322 0.97022384405136108 0.88669407367706299
