assets/lut/youssefhossam sea.cube
# Created by: G'MIC (https://gmic.eu)
TITLE "sea"
# LUT size
LUT_3D_SIZE 5
# Data domain
DOMAIN_MIN 0.0 0.0 0.0
DOMAIN_MAX 1.0 1.0 1.0
# LUT data points
0.033278089016675949 0.032674424350261688 0.069493405520915985
0.40079984068870544 0.014196553267538548 0.04177195206284523
0.76759284734725952 0.020128959789872169 0.045947596430778503
0.99976193904876709 0.025030877441167831 0.029817380011081696
1 0.019915815442800522 0.027688732370734215
0.0010171328904107213 0.33013564348220825 0.0098005253821611404
0.30039355158805847 0.30220738053321838 0.01180445309728384
0.65883201360702515 0.27386331558227539 3.2312730127159739e-06
0.97334969043731689 0.25938364863395691 0
1 0.24469079077243805 0
0 0.62754011154174805 0.0004645852604880929
0.19280001521110535 0.59487473964691162 0
0.55650961399078369 0.56567168235778809 0
0.8917962908744812 0.54354286193847656 0.0040549933910369873
1 0.52561777830123901 0
7.0010914896556642e-06 0.91390049457550049 0
0.11099442094564438 0.8710019588470459 0
0.46288266777992249 0.83653384447097778 0
0.81123411655426025 0.80860674381256104 0.0015806908486410975
1 0.78590917587280273 0
0.0083242524415254593 1 0.0024639952462166548
0.12439738214015961 1 0
0.39917495846748352 1 0
0.72567695379257202 1 0.0028304306324571371
0.98620891571044922 0.99624341726303101 0.00018708471907302737
0.023205192759633064 0.030975505709648132 0.4516465961933136
0.37579172849655151 0.010456743650138378 0.43197470903396606
0.75646781921386719 0.0038566139992326498 0.40112060308456421
0.99928075075149536 0.0037425919435918331 0.38378140330314636
1 0.0058214673772454262 0.3800751268863678
0.0056516458280384541 0.3198944628238678 0.35868427157402039
0.28036123514175415 0.28724783658981323 0.32773533463478088
0.6454271674156189 0.25808313488960266 0.31044778227806091
0.96902090311050415 0.23768050968647003 0.28398939967155457
0.99995160102844238 0.23014897108078003 0.27725455164909363
0.0013977200724184513 0.61471801996231079 0.25814357399940491
0.19543968141078949 0.58208489418029785 0.225179523229599
0.54744094610214233 0.55207264423370361 0.19222980737686157
0.88278812170028687 0.53055179119110107 0.17272001504898071
1 0.51211631298065186 0.16595621407032013
0.0028175802435725927 0.894603431224823 0.18407697975635529
0.12141817808151245 0.86134207248687744 0.14475798606872559
0.45743000507354736 0.82017821073532104 0.10906893014907837
0.79434722661972046 0.79415178298950195 0.10945311933755875
1 0.76942747831344604 0.099239274859428406
0.0022671569604426622 0.99997729063034058 0.11981122195720673
0.10024270415306091 1 0.081263989210128784
0.37353923916816711 1 0.090421877801418304
0.7011711597442627 0.99980825185775757 0.080370165407657623
0.98510164022445679 0.98995327949523926 0.037533659487962723
0.035534892231225967 0.027989855036139488 0.80361157655715942
0.36044976115226746 0.0088156759738922119 0.78699308633804321
0.74628174304962158 0.0013819077285006642 0.77080750465393066
0.99978101253509521 0.013742558658123016 0.77353942394256592
1 0.018595706671476364 0.78061956167221069
0.0027817669324576855 0.31003394722938538 0.74466222524642944
0.2616569995880127 0.27865937352180481 0.7048153281211853
0.6410832405090332 0.24252624809741974 0.67982763051986694
0.96282780170440674 0.23139111697673798 0.66090816259384155
1 0.23537011444568634 0.67315447330474854
0.00016461541235912591 0.60432446002960205 0.63974213600158691
0.18878144025802612 0.56841576099395752 0.60750806331634521
0.53634357452392578 0.53865522146224976 0.58128970861434937
0.8705933690071106 0.51717060804367065 0.55431842803955078
1 0.49708142876625061 0.54603022336959839
3.8236728869378567e-05 0.88118767738342285 0.56917792558670044
0.1266816109418869 0.83765196800231934 0.52658915519714355
0.44181454181671143 0.80398052930831909 0.49012872576713562
0.77798795700073242 0.77682536840438843 0.46063745021820068
1 0.75112652778625488 0.44467246532440186
0.0030637255404144526 1 0.47424149513244629
0.099709078669548035 1 0.43506258726119995
0.36491864919662476 0.99910366535186768 0.40722781419754028
0.68780910968780518 0.99671858549118042 0.38075542449951172
0.97807878255844116 0.98154985904693604 0.35414063930511475
0.048247259110212326 0.023004958406090736 0.99990898370742798
0.35339450836181641 0.0043893251568078995 0.99926948547363281
0.73224669694900513 0 1
0.99882137775421143 0.02275543287396431 1
1 0.028028659522533417 1
0.016899706795811653 0.29639607667922974 0.99987119436264038
0.26344981789588928 0.26315611600875854 0.98955380916595459
0.62337923049926758 0.2294989675283432 0.98666542768478394
0.94191116094589233 0.23277446627616882 0.97825318574905396
1 0.23117153346538544 0.96710824966430664
0.0071711521595716476 0.59346866607666016 0.97242099046707153
0.17947366833686829 0.5608290433883667 0.94177818298339844
0.52612072229385376 0.52780795097351074 0.92553508281707764
0.85147273540496826 0.506305992603302 0.89392364025115967
1 0.48255938291549683 0.8808245062828064
0 0.86798566579818726 0.91173428297042847
0.080385498702526093 0.82853251695632935 0.86539548635482788
0.4396425187587738 0.79215145111083984 0.83602941036224365
0.76513469219207764 0.76584374904632568 0.80256420373916626
0.9999244213104248 0.73982799053192139 0.78339976072311401
0.003710129763931036 1 0.82079887390136719
0.053604573011398315 1 0.78609049320220947
0.35905912518501282 0.99921333789825439 0.74383175373077393
0.68382364511489868 0.99328243732452393 0.70555078983306885
0.97577792406082153 0.97630429267883301 0.68647480010986328
0.019583474844694138 0.023669926449656487 1
0.3291720449924469 0.0063669243827462196 1
0.71863853931427002 0.00013302073057275265 0.99994051456451416
0.99885523319244385 0.01813964918255806 0.99955660104751587
1 0.026077315211296082 1
0.00082307704724371433 0.28791257739067078 1
0.24600228667259216 0.25905725359916687 1
0.61842679977416992 0.23029108345508575 0.99999654293060303
0.95268720388412476 0.21328458189964294 0.99549019336700439
1 0.22740502655506134 1
0.0036510243080556393 0.58694738149642944 1
0.17469008266925812 0.55017685890197754 1
0.51915520429611206 0.51561301946640015 1
0.86017614603042603 0.49169784784317017 1
1 0.47483077645301819 1
0 0.8553730845451355 1
0.080397568643093109 0.81018650531768799 1
0.43041700124740601 0.77092856168746948 1
0.75172883272171021 0.7473863959312439 1
0.99720817804336548 0.72624737024307251 0.99999302625656128
0 1 1
0.026010684669017792 0.99983125925064087 1
0.35497280955314636 0.99537193775177002 0.99988096952438354
0.6683342456817627 0.9857107400894165 0.9953000545501709
0.96969836950302124 0.972400963306427 0.98882925510406494
