assets/lut/youssefhossam cinematic forest.cube
# Created by: G'MIC (https://gmic.eu)
TITLE "cinematic_forest"
# LUT size
LUT_3D_SIZE 5
# Data domain
DOMAIN_MIN 0.0 0.0 0.0
DOMAIN_MAX 1.0 1.0 1.0
# LUT data points
0.018143178895115852 0.034406416118144989 0.063213780522346497
0.11195259541273117 0.068949997425079346 0.11840532720088959
0.32021281123161316 0.07697334885597229 0.12642602622509003
0.68423151969909668 0.046801052987575531 0.079169824719429016
0.9985651969909668 0.0035508996807038784 0.018824918195605278
0.022366393357515335 0.27213177084922791 0.057321511209011078
0.22839502990245819 0.28671103715896606 0.01366080529987812
0.59854161739349365 0.2584151029586792 0.0042071025818586349
0.99647736549377441 0.19148232042789459 0.0011760188499465585
1 0.1212952584028244 0.0095590325072407722
0.0065195420756936073 0.65063184499740601 0.0039308886043727398
0.078062497079372406 0.62381690740585327 0.0025870080571621656
0.53070014715194702 0.5896909236907959 0.00044524247641675174
0.99596428871154785 0.49181100726127625 0
0.9996684193611145 0.37826621532440186 0
0 0.99626898765563965 0
0.014808699488639832 0.98389983177185059 0
0.22691404819488525 0.9534534215927124 0
0.84375452995300293 0.85852479934692383 0
1 0.74571686983108521 0
0.0016656613443046808 0.99928027391433716 0.00027304256218485534
0.040081683546304703 0.99441671371459961 0
0.18243344128131866 0.99605149030685425 0
0.52712041139602661 0.99786800146102905 0
0.99493551254272461 1 0
0.023349208757281303 0.042160257697105408 0.14089091122150421
0.12640778720378876 0.07022114098072052 0.24396389722824097
0.3452087938785553 0.067841969430446625 0.31280440092086792
0.72041195631027222 0.025524873286485672 0.34667685627937317
0.99457466602325439 0 0.33663693070411682
0.010573248378932476 0.26301687955856323 0.34554725885391235
0.20876191556453705 0.26764005422592163 0.35018524527549744
0.59250718355178833 0.22830316424369812 0.30715322494506836
0.99735069274902344 0.14568395912647247 0.20771823823451996
1 0.044930987060070038 0.091532595455646515
0 0.63544899225234985 0.14873337745666504
0.041321743279695511 0.60387694835662842 0.076454833149909973
0.48653188347816467 0.55180549621582031 0.016652096062898636
0.99376481771469116 0.45420384407043457 0.0034349330235272646
1 0.34043997526168823 0.0031173855531960726
0 0.99247622489929199 0.0077698053792119026
0.012838161550462246 0.97622519731521606 0.0040778513066470623
0.20358562469482422 0.92351770401000977 0.0051164664328098297
0.81414282321929932 0.83065813779830933 2.6658002752810717e-05
0.99978607892990112 0.72168201208114624 0
0 1 0.013931873254477978
0.025764854624867439 0.99841207265853882 0.0087638404220342636
0.13262622058391571 0.99831289052963257 0.0048907562159001827
0.51721030473709106 0.99595540761947632 0
0.98890513181686401 0.99829977750778198 0
0.024642510339617729 0.048008445650339127 0.24289910495281219
0.13642975687980652 0.069219790399074554 0.38175642490386963
0.36956927180290222 0.060835354030132294 0.50961899757385254
0.7603224515914917 0.0084547456353902817 0.59852224588394165
0.99977004528045654 0 0.65961819887161255
0.01193822268396616 0.25752586126327515 0.61427181959152222
0.19450783729553223 0.25300377607345581 0.67078500986099243
0.58127272129058838 0.20825698971748352 0.68810045719146729
0.997566819190979 0.11528755724430084 0.66411221027374268
1 0.028408050537109375 0.63375365734100342
4.846909359912388e-05 0.60443508625030518 0.66342073678970337
0.054533805698156357 0.56832081079483032 0.62265509366989136
0.44758981466293335 0.5044785737991333 0.57591742277145386
0.98763006925582886 0.39626303315162659 0.48741674423217773
1 0.2959502637386322 0.33067956566810608
0 0.98301458358764648 0.43138241767883301
0.00070111145032569766 0.94530594348907471 0.33093306422233582
0.14742846786975861 0.88031786680221558 0.25995773077011108
0.75982928276062012 0.78618139028549194 0.12066558003425598
0.99902832508087158 0.67766684293746948 0.039547011256217957
0 1 0.09242585301399231
0.0020560470875352621 1 0.047808434814214706
0.039316903799772263 0.99999356269836426 0.013166973367333412
0.47536799311637878 0.99773931503295898 0.01096293143928051
0.98430353403091431 0.99783027172088623 0.0034335416276007891
0.02520650252699852 0.054253492504358292 0.36092188954353333
0.14814484119415283 0.067934714257717133 0.55247575044631958
0.40051472187042236 0.047798454761505127 0.72614914178848267
0.80329179763793945 0.0011521433480083942 0.85832691192626953
0.99788260459899902 0.00055740954121574759 0.95742189884185791
0.01450525876134634 0.25493878126144409 0.88168215751647949
0.18808624148368835 0.24085256457328796 0.95970350503921509
0.56816023588180542 0.18658114969730377 0.98480767011642456
0.99553495645523071 0.088922344148159027 0.98576802015304565
0.99932378530502319 0.036039702594280243 0.98918908834457397
0.00077852734830230474 0.58876436948776245 0.99580711126327515
0.037068281322717667 0.5457158088684082 0.9954114556312561
0.39290377497673035 0.48630920052528381 0.99478006362915039
0.97532922029495239 0.36386615037918091 0.97689223289489746
0.999397873878479 0.25923338532447815 0.92369019985198975
0 0.98320430517196655 0.97698128223419189
0 0.91767752170562744 0.92485183477401733
0.1171877384185791 0.84171313047409058 0.86621677875518799
0.70903468132019043 0.74235075712203979 0.78856354951858521
0.99879485368728638 0.63114118576049805 0.6953769326210022
0 1 0.78374981880187988
0 1 0.66897058486938477
0.035807006061077118 0.9979933500289917 0.59371745586395264
0.40251094102859497 0.99783104658126831 0.53477632999420166
0.96563428640365601 0.98006343841552734 0.44176527857780457
0.024713912978768349 0.05759124830365181 0.48900023102760315
0.15493777394294739 0.062550611793994904 0.71797078847885132
0.4221101701259613 0.03093668632209301 0.9208449125289917
0.84091496467590332 0.00070763385156169534 0.9962884783744812
0.99601584672927856 0.0038602941203862429 0.99852138757705688
0.014743565581738949 0.24528504908084869 0.99266409873962402
0.18384334444999695 0.23070673644542694 0.98481029272079468
0.54609757661819458 0.17666234076023102 0.99471139907836914
0.99249309301376343 0.078174933791160583 0.99998962879180908
0.99682325124740601 0.037756528705358505 0.99767857789993286
0.001747625065036118 0.56547629833221436 1
0.022113187238574028 0.51026296615600586 0.9986882209777832
0.37279847264289856 0.46578806638717651 1
0.96563726663589478 0.34581750631332397 0.99989408254623413
0.99792319536209106 0.23379999399185181 0.99706858396530151
0 0.97477054595947266 1
0 0.89458340406417847 1
0.14069867134094238 0.8140835165977478 1
0.68971091508865356 0.7163999080657959 0.99932658672332764
0.99988740682601929 0.60444974899291992 1
0 1 1
0 1 0.99589341878890991
0.0072300480678677559 0.99927365779876709 0.99829930067062378
0.3693726658821106 0.99740332365036011 0.99115711450576782
0.94845837354660034 0.96246564388275146 0.96179944276809692
