assets/lut/youssefhossam cinematic forest.cube
# Created by: G'MIC (https://gmic.eu)
TITLE "cinematic_forest"
# LUT size
LUT_3D_SIZE 13
# Data domain
DOMAIN_MIN 0.0 0.0 0.0
DOMAIN_MAX 1.0 1.0 1.0
# LUT data points
0.018143178895115852 0.034406416118144989 0.063213780522346497
0.039479739964008331 0.048649102449417114 0.087545342743396759
0.070308670401573181 0.059839658439159393 0.10572940856218338
0.11195259541273117 0.068949997425079346 0.11840532720088959
0.16544224321842194 0.075349085032939911 0.12616880238056183
0.23279178142547607 0.077930539846420288 0.13013832271099091
0.32021281123161316 0.07697334885597229 0.12642602622509003
0.43353134393692017 0.070977091789245605 0.11687490344047546
0.55085164308547974 0.061489149928092957 0.10283313691616058
0.68423151969909668 0.046801052987575531 0.079169824719429016
0.83437395095825195 0.027593649923801422 0.060798302292823792
0.95553994178771973 0.0080772098153829575 0.037355564534664154
0.9985651969909668 0.0035508996807038784 0.018824918195605278
0.039821907877922058 0.098912797868251801 0.11788912117481232
0.073123544454574585 0.11041682958602905 0.1245676651597023
0.11850494891405106 0.11915760487318039 0.1271880567073822
0.17587035894393921 0.12616449594497681 0.12571230530738831
0.24823440611362457 0.1288626492023468 0.11649150401353836
0.33493340015411377 0.12780001759529114 0.10169707983732224
0.44141235947608948 0.12278361618518829 0.079313002526760101
0.58146268129348755 0.11171532422304153 0.049814201891422272
0.72631621360778809 0.096108950674533844 0.034646965563297272
0.87889057397842407 0.077999085187911987 0.017479272559285164
0.97742325067520142 0.054416701197624207 0.011104299686849117
0.99956130981445312 0.034994550049304962 0.0091207316145300865
0.99986892938613892 0.025570843368768692 0.011940735392272472
0.039189103990793228 0.17796586453914642 0.11828028410673141
0.084864504635334015 0.18723297119140625 0.10593114793300629
0.14534743130207062 0.1950562596321106 0.090821526944637299
0.21891684830188751 0.19847333431243896 0.071625716984272003
0.3083139955997467 0.19823756814002991 0.050516538321971893
0.41326108574867249 0.19405265152454376 0.02829386480152607
0.5373956561088562 0.18282100558280945 0.017731834203004837
0.69791960716247559 0.16613082587718964 0.0099116303026676178
0.87046664953231812 0.14739584922790527 0.0045702466741204262
0.98203080892562866 0.12663401663303375 0.0020436902996152639
0.99796366691589355 0.10273527354001999 0.0053387363441288471
1 0.077481165528297424 0.010657037608325481
1 0.068649023771286011 0.011152469553053379
0.022366393357515335 0.27213177084922791 0.057321511209011078
0.067874595522880554 0.27910143136978149 0.045341536402702332
0.13868460059165955 0.28522342443466187 0.024816669523715973
0.22839502990245819 0.28671103715896606 0.01366080529987812
0.33464923501014709 0.28397789597511292 0.0061906701885163784
0.45253041386604309 0.27537843585014343 0.0048101688735187054
0.59854161739349365 0.2584151029586792 0.0042071025818586349
0.7794339656829834 0.23665305972099304 0.0028012893162667751
0.94851803779602051 0.21642464399337769 0.00028572831070050597
0.99647736549377441 0.19148232042789459 0.0011760188499465585
0.99967807531356812 0.16585284471511841 0.0046403771266341209
1 0.13711518049240112 0.0080585703253746033
1 0.1212952584028244 0.0095590325072407722
0.0060468339361250401 0.37997382879257202 0.011331446468830109
0.031777370721101761 0.38297334313392639 0.017133047804236412
0.1010928750038147 0.38675853610038757 0.011489643715322018
0.19935387372970581 0.38710406422615051 0.0080735301598906517
0.31712257862091064 0.38072556257247925 0.0036717283073812723
0.45514413714408875 0.36859250068664551 0.0035282359458506107
0.62403815984725952 0.34804156422615051 0.00088542862795293331
0.81238859891891479 0.32291671633720398 2.0524566934909672e-05
0.96934801340103149 0.30148798227310181 0
0.99891972541809082 0.27433571219444275 9.2195994511712343e-05
1 0.2433072030544281 0.0022305208258330822
1 0.20806355774402618 0.0047168359160423279
1 0.17772968113422394 0.0060661016032099724
0.0056106867268681526 0.50332379341125488 0.0045765447430312634
0.015297982841730118 0.50406002998352051 0.009579378180205822
0.053954403847455978 0.50079816579818726 0.011813594028353691
0.13981062173843384 0.49989548325538635 0.0061504589393734932
0.26445192098617554 0.48923131823539734 0.0027856414671987295
0.41369903087615967 0.47947949171066284 0.0014124552253633738
0.59209585189819336 0.46088945865631104 0.0014352088328450918
0.79323512315750122 0.42927935719490051 0.00057011021999642253
0.96819227933883667 0.39863988757133484 0
0.99741560220718384 0.37083068490028381 0
0.99971377849578857 0.34189018607139587 0.00046133901923894882
1 0.30305969715118408 0.00073266122490167618
1 0.25795838236808777 0.00070621265331283212
0.0065195420756936073 0.65063184499740601 0.0039308886043727398
0.016283836215734482 0.64054739475250244 0.0074743982404470444
0.029929980635643005 0.63151121139526367 0.0058012870140373707
0.078062497079372406 0.62381690740585327 0.0025870080571621656
0.20249950885772705 0.61111092567443848 0.0013491910649463534
0.35659283399581909 0.60259729623794556 0.00051330868154764175
0.53070014715194702 0.5896909236907959 0.00044524247641675174
0.7344098687171936 0.55426853895187378 0.00013958799536339939
0.92938864231109619 0.51438969373703003 0
0.99596428871154785 0.49181100726127625 0
0.99898993968963623 0.46463403105735779 0
0.9984927773475647 0.4226175844669342 0
0.9996684193611145 0.37826621532440186 0
0.0052215424366295338 0.80898904800415039 0.0041186762973666191
0.012300962582230568 0.79086130857467651 0.004790197592228651
0.022454595193266869 0.77330875396728516 0.0028659447561949492
0.048142019659280777 0.7537151575088501 0.00098489504307508469
0.13372588157653809 0.73834758996963501 0.00025550991995260119
0.27322041988372803 0.72891694307327271 0
0.43908625841140747 0.71527636051177979 0
0.63985949754714966 0.68306875228881836 0
0.84499269723892212 0.65021735429763794 0
0.98564654588699341 0.61824882030487061 0
0.99683237075805664 0.58431261777877808 0
0.9971044659614563 0.54392349720001221 0
0.99959331750869751 0.50205403566360474 0
0.0011560777202248573 0.95213145017623901 0.00077354582026600838
0.0049845227040350437 0.9379304051399231 0.0013863358180969954
0.012060876004397869 0.91169345378875732 0.00061427097534760833
0.02949085645377636 0.88858604431152344 2.9979031751281582e-05
0.077659890055656433 0.87050795555114746 0
0.16261914372444153 0.85658872127532959 0
0.32748478651046753 0.8377193808555603 0
0.53522050380706787 0.80480921268463135 0
0.74510186910629272 0.77287048101425171 0
0.93453896045684814 0.73913925886154175 0
0.99713647365570068 0.70389699935913086 0
0.99996578693389893 0.66418564319610596 0
1 0.62143516540527344 0
0 0.99626898765563965 0
0.0019783617462962866 0.99549955129623413 0
0.0047180773690342903 0.98878216743469238 0
0.014808699488639832 0.98389983177185059 0
0.042802371084690094 0.9737628698348999 0
0.080575190484523773 0.96964025497436523 0
0.22691404819488525 0.9534534215927124 0
0.43053677678108215 0.92658841609954834 0
0.63815701007843018 0.89374852180480957 0
0.84375452995300293 0.85852479934692383 0
0.98280984163284302 0.82361507415771484 0
0.99906820058822632 0.78525239229202271 0
1 0.74571686983108521 0
0 0.99607843160629272 0
0.0037377749104052782 0.9958416223526001 0
0.0085612880066037178 0.99519693851470947 0
0.021293744444847107 0.99375182390213013 0
0.044562380760908127 0.99278652667999268 0
0.083571791648864746 0.99585980176925659 0
0.20929071307182312 0.99473398923873901 0
0.35997170209884644 0.99360746145248413 0
0.53445744514465332 0.98037707805633545 0
0.73365390300750732 0.96299421787261963 0
0.92188888788223267 0.94121682643890381 0
0.99798595905303955 0.90678799152374268 0
1 0.86911243200302124 0
0.00040860642911866307 0.99625992774963379 0
0.0059816697612404823 0.99607843160629272 0
0.016033785417675972 0.99607843160629272 0
0.031438611447811127 0.99296015501022339 0
0.056705057621002197 0.99252563714981079 0
0.10883443802595139 0.99293917417526245 0
0.21158312261104584 0.99582648277282715 0
0.30292382836341858 0.99607843160629272 0
0.43919816613197327 0.99482280015945435 0
0.62881231307983398 0.99544799327850342 0
0.82411015033721924 0.99401897192001343 0
0.97632461786270142 0.99038398265838623 0
0.99964016675949097 0.97659438848495483 0
0.0016656613443046808 0.99928027391433716 0.00027304256218485534
0.011049786582589149 0.99669730663299561 0
0.024401690810918808 0.99607843160629272 0
0.040081683546304703 0.99441671371459961 0
0.06656106561422348 0.99215686321258545 0
0.1216546893119812 0.99307268857955933 0
0.18243344128131866 0.99605149030685425 0
0.23821195960044861 0.99658811092376709 0
0.33781585097312927 0.9978635311126709 0
0.52712041139602661 0.99786800146102905 0
0.72524380683898926 0.9979138970375061 0
0.91591429710388184 0.99952894449234009 0
0.99493551254272461 1 0
0.020536968484520912 0.038456350564956665 0.090111285448074341
0.041363809257745743 0.050484690815210342 0.11683274805545807
0.073151804506778717 0.061179261654615402 0.13941855728626251
0.11821426451206207 0.071419432759284973 0.15912069380283356
0.17282812297344208 0.076269529759883881 0.1742284744977951
0.23891930282115936 0.076157316565513611 0.18291173875331879
0.32755091786384583 0.073997125029563904 0.18873558938503265
0.44192990660667419 0.066767722368240356 0.19062909483909607
0.56105852127075195 0.05521024763584137 0.18755033612251282
0.69470000267028809 0.039364699274301529 0.17798334360122681
0.84534835815429688 0.018639987334609032 0.16159184277057648
0.96214067935943604 0.003321225056424737 0.13978894054889679
0.99801617860794067 0.00011222689499845728 0.11005576699972153
0.04132448136806488 0.10040318965911865 0.16238221526145935
0.072828657925128937 0.11122693866491318 0.1749291867017746
0.1195904016494751 0.1188119649887085 0.1852065771818161
0.17650516331195831 0.12367371469736099 0.19075343012809753
0.2491123378276825 0.12556324899196625 0.19059747457504272
0.33630621433258057 0.12348854541778564 0.18523572385311127
0.44565364718437195 0.11714764684438705 0.17666496336460114
0.58508652448654175 0.10422686487436295 0.15885162353515625
0.7324950098991394 0.087378419935703278 0.13630810379981995
0.87890911102294922 0.067266292870044708 0.10705062001943588
0.97953218221664429 0.042017664760351181 0.078810207545757294
0.99949616193771362 0.01935303583741188 0.048998259007930756
0.99994391202926636 0.0094721028581261635 0.030246404930949211
0.037962969392538071 0.17748342454433441 0.1871429979801178
0.081417009234428406 0.18492779135704041 0.18795175850391388
0.14249244332313538 0.19143503904342651 0.18445520102977753
0.21556535363197327 0.1932176947593689 0.17512425780296326
0.30422058701515198 0.1916692703962326 0.15936130285263062
0.41227817535400391 0.18594470620155334 0.13676823675632477
0.54109328985214233 0.17444047331809998 0.11092094331979752
0.70304948091506958 0.15677101910114288 0.073958590626716614
0.8702741265296936 0.13678818941116333 0.045636612921953201
0.98318016529083252 0.11221504956483841 0.024911154061555862
0.99877417087554932 0.085756175220012665 0.016895802691578865
1 0.059792894870042801 0.010895987041294575
1 0.046077143400907516 0.012294260784983635
0.014640643261373043 0.268644779920578 0.1598813533782959
0.059792850166559219 0.27535715699195862 0.14708714187145233
0.13144879043102264 0.27893683314323425 0.1266140341758728
0.22075511515140533 0.27884563803672791 0.10335294157266617
0.32707715034484863 0.27396601438522339 0.077039845287799835
0.45097395777702332 0.26521056890487671 0.049190402030944824
0.60813182592391968 0.24991580843925476 0.025035962462425232
0.78718048334121704 0.22782911360263824 0.012270445004105568
0.94606226682662964 0.20619456470012665 0.0045289583504199982
0.99787420034408569 0.17972378432750702 0.0037130019627511501
0.9999879002571106 0.14976035058498383 0.0095181185752153397
1 0.12000346183776855 0.014004082418978214
1 0.09888923168182373 0.011517468839883804
0.0026448417920619249 0.37479203939437866 0.077303163707256317
0.023088028654456139 0.38115724921226501 0.057176955044269562
0.095230922102928162 0.38118630647659302 0.049091234803199768
0.1915602833032608 0.37967619299888611 0.023747656494379044
0.30816981196403503 0.37109118700027466 0.017002299427986145
0.44530001282691956 0.35994023084640503 0.011151198297739029
0.61296296119689941 0.34216734766960144 0.0047359839081764221
0.81207126379013062 0.31502276659011841 0.0020647833589464426
0.96832889318466187 0.29012507200241089 0.00061822030693292618
0.99777024984359741 0.26280069351196289 0.0013429529499262571
0.99998444318771362 0.23234660923480988 0.0044135600328445435
1 0.19556890428066254 0.0090944329276680946
1 0.16311715543270111 0.0087309591472148895
0.0019866344518959522 0.49774882197380066 0.016572181135416031
0.0077706431038677692 0.49949008226394653 0.013879887759685516
0.04532662034034729 0.49556058645248413 0.012592809274792671
0.1361546665430069 0.49063718318939209 0.0089155007153749466
0.25818029046058655 0.48232665657997131 0.0043434891849756241
0.40096676349639893 0.4716135561466217 0.0042107077315449715
0.57705622911453247 0.45228269696235657 0.0050558652728796005
0.78184247016906738 0.42190366983413696 0.0034773882944136858
0.96110618114471436 0.39001631736755371 0.00018790749891195446
0.99443912506103516 0.36337733268737793 7.5396369538793806e-06
0.99865299463272095 0.33613348007202148 0.0027498281560838223
1 0.29706782102584839 0.0039912504144012928
1 0.25555419921875 0.003596077673137188
0.0041864584200084209 0.63909876346588135 0.0093248104676604271
0.0097630219534039497 0.63249963521957397 0.010358518920838833
0.02533506415784359 0.62302464246749878 0.0082402694970369339
0.087087340652942657 0.61222964525222778 0.006550762802362442
0.19702525436878204 0.60460042953491211 0.0042863884009420872
0.33116289973258972 0.5977051854133606 0.0031791387591511011
0.50318843126296997 0.58172416687011719 0.0024177101440727711
0.71319198608398438 0.54555767774581909 0.001637193257920444
0.92040383815765381 0.50642907619476318 6.2860228354111314e-05
0.99364620447158813 0.48438611626625061 1.288021303480491e-05
0.99915778636932373 0.45955240726470947 0.00076154823182150722
1 0.41901376843452454 0.00080258236266672611
1 0.37377816438674927 0.00061024684691801667
0.0032758077140897512 0.79447084665298462 0.0050871605053544044
0.009798416867852211 0.78405523300170898 0.0063738054595887661
0.02026316337287426 0.76442235708236694 0.006177176721394062
0.062108986079692841 0.74565577507019043 0.0056765987537801266
0.15463854372501373 0.7358328104019165 0.0047277864068746567
0.25890225172042847 0.72666835784912109 0.0018787010340020061
0.41187164187431335 0.70914548635482788 0.00017128739273175597
0.61911016702651978 0.67386245727539062 0.0013746224576607347
0.83165854215621948 0.64093220233917236 0.00051559746498242021
0.98148494958877563 0.6103326678276062 0
0.99893271923065186 0.57786095142364502 0
0.99998736381530762 0.53811848163604736 0
1 0.49311032891273499 0
0.00053239712724462152 0.94458693265914917 0.00086105946684256196
0.005489768460392952 0.93208134174346924 0.0024184132926166058
0.010490133427083492 0.90716159343719482 0.0032983219716697931
0.037203244864940643 0.88805156946182251 0.0036881838459521532
0.1013239249587059 0.87174403667449951 0.0033192953560501337
0.16689565777778625 0.85443472862243652 0.0025907629169523716
0.31005194783210754 0.83148717880249023 0.0019801121670752764
0.51809251308441162 0.79747742414474487 0.0031839108560234308
0.73205602169036865 0.76383596658706665 0.00087362551130354404
0.92815196514129639 0.72999316453933716 0
0.99713170528411865 0.69630014896392822 0
1 0.65714359283447266 0
1 0.61560004949569702 0
0 0.99712342023849487 0.00032816868042573333
0.0023941488470882177 0.99320787191390991 4.5417335059028119e-05
0.0039929109625518322 0.98790258169174194 7.2569004260003567e-05
0.013842504471540451 0.98780429363250732 0.00036043653381057084
0.046023543924093246 0.97502642869949341 0.00068657071096822619
0.087745532393455505 0.96455961465835571 0.0010185391874983907
0.2206011563539505 0.94462108612060547 0.00081297929864376783
0.42078006267547607 0.91474348306655884 0.00090846640523523092
0.62721824645996094 0.88338667154312134 4.5103184675099328e-05
0.83302700519561768 0.85063761472702026 0
0.97977715730667114 0.81581473350524902 0
0.99925953149795532 0.77694380283355713 0
1 0.73932904005050659 0
0 0.99675709009170532 0.0016465878579765558
0.0031210954766720533 0.99466466903686523 0.00073545868508517742
0.0069860420189797878 0.99380576610565186 4.6359789848793298e-05
0.021901404485106468 0.99480009078979492 0
0.04705873504281044 0.99526679515838623 0
0.087113924324512482 0.99506551027297974 0
0.19546239078044891 0.99080818891525269 0
0.35829395055770874 0.98572474718093872 0
0.5241122841835022 0.97868907451629639 0
0.72394537925720215 0.95789057016372681 0
0.91643530130386353 0.93355423212051392 0
0.99698811769485474 0.89928919076919556 0
1 0.8614388108253479 0
3.5184973967261612e-05 0.99813973903656006 0.0029964372515678406
0.0045180227607488632 0.99600404500961304 0.0017941942205652595
0.013798657804727554 0.99598795175552368 0.00037753535434603691
0.030512057244777679 0.99264675378799438 0
0.058083835989236832 0.99460554122924805 0
0.10413496941328049 0.99561947584152222 0
0.19283384084701538 0.99331700801849365 0
0.30675306916236877 0.99519234895706177 0
0.43437817692756653 0.99530959129333496 0
0.62182021141052246 0.99200046062469482 0
0.81764882802963257 0.9891202449798584 0
0.9728691577911377 0.98623192310333252 0
0.99914544820785522 0.9718741774559021 0
0.00034793029772117734 0.99987649917602539 0.0044738617725670338
0.007494817953556776 0.9975811243057251 0.002432654844596982
0.02069639228284359 0.99607843160629272 0.000466799276182428
0.036169223487377167 0.99371087551116943 0
0.065409205853939056 0.99329125881195068 0
0.10967471450567245 0.99495261907577515 0
0.16274377703666687 0.99607735872268677 0
0.22760164737701416 0.99620383977890015 0
0.34330618381500244 0.99658322334289551 0
0.52002638578414917 0.99720180034637451 0
0.71438407897949219 0.9972807765007019 0
0.90840327739715576 0.99916493892669678 0
0.98966914415359497 1 0
0.019768988713622093 0.038759343326091766 0.11374360322952271
0.043061483651399612 0.051394086331129074 0.14855454862117767
0.07576528936624527 0.06131458654999733 0.17578242719173431
0.12141865491867065 0.070432849228382111 0.20175346732139587
0.17783354222774506 0.075255587697029114 0.22213058173656464
0.24382990598678589 0.074523583054542542 0.23582911491394043
0.33718383312225342 0.071135953068733215 0.24946103990077972
0.44995629787445068 0.062796182930469513 0.25756147503852844
0.57198870182037354 0.049707107245922089 0.2633691132068634
0.70892930030822754 0.032640062272548676 0.26340049505233765
0.85872435569763184 0.011332702822983265 0.26008808612823486
0.9694589376449585 0.00066104962024837732 0.24889053404331207
0.99834835529327393 0 0.23030632734298706
0.039000671356916428 0.10219783335924149 0.20528395473957062
0.072470150887966156 0.11133053153753281 0.2233697921037674
0.11935678869485855 0.11847107857465744 0.24085821211338043
0.17831464111804962 0.12292585521936417 0.25277230143547058
0.25123965740203857 0.12392380833625793 0.25945228338241577
0.33838918805122375 0.12042520195245743 0.26359903812408447
0.45352882146835327 0.11174138635396957 0.2633216381072998
0.59269422292709351 0.097463272511959076 0.25693908333778381
0.73859930038452148 0.079318910837173462 0.24596193432807922
0.88849616050720215 0.056153301149606705 0.2317681759595871
0.98254609107971191 0.030399592593312263 0.20878945291042328
0.99929285049438477 0.01104374323040247 0.17803457379341125
0.99952572584152222 0.0022612179163843393 0.15012453496456146
0.034544672816991806 0.17682601511478424 0.25264057517051697
0.079203508794307709 0.18414443731307983 0.26212087273597717
0.13924996554851532 0.18892316520214081 0.26691386103630066
0.21287982165813446 0.18964672088623047 0.2667384147644043
0.30271857976913452 0.18716657161712646 0.25931239128112793
0.41056028008460999 0.17909222841262817 0.2504861056804657
0.54797470569610596 0.1656210720539093 0.23478470742702484
0.71066153049468994 0.14600041508674622 0.21157935261726379
0.87158894538879395 0.12337710708379745 0.18483558297157288
0.98194038867950439 0.096098989248275757 0.1528066098690033
0.99889874458312988 0.066702552139759064 0.11785049736499786
1 0.037944193929433823 0.080591313540935516
1 0.016860587522387505 0.04799487441778183
0.013012216426432133 0.2652033269405365 0.25615149736404419
0.053024336695671082 0.27178129553794861 0.25533097982406616
0.1235317587852478 0.27466222643852234 0.24697586894035339
0.21368524432182312 0.27239996194839478 0.23246914148330688
0.32194927334785461 0.26594334840774536 0.21598826348781586
0.44600784778594971 0.25439578294754028 0.18991844356060028
0.6012154221534729 0.23745715618133545 0.15645091235637665
0.78391057252883911 0.21420504152774811 0.11796136200428009
0.94648081064224243 0.18941207230091095 0.079531967639923096
0.99782067537307739 0.16088590025901794 0.04923972487449646
1 0.12963218986988068 0.026030700653791428
1 0.094945810735225677 0.019194375723600388
1 0.068497829139232635 0.013557448983192444
0.0035144730936735868 0.36838507652282715 0.20823894441127777
0.018618984147906303 0.3735605776309967 0.19567035138607025
0.080345690250396729 0.3743252158164978 0.17688851058483124
0.17931753396987915 0.37023121118545532 0.1474016010761261
0.30075386166572571 0.36221933364868164 0.11366773396730423
0.44069275259971619 0.34937664866447449 0.079684674739837646
0.60907566547393799 0.32914012670516968 0.050852414220571518
0.80716270208358765 0.30308669805526733 0.026911431923508644
0.9694787859916687 0.27614742517471313 0.011319956742227077
0.99916082620620728 0.24603359401226044 0.0042312024161219597
1 0.21409781277179718 0.0062926197424530983
1 0.17664015293121338 0.010176729410886765
1 0.14503157138824463 0.0097284652292728424
0.00047846775851212442 0.48951593041419983 0.12278864532709122
0.0050389156676828861 0.49111366271972656 0.092349201440811157
0.032006267458200455 0.48832541704177856 0.068483851850032806
0.12204782664775848 0.48345965147018433 0.053819246590137482
0.24802723526954651 0.47500491142272949 0.026916863396763802
0.39564543962478638 0.46116811037063599 0.014810389839112759
0.573691725730896 0.43823233246803284 0.0095533030107617378
0.77752465009689331 0.40871703624725342 0.0053159976378083229
0.95539009571075439 0.37729799747467041 0.0011394874891266227
0.99554222822189331 0.3513031005859375 0.0020399505738168955
0.99985772371292114 0.32287111878395081 0.004139589611440897
1 0.283344566822052 0.0043672001920640469
1 0.24682839214801788 0.0044649760238826275
0.00045879589742980897 0.63262248039245605 0.029481237754225731
0.003889674786478281 0.62915068864822388 0.017205601558089256
0.012284222990274429 0.61805397272109985 0.013259513303637505
0.073426879942417145 0.6055111289024353 0.014375858940184116
0.19131334125995636 0.59482264518737793 0.015531562268733978
0.32262790203094482 0.58542686700820923 0.0065330802462995052
0.49133479595184326 0.56673318147659302 0.0048077600076794624
0.70762211084365845 0.52956736087799072 0.0049986145459115505
0.91535872220993042 0.49255573749542236 0.0025754293892532587
0.99441897869110107 0.47287353873252869 0.0017748066456988454
0.99978983402252197 0.44437482953071594 0.0030108434148132801
1 0.40246039628982544 0.0033411961048841476
1 0.36206048727035522 0.0026263517793267965
0.00082051893696188927 0.78860962390899658 0.0050481162033975124
0.005575262475758791 0.78197306394577026 0.0078617474064230919
0.01304473914206028 0.7618030309677124 0.0080675166100263596
0.046031683683395386 0.74204868078231812 0.013885512948036194
0.14186553657054901 0.72684770822525024 0.018324669450521469
0.25219684839248657 0.716572105884552 0.010266098193824291
0.39863771200180054 0.69760870933532715 0.0055524939671158791
0.60911089181900024 0.6626121997833252 0.0057022096589207649
