assets/lut/youssefhossam city.cube
# Created by: G'MIC (https://gmic.eu)
TITLE "city"
# LUT size
LUT_3D_SIZE 5
# Data domain
DOMAIN_MIN 0.0 0.0 0.0
DOMAIN_MAX 1.0 1.0 1.0
# LUT data points
0.030266078189015388 0.025065852329134941 0.039000820368528366
0.12904511392116547 0.0524711012840271 0.080078080296516418
0.32884928584098816 0.06122443825006485 0.10236057639122009
0.63540250062942505 0.046989575028419495 0.10388413816690445
0.97362262010574341 0.016238134354352951 0.079783417284488678
0.023947890847921371 0.24284754693508148 0.092739492654800415
0.20301011204719543 0.26018023490905762 0.075735725462436676
0.51883387565612793 0.25937417149543762 0.040512531995773315
0.90009862184524536 0.23997008800506592 0.025856392458081245
1 0.21394747495651245 0.01332442369312048
0 0.59907883405685425 0.0096467109397053719
0.074384592473506927 0.60491806268692017 0.0056236567907035351
0.43270695209503174 0.58181750774383545 2.0464729459490627e-05
0.86333996057510376 0.54426205158233643 0
1 0.51348048448562622 0
0 0.96353095769882202 0.0007397820008918643
0.026627618819475174 0.94453471899032593 0
0.30166974663734436 0.92188048362731934 0
0.72716689109802246 0.8787229061126709 0
0.99991130828857422 0.83274561166763306 0.0016625646967440844
0.00059178669471293688 1 0.00080959842307493091
0.046788323670625687 1 0
0.24191470444202423 1 0
0.59254217147827148 1 0.00058867508778348565
0.96513074636459351 1 0.0011536242673173547
0.041346590965986252 0.033332314342260361 0.10560790449380875
0.15207062661647797 0.057042993605136871 0.215015709400177
0.35326865315437317 0.056252438575029373 0.30376383662223816
0.66234481334686279 0.031799256801605225 0.36130622029304504
0.98903411626815796 0.011802823282778263 0.40636703372001648
0.026815136894583702 0.25020751357078552 0.38450884819030762
0.19810283184051514 0.25515657663345337 0.41505396366119385
0.5026472806930542 0.24007660150527954 0.42358335852622986
0.90300250053405762 0.21599417924880981 0.42066064476966858
1 0.19062384963035583 0.39959299564361572
0 0.59083402156829834 0.37498742341995239
0.071060970425605774 0.58995240926742554 0.35213151574134827
0.40878146886825562 0.54731833934783936 0.29694512486457825
0.84712851047515869 0.5216444730758667 0.26705315709114075
1 0.4969947338104248 0.2372463047504425
0 0.9473230242729187 0.2298518568277359
0.0094469403848052025 0.93732309341430664 0.1938079297542572
0.27008205652236938 0.90290361642837524 0.16020558774471283
0.69966429471969604 0.85845756530761719 0.13610018789768219
1 0.81251811981201172 0.081387132406234741
0.00013477100583259016 0.99943792819976807 0.11431678384542465
0.016717709600925446 1 0.11660598963499069
0.19277815520763397 1 0.088333278894424438
0.56082141399383545 1 0.032728247344493866
0.94412291049957275 1 0.010963574983179569
0.050127547234296799 0.044860690832138062 0.2133154422044754
0.17348892986774445 0.05866573378443718 0.39377525448799133
0.38703867793083191 0.0518467016518116 0.53241026401519775
0.71083629131317139 0.017275027930736542 0.64120244979858398
0.99633753299713135 0.0018679001368582249 0.7382323145866394
0.028973313048481941 0.2567046582698822 0.67873752117156982
0.17828990519046783 0.25854817032814026 0.76777178049087524
0.50571781396865845 0.23837454617023468 0.80976897478103638
0.90364605188369751 0.20373839139938354 0.83471024036407471
1 0.17861612141132355 0.8312261700630188
0 0.58635097742080688 0.7972949743270874
0.02283872663974762 0.5794481635093689 0.78810602426528931
0.39798262715339661 0.53467756509780884 0.75696462392807007
0.82080334424972534 0.49634420871734619 0.71921443939208984
1 0.48426419496536255 0.71350610256195068
0 0.93323147296905518 0.69136613607406616
0.00028475592262111604 0.91922187805175781 0.67269289493560791
0.24193096160888672 0.87638205289840698 0.61684542894363403
0.65878069400787354 0.80470836162567139 0.54877960681915283
0.99966931343078613 0.78905802965164185 0.54125356674194336
0.0025124193634837866 0.99998480081558228 0.57063382863998413
0.0013608745066449046 1 0.54866069555282593
0.16662555932998657 1 0.47495067119598389
0.55505186319351196 1 0.42414531111717224
0.93963611125946045 0.99967330694198608 0.37237358093261719
0.056384380906820297 0.053038861602544785 0.35095682740211487
0.19047878682613373 0.061600212007761002 0.58564096689224243
0.41325792670249939 0.047870248556137085 0.74884074926376343
0.73720300197601318 0.014224362559616566 0.89989668130874634
0.99985766410827637 0.0055922265164554119 0.9797857403755188
0.01506646815687418 0.25734782218933105 0.95231455564498901
0.18460536003112793 0.25576490163803101 0.99963927268981934
0.51291835308074951 0.23215010762214661 1
0.90991663932800293 0.18879252672195435 1
1 0.17214375734329224 1
0 0.5762290358543396 1
0.04153086245059967 0.57323682308197021 1
0.39200001955032349 0.53755277395248413 1
0.83307880163192749 0.50348967313766479 1
1 0.47593727707862854 0.99855774641036987
7.7550554124172777e-05 0.92402327060699463 0.99841940402984619
0 0.91641902923583984 0.99636435508728027
0.23490507900714874 0.87606775760650635 0.98677581548690796
0.65223324298858643 0.80129152536392212 0.95132499933242798
0.97937488555908203 0.75313913822174072 0.90753990411758423
0 0.99950951337814331 0.96073263883590698
0 1 0.94093340635299683
0.11025255918502808 0.99942165613174438 0.89683824777603149
0.53395611047744751 1 0.83606356382369995
0.90567982196807861 0.99742311239242554 0.74981397390365601
0.06258111447095871 0.058643758296966553 0.5140538215637207
0.20778423547744751 0.057060405611991882 0.77753537893295288
0.44673749804496765 0.035355214029550552 0.95151036977767944
0.79335838556289673 0.0073225283995270729 0.99901419878005981
0.99934482574462891 0.014606715179979801 1
0.020919261500239372 0.26132267713546753 1
0.19059765338897705 0.25686410069465637 1
0.51862925291061401 0.22745606303215027 1
0.92144203186035156 0.18132928013801575 1
1 0.18597088754177094 1
7.4678311648312956e-05 0.57841843366622925 1
0.079132765531539917 0.57046288251876831 1
0.4045068621635437 0.53143620491027832 1
0.84141713380813599 0.49782058596611023 1
1 0.48107209801673889 1
5.1341336074983701e-05 0.92486119270324707 0.99838393926620483
0.00014002183161210269 0.91365450620651245 0.99931353330612183
0.22208738327026367 0.86352801322937012 1
0.67854040861129761 0.8138841986656189 0.99972617626190186
0.99834012985229492 0.76488447189331055 1
0 1 1
0 1 1
0.11392995715141296 1 1
0.53260153532028198 1 1
0.8808441162109375 0.99140274524688721 1
