assets/lut/youssefhossam darkness.cube
# Created by: G'MIC (https://gmic.eu)
TITLE "darkness"
# LUT size
LUT_3D_SIZE 13
# Data domain
DOMAIN_MIN 0.0 0.0 0.0
DOMAIN_MAX 1.0 1.0 1.0
# LUT data points
0.018439378589391708 0.019307125359773636 0.017110547050833702
0.034417141228914261 0.029198635369539261 0.027463352307677269
0.046768099069595337 0.03447398915886879 0.035036377608776093
0.062454387545585632 0.037134341895580292 0.037944912910461426
0.084839195013046265 0.039390023797750473 0.037984047085046768
0.12070457637310028 0.039763759821653366 0.037361819297075272
0.16905952990055084 0.037339858710765839 0.036074321717023849
0.23289519548416138 0.034333113580942154 0.032948765903711319
0.29499265551567078 0.030611090362071991 0.027745714411139488
0.35462945699691772 0.02849426306784153 0.025366151705384254
0.41766089200973511 0.025013582780957222 0.023147612810134888
0.48840212821960449 0.022556230425834656 0.022325612604618073
0.55938231945037842 0.019430078566074371 0.019910430535674095
0.037857759743928909 0.046230003237724304 0.037514884024858475
0.052209261804819107 0.05348021537065506 0.043850813060998917
0.068644821643829346 0.058635950088500977 0.048948369920253754
0.091566689312458038 0.062415629625320435 0.051586899906396866
0.12891356647014618 0.065684676170349121 0.05194561555981636
0.18300454318523407 0.064272232353687286 0.049205046147108078
0.25132355093955994 0.059381626546382904 0.045746088027954102
0.34027767181396484 0.052902206778526306 0.034973248839378357
0.43161359429359436 0.046701662242412567 0.024512138217687607
0.52359092235565186 0.04150664433836937 0.018836332485079765
0.61530792713165283 0.036701727658510208 0.013684994541108608
0.72468328475952148 0.031286861747503281 0.0092315226793289185
0.82870489358901978 0.025792844593524933 0.007123864721506834
0.053546503186225891 0.077996917068958282 0.054445993155241013
0.07009270042181015 0.085971236228942871 0.058639392256736755
0.093698568642139435 0.09296957403421402 0.06118285283446312
0.12606790661811829 0.097855754196643829 0.062219925224781036
0.18012531101703644 0.099923059344291687 0.059162139892578125
0.25957372784614563 0.098717600107192993 0.050455909222364426
0.36147686839103699 0.093329742550849915 0.04133962094783783
0.4944978654384613 0.081733942031860352 0.025655843317508698
0.63178390264511108 0.072946168482303619 0.013783293776214123
0.76874846220016479 0.064515165984630585 0.008421250618994236
0.8806498646736145 0.056920774281024933 0.0040210946463048458
0.96073108911514282 0.051880855113267899 0.00091781618539243937
0.9920203685760498 0.050794877111911774 5.7205499615520239e-05
0.057057011872529984 0.12616266310214996 0.058140385895967484
0.078531660139560699 0.13827599585056305 0.060296587646007538
0.10796534270048141 0.14771820604801178 0.060242865234613419
0.15397697687149048 0.15506082773208618 0.057544197887182236
0.22996816039085388 0.15803544223308563 0.046242285519838333
0.3397098183631897 0.15452775359153748 0.032089680433273315
0.48703709244728088 0.14760549366474152 0.018273865804076195
0.67437684535980225 0.13502298295497894 0.0080159204080700874
0.86096560955047607 0.11712471395730972 0.0030435749795287848
0.96842807531356812 0.10811951756477356 0.0006397920660674572
0.99158483743667603 0.10770006477832794 0
0.99775397777557373 0.10851190239191055 0
0.99998539686203003 0.10571208596229553 0.00020303165365476161
0.035185795277357101 0.20630156993865967 0.034255623817443848
0.056379280984401703 0.22483401000499725 0.032755322754383087
0.08929181843996048 0.24222256243228912 0.026077389717102051
0.148911252617836 0.25702202320098877 0.020398277789354324
0.25397351384162903 0.25995340943336487 0.014528536237776279
0.40612313151359558 0.25338652729988098 0.0073830848559737206
0.60116881132125854 0.24118795990943909 0.0025460785254836082
0.84258484840393066 0.22149275243282318 0.0011762132635340095
0.98219645023345947 0.20601233839988708 9.2869180662091821e-05
0.99898618459701538 0.20316979289054871 0
0.99888134002685547 0.19294802844524384 0
0.99974548816680908 0.1843547523021698 0
1 0.18131723999977112 9.3347889560391195e-06
0.0063356584869325161 0.33976158499717712 0.0068959402851760387
0.010713091120123863 0.37059235572814941 0.0045204763300716877
0.028142606839537621 0.39783903956413269 0.0047307182103395462
0.092587955296039581 0.41929057240486145 0.0038866978138685226
0.21496100723743439 0.42198768258094788 0.0024128034710884094
0.39813926815986633 0.41012996435165405 0.00046229641884565353
0.63857793807983398 0.38579091429710388 0
0.90749114751815796 0.35872188210487366 0
0.98972189426422119 0.33883583545684814 0
0.99970418214797974 0.32955321669578552 0
1 0.323699951171875 0
1 0.32051169872283936 0
1 0.32227662205696106 0
0 0.54324477910995483 1.4002182979311328e-05
0.00093889422714710236 0.58790367841720581 0.00016569250146858394
0.0037406920455396175 0.62492835521697998 4.2006548028439283e-05
0.046320326626300812 0.64254522323608398 0
0.13100412487983704 0.6401093602180481 0
0.28912109136581421 0.62170219421386719 0
0.55924290418624878 0.59133058786392212 0
0.87163019180297852 0.55026805400848389 0
0.99450534582138062 0.52865868806838989 0
0.99850606918334961 0.51166385412216187 0
0.999703049659729 0.50393390655517578 0
1 0.5082886815071106 0
1 0.51143407821655273 0
0 0.81551480293273926 0
0 0.8490450382232666 0
0.0019372379174456 0.87722235918045044 0
0.013865018263459206 0.883492112159729 0
0.041570954024791718 0.8748505711555481 0
0.13722996413707733 0.85130935907363892 0
0.42216652631759644 0.81714081764221191 0
0.75248420238494873 0.77484619617462158 0
0.970359206199646 0.74181509017944336 0
0.99610340595245361 0.71896785497665405 0
0.99723607301712036 0.71151512861251831 0
1 0.71201139688491821 0
1 0.7102125883102417 0
0.0020434660837054253 0.98584920167922974 0
0.0058659869246184826 0.99253815412521362 0
0.0089058820158243179 0.99677175283432007 0
0.01317277830094099 0.99468952417373657 0
0.021409980952739716 0.99442380666732788 0
0.076817035675048828 0.98732930421829224 0
0.33653008937835693 0.96997010707855225 0
0.65852206945419312 0.9396514892578125 0
0.90405982732772827 0.90717756748199463 0
0.99209308624267578 0.8886115550994873 0
0.99649971723556519 0.87301361560821533 0
0.99999141693115234 0.86194932460784912 0
1 0.85565733909606934 0
0.0064229327253997326 0.999980628490448 0
0.016681820154190063 0.99969941377639771 0
0.025803135707974434 0.99974030256271362 0
0.035382948815822601 0.99876159429550171 0
0.061979137361049652 0.99809902906417847 0
0.13585622608661652 0.99960976839065552 0
0.33295896649360657 0.99547845125198364 0
0.60353940725326538 0.99522316455841064 0
0.8349224328994751 0.99164414405822754 0
0.97802275419235229 0.98499393463134766 0
0.99522334337234497 0.97431397438049316 0
0.99879956245422363 0.97073715925216675 0
1 0.96845239400863647 0
0.0075142653658986092 1 0
0.022621873766183853 1 0
0.041126176714897156 0.99998205900192261 0
0.063834458589553833 0.99997127056121826 0
0.11049728095531464 1 0
0.19228154420852661 1 0
0.3288496732711792 0.99962949752807617 0
0.5562242865562439 0.99944555759429932 0
0.78654319047927856 0.99659889936447144 0
0.94410383701324463 0.99617034196853638 0
0.98786032199859619 0.99551749229431152 0
0.99467915296554565 0.99789679050445557 0
0.99976933002471924 0.99858582019805908 0
0.0078771552070975304 1 0
0.025878846645355225 1 0
0.056085638701915741 1 0
0.095617391169071198 1 0
0.14839118719100952 1 0
0.21343308687210083 1 0
0.31448209285736084 1 0
0.51678526401519775 1 0
0.74262768030166626 0.99934631586074829 0
0.90517467260360718 0.99872678518295288 0
0.97910386323928833 0.9983665943145752 0
0.99287933111190796 0.9995955228805542 0
0.99869877099990845 0.99958676099777222 0
0.0078783221542835236 1 0
0.034167569130659103 1 0
0.070892781019210815 1 0
0.11426571011543274 1 0
0.16393172740936279 1 0
0.22101229429244995 1 0
0.29840183258056641 1 0
0.48816114664077759 1 0
0.71366673707962036 1 0
0.87138485908508301 1 0
0.97047406435012817 1 0
0.99140018224716187 1 0
0.99782836437225342 1 0
0.022378075867891312 0.023644272238016129 0.022780399769544601
0.037017792463302612 0.031668882817029953 0.032794758677482605
0.049072790890932083 0.036358553916215897 0.04101969301700592
0.066037751734256744 0.039323516190052032 0.044826894998550415
0.089713186025619507 0.041612796485424042 0.046738043427467346
0.1272907555103302 0.042081136256456375 0.047390222549438477
0.17602810263633728 0.039242390543222427 0.046418327838182449
0.23924705386161804 0.03503049910068512 0.044735509902238846
0.3045508861541748 0.03065095841884613 0.042318142950534821
0.36978006362915039 0.02808450348675251 0.039462894201278687
0.43198925256729126 0.023980863392353058 0.038893368095159531
0.50691109895706177 0.02173054963350296 0.039184059947729111
0.57945871353149414 0.018501073122024536 0.036721620708703995
0.039607387036085129 0.049295477569103241 0.045930270105600357
0.055059172213077545 0.056427463889122009 0.053201489150524139
0.072626389563083649 0.062287557870149612 0.059703901410102844
0.097847416996955872 0.064963653683662415 0.063154317438602448
0.1356540322303772 0.065959542989730835 0.064133681356906891
0.1925884336233139 0.065382279455661774 0.062252327799797058
0.26038572192192078 0.060275446623563766 0.058183528482913971
0.352346271276474 0.054083641618490219 0.050630100071430206
0.44703465700149536 0.047413051128387451 0.043840296566486359
0.54372572898864746 0.041591059416532516 0.038796443492174149
0.63738834857940674 0.035693105310201645 0.033531054854393005
0.75023621320724487 0.030310597270727158 0.026579659432172775
0.85323852300643921 0.023567723110318184 0.021755771711468697
0.054921109229326248 0.08051503449678421 0.065693363547325134
0.072676278650760651 0.088972173631191254 0.071872547268867493
0.096607968211174011 0.095585495233535767 0.076433680951595306
0.13086926937103271 0.1011265441775322 0.079003095626831055
0.18675139546394348 0.10211120545864105 0.07739817351102829
0.2673662006855011 0.098600588738918304 0.070475786924362183
0.3714040219783783 0.092808350920677185 0.060099493712186813
0.51173853874206543 0.081746198236942291 0.045598063617944717
0.65288406610488892 0.072313375771045685 0.033076327294111252
0.7899097204208374 0.062908753752708435 0.02118103951215744
0.90036797523498535 0.055007681250572205 0.012126518413424492
0.96755635738372803 0.050326447933912277 0.0074455561116337776
0.99471962451934814 0.048215005546808243 0.0065131690353155136
0.057234641164541245 0.1302679032087326 0.073876701295375824
0.080309666693210602 0.14045204222202301 0.078963488340377808
0.11102275550365448 0.15190720558166504 0.081369973719120026
0.15771839022636414 0.15937577188014984 0.080228693783283234
0.2370796799659729 0.16154004633426666 0.073122121393680573
0.35053178668022156 0.15661771595478058 0.056204117834568024
0.50568413734436035 0.14815254509449005 0.037435866892337799
0.70589995384216309 0.1336931437253952 0.023223234340548515
0.88139349222183228 0.11597847938537598 0.0094881542026996613
0.97484970092773438 0.11030943691730499 0.0035343393683433533
0.99064719676971436 0.1118214949965477 0.0036602395121008158
0.99715018272399902 0.10835607349872589 0.0042531630024313927
0.99996316432952881 0.10172304511070251 0.003562059486284852
0.035178240388631821 0.21273966133594513 0.053740035742521286
0.056178461760282516 0.22919239103794098 0.056402243673801422
0.088215664029121399 0.24912868440151215 0.050987273454666138
0.14977839589118958 0.26333659887313843 0.039812725037336349
0.261797696352005 0.26514178514480591 0.031419236212968826
0.4154876172542572 0.25791320204734802 0.020397081971168518
0.61936277151107788 0.24352967739105225 0.0070662107318639755
0.86296761035919189 0.22113510966300964 0.003771613584831357
0.9871787428855896 0.20682390034198761 0.0003842222795356065
0.99762362241744995 0.20780918002128601 0.0022466771770268679
0.99715983867645264 0.20295031368732452 0.0042665819637477398
0.99920779466629028 0.19230416417121887 0.0042149564251303673
1 0.19154025614261627 0.0011026420397683978
0.0059044184163212776 0.349800705909729 0.01396230049431324
0.014060599729418755 0.38208204507827759 0.01752077043056488
0.033295396715402603 0.4088129997253418 0.0087496144697070122
0.098522588610649109 0.43058159947395325 0.0065073198638856411
0.22744563221931458 0.43116173148155212 0.0050156987272202969
0.4070795476436615 0.41693413257598877 0.0022453905548900366
0.64438843727111816 0.39188763499259949 6.7168592067901045e-05
0.91881322860717773 0.36111611127853394 0
0.99364596605300903 0.34394440054893494 0.00065900018671527505
0.99999123811721802 0.33710047602653503 0.0021903393790125847
1 0.33357352018356323 0.0027458490803837776
1 0.32896262407302856 0.0018085106275975704
1 0.32433250546455383 0.0002463546406943351
0.0002288818359375 0.56131446361541748 0.0012364257127046585
0.0038007399998605251 0.60896861553192139 0.0038303600158542395
0.012283699586987495 0.64527398347854614 0.001995954429730773
0.048819269984960556 0.66241902112960815 0.00074263929855078459
0.14650768041610718 0.65787869691848755 0.00098079605959355831
0.3035394549369812 0.62970608472824097 0
0.56397169828414917 0.58764183521270752 0
0.87812364101409912 0.54852759838104248 0
0.99552774429321289 0.53111022710800171 7.0654175942763686e-05
0.99979424476623535 0.51788330078125 0.00017890182789415121
1 0.50720667839050293 9.5861098088789731e-05
1 0.50951129198074341 3.6531335354084149e-05
1 0.50868320465087891 0
0 0.82978576421737671 0
0.00055681116646155715 0.86281424760818481 0.00053794711129739881
0.0021464477758854628 0.88768452405929565 0.00016605152632109821
0.011092646047472954 0.89887624979019165 0
0.046960059553384781 0.8880651593208313 0.0001005434532999061
0.15610134601593018 0.85607635974884033 0
0.42579275369644165 0.80931937694549561 0
0.75022363662719727 0.773060142993927 0
0.970572829246521 0.74283325672149658 0
0.99754446744918823 0.71724224090576172 0
0.99923610687255859 0.70166045427322388 0
1 0.70668071508407593 0
1 0.70654410123825073 0
0.0015190424164757133 0.97982370853424072 0.00033831127802841365
0.0054275663569569588 0.991688072681427 2.7974447220913135e-06
0.0079995244741439819 0.99507147073745728 0
0.013363871723413467 0.99555599689483643 0
0.024894235655665398 0.99515104293823242 0
0.084574170410633087 0.98950427770614624 0
0.32298034429550171 0.97345781326293945 0
0.63589668273925781 0.94252341985702515 0
0.89819848537445068 0.90833538770675659 0
0.99303829669952393 0.88372045755386353 0
0.99828886985778809 0.86788070201873779 0
1 0.86186587810516357 0
1 0.8549162745475769 0
0.0051345676183700562 0.99710279703140259 0.0020077275112271309
0.013885647989809513 0.99512690305709839 0.00047589471796527505
0.022887645289301872 0.99654191732406616 3.5873112210538238e-05
0.039722517132759094 0.99609863758087158 3.1594670872436836e-05
0.072271130979061127 0.99645030498504639 0.00014283423661254346
0.14379791915416718 0.99941390752792358 2.468333605065709e-06
0.31117421388626099 0.99604994058609009 0
0.58020567893981934 0.99129676818847656 0
0.82520151138305664 0.99139672517776489 0
0.97123098373413086 0.98121100664138794 0
0.99795728921890259 0.97399258613586426 0
0.99979043006896973 0.96721380949020386 0
1 0.96109902858734131 0
0.0062585719861090183 0.99903738498687744 0.0027749305590987206
0.018979974091053009 0.99729746580123901 0.0018177257152274251
0.037212401628494263 0.99815124273300171 0.0014342213980853558
0.069291390478610992 0.99861377477645874 0.0014114679070189595
0.128143310546875 0.99991720914840698 0.001102447509765625
0.21192154288291931 1 0.00029419542988762259
0.31206005811691284 0.99976557493209839 0
0.52231758832931519 0.99851095676422119 0
0.75837200880050659 0.9975011944770813 0
0.94031685590744019 0.99871718883514404 0
0.99291032552719116 0.9961625337600708 0
0.99627578258514404 0.99560511112213135 0
0.99931967258453369 0.99505531787872314 0
0.0060442606918513775 0.9987221360206604 0.003392776707187295
0.02172107994556427 0.99897903203964233 0.0026761372573673725
0.052537716925144196 0.99991297721862793 0.0027599558234214783
0.098927363753318787 1 0.0026537727098912001
0.16082225739955902 1 0.0021537779830396175
0.22673587501049042 1 0.0013729319907724857
0.31964397430419922 1 0.00036446066224016249
0.50444239377975464 1 0
0.72603154182434082 1 0
0.89866453409194946 1 0
0.978534996509552 0.99886149168014526 0
0.99378734827041626 0.99778527021408081 0
0.99785947799682617 0.99879467487335205 0.00035238827695138752
0.0051366467960178852 1 0.0014626147458329797
0.024037528783082962 1 0.0035368825774639845
0.059240423142910004 1 0.003640148788690567
0.10251768678426743 1 0.0036881838459521532
0.15197671949863434 1 0.0035162682179361582
0.21359474956989288 1 0.0033558264840394258
0.31751179695129395 1 0.0020596671383827925
0.50212818384170532 1 2.994911301357206e-05
0.70685118436813354 1 0
0.86659544706344604 1 0
0.96528208255767822 1 0
0.99262356758117676 1 4.278444976080209e-06
0.99671262502670288 1 0.0018681245855987072
0.02366141602396965 0.024208847433328629 0.028209252282977104
0.038679517805576324 0.033235274255275726 0.041462618857622147
0.05078621581196785 0.038381673395633698 0.04934234544634819
0.067099615931510925 0.040416419506072998 0.052663750946521759
0.092997819185256958 0.042274147272109985 0.056650079786777496
0.13234950602054596 0.041877880692481995 0.058734819293022156
0.18338239192962646 0.039286565035581589 0.059526510536670685
0.25068488717079163 0.034965932369232178 0.060009181499481201
0.31878036260604858 0.030917776748538017 0.06131967157125473
0.38568878173828125 0.02697022445499897 0.059008084237575531
0.45458570122718811 0.023552598431706429 0.060880172997713089
0.52720159292221069 0.019788989797234535 0.062707893550395966
0.6066163182258606 0.015706948935985565 0.064032569527626038
0.04147651419043541 0.050828538835048676 0.056592576205730438
0.057777106761932373 0.058614723384380341 0.066839046776294708
0.075786978006362915 0.064649812877178192 0.073907874524593353
0.10036655515432358 0.067606352269649506 0.07748190313577652
0.14094296097755432 0.068480744957923889 0.08045235276222229
0.20009644329547882 0.06622808426618576 0.07972407341003418
0.26985764503479004 0.060635585337877274 0.078145258128643036
0.37282198667526245 0.05355091392993927 0.072716265916824341
0.46435511112213135 0.046513471752405167 0.0714111328125
0.56209981441497803 0.040125258266925812 0.067878633737564087
0.66579997539520264 0.033742807805538177 0.064619876444339752
0.77281206846237183 0.027396766468882561 0.062230981886386871
0.87639057636260986 0.019043432548642159 0.058837156742811203
0.056630317121744156 0.082812398672103882 0.081706881523132324
0.073588274419307709 0.091723859310150146 0.089369304478168488
0.097807534039020538 0.098382778465747833 0.095861069858074188
0.13362647593021393 0.10277759283781052 0.1001976877450943
0.19317473471164703 0.10379616171121597 0.10051797330379486
0.27363848686218262 0.099815443158149719 0.098413698375225067
0.38494408130645752 0.092411398887634277 0.088526785373687744
0.52822971343994141 0.080851130187511444 0.076885119080543518
0.67105317115783691 0.070044934749603271 0.063236430287361145
0.80917328596115112 0.060237225145101547 0.054303485900163651
0.92089492082595825 0.050299670547246933 0.046459496021270752
0.97825586795806885 0.04602774977684021 0.042013503611087799
0.99482780694961548 0.03703683614730835 0.031547516584396362
0.060557302087545395 0.13319671154022217 0.097843140363693237
0.080624431371688843 0.14242121577262878 0.10408543795347214
0.11148442327976227 0.15474335849285126 0.10925472527742386
0.16154970228672028 0.16241399943828583 0.11216913908720016
0.2436576783657074 0.16384956240653992 0.10794919729232788
0.36213245987892151 0.15929140150547028 0.092725031077861786
0.52069300413131714 0.14778316020965576 0.073080562055110931
0.72220760583877563 0.13138701021671295 0.049132090061903
0.90350687503814697 0.11298596113920212 0.026422029361128807
0.98076331615447998 0.11028534919023514 0.025617906823754311
0.99719613790512085 0.10903035849332809 0.023470574989914894
0.99725699424743652 0.095446735620498657 0.017445553094148636
0.99959796667098999 0.083965525031089783 0.0072704092599451542
0.032609079033136368 0.21836216747760773 0.087100312113761902
0.053695514798164368 0.23483389616012573 0.088356941938400269
0.087496183812618256 0.25552830100059509 0.086387589573860168
0.14831800758838654 0.26958373188972473 0.07971452921628952
0.26602315902709961 0.27019631862640381 0.063482590019702911
0.42714112997055054 0.26159235835075378 0.043572667986154556
0.63566094636917114 0.24447052180767059 0.027343152090907097
0.88303655385971069 0.22050580382347107 0.010918576270341873
0.99075275659561157 0.20697900652885437 0.0046427859924733639
0.99778968095779419 0.20551523566246033 0.0095947412773966789
0.99843573570251465 0.20422802865505219 0.012507000938057899
0.99966728687286377 0.19304083287715912 0.0098185371607542038
1 0.19112102687358856 0.0059842728078365326
0.0034546796232461929 0.35898888111114502 0.04195321723818779
0.014468803070485592 0.3882414698600769 0.029481178149580956
0.035877540707588196 0.41560438275337219 0.024839453399181366
0.096322692930698395 0.43523889780044556 0.023839270696043968
0.22604866325855255 0.43853500485420227 0.018002020195126534
0.407125324010849 0.42318367958068848 0.0078468620777130127
0.65392780303955078 0.39378267526626587 0.0026284311898052692
0.92945665121078491 0.36118200421333313 0.00064019596902653575
0.99635624885559082 0.35161325335502625 0.0036970700602978468
0.99998253583908081 0.34416121244430542 0.0054439469240605831
1 0.34013500809669495 0.0067138671875
1 0.33939164876937866 0.0067366505973041058
1 0.33081969618797302 0.0050600240938365459
2.3157455871114507e-05 0.57170844078063965 0.0092008998617529869
0.0023445577826350927 0.61628657579421997 0.0043221716769039631
0.01335582323372364 0.64946424961090088 0.0045768739655613899
0.048911269754171371 0.66991841793060303 0.0091628283262252808
0.14481599628925323 0.66715413331985474 0.0093057518824934959
0.30413335561752319 0.63646286725997925 0.0043196585029363632
0.56757420301437378 0.58693021535873413 0.00022903142962604761
0.88437694311141968 0.54450660943984985 4.487879323278321e-06
0.9955819845199585 0.5387306809425354 0.0015754549531266093
0.99995976686477661 0.53594505786895752 0.0024635016452521086
1 0.52328121662139893 0.0017642151797190309
1 0.52376681566238403 0.0019449271494522691
1 0.51929390430450439 0.0012189229018986225
0 0.8349490761756897 0.0015278386417776346
0.00032415951136499643 0.86784511804580688 0.0020639307331293821
0.0023742078337818384 0.8883787989616394 0.001128462259657681
0.010840232484042645 0.90210986137390137 0.0018281973898410797
0.049041420221328735 0.89182078838348389 0.003167380578815937
0.16520950198173523 0.85840034484863281 0.0010493409354239702
0.42065286636352539 0.80761229991912842 0
0.74001425504684448 0.77314883470535278 0
0.9693063497543335 0.74405038356781006 0
0.99863171577453613 0.72458463907241821 0
0.99998128414154053 0.70695686340332031 0
1 0.70711439847946167 0
1 0.70824599266052246 0
0.00029993991483934224 0.97861510515213013 0.0019276937237009406
0.0035094316117465496 0.99004083871841431 0.0003672730817925185
0.0053870705887675285 0.99188417196273804 3.9852366171544418e-05
0.011396504938602448 0.99634426832199097 0.00034517774474807084
0.022808283567428589 0.99639892578125 0.00030278225312940776
0.091615833342075348 0.98961925506591797 2.9919194730609888e-06
0.3095594048500061 0.97282290458679199 0
0.61486107110977173 0.94146621227264404 0
0.89453214406967163 0.90451419353485107 0
0.99167394638061523 0.88275265693664551 0
0.9994741678237915 0.87021267414093018 0
1 0.86269253492355347 0
1 0.85437816381454468 0
0.0032433453015983105 0.99066257476806641 0.004210363607853651
0.009005826897919178 0.99299299716949463 0.0034952349960803986
0.016002684831619263 0.99419808387756348 0.0028755636885762215
0.034257747232913971 0.9971463680267334 0.0029280718881636858
0.067774645984172821 0.99874722957611084 0.0027816323563456535
0.14112459123134613 0.99950295686721802 0.00097891117911785841
