assets/lut/youssefhossam city.cube
# Created by: G'MIC (https://gmic.eu)
TITLE "city"
# LUT size
LUT_3D_SIZE 7
# Data domain
DOMAIN_MIN 0.0 0.0 0.0
DOMAIN_MAX 1.0 1.0 1.0
# LUT data points
0.030266078189015388 0.025065852329134941 0.039000820368528366
0.086473189294338226 0.045397274196147919 0.068352870643138885
0.18541383743286133 0.057151105254888535 0.087782375514507294
0.32884928584098816 0.06122443825006485 0.10236057639122009
0.52354145050048828 0.055023703724145889 0.10708710551261902
0.74885225296020508 0.037049088627099991 0.098024196922779083
0.97362262010574341 0.016238134354352951 0.079783417284488678
0.052855264395475388 0.15129750967025757 0.099514275789260864
0.14544960856437683 0.16911062598228455 0.10032597184181213
0.29256045818328857 0.17571766674518585 0.099252872169017792
0.48614305257797241 0.17713357508182526 0.084256596863269806
0.72695815563201904 0.16951659321784973 0.074573293328285217
0.97026920318603516 0.14672566950321198 0.049640342593193054
1 0.13135057687759399 0.037184007465839386
0.004664447158575058 0.35181957483291626 0.066555440425872803
0.08941156417131424 0.36315977573394775 0.040321126580238342
0.271065354347229 0.3655083179473877 0.026723360642790794
0.51416444778442383 0.35802620649337769 0.010337605141103268
0.77619445323944092 0.34302082657814026 0.0055804084986448288
0.99120241403579712 0.32364949584007263 0.0014201444573700428
1 0.30834794044494629 0.0010675766970962286
0 0.59907883405685425 0.0096467109397053719
0.021951129660010338 0.60801166296005249 0.0046673496253788471
0.16591888666152954 0.59787410497665405 0.007145990151911974
0.43270695209503174 0.58181750774383545 2.0464729459490627e-05
0.72463792562484741 0.55811649560928345 0
0.9723045825958252 0.5307270884513855 0
1 0.51348048448562622 0
0 0.8568381667137146 0
0.0010946685215458274 0.8543735146522522 8.9398548880126327e-05
0.099444188177585602 0.83529198169708252 0.0016988118877634406
0.34081858396530151 0.81628209352493286 0
0.63374072313308716 0.78879374265670776 0
0.91174882650375366 0.7522011399269104 0
1 0.72613829374313354 0
0 1 0.0038616852834820747
0.003840532386675477 0.9992600679397583 0
0.083615139126777649 0.99629980325698853 0
0.26947793364524841 0.99289131164550781 0
0.53049170970916748 0.97673732042312622 0
0.81617945432662964 0.95224297046661377 0.00047568525769747794
0.99700820446014404 0.9336097240447998 0.0029548495076596737
0.00059178669471293688 1 0.00080959842307493091
0.019694847986102104 1 0
0.091830715537071228 1 0
0.24191470444202423 1 0
0.46386906504631042 1 0
0.72722643613815308 1 0.0044136345386505127
0.96513074636459351 1 0.0011536242673173547
0.037448793649673462 0.03029429167509079 0.076844476163387299
0.098341397941112518 0.049707703292369843 0.13758294284343719
0.19894018769264221 0.059870507568120956 0.18900033831596375
0.34338995814323425 0.057456206530332565 0.23445987701416016
0.53903967142105103 0.045600816607475281 0.26459819078445435
0.77725112438201904 0.023999815806746483 0.28185096383094788
0.98260009288787842 0.013541367836296558 0.29365462064743042
0.054801717400550842 0.15610934793949127 0.24459846317768097
0.14615871012210846 0.16961480677127838 0.27359816431999207
0.29074582457542419 0.17135214805603027 0.29193073511123657
0.48321422934532166 0.16609477996826172 0.30166229605674744
0.7314223051071167 0.15319907665252686 0.30400747060775757
0.96634006500244141 0.1280268132686615 0.2928062379360199
1 0.11495636403560638 0.28663507103919983
0.0038449305575340986 0.34994235634803772 0.28909865021705627
0.083817258477210999 0.3567357063293457 0.28692051768302917
0.26058351993560791 0.35115373134613037 0.26773545145988464
0.49522411823272705 0.33741527795791626 0.25417417287826538
0.76594918966293335 0.32516264915466309 0.23934300243854523
0.98719125986099243 0.30628204345703125 0.21377600729465485
0.99906712770462036 0.2902025580406189 0.18921433389186859
0 0.58817946910858154 0.22146306931972504
0.022125065326690674 0.59827035665512085 0.21158178150653839
0.16607826948165894 0.58522647619247437 0.19380667805671692
0.41720297932624817 0.55869525671005249 0.15313401818275452
0.70402735471725464 0.5372922420501709 0.11953885108232498
0.96334975957870483 0.51845341920852661 0.10081896185874939
1 0.5004231333732605 0.094128459692001343
0.00087552540935575962 0.84234321117401123 0.12346966564655304
0.00033365885610692203 0.84930300712585449 0.11864122748374939
0.091986425220966339 0.83123564720153809 0.1111380010843277
0.32851681113243103 0.79550474882125854 0.064045354723930359
0.61348527669906616 0.76572829484939575 0.044655535370111465
0.89393860101699829 0.73954504728317261 0.035135693848133087
1 0.7132943868637085 0.024702677503228188
0 0.99871397018432617 0.082216925919055939
0 0.99870854616165161 0.048901844769716263
0.05794193223118782 0.99624192714691162 0.048435002565383911
0.24499239027500153 0.98644435405731201 0.042938292026519775
0.51009595394134521 0.96179711818695068 0.030037868767976761
0.80321270227432251 0.94597810506820679 0.02016041986644268
0.99693983793258667 0.91533148288726807 5.834242983837612e-05
0 1 0.030420610681176186
0.0040686512365937233 1 0.019915740936994553
0.060731925070285797 1 0.026952123269438744
0.20565503835678101 1 0.019678901880979538
0.432932049036026 1 0.0025726319290697575
0.70752829313278198 1 0.0011806861730292439
0.94826185703277588 1 0
0.04465445876121521 0.036951266229152679 0.13787028193473816
0.1126897782087326 0.052416782826185226 0.22795909643173218
0.21698226034641266 0.059575293213129044 0.30993154644966125
0.36416453123092651 0.054609920829534531 0.3772146999835968
0.56126397848129272 0.038746029138565063 0.42802119255065918
0.80432689189910889 0.015302591025829315 0.47527039051055908
0.99061036109924316 0.0081883445382118225 0.51835137605667114
0.053123056888580322 0.16478712856769562 0.39685913920402527
0.14187656342983246 0.1744190901517868 0.45568493008613586
0.28871920704841614 0.17381814122200012 0.49628350138664246
0.4862205982208252 0.16366970539093018 0.52717572450637817
0.7423979640007019 0.14557135105133057 0.54902863502502441
0.9822089672088623 0.11947085708379745 0.55928146839141846
1 0.10943298041820526 0.56551706790924072
0.0020704830531030893 0.35893067717552185 0.5261417031288147
0.066859088838100433 0.3617796003818512 0.545562744140625
0.24667637050151825 0.3462614119052887 0.54453516006469727
0.48875528573989868 0.32716500759124756 0.54096382856369019
0.76988226175308228 0.31254726648330688 0.5416225790977478
0.99463814496994019 0.29677695035934448 0.52979749441146851
1 0.28255897760391235 0.51156580448150635
0 0.59425467252731323 0.52191579341888428
0.0052240709774196148 0.59525108337402344 0.51512092351913452
0.14878150820732117 0.57177495956420898 0.49325698614120483
0.40036889910697937 0.53771036863327026 0.449554443359375
0.68773370981216431 0.51488238573074341 0.42633911967277527
0.96645194292068481 0.50846970081329346 0.42183420062065125
1 0.49377503991127014 0.40162035822868347
0 0.84185957908630371 0.43357795476913452
0 0.83818751573562622 0.41799420118331909
0.076149806380271912 0.81687521934509277 0.39443489909172058
0.2983022928237915 0.78043907880783081 0.34618291258811951
0.58278566598892212 0.74468451738357544 0.31633287668228149
0.88330429792404175 0.72620081901550293 0.31415501236915588
1 0.7045711874961853 0.28765216469764709
3.3449658076278865e-05 0.99142897129058838 0.33928093314170837
0 0.98977434635162354 0.32311227917671204
0.042891781777143478 0.9898877739906311 0.30108967423439026
0.219263955950737 0.98278123140335083 0.27554553747177124
0.49196895956993103 0.9514540433883667 0.23411183059215546
0.79273754358291626 0.93825215101242065 0.21481548249721527
0.99628782272338867 0.90426480770111084 0.17972911894321442
0.0031566396355628967 0.99766594171524048 0.25664988160133362
0.0014484480489045382 0.99998372793197632 0.25747457146644592
0.043206188827753067 1 0.23509077727794647
0.18320533633232117 1 0.19415643811225891
0.41744834184646606 1 0.1351124495267868
0.70182228088378906 1 0.12126784771680832
0.94736844301223755 0.99968010187149048 0.088351666927337646
0.050127547234296799 0.044860690832138062 0.2133154422044754
0.12355227023363113 0.055764336138963699 0.33570617437362671
0.23347547650337219 0.059223487973213196 0.44500380754470825
0.38703867793083191 0.0518467016518116 0.53241026401519775
0.59078872203826904 0.031405504792928696 0.60786658525466919
0.83750849962234497 0.0062177618965506554 0.67895793914794922
0.99633753299713135 0.0018679001368582249 0.7382323145866394
0.051624417304992676 0.16994795203208923 0.55882936716079712
0.13586437702178955 0.17772914469242096 0.64706683158874512
0.28623637557029724 0.17516487836837769 0.71021980047225952
0.49472320079803467 0.16255278885364532 0.75658518075942993
0.75037437677383423 0.13886724412441254 0.79785275459289551
0.98100483417510986 0.1097240075469017 0.81814396381378174
1 0.099876821041107178 0.82617288827896118
0.0059030568227171898 0.35680747032165527 0.75423765182495117
0.058891057968139648 0.35963380336761475 0.79757833480834961
0.23155699670314789 0.34691718220710754 0.81122797727584839
0.48827418684959412 0.32763537764549255 0.81983262300491333
0.76407688856124878 0.30720034241676331 0.82510584592819214
0.98772674798965454 0.28751474618911743 0.81282848119735718
1 0.27188149094581604 0.8105088472366333
0 0.58635097742080688 0.7972949743270874
7.4498791946098208e-05 0.58793467283248901 0.80210286378860474
0.12008629739284515 0.56686186790466309 0.77973717451095581
0.39798262715339661 0.53467756509780884 0.75696462392807007
0.674477219581604 0.50169038772583008 0.72665035724639893
0.94728821516036987 0.49487760663032532 0.71198385953903198
1 0.48426419496536255 0.71350610256195068
0 0.83421993255615234 0.73872226476669312
0 0.82891666889190674 0.73375248908996582
0.046557869762182236 0.8041839599609375 0.70154052972793579
0.28364220261573792 0.76419705152511597 0.66093277931213379
0.56529253721237183 0.71182882785797119 0.61092382669448853
0.84677159786224365 0.68846648931503296 0.59047853946685791
1 0.68924444913864136 0.59610980749130249
0.00059061986394226551 0.99025267362594604 0.64977651834487915
0 0.98816794157028198 0.64451354742050171
0.021922541782259941 0.98340404033660889 0.61312538385391235
0.20869696140289307 0.96400731801986694 0.57169419527053833
0.48520800471305847 0.93085724115371704 0.52885401248931885
0.76347142457962036 0.90475457906723022 0.50137335062026978
0.99039256572723389 0.88782060146331787 0.48983651399612427
0.0025124193634837866 0.99998480081558228 0.57063382863998413
0 1 0.56619703769683838
0.02395528182387352 1 0.52620816230773926
0.16662555932998657 1 0.47495067119598389
0.41423714160919189 1 0.43502774834632874
0.69495463371276855 1 0.40823203325271606
0.93963611125946045 0.99967330694198608 0.37237358093261719
0.053834818303585052 0.05139492079615593 0.30315810441970825
0.1323750764131546 0.059690408408641815 0.4500640332698822
0.24951626360416412 0.059581324458122253 0.58415716886520386
0.40614259243011475 0.0497756227850914 0.67942345142364502
0.61303716897964478 0.027082212269306183 0.78693282604217529
0.86315375566482544 0.0036351969465613365 0.8637428879737854
0.99972230195999146 0.0015012703370302916 0.92168128490447998
0.044189825654029846 0.17453862726688385 0.72915941476821899
0.13973638415336609 0.17834170162677765 0.83540564775466919
0.29618692398071289 0.17297168076038361 0.91197586059570312
0.50555932521820068 0.15823155641555786 0.95562034845352173
0.76222950220108032 0.12942442297935486 0.9934505820274353
0.98294979333877563 0.099470563232898712 0.99689632654190063
1 0.094328969717025757 0.99673914909362793
0.0056844376958906651 0.35342037677764893 0.94604021310806274
0.068640686571598053 0.3561159074306488 0.98714584112167358
0.23595857620239258 0.34597182273864746 0.99761003255844116
0.4884551465511322 0.32837620377540588 0.99939745664596558
0.76006853580474854 0.30571892857551575 0.99991625547409058
0.98523181676864624 0.27832421660423279 0.99695020914077759
1 0.26137509942054749 0.99803811311721802
0 0.57633650302886963 0.98769444227218628
0.0048177530989050865 0.58037430047988892 0.99780732393264771
0.12543822824954987 0.56323128938674927 0.99074196815490723
0.39738550782203674 0.53919297456741333 0.98333549499511719
0.68188154697418213 0.51272124052047729 0.97440803050994873
0.94377696514129639 0.49046817421913147 0.9578777551651001
1 0.47489893436431885 0.95231789350509644
0.00015145096404012293 0.8173530101776123 0.97668272256851196
0.0003454619727563113 0.81758391857147217 0.97595924139022827
0.025639986619353294 0.79617905616760254 0.96282029151916504
0.28886705636978149 0.76299309730529785 0.93715149164199829
0.56845641136169434 0.71654057502746582 0.89858734607696533
0.82935172319412231 0.67449897527694702 0.86287641525268555
0.99995404481887817 0.6748664379119873 0.85839247703552246
0.0020742379128932953 0.99167376756668091 0.91586887836456299
6.283030870690709e-06 0.99161732196807861 0.90974032878875732
0.0016014548018574715 0.99093168973922729 0.89497733116149902
0.19753801822662354 0.96636056900024414 0.85731518268585205
0.48299050331115723 0.93181508779525757 0.81455850601196289
0.7342149019241333 0.87494760751724243 0.75236809253692627
0.97496020793914795 0.85857617855072021 0.7363625168800354
0.00038369870162568986 1 0.8502393364906311
0 1 0.84328645467758179
0.0022693111095577478 1 0.81470435857772827
0.13307385146617889 1 0.76783019304275513
0.39918059110641479 1 0.72724294662475586
0.67373323440551758 1 0.68579041957855225
0.92219823598861694 0.99996268749237061 0.64347267150878906
0.058790616691112518 0.054681532084941864 0.40100878477096558
0.13462477922439575 0.063993163406848907 0.5582878589630127
0.26289814710617065 0.056932501494884491 0.72772550582885742
0.42189416289329529 0.043236512690782547 0.8309938907623291
0.62984061241149902 0.021193874999880791 0.9331289529800415
0.86970984935760498 0.0087654860690236092 0.98526269197463989
0.99996501207351685 0.011716865003108978 0.99927151203155518
0.031562324613332748 0.17506247758865356 0.89221340417861938
0.13187608122825623 0.1784004420042038 0.96758866310119629
0.29982897639274597 0.1690504252910614 0.99919110536575317
0.51277035474777222 0.14995609223842621 1
0.77061647176742554 0.1180134192109108 1
0.99043112993240356 0.092507772147655487 1
1 0.1012037992477417 1
0.00023037780192680657 0.35511142015457153 1
0.05528876930475235 0.35822641849517822 1
0.23334355652332306 0.34431454539299011 1
0.48920711874961853 0.32170087099075317 1
0.77665013074874878 0.29484626650810242 1
0.99476641416549683 0.27130383253097534 1
1 0.26695260405540466 1
0 0.57707750797271729 1
0.0014306012308225036 0.58055293560028076 0.99969160556793213
0.12858352065086365 0.560283362865448 1
0.39065676927566528 0.53496766090393066 1
0.69322353601455688 0.51306962966918945 1
0.96192705631256104 0.49231851100921631 1
1 0.47794559597969055 1
0.00064021092839539051 0.8143497109413147 1
0 0.81265032291412354 1
0.027950316667556763 0.78996735811233521 1
0.27650207281112671 0.76063913106918335 1
0.58251106739044189 0.72846204042434692 1
0.85728001594543457 0.69184762239456177 0.99981856346130371
0.99784660339355469 0.67217248678207397 0.99900960922241211
0 0.9929887056350708 1
0 0.99124956130981445 1
0.00034347234759479761 0.9902605414390564 0.99973702430725098
0.17961324751377106 0.95948964357376099 0.99975931644439697
0.48498636484146118 0.93722242116928101 0.99803352355957031
0.73530119657516479 0.87422186136245728 0.98262709379196167
0.95513355731964111 0.82617908716201782 0.94855022430419922
0 0.99966883659362793 0.99909955263137817
0 1 0.99746519327163696
0 1 0.99725985527038574
0.095879331231117249 0.999736487865448 0.98691767454147339
0.3918110728263855 1 0.96320527791976929
0.65564084053039551 0.99988418817520142 0.92339080572128296
0.88393086194992065 0.99112629890441895 0.85365945100784302
0.06258111447095871 0.058643758296966553 0.5140538215637207
0.1479051411151886 0.059834558516740799 0.69736593961715698
0.27842682600021362 0.051664929836988449 0.84658217430114746
0.44673749804496765 0.035355214029550552 0.95151036977767944
0.66490453481674194 0.014199455268681049 0.99700838327407837
0.91245114803314209 0.0061278846114873886 0.99972701072692871
0.99934482574462891 0.014606715179979801 1
0.039113137871026993 0.17732188105583191 0.97981011867523193
0.14105178415775299 0.17730048298835754 0.99993205070495605
0.30250322818756104 0.16948086023330688 1
0.51765066385269165 0.14860180020332336 1
0.77837657928466797 0.11565118283033371 1
0.99612730741500854 0.090591371059417725 1
1 0.11084356904029846 1
0.0061077792197465897 0.35904118418693542 1
0.082611620426177979 0.35787689685821533 1
0.2503335177898407 0.34444764256477356 1
0.49594917893409729 0.32020100951194763 1
0.77753263711929321 0.29188141226768494 1
0.99457466602325439 0.27299731969833374 1
1 0.27687600255012512 1
7.4678311648312956e-05 0.57841843366622925 1
0.028496401384472847 0.5781446099281311 1
0.16080795228481293 0.55884146690368652 1
0.4045068621635437 0.53143620491027832 1
0.69985932111740112 0.50748413801193237 1
0.96082800626754761 0.49043607711791992 1
1 0.48107209801673889 1
7.0010915806051344e-05 0.81416922807693481 0.99698472023010254
0.00084635417442768812 0.81109505891799927 0.99947535991668701
0.061285175383090973 0.78937774896621704 0.99918895959854126
0.28546494245529175 0.75415080785751343 1
0.59025281667709351 0.7249642014503479 0.99885588884353638
0.87310826778411865 0.69880563020706177 0.99921154975891113
1 0.67777150869369507 1
0 0.99422919750213623 0.99997472763061523
0 0.99240809679031372 1
0.00046784643200226128 0.99015110731124878 0.99948251247406006
0.17111475765705109 0.95802992582321167 1
0.4785136878490448 0.9328007698059082 1
0.75635319948196411 0.88905227184295654 0.9999961256980896
0.97810286283493042 0.84565973281860352 1
0 1 1
0 1 1
0 1 1
0.11392995715141296 1 1
0.39250472187995911 1 1
0.66065025329589844 0.99990034103393555 1
0.8808441162109375 0.99140274524688721 1
