assets/lut/youssefhossam cinematic forest.cube
# Created by: G'MIC (https://gmic.eu)
TITLE "cinematic_forest"
# LUT size
LUT_3D_SIZE 7
# Data domain
DOMAIN_MIN 0.0 0.0 0.0
DOMAIN_MAX 1.0 1.0 1.0
# LUT data points
0.018143178895115852 0.034406416118144989 0.063213780522346497
0.070308670401573181 0.059839658439159393 0.10572940856218338
0.16544224321842194 0.075349085032939911 0.12616880238056183
0.32021281123161316 0.07697334885597229 0.12642602622509003
0.55085164308547974 0.061489149928092957 0.10283313691616058
0.83437395095825195 0.027593649923801422 0.060798302292823792
0.9985651969909668 0.0035508996807038784 0.018824918195605278
0.039189103990793228 0.17796586453914642 0.11828028410673141
0.14534743130207062 0.1950562596321106 0.090821526944637299
0.3083139955997467 0.19823756814002991 0.050516538321971893
0.5373956561088562 0.18282100558280945 0.017731834203004837
0.87046664953231812 0.14739584922790527 0.0045702466741204262
0.99796366691589355 0.10273527354001999 0.0053387363441288471
1 0.068649023771286011 0.011152469553053379
0.0060468339361250401 0.37997382879257202 0.011331446468830109
0.1010928750038147 0.38675853610038757 0.011489643715322018
0.31712257862091064 0.38072556257247925 0.0036717283073812723
0.62403815984725952 0.34804156422615051 0.00088542862795293331
0.96934801340103149 0.30148798227310181 0
1 0.2433072030544281 0.0022305208258330822
1 0.17772968113422394 0.0060661016032099724
0.0065195420756936073 0.65063184499740601 0.0039308886043727398
0.029929980635643005 0.63151121139526367 0.0058012870140373707
0.20249950885772705 0.61111092567443848 0.0013491910649463534
0.53070014715194702 0.5896909236907959 0.00044524247641675174
0.92938864231109619 0.51438969373703003 0
0.99898993968963623 0.46463403105735779 0
0.9996684193611145 0.37826621532440186 0
0.0011560777202248573 0.95213145017623901 0.00077354582026600838
0.012060876004397869 0.91169345378875732 0.00061427097534760833
0.077659890055656433 0.87050795555114746 0
0.32748478651046753 0.8377193808555603 0
0.74510186910629272 0.77287048101425171 0
0.99713647365570068 0.70389699935913086 0
1 0.62143516540527344 0
0 0.99607843160629272 0
0.0085612880066037178 0.99519693851470947 0
0.044562380760908127 0.99278652667999268 0
0.20929071307182312 0.99473398923873901 0
0.53445744514465332 0.98037707805633545 0
0.92188888788223267 0.94121682643890381 0
1 0.86911243200302124 0
0.0016656613443046808 0.99928027391433716 0.00027304256218485534
0.024401690810918808 0.99607843160629272 0
0.06656106561422348 0.99215686321258545 0
0.18243344128131866 0.99605149030685425 0
0.33781585097312927 0.9978635311126709 0
0.72524380683898926 0.9979138970375061 0
0.99493551254272461 1 0
0.019768988713622093 0.038759343326091766 0.11374360322952271
0.07576528936624527 0.06131458654999733 0.17578242719173431
0.17783354222774506 0.075255587697029114 0.22213058173656464
0.33718383312225342 0.071135953068733215 0.24946103990077972
0.57198870182037354 0.049707107245922089 0.2633691132068634
0.85872435569763184 0.011332702822983265 0.26008808612823486
0.99834835529327393 0 0.23030632734298706
0.034544672816991806 0.17682601511478424 0.25264057517051697
0.13924996554851532 0.18892316520214081 0.26691386103630066
0.30271857976913452 0.18716657161712646 0.25931239128112793
0.54797470569610596 0.1656210720539093 0.23478470742702484
0.87158894538879395 0.12337710708379745 0.18483558297157288
0.99889874458312988 0.066702552139759064 0.11785049736499786
1 0.016860587522387505 0.04799487441778183
0.0035144730936735868 0.36838507652282715 0.20823894441127777
0.080345690250396729 0.3743252158164978 0.17688851058483124
0.30075386166572571 0.36221933364868164 0.11366773396730423
0.60907566547393799 0.32914012670516968 0.050852414220571518
0.9694787859916687 0.27614742517471313 0.011319956742227077
1 0.21409781277179718 0.0062926197424530983
1 0.14503157138824463 0.0097284652292728424
0.00045879589742980897 0.63262248039245605 0.029481237754225731
0.012284222990274429 0.61805397272109985 0.013259513303637505
0.19131334125995636 0.59482264518737793 0.015531562268733978
0.49133479595184326 0.56673318147659302 0.0048077600076794624
0.91535872220993042 0.49255573749542236 0.0025754293892532587
0.99978983402252197 0.44437482953071594 0.0030108434148132801
1 0.36206048727035522 0.0026263517793267965
6.354836659738794e-05 0.93652927875518799 0.0034660338424146175
0.0097329234704375267 0.90012490749359131 0.0053026238456368446
0.091500148177146912 0.86095362901687622 0.0097999423742294312
0.30679377913475037 0.81773549318313599 0.0051298700273036957
0.72206813097000122 0.75379735231399536 0.0036291833966970444
0.9972153902053833 0.68531274795532227 0
1 0.60609942674636841 0
0 0.99819713830947876 0.0066076093353331089
0.0078922044485807419 0.99497556686401367 0.0019891776610165834
0.051720082759857178 0.99303734302520752 0.00024930169456638396
0.20813755691051483 0.98667073249816895 0
0.51093834638595581 0.97588819265365601 0
0.91073930263519287 0.92460912466049194 0
1 0.85300332307815552 0
0 1 0.0092743970453739166
0.014795609749853611 0.99625074863433838 0.0049433391541242599
0.06847439706325531 0.9960707426071167 0.0010672624921426177
0.14712154865264893 0.99654132127761841 0.00012446385517250746
0.32489749789237976 0.99691486358642578 0
0.70382285118103027 0.99772900342941284 0
0.98873943090438843 0.99912393093109131 0
0.024042556062340736 0.044440712779760361 0.1723928302526474
0.082521058619022369 0.063629806041717529 0.25536572933197021
0.19076944887638092 0.074216477572917938 0.31983798742294312
0.35696309804916382 0.065174773335456848 0.37913280725479126
0.59567630290985107 0.038897152990102768 0.41200506687164307
0.88514101505279541 0.0020465028937906027 0.44005376100540161
0.99414622783660889 0 0.431173175573349
0.028914492577314377 0.176446333527565 0.38151347637176514
0.13298220932483673 0.18594181537628174 0.42196357250213623
0.30260926485061646 0.17862056195735931 0.44634100794792175
0.54969871044158936 0.15355417132377625 0.44753637909889221
0.8797648549079895 0.10441218316555023 0.43617555499076843
0.99922811985015869 0.046185631304979324 0.40847143530845642
1 0.0043107275851070881 0.36915269494056702
0.0012087504146620631 0.35968902707099915 0.44331684708595276
0.07047417014837265 0.36145612597465515 0.44478136301040649
0.28201526403427124 0.34459507465362549 0.42721465229988098
0.59264904260635376 0.3049415647983551 0.38440927863121033
0.95361113548278809 0.24556228518486023 0.32246559858322144
1 0.17457515001296997 0.24435709416866302
1 0.10208594799041748 0.15493144094944
0 0.62877470254898071 0.33227077126502991
0.0098306694999337196 0.59761428833007812 0.28869354724884033
0.13755673170089722 0.57659411430358887 0.2332254946231842
0.47526705265045166 0.53067916631698608 0.15896584093570709
0.89171308279037476 0.46452033519744873 0.082123741507530212
0.99999284744262695 0.39372307062149048 0.029017204418778419
1 0.31569841504096985 0.0055071213282644749
0 0.92355668544769287 0.1060444563627243
0.00073934817919507623 0.88177865743637085 0.050354436039924622
0.037733610719442368 0.83589094877243042 0.026417316868901253
0.27341729402542114 0.79282599687576294 0.020415317267179489
0.69735133647918701 0.72758376598358154 0.0081739388406276703
0.99385172128677368 0.65954971313476562 0.00012159160542069003
1 0.58596062660217285 0.00075709022348746657
0 0.9999091625213623 0.021852815523743629
0.003368123434484005 0.99752688407897949 0.014648257754743099
0.033882245421409607 0.99411451816558838 0.0099842743948101997
0.13974529504776001 0.98832261562347412 0.0057848910801112652
0.490703284740448 0.96156686544418335 0.00030230352422222495
0.8889349102973938 0.90531831979751587 0
0.99714034795761108 0.83302223682403564 0
0 1 0.018027914687991142
0.0077738594263792038 1 0.02923952043056488
0.044152561575174332 0.99996000528335571 0.015035232529044151
0.11314954608678818 0.99860668182373047 0.0099508101120591164
0.33804711699485779 0.99600398540496826 0.0027369630988687277
0.68883168697357178 0.99759966135025024 0
0.98971188068389893 0.99785721302032471 0
0.024642510339617729 0.048008445650339127 0.24289910495281219
0.08787962794303894 0.065959647297859192 0.33787080645561218
0.20370888710021973 0.072134621441364288 0.42567208409309387
0.36956927180290222 0.060835354030132294 0.50961899757385254
0.61569106578826904 0.027736872434616089 0.57033181190490723
0.91051602363586426 0.0003332100750412792 0.62485063076019287
0.99977004528045654 0 0.65961819887161255
0.027451623231172562 0.174692302942276 0.52699774503707886
0.1311240941286087 0.18051187694072723 0.58051043748855591
0.29785433411598206 0.17229543626308441 0.63239759206771851
0.55378001928329468 0.14250071346759796 0.65686118602752686
0.89123725891113281 0.087678320705890656 0.68282747268676758
0.99994426965713501 0.036614511162042618 0.66951495409011841
1 0.0056091458536684513 0.67409604787826538
0.0054489136673510075 0.35522177815437317 0.66305088996887207
0.064318381249904633 0.34926468133926392 0.69526106119155884
0.26834413409233093 0.32980430126190186 0.6915099024772644
0.5780448317527771 0.28657248616218567 0.68539714813232422
0.9480973482131958 0.22385966777801514 0.65330690145492554
0.99947845935821533 0.15377210080623627 0.60058724880218506
1 0.097295232117176056 0.55637866258621216
4.846909359912388e-05 0.60443508625030518 0.66342073678970337
0.0079940492287278175 0.5774075984954834 0.63572996854782104
0.12196988612413406 0.54922360181808472 0.62536704540252686
0.44758981466293335 0.5044785737991333 0.57591742277145386
0.85593253374099731 0.44020000100135803 0.51396834850311279
0.99825316667556763 0.35984033346176147 0.44576147198677063
1 0.2959502637386322 0.33067956566810608
0 0.9013177752494812 0.52447259426116943
0 0.85138225555419922 0.46441599726676941
0.031720224767923355 0.80802172422409058 0.4066067636013031
0.24107328057289124 0.76278889179229736 0.36475080251693726
0.65754777193069458 0.69764149188995361 0.26571962237358093
0.99141085147857666 0.62354171276092529 0.19896215200424194
0.99998635053634644 0.54787921905517578 0.11027449369430542
0 0.99830448627471924 0.33535200357437134
0 0.99516159296035767 0.26034238934516907
0.0021319969091564417 0.99487721920013428 0.177072674036026
0.074016645550727844 0.97905713319778442 0.12203439325094223
0.45054197311401367 0.93964254856109619 0.078390367329120636
0.85936236381530762 0.87489610910415649 0.035940565168857574
0.99958950281143188 0.80518794059753418 0.015320557169616222
0 1 0.09242585301399231
0.00086470961105078459 1 0.050861701369285583
0.0084033440798521042 1 0.032636575400829315
0.039316903799772263 0.99999356269836426 0.013166973367333412
0.29170379042625427 0.99823570251464844 0.012450214475393295
0.65614396333694458 0.99932348728179932 0.0071628047153353691
0.98430353403091431 0.99783027172088623 0.0034335416276007891
0.024529730901122093 0.054140113294124603 0.31735247373580933
0.091862998902797699 0.066479280591011047 0.44067403674125671
0.20909266173839569 0.071949422359466553 0.55543923377990723
0.38960555195808411 0.054883696138858795 0.6609458327293396
0.6401786208152771 0.016744142398238182 0.7391161322593689
0.93237841129302979 1.4361213516167481e-06 0.81225955486297607
0.99619674682617188 0 0.87577950954437256
0.027667758986353874 0.17569473385810852 0.6724618673324585
0.12164010107517242 0.17788073420524597 0.74863475561141968
0.28893426060676575 0.16795332729816437 0.81801432371139526
0.53369134664535522 0.13544993102550507 0.87695342302322388
0.89394474029541016 0.070808127522468567 0.91559553146362305
0.9961007833480835 0.029151422902941704 0.91971862316131592
0.99914121627807617 0.0032972448971122503 0.93981224298477173
0.0032944025006145239 0.34849002957344055 0.88796144723892212
0.059333533048629761 0.34056726098060608 0.92676514387130737
0.25721043348312378 0.31948548555374146 0.93144184350967407
0.55065464973449707 0.27478575706481934 0.95453214645385742
0.93639951944351196 0.20485788583755493 0.95362406969070435
0.99711471796035767 0.13004161417484283 0.92816251516342163
1 0.096349708735942841 0.89232337474822998
0 0.5939214825630188 0.95167410373687744
0.0051609263755381107 0.56231909990310669 0.94451248645782471
0.12569490075111389 0.5314255952835083 0.93980568647384644
0.40875896811485291 0.48841539025306702 0.92584741115570068
0.8296360969543457 0.41188952326774597 0.8862837553024292
0.98839974403381348 0.33735498785972595 0.82006984949111938
0.99979966878890991 0.27080425620079041 0.75832676887512207
0 0.88284909725189209 0.89919787645339966
0 0.83379113674163818 0.85603427886962891
0.020425714552402496 0.78372794389724731 0.81326168775558472
0.203211709856987 0.73715412616729736 0.78184336423873901
0.6261897087097168 0.66734439134597778 0.72343069314956665
0.97866708040237427 0.59413903951644897 0.66003185510635376
0.99878174066543579 0.51795917749404907 0.59159129858016968
0 0.99966722726821899 0.76179778575897217
0 0.99525678157806396 0.69704502820968628
0.0010003183269873261 0.98558664321899414 0.63750159740447998
0.10289875417947769 0.95499008893966675 0.58440631628036499
0.42149823904037476 0.90357261896133423 0.53765493631362915
0.82427400350570679 0.83761841058731079 0.47801885008811951
0.9999769926071167 0.77016454935073853 0.41043683886528015
0 1 0.59763437509536743
0 1 0.50963562726974487
0 0.99983865022659302 0.43545746803283691
0.023381641134619713 0.99789464473724365 0.38081550598144531
0.23901291191577911 0.99988901615142822 0.34473112225532532
0.61465543508529663 0.99441707134246826 0.28085312247276306
0.97342848777770996 0.98478156328201294 0.21753005683422089
0.02639026939868927 0.054741460829973221 0.40242880582809448
0.097992449998855591 0.064872130751609802 0.54026371240615845
0.22021079063415527 0.061503615230321884 0.67208272218704224
0.40714725852012634 0.042161289602518082 0.7916942834854126
0.67081737518310547 0.0073940949514508247 0.89713388681411743
0.9529765248298645 0.00023203830642160028 0.96764093637466431
0.99607843160629272 0.0027761422097682953 0.98185145854949951
0.02756316214799881 0.17464460432529449 0.81315499544143677
0.11940257996320724 0.17194749414920807 0.90562063455581665
0.29682472348213196 0.15480931103229523 0.95872294902801514
0.54869496822357178 0.11843399703502655 0.9757235050201416
0.90474146604537964 0.054498888552188873 0.99028885364532471
0.99222677946090698 0.027889879420399666 0.99440544843673706
0.99642711877822876 0.017894580960273743 0.99154436588287354
0.0082299327477812767 0.33946150541305542 0.98340785503387451
0.062371019273996353 0.33251738548278809 0.99043649435043335
0.2480417937040329 0.30940413475036621 0.99041569232940674
0.54856795072555542 0.25681117177009583 0.99198681116104126
0.93536102771759033 0.18818040192127228 0.99899256229400635
0.99443298578262329 0.12903431057929993 0.99221718311309814
0.99781471490859985 0.085621945559978485 0.98399221897125244
0.002791490638628602 0.57996129989624023 0.99608290195465088
0.013433972373604774 0.5478864312171936 0.99602913856506348
0.12133848667144775 0.52069628238677979 0.99601680040359497
0.38077482581138611 0.48128330707550049 0.99673670530319214
0.8072325587272644 0.39728999137878418 0.99936622381210327
0.98702728748321533 0.32447999715805054 0.984710693359375
0.99827796220779419 0.2543824315071106 0.97763949632644653
5.6547276471974328e-05 0.86865103244781494 1
0.00080635218182578683 0.81114166975021362 0.99908936023712158
0.012255351059138775 0.76267588138580322 0.99914073944091797
0.20275382697582245 0.71575385332107544 0.99799215793609619
0.60062944889068604 0.64864933490753174 0.9872814416885376
0.96790504455566406 0.57366549968719482 0.97289305925369263
0.99798524379730225 0.49631640315055847 0.93571346998214722
0 0.9999229907989502 0.99706172943115234
0 0.99776756763458252 0.99062800407409668
0 0.98096555471420288 0.96835523843765259
0.054350774735212326 0.94188773632049561 0.94237500429153442
0.38703837990760803 0.88643777370452881 0.90641719102859497
0.79392969608306885 0.81786859035491943 0.85306346416473389
0.99882042407989502 0.74662858247756958 0.79227107763290405
0 1 0.95006543397903442
0 1 0.89160668849945068
0 1 0.83299332857131958
0.023712262511253357 0.99946367740631104 0.7839357852935791
0.21499226987361908 0.99769878387451172 0.74585771560668945
0.58574402332305908 0.99204879999160767 0.69502556324005127
0.95520710945129395 0.97264593839645386 0.63377970457077026
0.024713912978768349 0.05759124830365181 0.48900023102760315
0.10129690915346146 0.066381894052028656 0.64726549386978149
0.22781834006309509 0.057073600590229034 0.79415428638458252
0.4221101701259613 0.03093668632209301 0.9208449125289917
0.69072914123535156 0.0058575351722538471 0.98102027177810669
0.96681374311447144 0.0010811151005327702 1
0.99601584672927856 0.0038602941203862429 0.99852138757705688
0.018699586391448975 0.16937963664531708 0.93408465385437012
0.12289516627788544 0.16657499969005585 0.97439920902252197
0.28308549523353577 0.15362299978733063 0.98437583446502686
0.53788900375366211 0.11513792723417282 0.99161773920059204
0.9101683497428894 0.043684311211109161 0.99684351682662964
0.99361228942871094 0.026121551170945168 0.99857872724533081
0.99607843160629272 0.025476763024926186 0.99785888195037842
0.013914459384977818 0.33870029449462891 0.99652612209320068
0.069567359983921051 0.32352513074874878 0.98912161588668823
0.25108984112739563 0.29398414492607117 0.99264591932296753
0.53858572244644165 0.24608668684959412 0.99796938896179199
0.93195754289627075 0.17382264137268066 1
0.99476122856140137 0.11800654977560043 0.99911320209503174
0.99804067611694336 0.055977780371904373 0.99767154455184937
0.001747625065036118 0.56547629833221436 1
0.012350882403552532 0.52423447370529175 0.99896413087844849
0.10405336320400238 0.49641993641853333 0.99884212017059326
0.37279847264289856 0.46578806638717651 1
0.80078566074371338 0.38094693422317505 1
0.98811918497085571 0.31555038690567017 0.99879801273345947
0.99792319536209106 0.23379999399185181 0.99706858396530151
1.7233456674148329e-05 0.85099834203720093 1
0.00013200347893871367 0.78849560022354126 1
0.009783770889043808 0.74176508188247681 1
0.20978604257106781 0.69968467950820923 1
0.58260583877563477 0.63159716129302979 0.99960076808929443
0.96380782127380371 0.55747395753860474 0.99851560592651367
1 0.48210766911506653 0.99981242418289185
0 0.99938619136810303 1
0 0.99534910917282104 1
0 0.97255063056945801 1
0.075246460735797882 0.92686229944229126 1
0.37835466861724854 0.86875933408737183 0.99999064207077026
0.78255051374435425 0.80409693717956543 0.99993777275085449
0.99923932552337646 0.72943073511123657 0.99908220767974854
0 1 1
0 1 0.99556386470794678
0 1 0.99965012073516846
0.0072300480678677559 0.99927365779876709 0.99829930067062378
0.19910076260566711 0.99928742647171021 0.99466639757156372
0.56879663467407227 0.99091190099716187 0.9853137731552124
0.94845837354660034 0.96246564388275146 0.96179944276809692
