assets/lut/youssefhossam darkness.cube
# Created by: G'MIC (https://gmic.eu)
TITLE "darkness"
# LUT size
LUT_3D_SIZE 5
# Data domain
DOMAIN_MIN 0.0 0.0 0.0
DOMAIN_MAX 1.0 1.0 1.0
# LUT data points
0.018439378589391708 0.019307125359773636 0.017110547050833702
0.062454387545585632 0.037134341895580292 0.037944912910461426
0.16905952990055084 0.037339858710765839 0.036074321717023849
0.35462945699691772 0.02849426306784153 0.025366151705384254
0.55938231945037842 0.019430078566074371 0.019910430535674095
0.057057011872529984 0.12616266310214996 0.058140385895967484
0.15397697687149048 0.15506082773208618 0.057544197887182236
0.48703709244728088 0.14760549366474152 0.018273865804076195
0.96842807531356812 0.10811951756477356 0.0006397920660674572
0.99998539686203003 0.10571208596229553 0.00020303165365476161
0 0.54324477910995483 1.4002182979311328e-05
0.046320326626300812 0.64254522323608398 0
0.55924290418624878 0.59133058786392212 0
0.99850606918334961 0.51166385412216187 0
1 0.51143407821655273 0
0.0064229327253997326 0.999980628490448 0
0.035382948815822601 0.99876159429550171 0
0.33295896649360657 0.99547845125198364 0
0.97802275419235229 0.98499393463134766 0
1 0.96845239400863647 0
0.0078783221542835236 1 0
0.11426571011543274 1 0
0.29840183258056641 1 0
0.87138485908508301 1 0
0.99782836437225342 1 0
0.025369292125105858 0.026839312165975571 0.040392227470874786
0.068076342344284058 0.041485313326120377 0.067266218364238739
0.19326694309711456 0.039274655282497406 0.081622615456581116
0.39608088135719299 0.025439079850912094 0.090194523334503174
0.63091862201690674 0.011115593835711479 0.10664259642362595
0.059019636362791061 0.13446253538131714 0.13190174102783203
0.16298069059848785 0.16432186961174011 0.16216596961021423
0.53951877355575562 0.14610350131988525 0.14007256925106049
0.98741382360458374 0.10097035765647888 0.089571334421634674
0.99981480836868286 0.067163698375225067 0.062438126653432846
0.00011471019388409331 0.58088952302932739 0.033798892050981522
0.046230599284172058 0.6570625901222229 0.022979017347097397
0.5832640528678894 0.5840986967086792 0.003269449807703495
0.99997198581695557 0.52922278642654419 0.0039746151305735111
1 0.51411145925521851 0.0052256565541028976
0.0027095868717879057 0.98937976360321045 0.0077266017906367779
0.02847239188849926 0.99655532836914062 0.0060803582891821861
0.32334697246551514 0.99784296751022339 9.4245464424602687e-05
0.96370875835418701 0.97357374429702759 0
1 0.94661420583724976 0.0013136172201484442
0.0030610626563429832 1 0.00035490148002281785
0.057607375085353851 1 0.0049324333667755127
0.31788641214370728 1 0.0050948048010468483
0.85366576910018921 1 0.0058222152292728424
0.99607843160629272 1 0.018465558066964149
0.025892235338687897 0.027995944023132324 0.089621752500534058
0.073478817939758301 0.042168710380792618 0.15283168852329254
0.21337713301181793 0.033996373414993286 0.20916113257408142
0.43400436639785767 0.012033948674798012 0.27229344844818115
0.70542001724243164 0 0.37784001231193542
0.045570001006126404 0.13582368195056915 0.34323751926422119
0.15549670159816742 0.16469267010688782 0.46244683861732483
0.57051581144332886 0.13089360296726227 0.56482207775115967
0.99500292539596558 0.051958046853542328 0.65563040971755981
1 0.013839916326105595 0.78735923767089844
0 0.57303881645202637 0.57264524698257446
0.0091201029717922211 0.62331026792526245 0.62072253227233887
0.53905373811721802 0.54574936628341675 0.53121179342269897
0.9989243745803833 0.45023220777511597 0.43017774820327759
1 0.44100826978683472 0.43301263451576233
0 0.99945038557052612 0.3499293327331543
1.7772001228877343e-05 0.99846464395523071 0.31916031241416931
0.21225771307945251 0.99282574653625488 0.1572701632976532
0.91519057750701904 0.91823101043701172 0.059596281498670578
1 0.87965339422225952 0.049191821366548538
0 1 0.28835201263427734
0.00029709760565310717 1 0.23799489438533783
0.22319260239601135 1 0.17296002805233002
0.79455447196960449 0.999950110912323 0.080246299505233765
0.99293547868728638 0.99917590618133545 0.095602221786975861
0.029241269454360008 0.030683346092700958 0.15773807466030121
0.078353941440582275 0.041404649615287781 0.25504022836685181
0.24303749203681946 0.027487959712743759 0.36125990748405457
0.48178154230117798 0.00047272327356040478 0.48016715049743652
0.77685642242431641 0 0.67350733280181885
0.034117456525564194 0.14051029086112976 0.58168178796768188
0.14792467653751373 0.16570605337619781 0.79996395111083984
0.6251642107963562 0.099703349173069 0.96523571014404297
0.99507391452789307 0.051729492843151093 0.99547743797302246
1 0.048671916127204895 0.98642086982727051
0 0.57432794570922852 0.99721759557723999
0.0072386795654892921 0.61691379547119141 0.99980950355529785
0.48744982481002808 0.50726199150085449 0.99987185001373291
0.99887681007385254 0.43384659290313721 0.99611747264862061
1 0.40267813205718994 0.99421173334121704
0 1 0.99789178371429443
0.001197381061501801 1 0.99932247400283813
0.12544025480747223 0.98381721973419189 0.97423028945922852
0.86083495616912842 0.85849863290786743 0.85855263471603394
0.99989801645278931 0.81773591041564941 0.81955647468566895
0 1 0.99672621488571167
0.002476666122674942 1 0.9934847354888916
0.12982058525085449 1 0.88086211681365967
0.73720085620880127 0.99525254964828491 0.73508799076080322
0.97992992401123047 0.98177832365036011 0.72334998846054077
0.03336314857006073 0.035536970943212509 0.20788589119911194
0.088069632649421692 0.043973855674266815 0.32240438461303711
0.26407447457313538 0.024600952863693237 0.4532109797000885
0.54675579071044922 0 0.62781840562820435
0.85659700632095337 0 0.85633116960525513
0.028516357764601707 0.15076595544815063 0.74629759788513184
0.15639026463031769 0.16324639320373535 0.95857459306716919
0.69151216745376587 0.08883233368396759 0.98468637466430664
0.9932975172996521 0.061514806002378464 1
0.99958544969558716 0.037978645414113998 1
0 0.58075332641601562 1
0.0082253552973270416 0.61730915307998657 1
0.52583491802215576 0.50211441516876221 1
0.9960135817527771 0.41203373670578003 1
1 0.37690028548240662 1
7.0010914896556642e-06 1 1
0.0089169368147850037 0.9999854564666748 0.99988800287246704
0.12510666251182556 0.97723788022994995 1
0.83960211277008057 0.84154939651489258 1
0.99569565057754517 0.79796856641769409 0.99985289573669434
0.0018529405351728201 1 0.99943506717681885
0.032494008541107178 1 0.99578768014907837
0.25796055793762207 1 0.99219661951065063
0.72466033697128296 0.99580615758895874 0.99155491590499878
0.98094004392623901 0.98267668485641479 0.97951239347457886
