assets/lut/youssefhossam halloween dark.cube
# Created by: G'MIC (https://gmic.eu)
TITLE "hallowen_dark"
# LUT size
LUT_3D_SIZE 5
# Data domain
DOMAIN_MIN 0.0 0.0 0.0
DOMAIN_MAX 1.0 1.0 1.0
# LUT data points
0.0086746811866760254 0.0077205882407724857 0.0080194957554340363
0.084506168961524963 0.0028216491919010878 0.0034986010286957026
0.25500345230102539 0 0
0.45771428942680359 0.00098971195984631777 0
0.64865976572036743 0.010469473898410797 0.0046191345900297165
0.0091715492308139801 0.093841060996055603 0.006822503637522459
0.1071932464838028 0.10867014527320862 0.012230008840560913
0.32138413190841675 0.11028421670198441 0.010774963535368443
0.56658446788787842 0.11921199411153793 0.0090572433546185493
0.7851143479347229 0.14184731245040894 0.021637052297592163
0.012368894182145596 0.30190029740333557 0.0083361910656094551
0.14315813779830933 0.34705844521522522 0.020119655877351761
0.37124952673912048 0.37049520015716553 0.030468495562672615
0.63702160120010376 0.38280555605888367 0.031562309712171555
0.87257462739944458 0.4105379581451416 0.042463071644306183
0.016176201403141022 0.61014091968536377 0.022265385836362839
0.16622963547706604 0.66451531648635864 0.040749315172433853
0.40455111861228943 0.68351978063583374 0.049712087959051132
0.67374575138092041 0.69157463312149048 0.049555327743291855
0.91280859708786011 0.718910813331604 0.06565132737159729
0.050241924822330475 0.91705191135406494 0.051623865962028503
0.2183254212141037 0.95632809400558472 0.067791946232318878
0.45291680097579956 0.96339601278305054 0.071801222860813141
0.71291935443878174 0.95633536577224731 0.069623015820980072
0.94956833124160767 0.95778286457061768 0.083407536149024963
0.0043181176297366619 0.0034623837564140558 0.078728392720222473
0.085343562066555023 0.0065088309347629547 0.076925076544284821
0.2593042254447937 0.00067228428088128567 0.048015430569648743
0.46746250987052917 0.006217567715793848 0.028204899281263351
0.65973031520843506 0.015163945034146309 0.035153690725564957
0.011354468762874603 0.10109230130910873 0.081394240260124207
0.11456668376922607 0.11802993714809418 0.10198002308607101
0.32724884152412415 0.11728513985872269 0.10116683691740036
0.58001303672790527 0.12402506917715073 0.10036526620388031
0.79874765872955322 0.14517010748386383 0.12003066390752792
0.0095952050760388374 0.32108291983604431 0.090117119252681732
0.14353282749652863 0.3663996160030365 0.11865805834531784
0.38284954428672791 0.38945856690406799 0.13925376534461975
0.6567193865776062 0.40290766954421997 0.14623437821865082
0.88803267478942871 0.43096256256103516 0.16555570065975189
0.01031805295497179 0.62590974569320679 0.13364891707897186
0.16889716684818268 0.6795647144317627 0.15178635716438293
0.42106622457504272 0.69737726449966431 0.17407050728797913
0.69898355007171631 0.70751357078552246 0.1771349310874939
0.93382716178894043 0.73350983858108521 0.19351425766944885
0.04380054771900177 0.92461949586868286 0.19660937786102295
0.22303560376167297 0.96305215358734131 0.20942187309265137
0.46968424320220947 0.97045719623565674 0.21575398743152618
0.74200916290283203 0.96474075317382812 0.20894311368465424
0.97325468063354492 0.97248059511184692 0.22835557162761688
0.00079848343739286065 0.00022995892504695803 0.22994820773601532
0.084918990731239319 0.0035595314111560583 0.22935721278190613
0.25864562392234802 4.846909359912388e-05 0.20478464663028717
0.47294697165489197 0 0.18307551741600037
0.67546188831329346 0 0.18435284495353699
0.010329586453735828 0.10095228254795074 0.25701203942298889
0.121138796210289 0.12325441092252731 0.28240916132926941
0.33097895979881287 0.12505964934825897 0.28823864459991455
0.58895069360733032 0.12004712969064713 0.29230257868766785
0.81650459766387939 0.13544587790966034 0.31659162044525146
0.010103457607328892 0.33069619536399841 0.27970117330551147
0.15000560879707336 0.37538206577301025 0.31661313772201538
0.39147517085075378 0.4004034698009491 0.34243768453598022
0.667225182056427 0.41260334849357605 0.35537654161453247
0.89935046434402466 0.43586570024490356 0.37881860136985779
0.014842582866549492 0.6320151686668396 0.32744762301445007
0.1834414005279541 0.6803666353225708 0.35824292898178101
0.4346109926700592 0.7048027515411377 0.38358157873153687
0.70774441957473755 0.71727776527404785 0.38949018716812134
0.9369691014289856 0.73902565240859985 0.40435546636581421
0.04803016409277916 0.9278377890586853 0.39776232838630676
0.23350565135478973 0.96286404132843018 0.41940599679946899
0.47974535822868347 0.97279292345046997 0.42985507845878601
0.74461740255355835 0.97189366817474365 0.42406606674194336
0.97443515062332153 0.97790670394897461 0.43710753321647644
0.0024271947331726551 0 0.42274865508079529
0.091066740453243256 0 0.42856577038764954
0.25385305285453796 0 0.41695040464401245
0.47131413221359253 0 0.4019489586353302
0.68583452701568604 0.00017269358795601875 0.40471610426902771
0.010175757110118866 0.097299374639987946 0.46937626600265503
0.12891830503940582 0.11669152975082397 0.50881791114807129
0.33666595816612244 0.12887947261333466 0.52431333065032959
0.59730488061904907 0.12985068559646606 0.53154778480529785
0.83620911836624146 0.14970105886459351 0.55834627151489258
0.012316176667809486 0.33730858564376831 0.50676745176315308
0.16025030612945557 0.37896609306335449 0.55521911382675171
0.40328261256217957 0.40699663758277893 0.58615249395370483
0.6794852614402771 0.41757166385650635 0.6044502854347229
0.91519230604171753 0.43604370951652527 0.62902951240539551
0.02086169645190239 0.64099472761154175 0.55929410457611084
0.19141863286495209 0.68806123733520508 0.60606938600540161
0.4427950382232666 0.7142753005027771 0.63370901346206665
0.71245777606964111 0.72191447019577026 0.63903683423995972
0.94024807214736938 0.73416435718536377 0.65283429622650146
0.056317918002605438 0.93510091304779053 0.63173472881317139
0.24117976427078247 0.96639728546142578 0.66698718070983887
0.48362129926681519 0.97482925653457642 0.68143421411514282
0.74085533618927002 0.97176140546798706 0.66821575164794922
0.96690124273300171 0.97312361001968384 0.67636299133300781
0.010942810215055943 0.0013430427061393857 0.61774951219558716
0.092043869197368622 0 0.61864447593688965
0.24858462810516357 0 0.61374199390411377
0.46904835104942322 0 0.60893005132675171
0.68205773830413818 0.0074259741231799126 0.60737305879592896
0.01238575391471386 0.095938451588153839 0.6685369610786438
0.1342688649892807 0.11996917426586151 0.70051902532577515
0.34154137969017029 0.13637009263038635 0.72005605697631836
0.60449528694152832 0.14364144206047058 0.74043911695480347
0.85055321455001831 0.15495398640632629 0.77323216199874878
0.016017794609069824 0.35443824529647827 0.71562749147415161
0.16851584613323212 0.39372676610946655 0.76333403587341309
0.41617491841316223 0.4172515869140625 0.79250574111938477
0.69116395711898804 0.42466685175895691 0.81534492969512939
0.9232933521270752 0.44367247819900513 0.84242707490921021
0.032095111906528473 0.66050451993942261 0.77489364147186279
0.19551917910575867 0.70826035737991333 0.82540059089660645
0.45491686463356018 0.72912758588790894 0.84605425596237183
0.72108656167984009 0.72881710529327393 0.85154944658279419
0.94103562831878662 0.74647039175033569 0.86433011293411255
0.070865124464035034 0.94897907972335815 0.85906636714935303
0.25591304898262024 0.97330176830291748 0.88682001829147339
0.49931338429450989 0.97550177574157715 0.89013761281967163
0.74908405542373657 0.96794074773788452 0.87849873304367065
0.96696054935455322 0.97022384405136108 0.88669407367706299
