assets/lut/youssefhossam sea.cube
# Created by: G'MIC (https://gmic.eu)
TITLE "sea"
# LUT size
LUT_3D_SIZE 7
# Data domain
DOMAIN_MIN 0.0 0.0 0.0
DOMAIN_MAX 1.0 1.0 1.0
# LUT data points
0.033278089016675949 0.032674424350261688 0.069493405520915985
0.27564534544944763 0.016055373474955559 0.050764914602041245
0.52305948734283447 0.020200915634632111 0.042450625449419022
0.76759284734725952 0.020128959789872169 0.045947596430778503
0.97011256217956543 0.026115657761693001 0.033236529678106308
1 0.022242661565542221 0.0288722924888134
1 0.019915815442800522 0.027688732370734215
0.0029965867288410664 0.22914896905422211 0.016603536903858185
0.2093321830034256 0.21198156476020813 0.021549524739384651
0.45671343803405762 0.19243745505809784 0.011026135645806789
0.69411849975585938 0.17558960616588593 0.002240289468318224
0.91222023963928223 0.16696636378765106 0.005772564560174942
1 0.16460296511650085 0.0015146442456170917
1 0.15631046891212463 0.00066330854315310717
0.00056960160145536065 0.43029019236564636 0.0068502835929393768
0.15281179547309875 0.41128545999526978 0.0082332389429211617
0.38659036159515381 0.39191526174545288 0.00051329372217878699
0.62462252378463745 0.37345355749130249 0
0.85499173402786255 0.35997271537780762 0
0.99874615669250488 0.35115924477577209 0
1 0.34002411365509033 0
0 0.62754011154174805 0.0004645852604880929
0.090988337993621826 0.6049075722694397 0.00032402487704530358
0.3133138120174408 0.58531844615936279 0
0.55650961399078369 0.56567168235778809 0
0.78085339069366455 0.54955774545669556 0.00034480376052670181
0.97988700866699219 0.53767555952072144 0.0011116177774965763
1 0.52561777830123901 0
0 0.8211478590965271 0
0.032711628824472427 0.7926640510559082 0
0.24001900851726532 0.77174901962280273 0
0.49254372715950012 0.74864107370376587 0
0.72705608606338501 0.72989195585250854 0.00029482375248335302
0.93338769674301147 0.71149098873138428 0.00091189215891063213
1 0.70011883974075317 0
0.0036489898338913918 0.98251324892044067 0.0015863305889070034
0.046173110604286194 0.95689666271209717 0
0.20396970212459564 0.93764775991439819 0
0.43543827533721924 0.91804027557373047 0
0.67009550333023071 0.90295439958572388 0
0.88924473524093628 0.88266515731811523 0.0034084543585777283
1 0.87273389101028442 0
0.0083242524415254593 1 0.0024639952462166548
0.068987347185611725 1 0
0.20106557011604309 1 0
0.39917495846748352 1 0
0.61719858646392822 1 0
0.83071130514144897 0.99972498416900635 0.0043775821104645729
0.98620891571044922 0.99624341726303101 0.00018708471907302737
0.025019058957695961 0.031049212440848351 0.32670116424560547
0.25886237621307373 0.017136847600340843 0.31390857696533203
0.5123705267906189 0.0073417960666120052 0.29061058163642883
0.76124101877212524 0.006215997040271759 0.27015158534049988
0.96390175819396973 0.0065306122414767742 0.25310531258583069
1 0.0045684068463742733 0.2511897087097168
1 0.0057525187730789185 0.24737776815891266
0.0027987011708319187 0.22320276498794556 0.26054227352142334
0.20046184957027435 0.20180119574069977 0.24471275508403778
0.44345450401306152 0.18030564486980438 0.22118273377418518
0.68296784162521362 0.16479651629924774 0.20883888006210327
0.90725535154342651 0.14925397932529449 0.1904449462890625
1 0.14034156501293182 0.18253037333488464
0.99979645013809204 0.13667145371437073 0.17542362213134766
0.0056045833043754101 0.42282164096832275 0.19886550307273865
0.15054614841938019 0.40215104818344116 0.18048009276390076
0.37908661365509033 0.38331130146980286 0.15340667963027954
0.61521792411804199 0.36671844124794006 0.14193539321422577
0.85305196046829224 0.35103687644004822 0.12208401411771774
0.99794816970825195 0.3401341438293457 0.11008122563362122
0.99928349256515503 0.32925915718078613 0.098987594246864319
0.0010368645889684558 0.61770516633987427 0.13903208076953888
0.097078166902065277 0.59585791826248169 0.12672911584377289
0.31505885720252991 0.57674646377563477 0.087530680000782013
0.5538257360458374 0.55696135759353638 0.070216372609138489
0.77564805746078491 0.54150819778442383 0.06597861647605896
0.9632641077041626 0.52882832288742065 0.05336487665772438
1 0.51679050922393799 0.050719451159238815
0.00041771683027036488 0.80590802431106567 0.079810947179794312
0.04993293434381485 0.78549569845199585 0.084399387240409851
0.24360494315624237 0.76424825191497803 0.050100736320018768
0.49700465798377991 0.73584228754043579 0.02589334174990654
0.7190403938293457 0.71913188695907593 0.033856365829706192
0.92536419630050659 0.70437240600585938 0.037105128169059753
1 0.69239020347595215 0.039212513715028763
0.0040095611475408077 0.96205693483352661 0.071535162627696991
0.039212170988321304 0.95300406217575073 0.03879566490650177
0.19064673781394958 0.93822872638702393 0.017026355490088463
0.42692914605140686 0.91115880012512207 0.017453916370868683
0.65815126895904541 0.89464080333709717 0.029756732285022736
0.8760751485824585 0.87679445743560791 0.021070728078484535
1 0.85956782102584839 0.0079166190698742867
0.0024686327669769526 0.99972689151763916 0.047950174659490585
0.049698580056428909 1 0.013993192464113235
0.17695839703083038 1 0.0092062558978796005
0.37892946600914001 1 0.021710235625505447
0.59856730699539185 1 0.03358045220375061
0.81169778108596802 0.99931800365447998 0.016590612009167671
0.98507189750671387 0.99168813228607178 0.0011864905245602131
0.023741822689771652 0.030296595767140388 0.57380074262619019
0.23905032873153687 0.01577300950884819 0.5654488205909729
0.49863964319229126 0.0065687890164554119 0.54724574089050293
0.75385838747024536 0.0026338465977460146 0.52829962968826294
0.9623522162437439 0.0037837459240108728 0.51525694131851196
1 0.0065467683598399162 0.51862382888793945
1 0.0084187677130103111 0.51729577779769897
0.0020282820332795382 0.21749864518642426 0.52111077308654785
0.17335213720798492 0.19517397880554199 0.50447553396224976
0.42812266945838928 0.17259116470813751 0.48634541034698486
0.67922145128250122 0.15095032751560211 0.47056519985198975
0.90313625335693359 0.1394270658493042 0.45285028219223022
1 0.14166100323200226 0.4532010555267334
1 0.14484606683254242 0.45286840200424194
0.0062885358929634094 0.41655954718589783 0.45726475119590759
0.13104283809661865 0.39450103044509888 0.4333001971244812
0.37000265717506409 0.37319755554199219 0.41579523682594299
0.60992741584777832 0.35280293226242065 0.40559116005897522
0.84757184982299805 0.3379366397857666 0.38403213024139404
0.99802905321121216 0.33098414540290833 0.37780386209487915
1 0.32384070754051208 0.37266093492507935
8.0961341154761612e-05 0.61154019832611084 0.38908261060714722
0.090732559561729431 0.58825385570526123 0.36770868301391602
0.31028950214385986 0.56732296943664551 0.3442237377166748
0.54228657484054565 0.54744094610214233 0.32658633589744568
0.76969164609909058 0.53172147274017334 0.31166431307792664
0.97325664758682251 0.51891589164733887 0.304473876953125
1 0.50681072473526001 0.29485622048377991
0.00037811876973137259 0.80043375492095947 0.33536237478256226
0.068407587707042694 0.77535462379455566 0.31070101261138916
0.25268015265464783 0.75242644548416138 0.28435465693473816
0.48164030909538269 0.72770404815673828 0.25717982649803162
0.70271569490432739 0.7085646390914917 0.25048601627349854
0.92285060882568359 0.69197249412536621 0.24237695336341858
1 0.67917239665985107 0.23445969820022583
0.0030228858813643456 0.97084420919418335 0.29796040058135986
0.053064428269863129 0.94142955541610718 0.2541143000125885
0.20055706799030304 0.91846549510955811 0.23319773375988007
0.41790118813514709 0.89724695682525635 0.21281234920024872
0.64398163557052612 0.88187772035598755 0.20138850808143616
0.86604124307632446 0.86256080865859985 0.18826539814472198
0.9999924898147583 0.84333884716033936 0.17861215770244598
0.0024198195897042751 1 0.23007623851299286
0.051477618515491486 1 0.19640469551086426
0.17638921737670898 1 0.18785952031612396
0.37008678913116455 1 0.18439805507659912
0.58714139461517334 0.99975872039794922 0.17429155111312866
0.80326604843139648 0.99692428112030029 0.14805777370929718
0.9841233491897583 0.98805826902389526 0.12196628004312515
0.035534892231225967 0.027989855036139488 0.80361157655715942
0.23728780448436737 0.014004157856106758 0.79460108280181885
0.4907476007938385 0.0050345179624855518 0.78023356199264526
0.74628174304962158 0.0013819077285006642 0.77080750465393066
0.96148085594177246 0.005834527313709259 0.76762062311172485
1 0.018701545894145966 0.779896080493927
1 0.018595706671476364 0.78061956167221069
0.0057940464466810226 0.21123610436916351 0.77564215660095215
0.16960518062114716 0.18956004083156586 0.75094515085220337
0.42166301608085632 0.16852997243404388 0.7264971137046814
0.67312633991241455 0.14200766384601593 0.71086066961288452
0.89385813474655151 0.13409286737442017 0.69870704412460327
1 0.15109652280807495 0.70658636093139648
1 0.15536311268806458 0.71521955728530884
0.0021349738817662001 0.41010037064552307 0.70789259672164917
0.12094460427761078 0.38794049620628357 0.68179225921630859
0.3629651665687561 0.36736640334129333 0.66270697116851807
0.60763692855834961 0.3445432186126709 0.64913648366928101
0.83909755945205688 0.32997357845306396 0.63195395469665527
0.99712985754013062 0.32577913999557495 0.62017077207565308
1 0.32061895728111267 0.62985366582870483
0.00016461541235912591 0.60432446002960205 0.63974213600158691
0.088134229183197021 0.57961130142211914 0.61742556095123291
0.30551418662071228 0.55739158391952515 0.59871023893356323
0.53634357452392578 0.53865522146224976 0.58128970861434937
0.76048225164413452 0.52499485015869141 0.56183147430419922
0.96366226673126221 0.50978058576583862 0.54814893007278442
1 0.49708142876625061 0.54603022336959839
0 0.78956663608551025 0.59212851524353027
0.063708871603012085 0.76237916946411133 0.56229293346405029
0.25024968385696411 0.74003618955612183 0.54225283861160278
0.47269546985626221 0.71806561946868896 0.51897501945495605
0.69405347108840942 0.69840079545974731 0.49996227025985718
0.91277885437011719 0.6827244758605957 0.48312461376190186
1 0.66835373640060425 0.4746137261390686
0.00070431281346827745 0.95991057157516479 0.54086041450500488
0.049958832561969757 0.92941069602966309 0.50762903690338135
0.19980034232139587 0.90354049205780029 0.49174308776855469
0.41196379065513611 0.88562726974487305 0.4610748291015625
0.63561016321182251 0.87038898468017578 0.43778371810913086
0.85499298572540283 0.85284984111785889 0.42712828516960144
0.99965804815292358 0.83280438184738159 0.41622486710548401
0.0030637255404144526 1 0.47424149513244629
0.048945438116788864 1 0.44317734241485596
0.17252273857593536 1 0.42790749669075012
0.36491864919662476 0.99910366535186768 0.40722781419754028
0.58034497499465942 0.9979407787322998 0.38728994131088257
0.79277795553207397 0.99406588077545166 0.37498250603675842
0.97807878255844116 0.98154985904693604 0.35414063930511475
0.050695203244686127 0.024440929293632507 0.97463274002075195
0.24169018864631653 0.010292875580489635 0.96701598167419434
0.48388770222663879 0.0023542216513305902 0.96152067184448242
0.73683679103851318 2.2618911316385493e-05 0.97397631406784058
0.95584505796432495 0.012699531391263008 0.98271721601486206
1 0.031661674380302429 0.98112601041793823
1 0.026838550344109535 0.97702616453170776
0.023613335564732552 0.20246711373329163 0.98294991254806519
0.1831507533788681 0.18014772236347198 0.95382815599441528
0.41580492258071899 0.15726432204246521 0.93234151601791382
0.66255700588226318 0.13329292833805084 0.93562465906143188
0.88445395231246948 0.14070917665958405 0.93663203716278076
0.99985772371292114 0.15813803672790527 0.92606067657470703
1 0.15923133492469788 0.92447084188461304
0.015200117602944374 0.40102115273475647 0.93426865339279175
0.13916593790054321 0.37940368056297302 0.90733015537261963
0.35722926259040833 0.35933408141136169 0.8886110782623291
0.59660840034484863 0.33788782358169556 0.8829340934753418
0.82062584161758423 0.32836207747459412 0.87558847665786743
0.98718434572219849 0.32341262698173523 0.85280656814575195
1 0.31542238593101501 0.85740208625793457
0.007449041586369276 0.59696507453918457 0.87180960178375244
0.092123933136463165 0.57320433855056763 0.84785312414169312
0.30160367488861084 0.55215281248092651 0.82993912696838379
0.5309823751449585 0.53141731023788452 0.82122749090194702
0.75056058168411255 0.51728463172912598 0.80277442932128906
0.95260953903198242 0.50369584560394287 0.77500343322753906
1 0.48812144994735718 0.77730357646942139
0 0.78476846218109131 0.82000511884689331
0.030666666105389595 0.75444400310516357 0.78530561923980713
0.2359870970249176 0.73280411958694458 0.76508897542953491
0.46929827332496643 0.70972830057144165 0.75474107265472412
0.68732017278671265 0.69115114212036133 0.73187029361724854
0.90411722660064697 0.6775517463684082 0.70936799049377441
1 0.66075176000595093 0.70397132635116577
3.1115962428884814e-06 0.95796763896942139 0.76959455013275146
0.023214077576994896 0.92774313688278198 0.73715853691101074
0.18220096826553345 0.90362834930419922 0.71769970655441284
0.41089567542076111 0.88181531429290771 0.69202011823654175
0.63398051261901855 0.86260724067687988 0.6645050048828125
0.84734863042831421 0.84661048650741577 0.650654137134552
0.99850296974182129 0.82779413461685181 0.64120805263519287
0.0035787096712738276 1 0.70813626050949097
0.028032414615154266 1 0.67989194393157959
0.15200610458850861 1 0.66101855039596558
0.36016631126403809 0.99894106388092041 0.63271939754486084
0.57940566539764404 0.99590945243835449 0.60694044828414917
0.79070430994033813 0.9907345175743103 0.59051042795181274
0.97632622718811035 0.97807228565216064 0.57863473892211914
0.038731414824724197 0.022224590182304382 1
0.22824762761592865 0.0079600466415286064 1
0.47168031334877014 0.0013542624656111002 1
0.72805821895599365 0 1
0.94679373502731323 0.0038441827055066824 1
1 0.026361981406807899 1
1 0.0270093884319067 1
0.011927480809390545 0.19455417990684509 1
0.17226788401603699 0.1705302894115448 1
0.40333491563796997 0.1477738618850708 1
0.65374761819839478 0.12351442128419876 1
0.88388049602508545 0.12663659453392029 1
1 0.14780387282371521 1
1 0.15494278073310852 1
0.009946770966053009 0.39358603954315186 1
0.1367093026638031 0.37133380770683289 1
0.34755775332450867 0.35051366686820984 1
0.58758610486984253 0.32864084839820862 1
0.81897509098052979 0.31805938482284546 0.99963092803955078
0.98834133148193359 0.3121475875377655 0.98515218496322632
1 0.30631381273269653 0.99622803926467896
0.0039063398726284504 0.59048563241958618 1
0.082411251962184906 0.56862562894821167 0.99919039011001587
0.28667709231376648 0.54674422740936279 0.99740684032440186
0.52114063501358032 0.52295517921447754 0.99291199445724487
0.74144130945205688 0.50727939605712891 0.98637419939041138
0.93659251928329468 0.49288713932037354 0.95927506685256958
1 0.47736307978630066 0.96200084686279297
0 0.77125787734985352 0.99619323015213013
0.01061649713665247 0.74939489364624023 0.98857951164245605
0.21699292957782745 0.72322273254394531 0.97104495763778687
0.46326452493667603 0.69783967733383179 0.95682775974273682
0.68019145727157593 0.68152320384979248 0.94466757774353027
0.88444322347640991 0.66741770505905151 0.9293055534362793
0.99999856948852539 0.64985573291778564 0.90997636318206787
0.0015908933710306883 0.94418317079544067 0.97787010669708252
0.0077777937985956669 0.91931688785552979 0.95793455839157104
0.17391911149024963 0.89733719825744629 0.93923461437225342
0.41476237773895264 0.87079215049743652 0.91490572690963745
0.63050967454910278 0.85084372758865356 0.88632601499557495
0.83395421504974365 0.83518838882446289 0.87570202350616455
0.99598878622055054 0.81598019599914551 0.85693973302841187
0.0013169831363484263 1 0.92824035882949829
0.00045985801261849701 1 0.90261673927307129
0.12106311321258545 1 0.88601064682006836
0.35850289463996887 0.99933022260665894 0.85402399301528931
0.57618755102157593 0.99381166696548462 0.82850271463394165
0.78059005737304688 0.98887890577316284 0.80758535861968994
0.97381120920181274 0.97436332702636719 0.79397988319396973
0.019583474844694138 0.023669926449656487 1
0.20768845081329346 0.009481377899646759 1
0.45862218737602234 0.0036761115770787001 1
0.71863853931427002 0.00013302073057275265 0.99994051456451416
0.94699925184249878 0.0025019627064466476 0.99903035163879395
1 0.028621958568692207 0.99994629621505737
1 0.026077315211296082 1
0.00020518583187367767 0.18895822763442993 1
0.14998236298561096 0.16910657286643982 1
0.39278146624565125 0.15415103733539581 1
0.64884942770004272 0.13036593794822693 0.99966764450073242
0.8806610107421875 0.11360916495323181 0.99621498584747314
0.99998056888580322 0.14257118105888367 0.99723517894744873
1 0.1545816957950592 1
0.0026900498196482658 0.3906039297580719 1
0.12820373475551605 0.36823874711990356 1
0.33988621830940247 0.34930893778800964 1
0.58712267875671387 0.32833701372146606 1
0.82790273427963257 0.30894270539283752 0.99984151124954224
0.99331545829772949 0.306479811668396 0.99672269821166992
1 0.30642002820968628 1
0.0036510243080556393 0.58694738149642944 1
0.091951720416545868 0.56228792667388916 1
0.28033143281936646 0.53829497098922729 1
0.51915520429611206 0.51561301946640015 1
0.75404167175292969 0.49807608127593994 1
0.94682931900024414 0.48603031039237976 1
1 0.47483077645301819 1
9.8015283583663404e-05 0.76478368043899536 1
0.039184615015983582 0.7383846640586853 1
0.21507249772548676 0.71197128295898438 1
0.45631727576255798 0.68743622303009033 1
0.68027853965759277 0.67127418518066406 1
0.87837457656860352 0.65768873691558838 1
0.99960702657699585 0.64376550912857056 1
0 0.94253057241439819 1
0.0035330827813595533 0.91282641887664795 1
0.16082583367824554 0.88397371768951416 1
0.40527835488319397 0.85579121112823486 1
0.62168341875076294 0.84053665399551392 1
0.82298976182937622 0.82120740413665771 1
0.99258518218994141 0.80820000171661377 0.99941462278366089
0 1 1
2.5281718990299851e-05 1 1
0.11732921004295349 0.99879705905914307 0.9999813437461853
0.35497280955314636 0.99537193775177002 0.99988096952438354
0.56671303510665894 0.99040168523788452 0.99632197618484497
0.76937186717987061 0.98117011785507202 0.99193531274795532
0.96969836950302124 0.972400963306427 0.98882925510406494
