assets/lut/youssefhossam halloween dark.cube
# Created by: G'MIC (https://gmic.eu)
TITLE "hallowen_dark"
# LUT size
LUT_3D_SIZE 13
# Data domain
DOMAIN_MIN 0.0 0.0 0.0
DOMAIN_MAX 1.0 1.0 1.0
# LUT data points
0.0086746811866760254 0.0077205882407724857 0.0080194957554340363
0.027024392038583755 0.0068244487047195435 0.0078940596431493759
0.049789953976869583 0.0047679226845502853 0.0063306773081421852
0.084506168961524963 0.0028216491919010878 0.0034986010286957026
0.13262344896793365 0.00088082108413800597 0.00083381804870441556
0.19037005305290222 7.378073496511206e-05 3.8775277062086388e-05
0.25500345230102539 0 0
0.32261213660240173 0 0
0.39067575335502625 0.00034000171581283212 0
0.45771428942680359 0.00098971195984631777 0
0.5226173996925354 0.002497250447049737 0
0.58604657649993896 0.0052634445019066334 0.00026646035257726908
0.64865976572036743 0.010469473898410797 0.0046191345900297165
0.010560278780758381 0.027259677648544312 0.0090813282877206802
0.028817031532526016 0.028255192562937737 0.011294196359813213
0.053047675639390945 0.028159467503428459 0.010694661177694798
0.090106979012489319 0.025081021711230278 0.0080508366227149963
0.14237149059772491 0.020702647045254707 0.004651178140193224
0.20626306533813477 0.017406927421689034 0.0017392027657479048
0.27642601728439331 0.016544118523597717 0.00029322307091206312
0.34946438670158386 0.017127497121691704 1.382266782457009e-05
0.42277461290359497 0.019996928051114082 0
0.49427485466003418 0.023744275793433189 5.9240005612082314e-06
0.56317716836929321 0.028688259422779083 0.00046093511627987027
0.629677414894104 0.03481089323759079 0.004092107992619276
0.6945536732673645 0.043560836464166641 0.012162555940449238
0.009105428121984005 0.053897198289632797 0.0080632530152797699
0.031064111739397049 0.057268913835287094 0.010606758296489716
0.056990470737218857 0.060894999653100967 0.011642157100141048
0.097428187727928162 0.059801634401082993 0.011509016156196594
0.15438024699687958 0.056730426847934723 0.009914652444422245
0.22296017408370972 0.054957520216703415 0.0068987528793513775
0.29844680428504944 0.055390615016222 0.0039705764502286911
0.37744247913360596 0.056505583226680756 0.0022814283147454262
0.45561563968658447 0.059603344649076462 0.0018164541106671095
0.53139245510101318 0.064125329256057739 0.0023371677380055189
0.60408139228820801 0.069764427840709686 0.0047459769994020462
0.67384237051010132 0.076509185135364532 0.010229971259832382
0.74105030298233032 0.086416251957416534 0.017282238230109215
0.0091715492308139801 0.093841060996055603 0.006822503637522459
0.03326822817325592 0.099614284932613373 0.0083268554881215096
0.063138790428638458 0.10581690818071365 0.011590306647121906
0.1071932464838028 0.10867014527320862 0.012230008840560913
0.16810719668865204 0.10843199491500854 0.013779374770820141
0.24031265079975128 0.10901001840829849 0.012900467962026596
0.32138413190841675 0.11028421670198441 0.010774963535368443
0.40473997592926025 0.11150795221328735 0.0091476738452911377
0.48734363913536072 0.11426842212677002 0.0083254342898726463
0.56658446788787842 0.11921199411153793 0.0090572433546185493
0.64255636930465698 0.12534989416599274 0.01155248936265707
0.71560472249984741 0.13199003040790558 0.015838623046875
0.7851143479347229 0.14184731245040894 0.021637052297592163
0.0099217584356665611 0.14903946220874786 0.0053101484663784504
0.037899121642112732 0.15742792189121246 0.0077098174951970577
0.072564728558063507 0.16668839752674103 0.011557306163012981
0.12007389217615128 0.17397931218147278 0.01432616263628006
0.18298225104808807 0.17845261096954346 0.016709690913558006
0.25836449861526489 0.18086351454257965 0.017809385433793068
0.34157338738441467 0.18310444056987762 0.017661180347204208
0.42872133851051331 0.18372352421283722 0.017150295898318291
0.51452893018722534 0.18644827604293823 0.016531670466065407
0.59666448831558228 0.19224515557289124 0.016911091282963753
0.67561501264572144 0.19810390472412109 0.018535569310188293
0.75151073932647705 0.20457051694393158 0.021642662584781647
0.82353085279464722 0.21335682272911072 0.026381203904747963
0.011186098679900169 0.21862933039665222 0.006193108856678009
0.043073512613773346 0.22984345257282257 0.0087099708616733551
0.082013614475727081 0.24292783439159393 0.012471696361899376
0.13282567262649536 0.25423651933670044 0.016625527292490005
0.19721187651157379 0.26247355341911316 0.020273739472031593
0.27355501055717468 0.26770970225334167 0.022787550464272499
0.35834380984306335 0.27082931995391846 0.023994237184524536
0.44698917865753174 0.2728608250617981 0.024085594341158867
0.53512346744537354 0.27618029713630676 0.02403755858540535
0.61977910995483398 0.28163555264472961 0.024309435859322548
0.70125824213027954 0.28828272223472595 0.025816256180405617
0.778983473777771 0.29531896114349365 0.028573682531714439
0.85246884822845459 0.30448040366172791 0.03336784616112709
0.012368894182145596 0.30190029740333557 0.0083361910656094551
0.047049086540937424 0.31655186414718628 0.011493458412587643
0.089607939124107361 0.33275997638702393 0.015268377959728241
0.14315813779830933 0.34705844521522522 0.020119655877351761
0.20907142758369446 0.35812744498252869 0.024737473577260971
0.28620055317878723 0.36561280488967896 0.028301628306508064
0.37124952673912048 0.37049520015716553 0.030468495562672615
0.46056950092315674 0.37364077568054199 0.031063288450241089
0.55003803968429565 0.3772023618221283 0.031014475971460342
0.63702160120010376 0.38280555605888367 0.031562309712171555
0.7200055718421936 0.3904382586479187 0.033292971551418304
0.79869985580444336 0.39964258670806885 0.036884024739265442
0.87257462739944458 0.4105379581451416 0.042463071644306183
0.012396584264934063 0.39865913987159729 0.011665568687021732
0.050063923001289368 0.41527804732322693 0.01486892718821764
0.095238029956817627 0.43336853384971619 0.019486924633383751
0.15107317268848419 0.44937387108802795 0.025146484375
0.21876116096973419 0.46150177717208862 0.030350450426340103
0.29662740230560303 0.47004130482673645 0.034406386315822601
0.38219955563545227 0.47565048933029175 0.037019319832324982
0.47194027900695801 0.47915756702423096 0.037838924676179886
0.56221818923950195 0.48278078436851501 0.037773191928863525
0.65026283264160156 0.48854836821556091 0.038273964077234268
0.73414283990859985 0.49742609262466431 0.040680814534425735
0.81320852041244507 0.50880312919616699 0.045327968895435333
0.88757455348968506 0.52110445499420166 0.05203106626868248
0.0131633086130023 0.50312530994415283 0.015917982906103134
0.053076472133398056 0.52120482921600342 0.02006123773753643
0.10049233585596085 0.5401756763458252 0.025783194229006767
0.15812669694423676 0.5566096305847168 0.031899172812700272
0.22700926661491394 0.56864285469055176 0.037423241883516312
0.30644530057907104 0.57624650001525879 0.041194271296262741
0.39264702796936035 0.58093035221099854 0.043242808431386948
0.4829404354095459 0.5838807225227356 0.043605566024780273
0.57366001605987549 0.58719444274902344 0.04352213442325592
0.66197514533996582 0.59285622835159302 0.044168390333652496
0.74618613719940186 0.60163462162017822 0.046984653919935226
0.8255876898765564 0.61350500583648682 0.052638214081525803
0.90033590793609619 0.62614041566848755 0.060276541858911514
0.016176201403141022 0.61014091968536377 0.022265385836362839
0.058505609631538391 0.62883490324020386 0.027083752676844597
0.10749897360801697 0.64808565378189087 0.033794958144426346
0.16622963547706604 0.66451531648635864 0.040749315172433853
0.23684054613113403 0.67512363195419312 0.045849625021219254
0.31748825311660767 0.680644690990448 0.048480570316314697
0.40455111861228943 0.68351978063583374 0.049712087959051132
0.4947669506072998 0.68514585494995117 0.049343753606081009
0.58549493551254272 0.68720912933349609 0.048884596675634384
0.67374575138092041 0.69157463312149048 0.049555327743291855
0.75803673267364502 0.69887793064117432 0.052305769175291061
0.83757138252258301 0.70871990919113159 0.057790331542491913
0.91280859708786011 0.718910813331604 0.06565132737159729
0.023441165685653687 0.71569472551345825 0.030421627685427666
0.067990310490131378 0.73423343896865845 0.035763982683420181
0.11856797337532043 0.75289911031723022 0.042970962822437286
0.17838327586650848 0.76842111349105835 0.050223525613546371
0.25026139616966248 0.77732539176940918 0.054561778903007507
0.33127355575561523 0.78087937831878662 0.056076798588037491
0.41842839121818542 0.78161633014678955 0.055941052734851837
0.50835585594177246 0.78155076503753662 0.055167626589536667
0.5984073281288147 0.78191870450973511 0.054313808679580688
0.68629443645477295 0.78427648544311523 0.054705437272787094
0.77016544342041016 0.78867030143737793 0.057231035083532333
0.84967714548110962 0.79534649848937988 0.062585107982158661
0.9253583550453186 0.80229943990707397 0.070167034864425659
0.03514321893453598 0.81813091039657593 0.040035981684923172
0.082050979137420654 0.83530735969543457 0.045389614999294281
0.13548611104488373 0.85182338953018188 0.052227634936571121
0.1963965892791748 0.86514896154403687 0.058741848915815353
0.26895752549171448 0.87254101037979126 0.062656089663505554
0.34862682223320007 0.87490147352218628 0.063962779939174652
0.43465515971183777 0.87451785802841187 0.063445881009101868
0.5234835147857666 0.87312150001525879 0.062136765569448471
0.61244660615921021 0.87188428640365601 0.060882478952407837
0.69935816526412964 0.87184393405914307 0.060963034629821777
0.78272861242294312 0.87334340810775757 0.063369959592819214
0.86217755079269409 0.87647932767868042 0.068231813609600067
0.93750065565109253 0.88061749935150146 0.075759291648864746
0.050241924822330475 0.91705191135406494 0.051623865962028503
0.099840767681598663 0.93191647529602051 0.0563773512840271
0.15517847239971161 0.94562172889709473 0.062390886247158051
0.2183254212141037 0.95632809400558472 0.067791946232318878
0.28957226872444153 0.96251225471496582 0.071122996509075165
0.36860057711601257 0.96443551778793335 0.072792470455169678
0.45291680097579956 0.96339601278305054 0.071801222860813141
0.53982973098754883 0.96104049682617188 0.070651784539222717
0.62717556953430176 0.95834589004516602 0.069607846438884735
0.71291935443878174 0.95633536577224731 0.069623015820980072
0.79544419050216675 0.95540374517440796 0.071609020233154297
0.87419092655181885 0.95569837093353271 0.076186157763004303
0.94956833124160767 0.95778286457061768 0.083407536149024963
0.0075854281894862652 0.0051354649476706982 0.027022058144211769
0.026974158361554146 0.0056958817876875401 0.026807554066181183
0.050618190318346024 0.0048799403011798859 0.025311458855867386
0.085145957767963409 0.0035429561976343393 0.021302809938788414
0.1324775218963623 0.0015529259108006954 0.014647405594587326
0.19060558080673218 0.00058701459784060717 0.0070558437146246433
0.25589701533317566 0.00027573530678637326 0.0020901248790323734
0.32432079315185547 0.00052310718456283212 0.00035412359284237027
0.39315035939216614 0.0011388740967959166 6.7138673330191523e-05
0.46059307456016541 0.0024962781462818384 3.1594670872436836e-05
0.52608585357666016 0.0046160230413079262 0.00036097507108934224
0.58954733610153198 0.0078318426385521889 0.002887531416490674
0.65237438678741455 0.013063737191259861 0.010596839711070061
0.011227715760469437 0.026712395250797272 0.027022058144211769
0.030282458290457726 0.028214773163199425 0.028191959485411644
0.054357878863811493 0.028349468484520912 0.029732229188084602
0.091456621885299683 0.026119666174054146 0.028073569759726524
0.14301317930221558 0.022175537422299385 0.023857295513153076
0.20655867457389832 0.018745781853795052 0.017758643254637718
0.27731069922447205 0.017695438116788864 0.011509540490806103
0.35162591934204102 0.018942948430776596 0.0069487029686570168
0.42584455013275146 0.02200164832174778 0.0050764195621013641
0.4980863630771637 0.026093710213899612 0.0053561343811452389
0.56754207611083984 0.030726699158549309 0.0090742669999599457
0.63408052921295166 0.036591995507478714 0.016102435067296028
0.69901919364929199 0.044852957129478455 0.025062412023544312
0.010931935161352158 0.05467948317527771 0.026544429361820221
0.031660761684179306 0.058035638183355331 0.028724461793899536
0.058982204645872116 0.061178453266620636 0.031396485865116119
0.099280521273612976 0.061074230819940567 0.032303813844919205
0.15537004172801971 0.058521181344985962 0.031194485723972321
0.22429287433624268 0.05631135031580925 0.027670258656144142
0.3002808690071106 0.055911418050527573 0.023258732631802559
0.37985360622406006 0.057326715439558029 0.019715074449777603
0.45911476016044617 0.060661539435386658 0.01796792633831501
0.53584617376327515 0.065174981951713562 0.019092664122581482
0.60912609100341797 0.07026856392621994 0.022843768820166588
0.67897927761077881 0.077126868069171906 0.028988184407353401
0.74603509902954102 0.087040230631828308 0.036762148141860962
0.010040462948381901 0.095296479761600494 0.024278409779071808
0.034201275557279587 0.10100241005420685 0.028039205819368362
0.065084241330623627 0.10709398984909058 0.032123178243637085
0.10903064161539078 0.11071599274873734 0.035445522516965866
0.16919675469398499 0.1116078719496727 0.036779996007680893
0.242582768201828 0.11181830614805222 0.0357513427734375
0.32295513153076172 0.11235155910253525 0.033690657466650009
0.40738308429718018 0.11335120350122452 0.031747601926326752
0.49105492234230042 0.11653382331132889 0.030894245952367783
0.57151341438293457 0.12117312848567963 0.031881954520940781
0.64825266599655151 0.1266309916973114 0.034784533083438873
0.72114306688308716 0.1336243748664856 0.040116284042596817
0.79020845890045166 0.14402754604816437 0.047041259706020355
0.01024964265525341 0.15128113329410553 0.023236921057105064
0.038224134594202042 0.15958403050899506 0.027814557775855064
0.073050089180469513 0.16916345059871674 0.032931234687566757
0.12080987542867661 0.17702649533748627 0.037810083478689194
0.18394581973552704 0.18182827532291412 0.041145652532577515
0.25974825024604797 0.18483388423919678 0.04247651994228363
0.34394213557243347 0.18647477030754089 0.042811747640371323
0.43168947100639343 0.18805569410324097 0.042299248278141022
0.51872080564498901 0.19095851480960846 0.042166616767644882
0.60228222608566284 0.1957256942987442 0.042877707630395889
0.68195772171020508 0.20164452493190765 0.045445848256349564
0.75729274749755859 0.20864535868167877 0.049875594675540924
0.82830649614334106 0.21868699789047241 0.056291811168193817
0.010785674676299095 0.22208046913146973 0.02424406073987484
0.042064186185598373 0.23371365666389465 0.028782131150364876
0.081291913986206055 0.24693982303142548 0.034639935940504074
0.13249234855175018 0.25854021310806274 0.040785949677228928
0.19763405621051788 0.2671390175819397 0.045778088271617889
0.27529075741767883 0.27277478575706482 0.049057502299547195
0.3612612783908844 0.27608543634414673 0.050728291273117065
0.45104250311851501 0.2785794734954834 0.051437303423881531
0.54045587778091431 0.28173911571502686 0.052041146904230118
0.6264989972114563 0.2867620587348938 0.052888952195644379
0.70819360017776489 0.2933633029460907 0.055245313793420792
0.78547793626785278 0.3012925386428833 0.059384141117334366
0.85782724618911743 0.31148141622543335 0.065756961703300476
0.010558722540736198 0.30711525678634644 0.02848205529153347
0.045310121029615402 0.32189443707466125 0.03242555633187294
0.0875396728515625 0.33839166164398193 0.038361597806215286
0.14180809259414673 0.35297474265098572 0.045160796493291855
0.20904089510440826 0.36398541927337646 0.051333751529455185
0.2878730297088623 0.3716723620891571 0.056071724742650986
0.37484884262084961 0.37619945406913757 0.05900820717215538
0.46572443842887878 0.37959551811218262 0.060438267886638641
0.55637639760971069 0.38336247205734253 0.060955241322517395
0.64444482326507568 0.38902050256729126 0.062035325914621353
0.72771024703979492 0.39681234955787659 0.064411774277687073
0.80602377653121948 0.40636888146400452 0.068871349096298218
0.8791729211807251 0.41743069887161255 0.075689978897571564
0.009790472686290741 0.40424326062202454 0.034640397876501083
0.046745330095291138 0.4217095673084259 0.038270238786935806
0.092374749481678009 0.4400084912776947 0.044283445924520493
0.14923582971096039 0.45602422952651978 0.051274348050355911
0.21856532990932465 0.46805849671363831 0.05829436331987381
0.29842767119407654 0.47608840465545654 0.063767485320568085
0.38612362742424011 0.48134961724281311 0.06724383682012558
0.47764518857002258 0.48513960838317871 0.068867944180965424
0.56929618120193481 0.48907840251922607 0.069430425763130188
0.65827703475952148 0.49513912200927734 0.070530831813812256
0.74246495962142944 0.50406140089035034 0.073139354586601257
0.82131302356719971 0.51538616418838501 0.078057415783405304
0.89514845609664917 0.52728700637817383 0.085296675562858582
0.010013819672167301 0.5087011456489563 0.042742185294628143
0.049219571053981781 0.52771461009979248 0.046200308948755264
0.097269408404827118 0.54700738191604614 0.052341163158416748
0.15631841123104095 0.5634772777557373 0.059823520481586456
0.22732684016227722 0.57508277893066406 0.066942907869815826
0.30864599347114563 0.58238333463668823 0.072411313652992249
0.39711758494377136 0.58682608604431152 0.075462669134140015
0.48911848664283752 0.58991533517837524 0.076620735228061676
0.58123511075973511 0.59343463182449341 0.077055267989635468
0.67053127288818359 0.59931290149688721 0.077962674200534821
0.75513476133346558 0.60821950435638428 0.080841273069381714
0.83439356088638306 0.61977076530456543 0.086122028529644012
0.90860259532928467 0.63122612237930298 0.093940824270248413
0.012981399893760681 0.61514383554458618 0.052962299436330795
0.054725047200918198 0.63489365577697754 0.056782815605401993
0.10473659634590149 0.65450102090835571 0.063217207789421082
0.16532786190509796 0.67035478353500366 0.070733971893787384
0.23781317472457886 0.68081718683242798 0.077316224575042725
0.32014822959899902 0.68640750646591187 0.081690706312656403
0.40914484858512878 0.68916469812393188 0.083694949746131897
0.50145131349563599 0.69067144393920898 0.084153465926647186
0.59352236986160278 0.69318473339080811 0.083965599536895752
0.68297773599624634 0.6978716254234314 0.08467739075422287
0.76758456230163574 0.7051537036895752 0.087541498243808746
0.84696370363235474 0.71491855382919312 0.093042977154254913
0.92157900333404541 0.72446590662002563 0.10140436142683029
0.019709030166268349 0.72015976905822754 0.065036177635192871
0.064624488353729248 0.73959720134735107 0.069479860365390778
0.11697231978178024 0.75807052850723267 0.07598818838596344
0.17862480878829956 0.77287614345550537 0.083180248737335205
0.25166261196136475 0.78188931941986084 0.088701255619525909
0.33437284827232361 0.78573906421661377 0.091958783566951752
0.42332953214645386 0.7867247462272644 0.09277816116809845
0.51527035236358643 0.78664636611938477 0.092179574072360992
0.6070067286491394 0.78731000423431396 0.091344572603702545
0.69605129957199097 0.78959947824478149 0.091481722891330719
0.78043836355209351 0.79440414905548096 0.094023808836936951
0.85959893465042114 0.80111777782440186 0.099629722535610199
0.93443059921264648 0.80818825960159302 0.10806461423635483
0.031456008553504944 0.8218500018119812 0.078864544630050659
0.079187251627445221 0.83968424797058105 0.083263888955116272
0.13291695713996887 0.85618036985397339 0.089542970061302185
0.19662618637084961 0.86917006969451904 0.095826379954814911
0.26989224553108215 0.87669593095779419 0.10032441467046738
0.35184067487716675 0.87943857908248901 0.1024850457906723
0.43981257081031799 0.87918734550476074 0.10241096466779709
0.53047990798950195 0.87771379947662354 0.10111760348081589
0.62132519483566284 0.87627309560775757 0.099581293761730194
0.70957702398300171 0.87635570764541626 0.099391207098960876
0.79340755939483643 0.87806367874145508 0.10175336897373199
0.87232780456542969 0.88167136907577515 0.10731922090053558
0.94696170091629028 0.88658273220062256 0.11585854738950729
0.046638533473014832 0.92017024755477905 0.094176165759563446
0.097293764352798462 0.93566042184829712 0.098141446709632874
0.15393474698066711 0.94951516389846802 0.10360033810138702
0.21819889545440674 0.96013867855072021 0.10881897807121277
0.29126298427581787 0.96607410907745361 0.11237076669931412
0.37182727456092834 0.9678308367729187 0.11407427489757538
0.45770940184593201 0.96699565649032593 0.1135760173201561
0.54676938056945801 0.96483838558197021 0.11190441250801086
0.63589328527450562 0.96188950538635254 0.11016277223825455
0.72288107872009277 0.95986253023147583 0.10971630364656448
0.80591803789138794 0.95944100618362427 0.11198573559522629
0.88431227207183838 0.96047216653823853 0.11738181114196777
0.95898747444152832 0.96338880062103271 0.1258818507194519
0.0063363169319927692 0.0044868770055472851 0.048145130276679993
0.026142420247197151 0.0051630358211696148 0.048962026834487915
0.050913222134113312 0.0056355344131588936 0.048637107014656067
0.086083143949508667 0.004609216470271349 0.045196712017059326
0.13296423852443695 0.0026020724326372147 0.038309298455715179
0.19154226779937744 0.00093874463345855474 0.028966208919882774
0.25741201639175415 0.00073529413202777505 0.019384227693080902
0.32663539052009583 0.0012796588707715273 0.011680558323860168
0.39615467190742493 0.0027984918560832739 0.0073241586796939373
0.46402183175086975 0.0049738567322492599 0.0051821987144649029
0.52958071231842041 0.0076783872209489346 0.006395392119884491
0.59342235326766968 0.011060243472456932 0.01068465318530798
0.65618818998336792 0.015836184844374657 0.018756072968244553
0.010097429156303406 0.026325017213821411 0.048178490251302719
0.030740236863493919 0.028664398938417435 0.05125783383846283
0.056388869881629944 0.029681665822863579 0.053389381617307663
0.093566104769706726 0.028007671236991882 0.052855473011732101
0.14481113851070404 0.023971004411578178 0.048812836408615112
0.20787736773490906 0.019706606864929199 0.042048480361700058
0.279073566198349 0.017987135797739029 0.034818131476640701
0.35395768284797668 0.019929669797420502 0.028757177293300629
0.42899373173713684 0.02393658272922039 0.024963155388832092
0.50194627046585083 0.028186604380607605 0.024003377184271812
0.57174718379974365 0.032236974686384201 0.026793805882334709
0.63854598999023438 0.037472113966941833 0.032332088798284531
0.70330542325973511 0.045156516134738922 0.040816184133291245
0.011520610190927982 0.05647239089012146 0.048270519822835922
0.033173684030771255 0.060102470219135284 0.052437230944633484
0.061649709939956665 0.062739521265029907 0.05696430429816246
0.10214131325483322 0.063103467226028442 0.059080533683300018
0.1575898677110672 0.060966357588768005 0.058130420744419098
0.22542339563369751 0.057660464197397232 0.054364029318094254
0.30199903249740601 0.056199435144662857 0.049500290304422379
0.38212361931800842 0.058066081255674362 0.045514155179262161
0.46224650740623474 0.061892148107290268 0.043484214693307877
0.53982234001159668 0.066082850098609924 0.04389539361000061
0.6137995719909668 0.070663422346115112 0.04706573486328125
0.68380618095397949 0.077067822217941284 0.052979666739702225
0.75055289268493652 0.087108537554740906 0.060999568551778793
0.010934478603303432 0.098594218492507935 0.047389939427375793
0.036285638809204102 0.1043618768453598 0.052690811455249786
0.067690514028072357 0.11039009690284729 0.059134375303983688
0.11195939034223557 0.11428984254598618 0.063914038240909576
0.17168186604976654 0.11551914364099503 0.065583564341068268
0.24376486241817474 0.11513116955757141 0.064717881381511688
0.32519251108169556 0.11481679230928421 0.062552720308303833
0.40982151031494141 0.11656947433948517 0.06054127961397171
0.49432110786437988 0.11943833529949188 0.059736542403697968
0.57582753896713257 0.12355572730302811 0.061083264648914337
0.65314114093780518 0.1284215897321701 0.064518950879573822
0.72580701112747192 0.13545450568199158 0.070579394698143005
0.79436969757080078 0.14636147022247314 0.078523419797420502
