assets/lut/youssefhossam darkness.cube
# Created by: G'MIC (https://gmic.eu)
TITLE "darkness"
# LUT size
LUT_3D_SIZE 7
# Data domain
DOMAIN_MIN 0.0 0.0 0.0
DOMAIN_MAX 1.0 1.0 1.0
# LUT data points
0.018439378589391708 0.019307125359773636 0.017110547050833702
0.046768099069595337 0.03447398915886879 0.035036377608776093
0.084839195013046265 0.039390023797750473 0.037984047085046768
0.16905952990055084 0.037339858710765839 0.036074321717023849
0.29499265551567078 0.030611090362071991 0.027745714411139488
0.41766089200973511 0.025013582780957222 0.023147612810134888
0.55938231945037842 0.019430078566074371 0.019910430535674095
0.053546503186225891 0.077996917068958282 0.054445993155241013
0.093698568642139435 0.09296957403421402 0.06118285283446312
0.18012531101703644 0.099923059344291687 0.059162139892578125
0.36147686839103699 0.093329742550849915 0.04133962094783783
0.63178390264511108 0.072946168482303619 0.013783293776214123
0.8806498646736145 0.056920774281024933 0.0040210946463048458
0.9920203685760498 0.050794877111911774 5.7205499615520239e-05
0.035185795277357101 0.20630156993865967 0.034255623817443848
0.08929181843996048 0.24222256243228912 0.026077389717102051
0.25397351384162903 0.25995340943336487 0.014528536237776279
0.60116881132125854 0.24118795990943909 0.0025460785254836082
0.98219645023345947 0.20601233839988708 9.2869180662091821e-05
0.99888134002685547 0.19294802844524384 0
1 0.18131723999977112 9.3347889560391195e-06
0 0.54324477910995483 1.4002182979311328e-05
0.0037406920455396175 0.62492835521697998 4.2006548028439283e-05
0.13100412487983704 0.6401093602180481 0
0.55924290418624878 0.59133058786392212 0
0.99450534582138062 0.52865868806838989 0
0.999703049659729 0.50393390655517578 0
1 0.51143407821655273 0
0.0020434660837054253 0.98584920167922974 0
0.0089058820158243179 0.99677175283432007 0
0.021409980952739716 0.99442380666732788 0
0.33653008937835693 0.96997010707855225 0
0.90405982732772827 0.90717756748199463 0
0.99649971723556519 0.87301361560821533 0
1 0.85565733909606934 0
0.0075142653658986092 1 0
0.041126176714897156 0.99998205900192261 0
0.11049728095531464 1 0
0.3288496732711792 0.99962949752807617 0
0.78654319047927856 0.99659889936447144 0
0.98786032199859619 0.99551749229431152 0
0.99976933002471924 0.99858582019805908 0
0.0078783221542835236 1 0
0.070892781019210815 1 0
0.16393172740936279 1 0
0.29840183258056641 1 0
0.71366673707962036 1 0
0.97047406435012817 1 0
0.99782836437225342 1 0
0.02366141602396965 0.024208847433328629 0.028209252282977104
0.05078621581196785 0.038381673395633698 0.04934234544634819
0.092997819185256958 0.042274147272109985 0.056650079786777496
0.18338239192962646 0.039286565035581589 0.059526510536670685
0.31878036260604858 0.030917776748538017 0.06131967157125473
0.45458570122718811 0.023552598431706429 0.060880172997713089
0.6066163182258606 0.015706948935985565 0.064032569527626038
0.056630317121744156 0.082812398672103882 0.081706881523132324
0.097807534039020538 0.098382778465747833 0.095861069858074188
0.19317473471164703 0.10379616171121597 0.10051797330379486
0.38494408130645752 0.092411398887634277 0.088526785373687744
0.67105317115783691 0.070044934749603271 0.063236430287361145
0.92089492082595825 0.050299670547246933 0.046459496021270752
0.99482780694961548 0.03703683614730835 0.031547516584396362
0.032609079033136368 0.21836216747760773 0.087100312113761902
0.087496183812618256 0.25552830100059509 0.086387589573860168
0.26602315902709961 0.27019631862640381 0.063482590019702911
0.63566094636917114 0.24447052180767059 0.027343152090907097
0.99075275659561157 0.20697900652885437 0.0046427859924733639
0.99843573570251465 0.20422802865505219 0.012507000938057899
1 0.19112102687358856 0.0059842728078365326
2.3157455871114507e-05 0.57170844078063965 0.0092008998617529869
0.01335582323372364 0.64946424961090088 0.0045768739655613899
0.14481599628925323 0.66715413331985474 0.0093057518824934959
0.56757420301437378 0.58693021535873413 0.00022903142962604761
0.9955819845199585 0.5387306809425354 0.0015754549531266093
1 0.52328121662139893 0.0017642151797190309
1 0.51929390430450439 0.0012189229018986225
0.00029993991483934224 0.97861510515213013 0.0019276937237009406
0.0053870705887675285 0.99188417196273804 3.9852366171544418e-05
0.022808283567428589 0.99639892578125 0.00030278225312940776
0.3095594048500061 0.97282290458679199 0
0.89453214406967163 0.90451419353485107 0
0.9994741678237915 0.87021267414093018 0
1 0.85437816381454468 0
0.0048403870314359665 0.99543434381484985 0.0053629106841981411
0.028117027133703232 0.99597358703613281 0.003995947539806366
0.11666834354400635 0.99999880790710449 0.0040321201086044312
0.31042322516441345 0.9999573826789856 0.00087482226081192493
0.75713342428207397 0.99803686141967773 0
0.99399089813232422 0.99632495641708374 0
0.99940431118011475 0.99724465608596802 0.00047480265493504703
0.0038772134575992823 1 0.00087745516793802381
0.041332527995109558 1 0.0046710292808711529
0.1339205801486969 1 0.0040220972150564194
0.32679069042205811 1 0.0038960773963481188
0.69678622484207153 1 0.00011279536556685343
0.96446794271469116 1 1.1668485967675224e-05
0.99607843160629272 1 0.0054560941644012928
0.025259219110012054 0.027005977928638458 0.05027422308921814
0.050580371171236038 0.039518795907497406 0.077935986220836639
0.10066604614257812 0.042880382388830185 0.09892699122428894
0.20019403100013733 0.039139226078987122 0.1163199320435524
0.34186729788780212 0.027223041281104088 0.12901626527309418
0.48604360222816467 0.016587335616350174 0.1494201123714447
0.65940731763839722 0.0051184860058128834 0.17513476312160492
0.056670770049095154 0.085453450679779053 0.14166238903999329
0.097987443208694458 0.10043038427829742 0.17299985885620117
0.19880694150924683 0.10851976275444031 0.20238064229488373
0.41892346739768982 0.09096236526966095 0.21213391423225403
0.71561330556869507 0.059799987822771072 0.21747218072414398
0.95277589559555054 0.034063857048749924 0.23738443851470947
0.99761950969696045 0.013402617536485195 0.25772398710250854
0.025258172303438187 0.22198380529880524 0.2182319164276123
0.079818159341812134 0.25838521122932434 0.25322464108467102
0.26652076840400696 0.27151003479957581 0.26376307010650635
0.65816026926040649 0.23690025508403778 0.2256600558757782
0.99357420206069946 0.18144060671329498 0.17042078077793121
1 0.1616092175245285 0.15019972622394562
1 0.14463211596012115 0.14306788146495819
0.0001373291015625 0.58758640289306641 0.12184952199459076
0.0039775026962161064 0.63561004400253296 0.10650870949029922
0.11249493062496185 0.63066625595092773 0.075137719511985779
0.57020664215087891 0.57414388656616211 0.025545397773385048
0.99615669250488281 0.51473009586334229 0.0079852985218167305
1 0.4930817186832428 0.0078180497512221336
1 0.48157420754432678 0.0093880444765090942
0.00032911114976741374 0.98411262035369873 0.015494327992200851
0.0028774335514754057 0.9977002739906311 0.0057098236866295338
0.01309127826243639 0.99349021911621094 0.0044291028752923012
0.30497771501541138 0.96109360456466675 0.0015165441436693072
0.87587839365005493 0.88071626424789429 2.6807598260347731e-05
0.99609768390655518 0.84463167190551758 0.001007768209092319
1 0.82189822196960449 0.0057513066567480564
0.0031194200273603201 0.99890297651290894 0.0058163660578429699
0.011842989362776279 0.99800390005111694 0.012057495303452015
0.077972918748855591 1 0.010793483816087246
0.26926460862159729 0.99989908933639526 0.0032270993106067181
0.73574036359786987 0.99639278650283813 0.0083893267437815666
0.99110805988311768 0.99645787477493286 0.0010508967097848654
1 0.98558962345123291 0.010300714522600174
0.0023332932032644749 1 0.00061892339726909995
0.012503141537308693 1 0.0063452925533056259
0.085340268909931183 1 0.0065246131271123886
0.28328123688697815 1 0.010905740782618523
0.68745464086532593 1 0.020410919561982155
0.95013141632080078 1 0.015698391944169998
0.9957311749458313 0.99928313493728638 0.031926818192005157
0.025892235338687897 0.027995944023132324 0.089621752500534058
0.051414042711257935 0.039829179644584656 0.134065181016922
0.10607283562421799 0.042144984006881714 0.17263548076152802
0.21337713301181793 0.033996373414993286 0.20916113257408142
0.36628720164299011 0.018668260425329208 0.25583094358444214
0.51241433620452881 0.0058625764213502407 0.30218476057052612
0.70542001724243164 0 0.37784001231193542
0.051240645349025726 0.086615018546581268 0.24785789847373962
0.093418195843696594 0.10582301020622253 0.30701383948326111
0.20337463915348053 0.10389555245637894 0.3650774359703064
0.43364158272743225 0.081282474100589752 0.424174964427948
0.75952994823455811 0.039129652082920074 0.49925357103347778
0.97301572561264038 0.0083063310012221336 0.58683973550796509
0.99880033731460571 0 0.67224478721618652
0.01380259171128273 0.22034129500389099 0.44338089227676392
0.060419537127017975 0.25499674677848816 0.54806333780288696
0.24865831434726715 0.2589448094367981 0.61969673633575439
0.66990762948989868 0.20934954285621643 0.67305141687393188
0.99666821956634521 0.14935497939586639 0.66964447498321533
1 0.11314862966537476 0.72987526655197144
1 0.1001485213637352 0.75190514326095581
0 0.57303881645202637 0.57264524698257446
1.7053940609912388e-05 0.61808079481124878 0.61420345306396484
0.07433859258890152 0.61404848098754883 0.60582524538040161
0.53905373811721802 0.54574936628341675 0.53121179342269897
0.99071222543716431 0.47421622276306152 0.44154289364814758
1 0.43805265426635742 0.42774808406829834
1 0.44100826978683472 0.43301263451576233
0 0.98358714580535889 0.40364840626716614
0 0.99080872535705566 0.42785844206809998
0.0022287406027317047 0.98830229043960571 0.35152000188827515
0.26823240518569946 0.9298405647277832 0.21561519801616669
0.83155924081802368 0.83248192071914673 0.14033806324005127
0.99939095973968506 0.7957770824432373 0.096927613019943237
1 0.77738070487976074 0.095174096524715424
0 1 0.33687296509742737
0 0.99962097406387329 0.30491858720779419
0.0069276397116482258 1 0.23445229232311249
0.14912429451942444 0.99833065271377563 0.1174284815788269
0.69000017642974854 0.99563300609588623 0.05394255742430687
0.96691453456878662 0.97225284576416016 0.056188963353633881
1 0.94490116834640503 0.0471915602684021
0 1 0.28835201263427734
0.0001446892274543643 1 0.25847125053405762
0.018401380628347397 1 0.22577184438705444
0.22319260239601135 1 0.17296002805233002
0.64225190877914429 1 0.070930033922195435
0.90276318788528442 0.99982607364654541 0.090036250650882721
0.99293547868728638 0.99917590618133545 0.095602221786975861
0.027972321957349777 0.028977757319808006 0.13430558145046234
0.054450824856758118 0.039466485381126404 0.19632242619991302
0.1119568943977356 0.039901044219732285 0.25549167394638062
0.23400667309761047 0.029177796095609665 0.31914281845092773
0.38838127255439758 0.0095182526856660843 0.38731294870376587
0.55074983835220337 0 0.47421330213546753
0.74963110685348511 0 0.59338337182998657
0.047258339822292328 0.089225351810455322 0.36260008811950684
0.093014568090438843 0.10461612790822983 0.45850354433059692
0.20965558290481567 0.10804147273302078 0.56151556968688965
0.48302260041236877 0.065617397427558899 0.68316888809204102
0.80192577838897705 0.015987396240234375 0.79446184635162354
0.98635894060134888 0.0037557114847004414 0.91871029138565063
0.99989855289459229 0.013259707950055599 0.9750247597694397
0.0089219631627202034 0.22609078884124756 0.70395475625991821
0.039591457694768906 0.25478437542915344 0.85855740308761597
0.23631188273429871 0.25133192539215088 0.95856034755706787
0.66697472333908081 0.19173799455165863 0.98809105157852173
0.99788153171539307 0.13147664070129395 0.99490827322006226
1 0.11514750123023987 0.98994928598403931
1 0.10557667165994644 0.98868435621261597
0 0.57177448272705078 0.98097676038742065
3.5903033221984515e-06 0.62101012468338013 0.99792873859405518
0.049309883266687393 0.60935848951339722 0.99592620134353638
0.49319049715995789 0.51592379808425903 0.99350988864898682
0.98244780302047729 0.4408581554889679 0.98095411062240601
1 0.4150259792804718 0.97857332229614258
1 0.41398555040359497 0.98142260313034058
0 0.98068135976791382 0.97497212886810303
0 0.98649299144744873 0.98125028610229492
0.00043325984734110534 0.97918099164962769 0.96667945384979248
0.19968666136264801 0.89444416761398315 0.87808096408843994
0.78898084163665771 0.78977096080780029 0.78062260150909424
0.99842637777328491 0.74625486135482788 0.74583828449249268
1 0.72943621873855591 0.72802907228469849
0 1 0.95045435428619385
0 1 0.94489043951034546
0.00048114551464095712 1 0.88790440559387207
0.13655112683773041 0.99765598773956299 0.74451220035552979
0.63472622632980347 0.97035461664199829 0.63360744714736938
0.92613732814788818 0.92931652069091797 0.58381491899490356
0.99990928173065186 0.90528357028961182 0.57885664701461792
0 1 0.92590326070785522
0 1 0.90018326044082642
0.00068037741584703326 1 0.82864457368850708
0.16678532958030701 1 0.69765138626098633
0.58846831321716309 0.99862891435623169 0.59697037935256958
0.85030341148376465 0.98955434560775757 0.56343984603881836
0.98854541778564453 0.98544871807098389 0.56954902410507202
0.029736403375864029 0.032260864973068237 0.1768413633108139
0.057532157748937607 0.040016848593950272 0.24329270422458649
0.11980909109115601 0.03981781005859375 0.31411519646644592
0.24706181883811951 0.025917831808328629 0.39298686385154724
0.41546145081520081 0.0039780260995030403 0.47873029112815857
0.59199601411819458 0 0.5910104513168335
0.80539774894714355 0 0.74135160446166992
0.044927753508090973 0.090627886354923248 0.44919890165328979
0.087503440678119659 0.11000662297010422 0.5727735161781311
0.22483502328395844 0.09909597784280777 0.69979941844940186
0.50695210695266724 0.055755525827407837 0.83391749858856201
0.8454585075378418 0.0056282943114638329 0.94200021028518677
0.99184322357177734 0.014201325364410877 0.99097102880477905
0.99985820055007935 0.016010284423828125 0.98994338512420654
0.009164188988506794 0.23399330675601959 0.87809044122695923
0.049675121903419495 0.2562900185585022 0.97255909442901611
0.2467840313911438 0.24881765246391296 0.98794311285018921
0.70792442560195923 0.17915725708007812 0.9967961311340332
0.99574071168899536 0.131704181432724 1
0.99965453147888184 0.12805235385894775 0.99998170137405396
1 0.079920843243598938 0.99632138013839722
0 0.57324302196502686 0.99996143579483032
0.002975523704662919 0.60819154977798462 1
0.079283729195594788 0.59497523307800293 1
0.50404113531112671 0.50665020942687988 1
0.98316729068756104 0.43849664926528931 0.99994540214538574
0.99524778127670288 0.40665110945701599 0.99772650003433228
0.99970513582229614 0.3801538348197937 0.99654912948608398
0 0.98209816217422485 1
7.976456981850788e-05 0.98957383632659912 1
0.0033611671533435583 0.97439157962799072 1
0.18258790671825409 0.88320112228393555 0.99999284744262695
0.7725517749786377 0.77107805013656616 0.9983866810798645
0.98977470397949219 0.72346323728561401 0.9892774224281311
0.99984866380691528 0.70664244890213013 0.98792427778244019
0 1 0.99866104125976562
0.0051393844187259674 1 0.99718010425567627
0.0067647597752511501 1 0.99704384803771973
0.13235868513584137 0.99949640035629272 0.99637836217880249
0.62149101495742798 0.95835095643997192 0.95398283004760742
0.90837550163269043 0.90803998708724976 0.90899002552032471
0.99710983037948608 0.88424408435821533 0.88875675201416016
0 1 0.99607843160629272
0.0056045381352305412 1 0.9982980489730835
0.010588387958705425 1 0.99485951662063599
0.14880888164043427 1 0.9751695990562439
0.57895386219024658 0.99927008152008057 0.87989515066146851
0.83644181489944458 0.99322271347045898 0.84324824810028076
0.98173975944519043 0.9847719669342041 0.82984250783920288
0.03336314857006073 0.035536970943212509 0.20788589119911194
0.062901593744754791 0.040658224374055862 0.27964207530021667
0.12563680112361908 0.042643334716558456 0.35964769124984741
0.26407447457313538 0.024600952863693237 0.4532109797000885
0.44878670573234558 0.0014664593618363142 0.55825871229171753
0.64545965194702148 0 0.69821465015411377
0.85659700632095337 0 0.85633116960525513
0.046059746295213699 0.093689620494842529 0.51519972085952759
0.094815514981746674 0.10428874939680099 0.64408856630325317
0.23257201910018921 0.099208757281303406 0.81138265132904053
0.53609049320220947 0.052872885018587112 0.90682464838027954
0.88811981678009033 0.0039592217653989792 0.98723775148391724
0.9938730001449585 0.024640744552016258 0.99964386224746704
0.99862873554229736 0.019662894308567047 0.99943989515304565
0.0038055868353694677 0.23863942921161652 0.96151673793792725
0.061747323721647263 0.26423823833465576 0.99047183990478516
0.23756729066371918 0.25397908687591553 0.99741047620773315
0.73284900188446045 0.17597362399101257 0.99786245822906494
0.99557310342788696 0.12203399091959 1
0.99989849328994751 0.12374146282672882 1
1 0.078090950846672058 1
0 0.58075332641601562 1
0.0029604893643409014 0.6207924485206604 1
0.048659246414899826 0.60601222515106201 1
0.52583491802215576 0.50211441516876221 1
0.98328286409378052 0.43183660507202148 1
0.99660080671310425 0.38785406947135925 1
1 0.37690028548240662 1
0 0.98532223701477051 1
0.00072603410808369517 0.99015641212463379 1
0.0039525497704744339 0.97315108776092529 1
0.18223962187767029 0.87832683324813843 1
0.75909256935119629 0.76590001583099365 1
0.98769670724868774 0.71524834632873535 1
0.9969182014465332 0.69672733545303345 1
0.00047377042938023806 1 1
0.011933375149965286 1 0.99824827909469604
0.018465947359800339 0.99983161687850952 0.99651694297790527
0.19887661933898926 0.99557435512542725 0.99946963787078857
0.61349976062774658 0.94813269376754761 1
0.89766764640808105 0.89794719219207764 0.99959135055541992
0.99436265230178833 0.87528520822525024 0.99677717685699463
0.0018529405351728201 1 0.99943506717681885
0.021991265937685966 1 0.99607843160629272
0.061146799474954605 1 0.99366271495819092
0.25796055793762207 1 0.99219661951065063
0.58789056539535522 0.99949455261230469 0.9941871166229248
0.83663469552993774 0.98880976438522339 0.98524481058120728
0.98094004392623901 0.98267668485641479 0.97951239347457886
