assets/lut/youssefhossam sea.cube
# Created by: G'MIC (https://gmic.eu)
TITLE "sea"
# LUT size
LUT_3D_SIZE 13
# Data domain
DOMAIN_MIN 0.0 0.0 0.0
DOMAIN_MAX 1.0 1.0 1.0
# LUT data points
0.033278089016675949 0.032674424350261688 0.069493405520915985
0.14962515234947205 0.024822205305099487 0.060864422470331192
0.27564534544944763 0.016055373474955559 0.050764914602041245
0.40079984068870544 0.014196553267538548 0.04177195206284523
0.52305948734283447 0.020200915634632111 0.042450625449419022
0.64615112543106079 0.020078202709555626 0.045112878084182739
0.76759284734725952 0.020128959789872169 0.045947596430778503
0.88099747896194458 0.022598281502723694 0.042234130203723907
0.97011256217956543 0.026115657761693001 0.033236529678106308
0.99976193904876709 0.025030877441167831 0.029817380011081696
1 0.022242661565542221 0.0288722924888134
1 0.020443620160222054 0.027978859841823578
1 0.019915815442800522 0.027688732370734215
0.013545002788305283 0.12826712429523468 0.039613820612430573
0.11648731678724289 0.11996003985404968 0.035292785614728928
0.24257402122020721 0.10832800716161728 0.028017470613121986
0.36832475662231445 0.098680205643177032 0.024227442219853401
0.49134230613708496 0.096023261547088623 0.025019776076078415
0.61254292726516724 0.093159757554531097 0.023327875882387161
0.73131150007247925 0.088648401200771332 0.023660697042942047
0.84530037641525269 0.08607705682516098 0.028278591111302376
0.94079768657684326 0.088215380907058716 0.022066617384552956
0.99496275186538696 0.088490568101406097 0.015598057769238949
1 0.086545012891292572 0.012254767119884491
1 0.084103785455226898 0.010193021036684513
1 0.082382932305335999 0.0091551383957266808
0.0029965867288410664 0.22914896905422211 0.016603536903858185
0.084206916391849518 0.22141382098197937 0.018003126606345177
0.2093321830034256 0.21198156476020813 0.021549524739384651
0.3342430591583252 0.20167489349842072 0.01636027917265892
0.45671343803405762 0.19243745505809784 0.011026135645806789
0.57613182067871094 0.18427306413650513 0.0060649346560239792
0.69411849975585938 0.17558960616588593 0.002240289468318224
0.8090442419052124 0.16818620264530182 0.0050460365600883961
0.91222023963928223 0.16696636378765106 0.005772564560174942
0.98477798700332642 0.16676011681556702 0.0028693405911326408
1 0.16460296511650085 0.0015146442456170917
1 0.16040597856044769 0.00087301217718049884
1 0.15631046891212463 0.00066330854315310717
0.0010171328904107213 0.33013564348220825 0.0098005253821611404
0.065778486430644989 0.32159027457237244 0.012468390166759491
0.18014757335186005 0.3119513988494873 0.017844809219241142
0.30039355158805847 0.30220738053321838 0.01180445309728384
0.4213612973690033 0.29261043667793274 0.0041302698664367199
0.54081046581268311 0.28315496444702148 0.00085435755318030715
0.65883201360702515 0.27386331558227539 3.2312730127159739e-06
0.77595418691635132 0.26564180850982666 1.9387638531043194e-05
0.88658672571182251 0.26121285557746887 5.0623275456018746e-05
0.97334969043731689 0.25938364863395691 0
1 0.25540220737457275 0
1 0.24964809417724609 0
1 0.24469079077243805 0
0.00056960160145536065 0.43029019236564636 0.0068502835929393768
0.053103845566511154 0.42116230726242065 0.0077911228872835636
0.15281179547309875 0.41128545999526978 0.0082332389429211617
0.26634803414344788 0.40157458186149597 0.0039142831228673458
0.38659036159515381 0.39191526174545288 0.00051329372217878699
0.50683552026748657 0.38252851366996765 3.5903033221984515e-06
0.62462252378463745 0.37345355749130249 0
0.74176383018493652 0.36537823081016541 0
0.85499173402786255 0.35997271537780762 0
0.95199108123779297 0.35619020462036133 0
0.99874615669250488 0.35115924477577209 0
1 0.3450772762298584 0
1 0.34002411365509033 0
3.8775277062086388e-05 0.52957338094711304 0.0030851475894451141
0.038421973586082458 0.51943373680114746 0.0032803553622215986
0.12414010614156723 0.50904875993728638 0.0023218041751533747
0.23174251616001129 0.49909734725952148 0.00025114172603935003
0.35147404670715332 0.48957502841949463 0
0.47353535890579224 0.4803256094455719 0
0.59035539627075195 0.47100645303726196 0
0.70392554998397827 0.46275085210800171 0
0.81665498018264771 0.45631954073905945 0
0.92289400100708008 0.45149937272071838 7.4872783443424851e-05
0.99297028779983521 0.44627457857131958 1.3613233022624627e-05
1 0.43988868594169617 0
1 0.43445649743080139 0
0 0.62754011154174805 0.0004645852604880929
0.019749945029616356 0.6163216233253479 0.00075863109668716788
0.090988337993621826 0.6049075722694397 0.00032402487704530358
0.19280001521110535 0.59487473964691162 0
0.3133138120174408 0.58531844615936279 0
0.437968909740448 0.575461745262146 0
0.55650961399078369 0.56567168235778809 0
0.66971582174301147 0.55689823627471924 0
0.78085339069366455 0.54955774545669556 0.00034480376052670181
0.8917962908744812 0.54354286193847656 0.0040549933910369873
0.97988700866699219 0.53767555952072144 0.0011116177774965763
1 0.53106611967086792 0
1 0.52561777830123901 0
0 0.72455459833145142 0
0.0047155343927443027 0.71170890331268311 0
0.056391965597867966 0.69918131828308105 0
0.15331435203552246 0.68914639949798584 0
0.27366608381271362 0.67937850952148438 0
0.40071704983711243 0.66875344514846802 0
0.52368658781051636 0.65812158584594727 0
0.63998639583587646 0.64850097894668579 0
0.75293624401092529 0.64040964841842651 0.00063009822042658925
0.86253613233566284 0.63298147916793823 0.0041545643471181393
0.95605826377868652 0.62560570240020752 0.0010705835884436965
0.99922358989715576 0.61865276098251343 0
1 0.61395740509033203 0
0 0.8211478590965271 0
0.00026098513626493514 0.8070528507232666 0
0.032711628824472427 0.7926640510559082 0
0.12356788665056229 0.78216725587844849 0
0.24001900851726532 0.77174901962280273 0
0.36662456393241882 0.76022630929946899 0
0.49254372715950012 0.74864107370376587 0
0.6126055121421814 0.73867768049240112 0
0.72705608606338501 0.72989195585250854 0.00029482375248335302
0.83660632371902466 0.72100180387496948 0.0025830138474702835
0.93338769674301147 0.71149098873138428 0.00091189215891063213
0.99505972862243652 0.70378071069717407 0
1 0.70011883974075317 0
7.0010914896556642e-06 0.91390049457550049 0
0.0025266909506171942 0.89877170324325562 0
0.034457441419363022 0.88293546438217163 0
0.11099442094564438 0.8710019588470459 0
0.21710529923439026 0.85987889766693115 0
0.33823427557945251 0.8480563759803772 0
0.46288266777992249 0.83653384447097778 0
0.58389425277709961 0.82688337564468384 0
0.69994270801544189 0.81824272871017456 7.0010914896556642e-06
0.81123411655426025 0.80860674381256104 0.0015806908486410975
0.91242152452468872 0.79713529348373413 0.0018959344597533345
0.98789387941360474 0.78783005475997925 0.00010890586418099701
1 0.78590917587280273 0
0.0036489898338913918 0.98251324892044067 0.0015863305889070034
0.014451120048761368 0.96959644556045532 0
0.046173110604286194 0.95689666271209717 0
0.11034838855266571 0.94710183143615723 0
0.20396970212459564 0.93764775991439819 0
0.315969318151474 0.92741066217422485 0
0.43543827533721924 0.91804027557373047 0
0.55423885583877563 0.91007590293884277 0
0.67009550333023071 0.90295439958572388 0
0.78290444612503052 0.89378058910369873 0.0022544560488313437
0.88924473524093628 0.88266515731811523 0.0034084543585777283
0.97675043344497681 0.87358403205871582 0.00067579979076981544
1 0.87273389101028442 0
0.0072161657735705376 1 0.003979148343205452
0.025008931756019592 0.99936181306838989 0
0.057792365550994873 0.99734807014465332 0
0.11553443223237991 0.99549728631973267 0
0.19880574941635132 0.99283403158187866 0
0.3015332818031311 0.98878228664398193 0
0.41335627436637878 0.98458570241928101 0
0.52760457992553711 0.98060697317123413 0
0.64068138599395752 0.97691482305526733 0
0.75239086151123047 0.97056138515472412 0.0037629371508955956
0.86047035455703735 0.96103674173355103 0.0049569224938750267
0.95652753114700317 0.95336496829986572 0.00098345882724970579
0.99905943870544434 0.95202577114105225 0
0.0083242524415254593 1 0.0024639952462166548
0.032571576535701752 1 0
0.068987347185611725 1 0
0.12439738214015961 1 0
0.20106557011604309 1 0
0.29505494236946106 1 0
0.39917495846748352 1 0
0.50794267654418945 1 0
0.61719858646392822 1 0
0.72567695379257202 1 0.0028304306324571371
0.83071130514144897 0.99972498416900635 0.0043775821104645729
0.92533814907073975 0.99801689386367798 0.0017889733426272869
0.98620891571044922 0.99624341726303101 0.00018708471907302737
0.029144780710339546 0.03123689629137516 0.19826887547969818
0.1432517021894455 0.024264227598905563 0.19151599705219269
0.26917001605033875 0.017315763980150223 0.18005876243114471
0.39457976818084717 0.011849676258862019 0.16822028160095215
0.51863664388656616 0.009198521263897419 0.16109859943389893
0.64378499984741211 0.0098500866442918777 0.15336979925632477
0.76738262176513672 0.011379421688616276 0.14539782702922821
0.88282680511474609 0.013501051813364029 0.1369396299123764
0.97290372848510742 0.014851454645395279 0.12915176153182983
0.99992245435714722 0.012892764061689377 0.12806722521781921
1 0.010688347741961479 0.12862563133239746
1 0.010143190622329712 0.12805670499801636
1 0.010202504694461823 0.12688924372196198
0.010794157162308693 0.12542510032653809 0.16613981127738953
0.11157573759555817 0.11732304841279984 0.15929713845252991
0.23869729042053223 0.1062718853354454 0.14814053475856781
0.36294424533843994 0.094352036714553833 0.13658754527568817
0.485810786485672 0.085760347545146942 0.12809091806411743
0.60773181915283203 0.082424774765968323 0.12002085894346237
0.72874957323074341 0.07994803786277771 0.11178816109895706
0.84487718343734741 0.078121885657310486 0.10878210514783859
0.94161534309387207 0.07612280547618866 0.10599755495786667
0.99526619911193848 0.072342380881309509 0.10273631662130356
1 0.069918014109134674 0.09902191162109375
1 0.068215116858482361 0.095131590962409973
1 0.066877000033855438 0.092863522469997406
0.0028606937266886234 0.22597731649875641 0.12718771398067474
0.083132587373256683 0.21736975014209747 0.12283749878406525
0.20700888335704803 0.20675456523895264 0.11720189452171326
0.32981336116790771 0.1957155168056488 0.1060238853096962
0.45152422785758972 0.18617598712444305 0.095115795731544495
0.57092463970184326 0.17860792577266693 0.085066698491573334
0.68963110446929932 0.1719820648431778 0.072356939315795898
0.80756783485412598 0.16449050605297089 0.070538796484470367
0.91324728727340698 0.15853139758110046 0.071778841316699982
0.9860723614692688 0.15420426428318024 0.065953381359577179
1 0.15049950778484344 0.0614890456199646
1 0.14604853093624115 0.058202661573886871
0.99997860193252563 0.14140439033508301 0.054810363799333572
0.0017447079299017787 0.32669052481651306 0.10218255966901779
0.067015841603279114 0.31750774383544922 0.099893830716609955
0.17793655395507812 0.30732980370521545 0.097409084439277649
0.29663923382759094 0.29740825295448303 0.085909537971019745
0.41707020998001099 0.288185715675354 0.071266472339630127
0.53582131862640381 0.27999421954154968 0.060581251978874207
0.65412771701812744 0.27218064665794373 0.05195954442024231
0.77422606945037842 0.26301011443138123 0.045595012605190277
0.88860481977462769 0.25599789619445801 0.039957039058208466
0.97730553150177002 0.2516821026802063 0.030913887545466423
1 0.24616870284080505 0.02837950736284256
1 0.23948714137077332 0.026850592344999313
0.9996340274810791 0.23415528237819672 0.023423079401254654
0.0018491856753826141 0.42653122544288635 0.084706112742424011
0.056563358753919601 0.41681888699531555 0.081896297633647919
0.15225487947463989 0.40666499733924866 0.076734267175197601
0.26428398489952087 0.39704510569572449 0.063198551535606384
0.38425555825233459 0.38814523816108704 0.046385671943426132
0.50402963161468506 0.37982767820358276 0.035688363015651703
0.62102067470550537 0.37141263484954834 0.031635597348213196
0.73889106512069702 0.36301764845848083 0.028033178299665451
0.85586470365524292 0.35638824105262756 0.023844551295042038
0.95397096872329712 0.35153502225875854 0.017884228378534317
0.99821919202804565 0.34542673826217651 0.013468693941831589
1 0.33848613500595093 0.0092260176315903664
0.99985653162002563 0.333759605884552 0.0060056350193917751
0.00095914950361475348 0.52513688802719116 0.066078037023544312
0.042419224977493286 0.51465529203414917 0.063146300613880157
0.12438330799341202 0.50448101758956909 0.05600985512137413
0.23099547624588013 0.49487048387527466 0.040020603686571121
0.35227334499359131 0.48579621315002441 0.021249014884233475
0.47471898794174194 0.47687646746635437 0.012603281065821648
0.58899372816085815 0.46805378794670105 0.012603939510881901
0.70175445079803467 0.45982947945594788 0.014055424369871616
0.81544435024261475 0.45324277877807617 0.015468851663172245
0.91839581727981567 0.44764652848243713 0.012995222583413124
0.9854932427406311 0.44124728441238403 0.0056605767458677292
0.99994885921478271 0.43450286984443665 0.0013578527141362429
1 0.42959409952163696 0.00084384094225242734
5.1520852139219642e-05 0.62198954820632935 0.044431634247303009
0.023550683632493019 0.61061644554138184 0.044873930513858795
0.092052698135375977 0.59976720809936523 0.039787203073501587
0.19326911866664886 0.5902823805809021 0.023533212020993233
0.31577154994010925 0.5811997652053833 0.0081628691405057907
0.44146662950515747 0.571533203125 0.0023316775914281607
0.55761474370956421 0.5617440938949585 0.0029687320347875357
0.66861176490783691 0.55294239521026611 0.0053094453178346157
0.77845841646194458 0.54598522186279297 0.0076266718097031116
0.88283669948577881 0.53984081745147705 0.0059214122593402863
0.96483325958251953 0.53298121690750122 0.0014811946311965585
0.99933189153671265 0.52616578340530396 0
1 0.52129834890365601 0.0001497455668868497
0 0.71710550785064697 0.021916527301073074
0.0068602915853261948 0.70499938726425171 0.029545115306973457
0.057795178145170212 0.69383019208908081 0.029639165848493576
0.15337805449962616 0.68471163511276245 0.015427952632308006
0.27500364184379578 0.67517149448394775 0.0036907270550727844
0.40346166491508484 0.66412138938903809 0.00030344046535901725
0.52595871686935425 0.65278869867324829 0.00016406190115958452
0.64006024599075317 0.64333820343017578 0.00087893614545464516
0.74871069192886353 0.6359437108039856 0.0018886192701756954
0.85325586795806885 0.62914669513702393 0.0010352340759709477
0.94552195072174072 0.62182259559631348 0.00070627249078825116
0.99765968322753906 0.61494028568267822 0.00051736272871494293
1 0.61033886671066284 0.00073079130379483104
1.7113779904320836e-05 0.81085765361785889 0.0069853388704359531
0.00073653575964272022 0.79928046464920044 0.017229896038770676
0.033527210354804993 0.78775447607040405 0.020454555749893188
0.12168912589550018 0.77887314558029175 0.0085835177451372147
0.23891997337341309 0.76848810911178589 0.0012037090491503477
0.3679237961769104 0.75557714700698853 0
0.49563372135162354 0.74261808395385742 0
0.61354881525039673 0.73266959190368652 6.5822227952594403e-06
0.7235414981842041 0.72503203153610229 0.00047457826440222561
0.82996916770935059 0.71734070777893066 0.0011270709801465273
0.92745304107666016 0.70878398418426514 0.0014665342168882489
0.9937095046043396 0.70130199193954468 0.0011620913865044713
1 0.69730347394943237 0.0010997249046340585
0.0011334887240082026 0.90083545446395874 0.0065667396411299706
0.0023053786717355251 0.89064270257949829 0.0091484822332859039
0.031138116493821144 0.87956839799880981 0.0077412473037838936
0.10509335249662399 0.87034839391708374 0.0017994001973420382
0.21164989471435547 0.85896724462509155 3.9657890738453716e-05
0.33590134978294373 0.84533953666687012 0
0.46316042542457581 0.8318982720375061 0
0.58318549394607544 0.82183468341827393 0
0.69609904289245605 0.8141777515411377 0.00046678431681357324
0.80538201332092285 0.80574792623519897 0.0020378411281853914
0.9075656533241272 0.795543372631073 0.001628247438929975
0.98629748821258545 0.78694069385528564 0.00035066792042925954
1 0.78344208002090454 0.00023169424093794078
0.0039536422118544579 0.96912413835525513 0.016427792608737946
0.010480783879756927 0.96267586946487427 0.0059268875047564507
0.037943582981824875 0.95558851957321167 0.0010230569168925285
0.099188648164272308 0.94959169626235962 4.936667210131418e-06
0.19347362220287323 0.94016003608703613 0
0.30860525369644165 0.927715003490448 0
0.43036898970603943 0.91605567932128906 0
0.5495380163192749 0.9072650671005249 1.2341667570581194e-05
0.66400450468063354 0.90038120746612549 0.0011358372867107391
0.77518624067306519 0.89246457815170288 0.0029269200749695301
0.88124114274978638 0.88219785690307617 0.0009087057551369071
0.9716871976852417 0.87260669469833374 0
1 0.86860257387161255 0
0.0044174492359161377 0.9980359673500061 0.019442375749349594
0.017720166593790054 0.99783980846405029 0.0026811487041413784
0.045962046831846237 0.99730092287063599 7.8986677181092091e-06
0.10047127306461334 0.99720513820648193 0
0.18474277853965759 0.99493604898452759 0
0.28986683487892151 0.99002599716186523 0
0.4040435254573822 0.98476308584213257 0
0.51927065849304199 0.98000901937484741 0.00026390224229544401
0.63189989328384399 0.97615176439285278 0.0028651668690145016
0.74169391393661499 0.9705510139465332 0.005781899206340313
0.84720540046691895 0.96223914623260498 0.0017522774869576097
0.94380348920822144 0.95187276601791382 0
0.99753594398498535 0.94527542591094971 0
0.0046220668591558933 1 0.013882072642445564
0.02416413277387619 1 0.00065161014208570123
0.056492689996957779 1 0
0.10931964963674545 1 0
0.18595282733440399 1 0
0.28150796890258789 1 0
0.38735967874526978 1 1.2835334018745925e-05
0.49713033437728882 1 0.0011288361856713891
0.60649913549423218 1 0.0050484300591051579
0.71364319324493408 1 0.007925594225525856
0.81648170948028564 0.99991708993911743 0.003579367883503437
0.91317415237426758 0.99806922674179077 0
0.98429244756698608 0.99456143379211426 0
0.025019058957695961 0.031049212440848351 0.32670116424560547
0.13340598344802856 0.023841843008995056 0.32250946760177612
0.25886237621307373 0.017136847600340843 0.31390857696533203
0.38594096899032593 0.011109385639429092 0.30226433277130127
0.5123705267906189 0.0073417960666120052 0.29061058163642883
0.63845551013946533 0.0062552955932915211 0.27996191382408142
0.76124101877212524 0.006215997040271759 0.27015158534049988
0.87471359968185425 0.0067640417255461216 0.2603020966053009
0.96390175819396973 0.0065306122414767742 0.25310531258583069
0.99944853782653809 0.0051181120797991753 0.25155413150787354
1 0.0045684068463742733 0.2511897087097168
1 0.0053169848397374153 0.2494916170835495
1 0.0057525187730789185 0.24737776815891266
0.0081891678273677826 0.12429548054933548 0.29749187827110291
0.10246510058641434 0.11454054713249207 0.29226690530776978
0.22914128005504608 0.103269062936306 0.28320354223251343
0.35421359539031982 0.0913420170545578 0.27035439014434814
0.47803375124931335 0.081352293491363525 0.25806933641433716
0.60103398561477661 0.075414262712001801 0.24908716976642609
0.72138047218322754 0.071256421506404877 0.2422136515378952
0.83722692728042603 0.068309992551803589 0.2334238737821579
0.93379247188568115 0.064065776765346527 0.22649303078651428
0.99176764488220215 0.058542739599943161 0.22472576797008514
1 0.058069221675395966 0.22130204737186432
1 0.059241846203804016 0.21672061085700989
1 0.059832435101270676 0.21304383873939514
0.0027987011708319187 0.22320276498794556 0.26054227352142334
0.080155149102210999 0.21310709416866302 0.25369453430175781
0.20046184957027435 0.20180119574069977 0.24471275508403778
0.32169729471206665 0.19044198095798492 0.23235858976840973
0.44345450401306152 0.18030564486980438 0.22118273377418518
0.5637325644493103 0.17224021255970001 0.21469588577747345
0.68296784162521362 0.16479651629924774 0.20883888006210327
0.80164623260498047 0.15687306225299835 0.19875691831111908
0.90725535154342651 0.14925397932529449 0.1904449462890625
0.98151987791061401 0.14302311837673187 0.18599310517311096
1 0.14034156501293182 0.18253037333488464
1 0.13855762779712677 0.17886172235012054
0.99979645013809204 0.13667145371437073 0.17542362213134766
0.0036012239288538694 0.3232085108757019 0.22708259522914886
0.069382674992084503 0.31309610605239868 0.21965289115905762
0.17408640682697296 0.30242264270782471 0.21058632433414459
0.28997352719306946 0.29186993837356567 0.19851525127887726
0.41011115908622742 0.28263300657272339 0.18766945600509644
0.52933335304260254 0.27455958724021912 0.18255928158760071
0.64819860458374023 0.26656627655029297 0.17836600542068481
0.76923805475234985 0.25708869099617004 0.16538292169570923
0.88381189107894897 0.24892468750476837 0.15361133217811584
0.97238492965698242 0.24341900646686554 0.146408811211586
1 0.2385258823633194 0.14315974712371826
1 0.23356103897094727 0.1410503089427948
0.99825787544250488 0.23024265468120575 0.13804413378238678
0.0056045833043754101 0.42282164096832275 0.19886550307273865
0.061579417437314987 0.41255992650985718 0.19057711958885193
0.15054614841938019 0.40215104818344116 0.18048009276390076
0.26002693176269531 0.3922753632068634 0.16665370762348175
0.37908661365509033 0.38331130146980286 0.15340667963027954
0.49825379252433777 0.37506833672523499 0.14626671373844147
0.61521792411804199 0.36671844124794006 0.14193539321422577
0.73442059755325317 0.35812422633171082 0.13165958225727081
0.85305196046829224 0.35103687644004822 0.12208401411771774
0.95159828662872314 0.34584787487983704 0.11622525751590729
0.99794816970825195 0.3401341438293457 0.11008122563362122
1 0.33367341756820679 0.10264663398265839
0.99928349256515503 0.32925915718078613 0.098987594246864319
0.004077238030731678 0.52114510536193848 0.17019036412239075
0.047940753400325775 0.51042163372039795 0.16296757757663727
0.12522412836551666 0.49992603063583374 0.15212032198905945
0.22924228012561798 0.49023565649986267 0.13551279902458191
0.34873437881469727 0.48130148649215698 0.11725787073373795
0.46921280026435852 0.47238662838935852 0.10635820031166077
0.5836561918258667 0.46364554762840271 0.10373765230178833
0.6978611946105957 0.45546305179595947 0.098480299115180969
0.81438875198364258 0.44879215955734253 0.093101337552070618
0.916709303855896 0.44322279095649719 0.087570309638977051
0.98364341259002686 0.43685507774353027 0.077373489737510681
0.99993568658828735 0.42994377017021179 0.066325709223747253
1 0.42498001456260681 0.066156603395938873
0.0010368645889684558 0.61770516633987427 0.13903208076953888
0.030692694708704948 0.60647916793823242 0.13514189422130585
0.097078166902065277 0.59585791826248169 0.12672911584377289
0.19538523256778717 0.58610838651657104 0.10950372368097305
0.31505885720252991 0.57674646377563477 0.087530680000782013
0.4382152259349823 0.56683647632598877 0.072578534483909607
0.5538257360458374 0.55696135759353638 0.070216372609138489
0.66551697254180908 0.54829102754592896 0.069507956504821777
0.77564805746078491 0.54150819778442383 0.06597861647605896
0.8792952299118042 0.53545469045639038 0.058717928826808929
0.9632641077041626 0.52882832288742065 0.05336487665772438
0.99932682514190674 0.52184975147247314 0.047419216483831406
1 0.51679050922393799 0.050719451159238815
5.2238912758184597e-05 0.71255791187286377 0.1067020520567894
0.016128974035382271 0.70128732919692993 0.10863573849201202
0.069687590003013611 0.69075590372085571 0.10493810474872589
0.16087736189365387 0.68112033605575562 0.089174829423427582
0.27809154987335205 0.67077386379241943 0.067559264600276947
0.4039783775806427 0.65893805027008057 0.050724446773529053
0.52508008480072021 0.64704179763793945 0.044448297470808029
0.637828528881073 0.63771146535873413 0.04518534243106842
0.74423635005950928 0.63085389137268066 0.044692140072584152
0.84735989570617676 0.62456411123275757 0.03908953070640564
0.94457000494003296 0.61765819787979126 0.041694179177284241
0.99811410903930664 0.61082351207733154 0.043852292001247406
1 0.60579603910446167 0.046151090413331985
0.00041771683027036488 0.80590802431106567 0.079810947179794312
