assets/lut/youssefhossam city.cube
# Created by: G'MIC (https://gmic.eu)
TITLE "city"
# LUT size
LUT_3D_SIZE 13
# Data domain
DOMAIN_MIN 0.0 0.0 0.0
DOMAIN_MAX 1.0 1.0 1.0
# LUT data points
0.030266078189015388 0.025065852329134941 0.039000820368528366
0.055316522717475891 0.036003608256578445 0.054917518049478531
0.086473189294338226 0.045397274196147919 0.068352870643138885
0.12904511392116547 0.0524711012840271 0.080078080296516418
0.18541383743286133 0.057151105254888535 0.087782375514507294
0.25216022133827209 0.059984274208545685 0.095036618411540985
0.32884928584098816 0.06122443825006485 0.10236057639122009
0.41872715950012207 0.06004740297794342 0.10694684833288193
0.52354145050048828 0.055023703724145889 0.10708710551261902
0.63540250062942505 0.046989575028419495 0.10388413816690445
0.74885225296020508 0.037049088627099991 0.098024196922779083
0.87130528688430786 0.024923481047153473 0.086929306387901306
0.97362262010574341 0.016238134354352951 0.079783417284488678
0.060603242367506027 0.079824216663837433 0.081564627587795258
0.090304233133792877 0.091606244444847107 0.090927779674530029
0.13214796781539917 0.1001749262213707 0.097699105739593506
0.18683108687400818 0.1058998703956604 0.10409312695264816
0.25205487012863159 0.10963760316371918 0.10748889297246933
0.32916012406349182 0.11168808490037918 0.108639195561409
0.41816389560699463 0.11300448328256607 0.10772884637117386
0.52125149965286255 0.11146824806928635 0.10593394935131073
0.6390838623046875 0.10583798587322235 0.10201121121644974
0.76478946208953857 0.0958976149559021 0.094434134662151337
0.88565230369567871 0.083235584199428558 0.081348851323127747
0.98017257452011108 0.070508785545825958 0.065586104989051819
0.99999552965164185 0.064289897680282593 0.060277946293354034
0.052855264395475388 0.15129750967025757 0.099514275789260864
0.091685473918914795 0.1614890843629837 0.099989496171474457
0.14544960856437683 0.16911062598228455 0.10032597184181213
0.21302619576454163 0.1734766960144043 0.1020960658788681
0.29256045818328857 0.17571766674518585 0.099252872169017792
0.38474690914154053 0.17657491564750671 0.091762617230415344
0.48614305257797241 0.17713357508182526 0.084256596863269806
0.59980696439743042 0.17535513639450073 0.079164989292621613
0.72695815563201904 0.16951659321784973 0.074573293328285217
0.85906994342803955 0.15938913822174072 0.065330326557159424
0.97026920318603516 0.14672566950321198 0.049640342593193054
0.99994933605194092 0.13606613874435425 0.03772837296128273
1 0.13135057687759399 0.037184007465839386
0.023947890847921371 0.24284754693508148 0.092739492654800415
0.066122002899646759 0.2502707839012146 0.082582704722881317
0.12540021538734436 0.25676640868186951 0.078061014413833618
0.20301011204719543 0.26018023490905762 0.075735725462436676
0.29814621806144714 0.26134112477302551 0.066139653325080872
0.40577149391174316 0.2611357569694519 0.049639519304037094
0.51883387565612793 0.25937417149543762 0.040512531995773315
0.63979047536849976 0.25569087266921997 0.035919100046157837
0.77105504274368286 0.24928054213523865 0.033044598996639252
0.90009862184524536 0.23997008800506592 0.025856392458081245
0.99035090208053589 0.22932299971580505 0.013712894171476364
1 0.2193325012922287 0.010789459571242332
1 0.21394747495651245 0.01332442369312048
0.004664447158575058 0.35181957483291626 0.066555440425872803
0.035572215914726257 0.35755842924118042 0.050376474857330322
0.08941156417131424 0.36315977573394775 0.040321126580238342
0.1679941862821579 0.36600580811500549 0.034093610942363739
0.271065354347229 0.3655083179473877 0.026723360642790794
0.39072313904762268 0.3630073070526123 0.016555726528167725
0.51416444778442383 0.35802620649337769 0.010337605141103268
0.64176827669143677 0.35123610496520996 0.0065124663524329662
0.77619445323944092 0.34302082657814026 0.0055804084986448288
0.90537095069885254 0.33358418941497803 0.0048921173438429832
0.99120241403579712 0.32364949584007263 0.0014201444573700428
1 0.31432050466537476 0.00086388678755611181
1 0.30834794044494629 0.0010675766970962286
8.8680491899140179e-05 0.47221219539642334 0.03448055312037468
0.012263025157153606 0.47812792658805847 0.022550635039806366
0.052392728626728058 0.48306986689567566 0.013031694106757641
0.12077750265598297 0.48396381735801697 0.0083651673048734665
0.22217002511024475 0.4800274670124054 0.0082259532064199448
0.34754374623298645 0.47448065876960754 0.0043263603001832962
0.4806998074054718 0.46701902151107788 0.0010793348774313927
0.61720812320709229 0.45748177170753479 8.1858917837962508e-05
0.75761640071868896 0.4470178484916687 5.1520852139219642e-05
0.8918030858039856 0.43572649359703064 0.00040660184458829463
0.98714840412139893 0.42427697777748108 0.00080386892659589648
1 0.41506695747375488 8.6885338532738388e-05
1 0.40922266244888306 0
0 0.59907883405685425 0.0096467109397053719
0.0012492609675973654 0.60550558567047119 0.0064274207688868046
0.021951129660010338 0.60801166296005249 0.0046673496253788471
0.074384592473506927 0.60491806268692017 0.0056236567907035351
0.16591888666152954 0.59787410497665405 0.007145990151911974
0.29192966222763062 0.59047096967697144 0.0022054784931242466
0.43270695209503174 0.58181750774383545 2.0464729459490627e-05
0.57834810018539429 0.57081347703933716 0
0.72463792562484741 0.55811649560928345 0
0.86333996057510376 0.54426205158233643 0
0.9723045825958252 0.5307270884513855 0
1 0.52010327577590942 0
1 0.51348048448562622 0
0 0.72894817590713501 0.00039062500582076609
0 0.73496174812316895 0.0005329805426299572
0.004871368408203125 0.73408204317092896 0.0018689323915168643
0.041801780462265015 0.72688710689544678 0.0071490569971501827
0.12206130474805832 0.71775603294372559 0.0089798718690872192
0.24309849739074707 0.70951038599014282 0.0014347899705171585
0.38435861468315125 0.69965076446533203 0
0.53312426805496216 0.68764257431030273 0
0.68232524394989014 0.67336791753768921 0
0.82501006126403809 0.6572113037109375 0
0.9456329345703125 0.64088958501815796 0
0.99926930665969849 0.62779819965362549 0
1 0.6195603609085083 0
0 0.8568381667137146 0
0 0.85946661233901978 0
0.0010946685215458274 0.8543735146522522 8.9398548880126327e-05
0.028898052871227264 0.84525144100189209 0.0011417912319302559
0.099444188177585602 0.83529198169708252 0.0016988118877634406
0.20787058770656586 0.8260379433631897 0.00015067306230776012
0.34081858396530151 0.81628209352493286 0
0.48541325330734253 0.80397218465805054 0
0.63374072313308716 0.78879374265670776 0
0.77933710813522339 0.77135938405990601 0
0.91174882650375366 0.7522011399269104 0
0.99322992563247681 0.73587614297866821 0
1 0.72613829374313354 0
0 0.96353095769882202 0.0007397820008918643
0 0.96137714385986328 0
0.0013511508004739881 0.95341277122497559 0
0.026627618819475174 0.94453471899032593 0
0.088162273168563843 0.93625724315643311 0
0.18234170973300934 0.92925286293029785 0
0.30166974663734436 0.92188048362731934 0
0.4367581307888031 0.91097015142440796 0
0.58103126287460327 0.89559048414230347 0
0.72716689109802246 0.8787229061126709 0
0.8672446608543396 0.86146622896194458 0.00010598874359857291
0.97248375415802002 0.84432309865951538 0.0016545912949368358
0.99991130828857422 0.83274561166763306 0.0016625646967440844
0 1 0.0038616852834820747
3.2088337320601568e-05 0.99997860193252563 0
0.003840532386675477 0.9992600679397583 0
0.029482448473572731 0.99806755781173706 0
0.083615139126777649 0.99629980325698853 0
0.16462749242782593 0.99470388889312744 0
0.26947793364524841 0.99289131164550781 0
0.39289969205856323 0.98816812038421631 0
0.53049170970916748 0.97673732042312622 0
0.67369347810745239 0.96350079774856567 6.2231924857769627e-06
0.81617945432662964 0.95224297046661377 0.00047568525769747794
0.94039207696914673 0.94009262323379517 0.0036749895662069321
0.99700820446014404 0.9336097240447998 0.0029548495076596737
2.3336972390097799e-06 1 0.0026841405779123306
0.0010515549220144749 1 0
0.010163849219679832 1 0
0.036396145820617676 1 0
0.084614679217338562 1 0
0.15616525709629059 1 0
0.24972763657569885 1 0
0.36235985159873962 1 0
0.49041780829429626 1 1.0112687959917821e-05
0.62755918502807617 0.99925529956817627 0.0010029063560068607
0.76790767908096313 0.99691677093505859 0.0038661283906549215
0.89685869216918945 0.99502664804458618 0.0046551721170544624
0.98088479042053223 0.99533760547637939 0.0012699201470240951
0.00059178669471293688 1 0.00080959842307493091
0.0060341330245137215 1 0
0.019694847986102104 1 0
0.046788323670625687 1 0
0.091830715537071228 1 0
0.15694992244243622 1 0
0.24191470444202423 1 0
0.34569424390792847 1 0
0.46386906504631042 1 0
0.59254217147827148 1 0.00058867508778348565
0.72722643613815308 1 0.0044136345386505127
0.8583904504776001 1 0.0042815264314413071
0.96513074636459351 1 0.0011536242673173547
0.033214673399925232 0.027718847617506981 0.056416604667901993
0.058988370001316071 0.03866126760840416 0.080817863345146179
0.092135876417160034 0.047593928873538971 0.10270538181066513
0.13596236705780029 0.054032612591981888 0.12247356027364731
0.191257044672966 0.058120876550674438 0.13845731317996979
0.2573736310005188 0.059938963502645493 0.15392448008060455
0.33505919575691223 0.058930430561304092 0.16837252676486969
0.42641118168830872 0.05577462911605835 0.17876942455768585
0.53123205900192261 0.049660190939903259 0.18501722812652588
0.64573836326599121 0.040569830685853958 0.18756845593452454
0.76614642143249512 0.029683610424399376 0.18702727556228638
0.88580954074859619 0.019202901050448418 0.18399988114833832
0.97598934173583984 0.014680615626275539 0.18286503851413727
0.059903163462877274 0.082693912088871002 0.12585712969303131
0.09197312593460083 0.093251802027225494 0.14231465756893158
0.13514478504657745 0.101307213306427 0.15641228854656219
0.18934778869152069 0.10597310960292816 0.16975553333759308
0.25463789701461792 0.10869660973548889 0.18062670528888702
0.33181518316268921 0.1092110276222229 0.1888127475976944
0.42175838351249695 0.10786417126655579 0.19378884136676788
0.5265623927116394 0.10486497730016708 0.19601209461688995
0.64614462852478027 0.097998328506946564 0.19629120826721191
0.77356696128845215 0.087004750967025757 0.19314074516296387
0.89356189966201782 0.073734179139137268 0.18487508594989777
0.98084884881973267 0.062640950083732605 0.17561417818069458
0.9999772310256958 0.05912882462143898 0.17314755916595459
0.051435016095638275 0.15249878168106079 0.17083653807640076
0.091779135167598724 0.16152888536453247 0.17848056554794312
0.1465795636177063 0.16832540929317474 0.18467514216899872
0.21329982578754425 0.17085631191730499 0.19129258394241333
0.29220542311668396 0.17147120833396912 0.19422213733196259
0.3829142153263092 0.17069096863269806 0.19394028186798096
0.48526746034622192 0.16956803202629089 0.18993405997753143
0.60126703977584839 0.16672204434871674 0.18559114634990692
0.73115640878677368 0.15990939736366272 0.18276125192642212
0.86379164457321167 0.14874616265296936 0.17652086913585663
0.97106736898422241 0.13569515943527222 0.16113156080245972
0.99994999170303345 0.12537842988967896 0.14931273460388184
1 0.12155377119779587 0.14927801489830017
0.022113993763923645 0.24160777032375336 0.18589656054973602
0.06384626030921936 0.24797369539737701 0.18596591055393219
0.12300191819667816 0.25311526656150818 0.18577592074871063
0.20052814483642578 0.25523996353149414 0.18265962600708008
0.29446563124656677 0.25486281514167786 0.1755320280790329
0.39995118975639343 0.25253641605377197 0.16555039584636688
0.513316810131073 0.24953420460224152 0.1569434255361557
0.636943519115448 0.24553348124027252 0.14938846230506897
0.77087903022766113 0.23888780176639557 0.14464086294174194
0.90021830797195435 0.22917318344116211 0.13601981103420258
0.9887126088142395 0.21811443567276001 0.11423791944980621
1 0.20779189467430115 0.10422492027282715
1 0.20269444584846497 0.10740115493535995
0.002996048191562295 0.34824720025062561 0.17028224468231201
0.031488634645938873 0.35339653491973877 0.16437940299510956
0.084533840417861938 0.35771068930625916 0.15622586011886597
0.16347092390060425 0.35937339067459106 0.14456576108932495
0.26606246829032898 0.35733488202095032 0.13386194407939911
0.38363859057426453 0.35297051072120667 0.12156331539154053
0.50603115558624268 0.34684664011001587 0.11014065891504288
0.63435608148574829 0.3402101993560791 0.098878480494022369
0.77065038681030273 0.33270132541656494 0.093151763081550598
0.89978212118148804 0.32385474443435669 0.086358807981014252
0.98705220222473145 0.31396764516830444 0.069737635552883148
1 0.30395811796188354 0.060910139232873917
0.99988877773284912 0.29801532626152039 0.057051084935665131
0 0.46670705080032349 0.1349361389875412
0.0094472253695130348 0.47253519296646118 0.12570402026176453
0.048464082181453705 0.47728094458580017 0.11143159866333008
0.11730676144361496 0.47756162285804749 0.09928499162197113
0.21819308400154114 0.47217279672622681 0.094891250133514404
0.34119021892547607 0.46473249793052673 0.083867691457271576
0.4722047746181488 0.45551088452339172 0.068717524409294128
0.60724395513534546 0.44615042209625244 0.054596502333879471
0.74691581726074219 0.43672508001327515 0.049062691628932953
0.88073617219924927 0.42660880088806152 0.044561557471752167
0.97893738746643066 0.41611146926879883 0.040631551295518875
1 0.40658828616142273 0.03309294581413269
1 0.40041810274124146 0.025336964055895805
0 0.59099417924880981 0.089338324964046478
0.00090095668565481901 0.59866082668304443 0.085995711386203766
0.020531613379716873 0.60296428203582764 0.079775072634220123
0.074001267552375793 0.60064041614532471 0.076625347137451172
0.16541926562786102 0.59244579076766968 0.074684396386146545
0.28766849637031555 0.5819096565246582 0.060771089047193527
0.42500036954879761 0.57037663459777832 0.039105776697397232
0.5680573582649231 0.55875372886657715 0.023637853562831879
0.71200233697891235 0.54703575372695923 0.015219729393720627
0.84920477867126465 0.53478753566741943 0.0081631233915686607
0.961742103099823 0.52274376153945923 0.0087643489241600037
1 0.51268762350082397 0.0097370967268943787
1 0.50561469793319702 0.010171583853662014
0 0.71805733442306519 0.041814930737018585
0 0.72749251127243042 0.049197986721992493
0.0044877743348479271 0.73046970367431641 0.054729089140892029
0.042205870151519775 0.72544699907302856 0.060028616338968277
0.12223633378744125 0.71534717082977295 0.058328278362751007
0.23911167681217194 0.70279073715209961 0.040360201150178909
0.37786674499511719 0.68870764970779419 0.017001686617732048
0.52410411834716797 0.67472928762435913 0.0054753920994699001
0.67059355974197388 0.66142022609710693 0.0020579020492732525
0.81138831377029419 0.64727503061294556 0.00057462806580588222
0.93455582857131958 0.63271689414978027 0.00019664390129037201
0.99806779623031616 0.62026453018188477 0.0002234664571005851
1 0.61169862747192383 0.0016089346027001739
0 0.84565562009811401 0.018704911693930626
0 0.85336160659790039 0.023151906207203865
0.0002317241596756503 0.85310691595077515 0.026496738195419312
0.02400493249297142 0.84603554010391235 0.030600603669881821
0.09405798465013504 0.83482575416564941 0.030936522409319878
0.201369509100914 0.82130557298660278 0.018817886710166931
0.33453768491744995 0.80612921714782715 0.0040351869538426399
0.47855189442634583 0.79065346717834473 0.00015385945152956992
0.62311571836471558 0.77668946981430054 1.1189778888365254e-05
0.76492565870285034 0.76097458600997925 0.00068333942908793688
0.8957328200340271 0.74336147308349609 0.00028076171292923391
0.98728412389755249 0.72815072536468506 0
1 0.71749359369277954 4.4923668610863388e-05
0 0.95444303750991821 0.021009961143136024
0 0.95753633975982666 0.011763568967580795
4.4878791527480644e-07 0.95416510105133057 0.0067668389528989792
0.016123991459608078 0.9473910927772522 0.0056947595439851284
0.076775945723056793 0.93777322769165039 0.0078221643343567848
0.17157094180583954 0.92662930488586426 0.0060042734257876873
0.29301184415817261 0.91358596086502075 0.0010789758525788784
0.4292091429233551 0.89902013540267944 0
0.57101964950561523 0.88473236560821533 0.00018315034685656428
0.7145732045173645 0.86976015567779541 0.0018275092588737607
0.85408729314804077 0.85313194990158081 0.0014010111335664988
0.9661746621131897 0.83599036931991577 0
0.99999302625656128 0.82235336303710938 0
0 0.99950176477432251 0.021937277168035507
0 0.99987328052520752 0.005913842935115099
0.00013647640298586339 0.99945908784866333 0.00086183735402300954
0.016241693869233131 0.99858522415161133 0.00019285912276245654
0.068229064345359802 0.99704062938690186 0.0012479445431381464
0.14985035359859467 0.99425333738327026 0.0024099461734294891
0.25656542181968689 0.98962622880935669 0.0015804814174771309
0.38186615705490112 0.98146688938140869 0.00050683115841820836
0.51931744813919067 0.96909886598587036 0.00064604514045640826
0.66391682624816895 0.95721262693405151 0.0018376668449491262
0.81031358242034912 0.94721394777297974 0.0010138268116861582
0.93870711326599121 0.93425816297531128 0
0.99795132875442505 0.92126399278640747 0
0 1 0.012962386012077332
1.6455557272365695e-07 1 0.0012522379402071238
0.0019886689260601997 1 2.7151669200975448e-05
0.022402595728635788 1 0
0.06772167980670929 1 0.00012358123785816133
0.1382194459438324 1 0.00083446130156517029
0.23243714869022369 1 0.0009590298286639154
0.34662008285522461 1 0.00035099702654406428
0.47612461447715759 0.99984860420227051 0.00014151778304949403
0.61591452360153198 0.99837756156921387 0.00032121245749294758
0.75985205173492432 0.99668413400650024 0.00026530845207162201
0.89249593019485474 0.99421471357345581 1.1833041753561702e-05
0.98179924488067627 0.98896998167037964 0
0 1 0.0033892763312906027
0.00094770541181787848 1 1.9746669295273023e-06
0.0093536674976348877 1 0
0.032301794737577438 1 0
0.073934026062488556 1 0
0.13691134750843048 1 0
0.22168967127799988 1 0
0.32606738805770874 1 0
0.44627276062965393 1 0
0.57775342464447021 1 0
0.71533411741256714 1 2.5640749299782328e-05
0.84911817312240601 1 8.5868086898699403e-06
0.95750218629837036 1 0
0.037448793649673462 0.03029429167509079 0.076844476163387299
0.063450708985328674 0.040971450507640839 0.1071217879652977
0.098341397941112518 0.049707703292369843 0.13758294284343719
0.14379164576530457 0.05602734163403511 0.16539952158927917
0.19894018769264221 0.059870507568120956 0.18900033831596375
0.26526212692260742 0.060288432985544205 0.21218104660511017
0.34338995814323425 0.057456206530332565 0.23445987701416016
0.43506351113319397 0.052782785147428513 0.25183874368667603
0.53903967142105103 0.045600816607475281 0.26459819078445435
0.65312486886978149 0.035839635878801346 0.27400225400924683
0.77725112438201904 0.023999815806746483 0.28185096383094788
0.9005698561668396 0.014388424344360828 0.28902456164360046
0.98260009288787842 0.013541367836296558 0.29365462064743042
0.062694162130355835 0.085538588464260101 0.17189635336399078
0.093635335564613342 0.095336511731147766 0.19559353590011597
0.13724569976329803 0.10309679806232452 0.21741430461406708
0.19201503694057465 0.1078450083732605 0.23737125098705292
0.25754794478416443 0.10930012911558151 0.25442320108413696
0.33455336093902588 0.10886040329933167 0.26922482252120972
0.42529588937759399 0.10562822222709656 0.28178036212921143
0.53129357099533081 0.1006692498922348 0.29051455855369568
0.65070527791976929 0.092409484088420868 0.29652842879295349
0.7768552303314209 0.080573543906211853 0.29940962791442871
0.89723378419876099 0.066288545727729797 0.29943373799324036
0.98342621326446533 0.056109007447957993 0.2990666925907135
0.99998760223388672 0.055484022945165634 0.29987421631813049
0.054801717400550842 0.15610934793949127 0.24459846317768097
0.092563435435295105 0.16363631188869476 0.26084557175636292
0.14615871012210846 0.16961480677127838 0.27359816431999207
0.21280547976493835 0.17148849368095398 0.28425747156143188
0.29074582457542419 0.17135214805603027 0.29193073511123657
0.38026523590087891 0.16943354904651642 0.29780852794647217
0.48321422934532166 0.16609477996826172 0.30166229605674744
0.60115140676498413 0.16134367883205414 0.30335736274719238
0.7314223051071167 0.15319907665252686 0.30400747060775757
0.8623960018157959 0.14141163229942322 0.30154451727867126
0.96634006500244141 0.1280268132686615 0.2928062379360199
0.99982559680938721 0.11789679527282715 0.28595107793807983
1 0.11495636403560638 0.28663507103919983
0.026098139584064484 0.24496202170848846 0.28495770692825317
0.064859308302402496 0.24997486174106598 0.29418861865997314
0.12288156896829605 0.25375336408615112 0.29865488409996033
0.19925855100154877 0.25460430979728699 0.29768359661102295
0.29013743996620178 0.25201532244682312 0.29450136423110962
0.39247721433639526 0.24803745746612549 0.29270109534263611
0.50580710172653198 0.24324379861354828 0.29140141606330872
0.63202548027038574 0.23851414024829865 0.28704151511192322
0.76810538768768311 0.23150642216205597 0.28337964415550232
0.89793223142623901 0.22129878401756287 0.27631771564483643
0.98650705814361572 0.20983235538005829 0.26043924689292908
1 0.19964350759983063 0.24842278659343719
0.99953228235244751 0.19421462714672089 0.24799531698226929
0.0038449305575340986 0.34994235634803772 0.28909865021705627
0.030894992873072624 0.35385280847549438 0.29102903604507446
0.083817258477210999 0.3567357063293457 0.28692051768302917
0.16161230206489563 0.35547181963920593 0.2772972583770752
0.26058351993560791 0.35115373134613037 0.26773545145988464
0.37352985143661499 0.34443280100822449 0.26026386022567749
0.49522411823272705 0.33741527795791626 0.25417417287826538
0.62614887952804565 0.3317248523235321 0.24630185961723328
0.76594918966293335 0.32516264915466309 0.23934300243854523
0.89881813526153564 0.31630879640579224 0.22945953905582428
0.98719125986099243 0.30628204345703125 0.21377600729465485
1 0.29643070697784424 0.19820240139961243
0.99906712770462036 0.2902025580406189 0.18921433389186859
0 0.46594706177711487 0.26379004120826721
0.0089277233928442001 0.47068342566490173 0.26134797930717468
0.04785488173365593 0.47372812032699585 0.25100228190422058
0.11651461571455002 0.47129151225090027 0.23913292586803436
0.21471165120601654 0.4641893208026886 0.22919796407222748
0.33307847380638123 0.45441445708274841 0.21718350052833557
0.46194726228713989 0.44433614611625671 0.20332963764667511
0.5977858304977417 0.43598258495330811 0.19128099083900452
0.74092501401901245 0.42832452058792114 0.18218742311000824
0.88006025552749634 0.41999012231826782 0.1718023419380188
0.98111641407012939 0.41074949502944946 0.16243581473827362
1 0.40111351013183594 0.14824898540973663
1 0.3940490186214447 0.1374264657497406
0 0.58817946910858154 0.22146306931972504
0.0014297335874289274 0.59475851058959961 0.2207150012254715
0.022125065326690674 0.59827035665512085 0.21158178150653839
0.076212942600250244 0.59493982791900635 0.2026699036359787
0.16607826948165894 0.58522647619247437 0.19380667805671692
0.28390240669250488 0.57199776172637939 0.17686724662780762
0.41720297932624817 0.55869525671005249 0.15313401818275452
0.55840623378753662 0.54685324430465698 0.13351410627365112
0.70402735471725464 0.5372922420501709 0.11953885108232498
0.84648352861404419 0.52816778421401978 0.1064690500497818
0.96334975957870483 0.51845341920852661 0.10081896185874939
1 0.50840139389038086 0.094491355121135712
1 0.5004231333732605 0.094128459692001343
0.00034052532282657921 0.71478772163391113 0.16857723891735077
0 0.72292333841323853 0.17267289757728577
0.0064121470786631107 0.72635459899902344 0.16824698448181152
0.0454392209649086 0.72160166501998901 0.16366280615329742
0.12431316077709198 0.70988470315933228 0.15632694959640503
0.23698985576629639 0.69420522451400757 0.13588114082813263
0.37144327163696289 0.67703217267990112 0.10511182993650436
0.51501810550689697 0.66208720207214355 0.08129303902387619
0.66070348024368286 0.65075790882110596 0.071731835603713989
0.80468952655792236 0.64040976762771606 0.065016455948352814
0.93397563695907593 0.62859964370727539 0.052792910486459732
